DSAA
234  134
 5.72000000000000E+0004   6.88500000000000E+0004
 7.78000000000000E+0004   8.44500000000000E+0004
-2.85827050781250E+0003  -2.79736303710938E+0003
  -2.85474194335938E+0003  -2.85503979492188E+0003  -2.85532250976563E+0003  -2.85559008789063E+0003  -2.85583349609375E+0003  -2.85605444335938E+0003  -2.85624194335938E+0003  -2.85639428710938E+0003  -2.85651684570313E+0003  -2.85661401367188E+0003  -2.85669091796875E+0003  -2.85675341796875E+0003  -2.85680419921875E+0003  -2.85684716796875E+0003  -2.85688330078125E+0003  -2.85691284179688E+0003  -2.85693920898438E+0003  -2.85696240234375E+0003  -2.85698046875000E+0003  -2.85699658203125E+0003  -2.85701074218750E+0003  -2.85702221679688E+0003  -2.85703247070313E+0003  -2.85704101562500E+0003  -2.85705151367188E+0003  -2.85706079101563E+0003  -2.85706933593750E+0003  -2.85707958984375E+0003  -2.85708935546875E+0003  -2.85710083007813E+0003  -2.85711181640625E+0003  -2.85712622070313E+0003  -2.85714233398438E+0003  -2.85715844726563E+0003  -2.85717578125000E+0003  -2.85719360351563E+0003  -2.85721264648438E+0003  -2.85723168945313E+0003  -2.85725048828125E+0003  -2.85727026367188E+0003  -2.85728955078125E+0003  -2.85730908203125E+0003  -2.85732763671875E+0003  -2.85734716796875E+0003  -2.85736767578125E+0003  -2.85738623046875E+0003  -2.85740478515625E+0003  -2.85742407226563E+0003  -2.85744189453125E+0003  -2.85745996093750E+0003  -2.85747705078125E+0003  -2.85749169921875E+0003  -2.85750805664063E+0003  -2.85752246093750E+0003  -2.85753491210938E+0003  -2.85754711914063E+0003  -2.85755737304688E+0003  -2.85756567382813E+0003  -2.85757373046875E+0003  -2.85758032226563E+0003  -2.85758349609375E+0003  -2.85758666992188E+0003  -2.85758666992188E+0003  -2.85758593750000E+0003  -2.85758374023438E+0003  -2.85757983398438E+0003  -2.85757397460938E+0003  -2.85756689453125E+0003  -2.85755761718750E+0003  -2.85754858398438E+0003  -2.85753759765625E+0003  -2.85752539062500E+0003  -2.85751293945313E+0003  -2.85750292968750E+0003  -2.85749121093750E+0003  -2.85747949218750E+0003  -2.85746826171875E+0003  -2.85745703125000E+0003  -2.85744897460938E+0003  -2.85744067382813E+0003  -2.85743188476563E+0003  -2.85742578125000E+0003  -2.85741967773438E+0003  -2.85741577148438E+0003  -2.85741162109375E+0003  -2.85740698242188E+0003  -2.85740185546875E+0003  -2.85739843750000E+0003  -2.85739501953125E+0003  -2.85739282226563E+0003  -2.85739282226563E+0003  -2.85739306640625E+0003  -2.85739648437500E+0003  -2.85739843750000E+0003  -2.85740283203125E+0003  -2.85740698242188E+0003  -2.85741308593750E+0003  -2.85741674804688E+0003  -2.85742187500000E+0003  -2.85742382812500E+0003  -2.85742968750000E+0003  -2.85742944335938E+0003  -2.85743164062500E+0003  -2.85743017578125E+0003  -2.85742797851563E+0003  -2.85742602539063E+0003  -2.85742578125000E+0003  -2.85742553710938E+0003  -2.85742480468750E+0003  -2.85742431640625E+0003  -2.85742724609375E+0003  -2.85742797851563E+0003  -2.85743041992188E+0003  -2.85743334960938E+0003  -2.85743652343750E+0003  -2.85743701171875E+0003  -2.85743652343750E+0003  -2.85743359375000E+0003  -2.85743212890625E+0003  -2.85743310546875E+0003  -2.85743408203125E+0003  -2.85743872070313E+0003  -2.85744604492188E+0003  -2.85745263671875E+0003  -2.85745629882813E+0003  -2.85745996093750E+0003  -2.85746142578125E+0003  -2.85746069335938E+0003  -2.85745849609375E+0003  -2.85745288085938E+0003  -2.85744482421875E+0003  -2.85743139648438E+0003  -2.85741308593750E+0003  -2.85738818359375E+0003  -2.85736010742188E+0003  -2.85732836914063E+0003  -2.85729296875000E+0003  -2.85725488281250E+0003  -2.85721459960938E+0003  -2.85717309570313E+0003  -2.85712792968750E+0003  -2.85708251953125E+0003  -2.85703686523438E+0003  -2.85698925781250E+0003  -2.85693896484375E+0003  -2.85688745117188E+0003  -2.85683642578125E+0003  -2.85678564453125E+0003  -2.85673461914063E+0003  -2.85668481445313E+0003  -2.85663769531250E+0003  -2.85658837890625E+0003  -2.85654223632813E+0003  -2.85649658203125E+0003  -2.85645336914063E+0003  -2.85640917968750E+0003  -2.85636694335938E+0003  -2.85632568359375E+0003  -2.85628637695313E+0003  -2.85624902343750E+0003  -2.85621362304688E+0003  -2.85617822265625E+0003  -2.85614648437500E+0003  -2.85611254882813E+0003  -2.85608422851563E+0003  -2.85605639648438E+0003  -2.85603002929688E+0003  -2.85600512695313E+0003  -2.85598168945313E+0003  -2.85596484375000E+0003  -2.85594897460938E+0003  -2.85593823242188E+0003  -2.85593457031250E+0003  -2.85593432617188E+0003  -2.85594238281250E+0003  -2.85595678710938E+0003  -2.85597509765625E+0003  -2.85599877929688E+0003  -2.85602661132813E+0003  -2.85606152343750E+0003  -2.85610107421875E+0003  -2.85614306640625E+0003  -2.85618701171875E+0003  -2.85623315429688E+0003  -2.85628491210938E+0003  -2.85630859375000E+0003  -2.85633349609375E+0003  -2.85636596679688E+0003  -2.85641040039063E+0003  -2.85646264648438E+0003  -2.85652343750000E+0003  -2.85658959960938E+0003  -2.85666333007813E+0003  -2.85674145507813E+0003  -2.85682495117188E+0003  -2.85689379882813E+0003  -2.85694653320313E+0003  -2.85700170898438E+0003  -2.85705395507813E+0003  -2.85710986328125E+0003  -2.85716357421875E+0003  -2.85721411132813E+0003  -2.85726928710938E+0003  -2.85732250976563E+0003  -2.85737304687500E+0003  -2.85742456054688E+0003  -2.85747216796875E+0003  -2.85751806640625E+0003  -2.85755810546875E+0003  -2.85758276367188E+0003  -2.85758715820313E+0003  -2.85757397460938E+0003  -2.85754663085938E+0003  -2.85751196289063E+0003  -2.85747583007813E+0003  -2.85743823242188E+0003  -2.85740039062500E+0003  -2.85736328125000E+0003  -2.85732763671875E+0003  -2.85729516601563E+0003  -2.85726171875000E+0003  -2.85722875976563E+0003  -2.85719604492188E+0003  -2.85716406250000E+0003  -2.85713256835938E+0003  -2.85710034179688E+0003  -2.85706567382813E+0003  -2.85702612304688E+0003  -2.85697216796875E+0003  -2.85689941406250E+0003  -2.85679980468750E+0003  -2.85666381835938E+0003  -2.85648022460938E+0003  -2.85624365234375E+0003
  -2.85479418945313E+0003  -2.85508300781250E+0003  -2.85535815429688E+0003  -2.85561499023438E+0003  -2.85585180664063E+0003  -2.85606665039063E+0003  -2.85625439453125E+0003  -2.85641235351563E+0003  -2.85654443359375E+0003  -2.85665429687500E+0003  -2.85674487304688E+0003  -2.85681933593750E+0003  -2.85688256835938E+0003  -2.85693505859375E+0003  -2.85698071289063E+0003  -2.85701879882813E+0003  -2.85705151367188E+0003  -2.85708032226563E+0003  -2.85710571289063E+0003  -2.85712207031250E+0003  -2.85714086914063E+0003  -2.85715698242188E+0003  -2.85717016601563E+0003  -2.85718041992188E+0003  -2.85719165039063E+0003  -2.85720166015625E+0003  -2.85721264648438E+0003  -2.85722216796875E+0003  -2.85723510742188E+0003  -2.85724584960938E+0003  -2.85725805664063E+0003  -2.85727319335938E+0003  -2.85729003906250E+0003  -2.85730688476563E+0003  -2.85732299804688E+0003  -2.85734277343750E+0003  -2.85736230468750E+0003  -2.85738232421875E+0003  -2.85740112304688E+0003  -2.85742211914063E+0003  -2.85744262695313E+0003  -2.85746191406250E+0003  -2.85748217773438E+0003  -2.85750146484375E+0003  -2.85752099609375E+0003  -2.85754101562500E+0003  -2.85756054687500E+0003  -2.85758032226563E+0003  -2.85759887695313E+0003  -2.85761572265625E+0003  -2.85763525390625E+0003  -2.85765161132813E+0003  -2.85766748046875E+0003  -2.85768237304688E+0003  -2.85769580078125E+0003  -2.85770874023438E+0003  -2.85771997070313E+0003  -2.85772998046875E+0003  -2.85773852539063E+0003  -2.85774487304688E+0003  -2.85774902343750E+0003  -2.85775219726563E+0003  -2.85775390625000E+0003  -2.85775122070313E+0003  -2.85774853515625E+0003  -2.85774316406250E+0003  -2.85773779296875E+0003  -2.85772924804688E+0003  -2.85771899414063E+0003  -2.85770849609375E+0003  -2.85769653320313E+0003  -2.85768261718750E+0003  -2.85766894531250E+0003  -2.85765502929688E+0003  -2.85764038085938E+0003  -2.85762719726563E+0003  -2.85761303710938E+0003  -2.85759765625000E+0003  -2.85758618164063E+0003  -2.85757299804688E+0003  -2.85756127929688E+0003  -2.85755151367188E+0003  -2.85754516601563E+0003  -2.85753588867188E+0003  -2.85752709960938E+0003  -2.85751831054688E+0003  -2.85750878906250E+0003  -2.85749755859375E+0003  -2.85748657226563E+0003  -2.85747509765625E+0003  -2.85746508789063E+0003  -2.85745605468750E+0003  -2.85744555664063E+0003  -2.85743579101563E+0003  -2.85742431640625E+0003  -2.85741455078125E+0003  -2.85740332031250E+0003  -2.85739575195313E+0003  -2.85738818359375E+0003  -2.85738061523438E+0003  -2.85737304687500E+0003  -2.85736425781250E+0003  -2.85735620117188E+0003  -2.85734619140625E+0003  -2.85733593750000E+0003  -2.85732714843750E+0003  -2.85732006835938E+0003  -2.85731176757813E+0003  -2.85730566406250E+0003  -2.85729687500000E+0003  -2.85729150390625E+0003  -2.85728686523438E+0003  -2.85728100585938E+0003  -2.85727539062500E+0003  -2.85727172851563E+0003  -2.85726782226563E+0003  -2.85725878906250E+0003  -2.85725317382813E+0003  -2.85724389648438E+0003  -2.85723681640625E+0003  -2.85723217773438E+0003  -2.85722705078125E+0003  -2.85722338867188E+0003  -2.85722045898438E+0003  -2.85721166992188E+0003  -2.85720361328125E+0003  -2.85718920898438E+0003  -2.85717480468750E+0003  -2.85715869140625E+0003  -2.85713696289063E+0003  -2.85711132812500E+0003  -2.85708203125000E+0003  -2.85704589843750E+0003  -2.85700708007813E+0003  -2.85696533203125E+0003  -2.85692163085938E+0003  -2.85687182617188E+0003  -2.85682739257813E+0003  -2.85677343750000E+0003  -2.85672534179688E+0003  -2.85667114257813E+0003  -2.85661865234375E+0003  -2.85656713867188E+0003  -2.85651245117188E+0003  -2.85645947265625E+0003  -2.85640844726563E+0003  -2.85635742187500E+0003  -2.85630834960938E+0003  -2.85626025390625E+0003  -2.85621484375000E+0003  -2.85617285156250E+0003  -2.85612939453125E+0003  -2.85608959960938E+0003  -2.85605419921875E+0003  -2.85601782226563E+0003  -2.85598413085938E+0003  -2.85594921875000E+0003  -2.85591552734375E+0003  -2.85588403320313E+0003  -2.85585327148438E+0003  -2.85582324218750E+0003  -2.85579418945313E+0003  -2.85576269531250E+0003  -2.85573486328125E+0003  -2.85570629882813E+0003  -2.85567700195313E+0003  -2.85564843750000E+0003  -2.85562133789063E+0003  -2.85559399414063E+0003  -2.85556640625000E+0003  -2.85554296875000E+0003  -2.85552221679688E+0003  -2.85550537109375E+0003  -2.85549267578125E+0003  -2.85548291015625E+0003  -2.85547729492188E+0003  -2.85547412109375E+0003  -2.85547583007813E+0003  -2.85548120117188E+0003  -2.85549340820313E+0003  -2.85551098632813E+0003  -2.85553002929688E+0003  -2.85555078125000E+0003  -2.85552807617188E+0003  -2.85549951171875E+0003  -2.85547998046875E+0003  -2.85547143554688E+0003  -2.85548144531250E+0003  -2.85550610351563E+0003  -2.85554589843750E+0003  -2.85559863281250E+0003  -2.85566601562500E+0003  -2.85574194335938E+0003  -2.85582934570313E+0003  -2.85592333984375E+0003  -2.85602856445313E+0003  -2.85613818359375E+0003  -2.85623364257813E+0003  -2.85630273437500E+0003  -2.85637622070313E+0003  -2.85644970703125E+0003  -2.85652465820313E+0003  -2.85660937500000E+0003  -2.85669628906250E+0003  -2.85679345703125E+0003  -2.85689135742188E+0003  -2.85697973632813E+0003  -2.85706982421875E+0003  -2.85715551757813E+0003  -2.85722045898438E+0003  -2.85726806640625E+0003  -2.85729321289063E+0003  -2.85730395507813E+0003  -2.85730371093750E+0003  -2.85729736328125E+0003  -2.85728735351563E+0003  -2.85726904296875E+0003  -2.85724877929688E+0003  -2.85722412109375E+0003  -2.85719580078125E+0003  -2.85716845703125E+0003  -2.85713793945313E+0003  -2.85710888671875E+0003  -2.85707934570313E+0003  -2.85704956054688E+0003  -2.85702075195313E+0003  -2.85699414062500E+0003  -2.85696411132813E+0003  -2.85692456054688E+0003  -2.85687133789063E+0003  -2.85679418945313E+0003  -2.85667724609375E+0003  -2.85650463867188E+0003  -2.85626831054688E+0003
  -2.85484277343750E+0003  -2.85512524414063E+0003  -2.85539208984375E+0003  -2.85564208984375E+0003  -2.85587548828125E+0003  -2.85608520507813E+0003  -2.85627197265625E+0003  -2.85643481445313E+0003  -2.85657373046875E+0003  -2.85669262695313E+0003  -2.85679394531250E+0003  -2.85688037109375E+0003  -2.85695263671875E+0003  -2.85701562500000E+0003  -2.85706835937500E+0003  -2.85711499023438E+0003  -2.85715429687500E+0003  -2.85718945312500E+0003  -2.85721801757813E+0003  -2.85724291992188E+0003  -2.85726293945313E+0003  -2.85728247070313E+0003  -2.85729687500000E+0003  -2.85731201171875E+0003  -2.85732543945313E+0003  -2.85733691406250E+0003  -2.85734838867188E+0003  -2.85735961914063E+0003  -2.85737402343750E+0003  -2.85738525390625E+0003  -2.85739892578125E+0003  -2.85741455078125E+0003  -2.85743115234375E+0003  -2.85744799804688E+0003  -2.85746655273438E+0003  -2.85748608398438E+0003  -2.85750415039063E+0003  -2.85752416992188E+0003  -2.85754443359375E+0003  -2.85756298828125E+0003  -2.85758251953125E+0003  -2.85760229492188E+0003  -2.85762280273438E+0003  -2.85764306640625E+0003  -2.85766259765625E+0003  -2.85768066406250E+0003  -2.85770068359375E+0003  -2.85772119140625E+0003  -2.85774072265625E+0003  -2.85775805664063E+0003  -2.85777563476563E+0003  -2.85779248046875E+0003  -2.85780810546875E+0003  -2.85782373046875E+0003  -2.85783935546875E+0003  -2.85785180664063E+0003  -2.85786108398438E+0003  -2.85787402343750E+0003  -2.85788208007813E+0003  -2.85788793945313E+0003  -2.85789404296875E+0003  -2.85789770507813E+0003  -2.85789843750000E+0003  -2.85789599609375E+0003  -2.85789257812500E+0003  -2.85788769531250E+0003  -2.85788012695313E+0003  -2.85787255859375E+0003  -2.85786157226563E+0003  -2.85784838867188E+0003  -2.85783593750000E+0003  -2.85782080078125E+0003  -2.85780566406250E+0003  -2.85778857421875E+0003  -2.85777246093750E+0003  -2.85775439453125E+0003  -2.85773803710938E+0003  -2.85771972656250E+0003  -2.85770166015625E+0003  -2.85768603515625E+0003  -2.85766967773438E+0003  -2.85765356445313E+0003  -2.85764086914063E+0003  -2.85762841796875E+0003  -2.85761254882813E+0003  -2.85759594726563E+0003  -2.85757690429688E+0003  -2.85755419921875E+0003  -2.85753051757813E+0003  -2.85750732421875E+0003  -2.85748266601563E+0003  -2.85745776367188E+0003  -2.85742895507813E+0003  -2.85739941406250E+0003  -2.85736865234375E+0003  -2.85733593750000E+0003  -2.85730468750000E+0003  -2.85727978515625E+0003  -2.85725781250000E+0003  -2.85723632812500E+0003  -2.85721679687500E+0003  -2.85719848632813E+0003  -2.85717846679688E+0003  -2.85716040039063E+0003  -2.85714184570313E+0003  -2.85712500000000E+0003  -2.85710888671875E+0003  -2.85709472656250E+0003  -2.85707958984375E+0003  -2.85706372070313E+0003  -2.85705029296875E+0003  -2.85703710937500E+0003  -2.85702368164063E+0003  -2.85700976562500E+0003  -2.85699584960938E+0003  -2.85698120117188E+0003  -2.85696728515625E+0003  -2.85695043945313E+0003  -2.85693383789063E+0003  -2.85691772460938E+0003  -2.85690063476563E+0003  -2.85688085937500E+0003  -2.85686132812500E+0003  -2.85684179687500E+0003  -2.85681738281250E+0003  -2.85679028320313E+0003  -2.85675537109375E+0003  -2.85672045898438E+0003  -2.85668408203125E+0003  -2.85664086914063E+0003  -2.85659204101563E+0003  -2.85654028320313E+0003  -2.85648706054688E+0003  -2.85641284179688E+0003  -2.85630541992188E+0003  -2.85621191406250E+0003  -2.85612060546875E+0003  -2.85605029296875E+0003  -2.85599218750000E+0003  -2.85595239257813E+0003  -2.85592285156250E+0003  -2.85590917968750E+0003  -2.85589160156250E+0003  -2.85583789062500E+0003  -2.85578271484375E+0003  -2.85573193359375E+0003  -2.85568505859375E+0003  -2.85564013671875E+0003  -2.85560058593750E+0003  -2.85556494140625E+0003  -2.85553027343750E+0003  -2.85550219726563E+0003  -2.85547534179688E+0003  -2.85545190429688E+0003  -2.85542944335938E+0003  -2.85540844726563E+0003  -2.85538867187500E+0003  -2.85536914062500E+0003  -2.85535107421875E+0003  -2.85533154296875E+0003  -2.85531152343750E+0003  -2.85529199218750E+0003  -2.85527075195313E+0003  -2.85524609375000E+0003  -2.85522045898438E+0003  -2.85519458007813E+0003  -2.85516699218750E+0003  -2.85513500976563E+0003  -2.85510327148438E+0003  -2.85507031250000E+0003  -2.85503857421875E+0003  -2.85500512695313E+0003  -2.85497265625000E+0003  -2.85494018554688E+0003  -2.85490869140625E+0003  -2.85487841796875E+0003  -2.85484912109375E+0003  -2.85481982421875E+0003  -2.85479614257813E+0003  -2.85477514648438E+0003  -2.85475854492188E+0003  -2.85473071289063E+0003  -2.85464428710938E+0003  -2.85455810546875E+0003  -2.85447680664063E+0003  -2.85440869140625E+0003  -2.85435815429688E+0003  -2.85433081054688E+0003  -2.85432495117188E+0003  -2.85434204101563E+0003  -2.85437939453125E+0003  -2.85443554687500E+0003  -2.85450878906250E+0003  -2.85459790039063E+0003  -2.85470117187500E+0003  -2.85481787109375E+0003  -2.85494531250000E+0003  -2.85508496093750E+0003  -2.85523291015625E+0003  -2.85532934570313E+0003  -2.85542822265625E+0003  -2.85553173828125E+0003  -2.85564672851563E+0003  -2.85577270507813E+0003  -2.85591455078125E+0003  -2.85606103515625E+0003  -2.85620507812500E+0003  -2.85635815429688E+0003  -2.85650488281250E+0003  -2.85662597656250E+0003  -2.85673315429688E+0003  -2.85681835937500E+0003  -2.85688159179688E+0003  -2.85693237304688E+0003  -2.85697143554688E+0003  -2.85699707031250E+0003  -2.85701196289063E+0003  -2.85701611328125E+0003  -2.85700927734375E+0003  -2.85699658203125E+0003  -2.85697973632813E+0003  -2.85696020507813E+0003  -2.85693823242188E+0003  -2.85691796875000E+0003  -2.85689575195313E+0003  -2.85687524414063E+0003  -2.85685522460938E+0003  -2.85683911132813E+0003  -2.85681689453125E+0003  -2.85678637695313E+0003  -2.85674365234375E+0003  -2.85665576171875E+0003  -2.85649121093750E+0003  -2.85625317382813E+0003
  -2.85488818359375E+0003  -2.85516430664063E+0003  -2.85542553710938E+0003  -2.85567211914063E+0003  -2.85589990234375E+0003  -2.85611035156250E+0003  -2.85629638671875E+0003  -2.85646069335938E+0003  -2.85660620117188E+0003  -2.85673217773438E+0003  -2.85684057617188E+0003  -2.85693481445313E+0003  -2.85701660156250E+0003  -2.85708813476563E+0003  -2.85714916992188E+0003  -2.85720190429688E+0003  -2.85724951171875E+0003  -2.85728881835938E+0003  -2.85732421875000E+0003  -2.85735351562500E+0003  -2.85737939453125E+0003  -2.85740136718750E+0003  -2.85742041015625E+0003  -2.85743701171875E+0003  -2.85745092773438E+0003  -2.85746582031250E+0003  -2.85747827148438E+0003  -2.85749072265625E+0003  -2.85750390625000E+0003  -2.85751708984375E+0003  -2.85753173828125E+0003  -2.85754687500000E+0003  -2.85756298828125E+0003  -2.85758032226563E+0003  -2.85759790039063E+0003  -2.85761669921875E+0003  -2.85763500976563E+0003  -2.85765380859375E+0003  -2.85767236328125E+0003  -2.85769287109375E+0003  -2.85771044921875E+0003  -2.85773022460938E+0003  -2.85774829101563E+0003  -2.85776806640625E+0003  -2.85778442382813E+0003  -2.85780395507813E+0003  -2.85782275390625E+0003  -2.85784179687500E+0003  -2.85785961914063E+0003  -2.85787719726563E+0003  -2.85789501953125E+0003  -2.85791113281250E+0003  -2.85792675781250E+0003  -2.85794091796875E+0003  -2.85795703125000E+0003  -2.85796875000000E+0003  -2.85798120117188E+0003  -2.85799072265625E+0003  -2.85799975585938E+0003  -2.85800610351563E+0003  -2.85801098632813E+0003  -2.85801367187500E+0003  -2.85801440429688E+0003  -2.85801342773438E+0003  -2.85801000976563E+0003  -2.85800341796875E+0003  -2.85799707031250E+0003  -2.85798730468750E+0003  -2.85797485351563E+0003  -2.85796118164063E+0003  -2.85794702148438E+0003  -2.85792968750000E+0003  -2.85791259765625E+0003  -2.85789599609375E+0003  -2.85787719726563E+0003  -2.85785791015625E+0003  -2.85783691406250E+0003  -2.85781494140625E+0003  -2.85779077148438E+0003  -2.85776586914063E+0003  -2.85774194335938E+0003  -2.85771899414063E+0003  -2.85769604492188E+0003  -2.85767260742188E+0003  -2.85764575195313E+0003  -2.85761596679688E+0003  -2.85757983398438E+0003  -2.85754272460938E+0003  -2.85750097656250E+0003  -2.85745922851563E+0003  -2.85741357421875E+0003  -2.85736645507813E+0003  -2.85731420898438E+0003  -2.85726049804688E+0003  -2.85720214843750E+0003  -2.85714379882813E+0003  -2.85708862304688E+0003  -2.85704638671875E+0003  -2.85701000976563E+0003  -2.85697729492188E+0003  -2.85694824218750E+0003  -2.85692016601563E+0003  -2.85689379882813E+0003  -2.85686791992188E+0003  -2.85684448242188E+0003  -2.85682055664063E+0003  -2.85680053710938E+0003  -2.85677758789063E+0003  -2.85675854492188E+0003  -2.85673608398438E+0003  -2.85671508789063E+0003  -2.85669213867188E+0003  -2.85667163085938E+0003  -2.85664819335938E+0003  -2.85662524414063E+0003  -2.85659985351563E+0003  -2.85657495117188E+0003  -2.85654711914063E+0003  -2.85651757812500E+0003  -2.85648583984375E+0003  -2.85645336914063E+0003  -2.85641601562500E+0003  -2.85637622070313E+0003  -2.85633349609375E+0003  -2.85628833007813E+0003  -2.85623559570313E+0003  -2.85617260742188E+0003  -2.85610864257813E+0003  -2.85604663085938E+0003  -2.85597729492188E+0003  -2.85590502929688E+0003  -2.85581372070313E+0003  -2.85566674804688E+0003  -2.85552392578125E+0003  -2.85538623046875E+0003  -2.85525976562500E+0003  -2.85515063476563E+0003  -2.85506347656250E+0003  -2.85499902343750E+0003  -2.85495947265625E+0003  -2.85493750000000E+0003  -2.85493164062500E+0003  -2.85494262695313E+0003  -2.85495800781250E+0003  -2.85495776367188E+0003  -2.85490576171875E+0003  -2.85486206054688E+0003  -2.85482446289063E+0003  -2.85479272460938E+0003  -2.85476782226563E+0003  -2.85474731445313E+0003  -2.85473046875000E+0003  -2.85472216796875E+0003  -2.85471728515625E+0003  -2.85471362304688E+0003  -2.85471289062500E+0003  -2.85471240234375E+0003  -2.85471313476563E+0003  -2.85471093750000E+0003  -2.85470825195313E+0003  -2.85470263671875E+0003  -2.85469287109375E+0003  -2.85468286132813E+0003  -2.85466723632813E+0003  -2.85464868164063E+0003  -2.85462744140625E+0003  -2.85459863281250E+0003  -2.85456616210938E+0003  -2.85453076171875E+0003  -2.85449072265625E+0003  -2.85444873046875E+0003  -2.85440087890625E+0003  -2.85435156250000E+0003  -2.85429711914063E+0003  -2.85424218750000E+0003  -2.85418359375000E+0003  -2.85412524414063E+0003  -2.85406372070313E+0003  -2.85400292968750E+0003  -2.85394433593750E+0003  -2.85387158203125E+0003  -2.85372631835938E+0003  -2.85357592773438E+0003  -2.85342675781250E+0003  -2.85328710937500E+0003  -2.85316040039063E+0003  -2.85305761718750E+0003  -2.85298583984375E+0003  -2.85294238281250E+0003  -2.85292919921875E+0003  -2.85294506835938E+0003  -2.85298754882813E+0003  -2.85305224609375E+0003  -2.85314086914063E+0003  -2.85325122070313E+0003  -2.85337573242188E+0003  -2.85351708984375E+0003  -2.85367871093750E+0003  -2.85385424804688E+0003  -2.85404492187500E+0003  -2.85417895507813E+0003  -2.85431054687500E+0003  -2.85445971679688E+0003  -2.85462377929688E+0003  -2.85480151367188E+0003  -2.85499267578125E+0003  -2.85519824218750E+0003  -2.85541479492188E+0003  -2.85562792968750E+0003  -2.85582788085938E+0003  -2.85600512695313E+0003  -2.85616235351563E+0003  -2.85629394531250E+0003  -2.85640893554688E+0003  -2.85650219726563E+0003  -2.85657885742188E+0003  -2.85663427734375E+0003  -2.85667553710938E+0003  -2.85669409179688E+0003  -2.85670312500000E+0003  -2.85670532226563E+0003  -2.85670214843750E+0003  -2.85669653320313E+0003  -2.85668945312500E+0003  -2.85668164062500E+0003  -2.85667333984375E+0003  -2.85666040039063E+0003  -2.85665551757813E+0003  -2.85664990234375E+0003  -2.85663696289063E+0003  -2.85663720703125E+0003  -2.85659448242188E+0003  -2.85643627929688E+0003  -2.85618920898438E+0003
  -2.85493164062500E+0003  -2.85520214843750E+0003  -2.85545874023438E+0003  -2.85570190429688E+0003  -2.85592651367188E+0003  -2.85613354492188E+0003  -2.85632250976563E+0003  -2.85648950195313E+0003  -2.85663818359375E+0003  -2.85677001953125E+0003  -2.85688623046875E+0003  -2.85698754882813E+0003  -2.85707714843750E+0003  -2.85715527343750E+0003  -2.85722412109375E+0003  -2.85728564453125E+0003  -2.85733764648438E+0003  -2.85738427734375E+0003  -2.85742407226563E+0003  -2.85745825195313E+0003  -2.85748681640625E+0003  -2.85751196289063E+0003  -2.85753442382813E+0003  -2.85755346679688E+0003  -2.85757104492188E+0003  -2.85758715820313E+0003  -2.85760083007813E+0003  -2.85761474609375E+0003  -2.85762817382813E+0003  -2.85764184570313E+0003  -2.85765380859375E+0003  -2.85766967773438E+0003  -2.85768457031250E+0003  -2.85770117187500E+0003  -2.85771777343750E+0003  -2.85773535156250E+0003  -2.85775268554688E+0003  -2.85776904296875E+0003  -2.85778710937500E+0003  -2.85780322265625E+0003  -2.85781982421875E+0003  -2.85783666992188E+0003  -2.85785522460938E+0003  -2.85787084960938E+0003  -2.85788818359375E+0003  -2.85790502929688E+0003  -2.85792285156250E+0003  -2.85793945312500E+0003  -2.85795581054688E+0003  -2.85797290039063E+0003  -2.85798925781250E+0003  -2.85800610351563E+0003  -2.85801879882813E+0003  -2.85803295898438E+0003  -2.85804565429688E+0003  -2.85805834960938E+0003  -2.85806958007813E+0003  -2.85807763671875E+0003  -2.85808618164063E+0003  -2.85809130859375E+0003  -2.85809521484375E+0003  -2.85809667968750E+0003  -2.85809667968750E+0003  -2.85809252929688E+0003  -2.85808862304688E+0003  -2.85808325195313E+0003  -2.85807373046875E+0003  -2.85806298828125E+0003  -2.85805151367188E+0003  -2.85803662109375E+0003  -2.85802075195313E+0003  -2.85800341796875E+0003  -2.85798559570313E+0003  -2.85796606445313E+0003  -2.85794653320313E+0003  -2.85792431640625E+0003  -2.85790014648438E+0003  -2.85787158203125E+0003  -2.85783886718750E+0003  -2.85780151367188E+0003  -2.85776464843750E+0003  -2.85772583007813E+0003  -2.85768823242188E+0003  -2.85764819335938E+0003  -2.85760083007813E+0003  -2.85754809570313E+0003  -2.85749194335938E+0003  -2.85743041992188E+0003  -2.85736596679688E+0003  -2.85729858398438E+0003  -2.85722607421875E+0003  -2.85715307617188E+0003  -2.85707348632813E+0003  -2.85699243164063E+0003  -2.85690795898438E+0003  -2.85682788085938E+0003  -2.85675415039063E+0003  -2.85669555664063E+0003  -2.85664794921875E+0003  -2.85660595703125E+0003  -2.85656811523438E+0003  -2.85653540039063E+0003  -2.85650122070313E+0003  -2.85647143554688E+0003  -2.85644580078125E+0003  -2.85641455078125E+0003  -2.85639086914063E+0003  -2.85636401367188E+0003  -2.85634106445313E+0003  -2.85631396484375E+0003  -2.85628686523438E+0003  -2.85625756835938E+0003  -2.85622900390625E+0003  -2.85619702148438E+0003  -2.85616503906250E+0003  -2.85613061523438E+0003  -2.85609228515625E+0003  -2.85604785156250E+0003  -2.85600073242188E+0003  -2.85594946289063E+0003  -2.85589575195313E+0003  -2.85583447265625E+0003  -2.85577099609375E+0003  -2.85569921875000E+0003  -2.85562158203125E+0003  -2.85553662109375E+0003  -2.85544335937500E+0003  -2.85534912109375E+0003  -2.85525537109375E+0003  -2.85515966796875E+0003  -2.85501782226563E+0003  -2.85483007812500E+0003  -2.85464355468750E+0003  -2.85446069335938E+0003  -2.85428979492188E+0003  -2.85413720703125E+0003  -2.85400781250000E+0003  -2.85390966796875E+0003  -2.85384545898438E+0003  -2.85380957031250E+0003  -2.85380322265625E+0003  -2.85381494140625E+0003  -2.85384472656250E+0003  -2.85388549804688E+0003  -2.85392993164063E+0003  -2.85397070312500E+0003  -2.85393017578125E+0003  -2.85389697265625E+0003  -2.85387329101563E+0003  -2.85385815429688E+0003  -2.85385156250000E+0003  -2.85385229492188E+0003  -2.85386230468750E+0003  -2.85388012695313E+0003  -2.85390185546875E+0003  -2.85392309570313E+0003  -2.85394677734375E+0003  -2.85396655273438E+0003  -2.85398510742188E+0003  -2.85399975585938E+0003  -2.85401074218750E+0003  -2.85401562500000E+0003  -2.85401464843750E+0003  -2.85401025390625E+0003  -2.85399926757813E+0003  -2.85398022460938E+0003  -2.85395312500000E+0003  -2.85392163085938E+0003  -2.85388281250000E+0003  -2.85383593750000E+0003  -2.85378320312500E+0003  -2.85372314453125E+0003  -2.85365551757813E+0003  -2.85358227539063E+0003  -2.85350341796875E+0003  -2.85341748046875E+0003  -2.85332690429688E+0003  -2.85323339843750E+0003  -2.85313452148438E+0003  -2.85303222656250E+0003  -2.85284130859375E+0003  -2.85262915039063E+0003  -2.85241162109375E+0003  -2.85219458007813E+0003  -2.85198681640625E+0003  -2.85179956054688E+0003  -2.85164038085938E+0003  -2.85151806640625E+0003  -2.85143579101563E+0003  -2.85138867187500E+0003  -2.85138085937500E+0003  -2.85140795898438E+0003  -2.85146826171875E+0003  -2.85155200195313E+0003  -2.85166577148438E+0003  -2.85179663085938E+0003  -2.85194824218750E+0003  -2.85212426757813E+0003  -2.85232080078125E+0003  -2.85253613281250E+0003  -2.85275390625000E+0003  -2.85291040039063E+0003  -2.85308642578125E+0003  -2.85328393554688E+0003  -2.85349877929688E+0003  -2.85373632812500E+0003  -2.85399755859375E+0003  -2.85427539062500E+0003  -2.85455810546875E+0003  -2.85483178710938E+0003  -2.85508740234375E+0003  -2.85531762695313E+0003  -2.85552563476563E+0003  -2.85570996093750E+0003  -2.85587231445313E+0003  -2.85601000976563E+0003  -2.85612207031250E+0003  -2.85621435546875E+0003  -2.85627539062500E+0003  -2.85632104492188E+0003  -2.85635498046875E+0003  -2.85638134765625E+0003  -2.85639648437500E+0003  -2.85641162109375E+0003  -2.85642309570313E+0003  -2.85643066406250E+0003  -2.85642993164063E+0003  -2.85643701171875E+0003  -2.85644335937500E+0003  -2.85643945312500E+0003  -2.85646630859375E+0003  -2.85645361328125E+0003  -2.85630224609375E+0003  -2.85605273437500E+0003
  -2.85497412109375E+0003  -2.85524218750000E+0003  -2.85549511718750E+0003  -2.85573242187500E+0003  -2.85595410156250E+0003  -2.85615917968750E+0003  -2.85634814453125E+0003  -2.85651855468750E+0003  -2.85667114257813E+0003  -2.85680957031250E+0003  -2.85693090820313E+0003  -2.85704028320313E+0003  -2.85713671875000E+0003  -2.85722021484375E+0003  -2.85729711914063E+0003  -2.85736401367188E+0003  -2.85742065429688E+0003  -2.85747338867188E+0003  -2.85751757812500E+0003  -2.85755590820313E+0003  -2.85759008789063E+0003  -2.85761767578125E+0003  -2.85764208984375E+0003  -2.85766503906250E+0003  -2.85768237304688E+0003  -2.85769848632813E+0003  -2.85771557617188E+0003  -2.85772827148438E+0003  -2.85774096679688E+0003  -2.85775341796875E+0003  -2.85776586914063E+0003  -2.85777880859375E+0003  -2.85779272460938E+0003  -2.85780786132813E+0003  -2.85782202148438E+0003  -2.85783569335938E+0003  -2.85785278320313E+0003  -2.85786621093750E+0003  -2.85788159179688E+0003  -2.85789575195313E+0003  -2.85790893554688E+0003  -2.85792358398438E+0003  -2.85793725585938E+0003  -2.85795141601563E+0003  -2.85796704101563E+0003  -2.85798217773438E+0003  -2.85799536132813E+0003  -2.85801074218750E+0003  -2.85802612304688E+0003  -2.85803930664063E+0003  -2.85805297851563E+0003  -2.85806762695313E+0003  -2.85808032226563E+0003  -2.85809179687500E+0003  -2.85810229492188E+0003  -2.85811254882813E+0003  -2.85812207031250E+0003  -2.85812939453125E+0003  -2.85813598632813E+0003  -2.85813818359375E+0003  -2.85813940429688E+0003  -2.85814013671875E+0003  -2.85813671875000E+0003  -2.85813085937500E+0003  -2.85812353515625E+0003  -2.85811572265625E+0003  -2.85810522460938E+0003  -2.85809399414063E+0003  -2.85808032226563E+0003  -2.85806347656250E+0003  -2.85804638671875E+0003  -2.85802807617188E+0003  -2.85800952148438E+0003  -2.85798925781250E+0003  -2.85796508789063E+0003  -2.85793994140625E+0003  -2.85791088867188E+0003  -2.85787207031250E+0003  -2.85782641601563E+0003  -2.85777441406250E+0003  -2.85771679687500E+0003  -2.85765502929688E+0003  -2.85759130859375E+0003  -2.85752368164063E+0003  -2.85744921875000E+0003  -2.85736669921875E+0003  -2.85728002929688E+0003  -2.85719018554688E+0003  -2.85709887695313E+0003  -2.85700097656250E+0003  -2.85689843750000E+0003  -2.85679418945313E+0003  -2.85668652343750E+0003  -2.85657836914063E+0003  -2.85647241210938E+0003  -2.85637426757813E+0003  -2.85629052734375E+0003  -2.85622192382813E+0003  -2.85616406250000E+0003  -2.85611791992188E+0003  -2.85607592773438E+0003  -2.85603881835938E+0003  -2.85600439453125E+0003  -2.85597290039063E+0003  -2.85594262695313E+0003  -2.85591503906250E+0003  -2.85588916015625E+0003  -2.85586279296875E+0003  -2.85583715820313E+0003  -2.85581054687500E+0003  -2.85578100585938E+0003  -2.85574829101563E+0003  -2.85571533203125E+0003  -2.85567797851563E+0003  -2.85563549804688E+0003  -2.85558984375000E+0003  -2.85553637695313E+0003  -2.85547412109375E+0003  -2.85540136718750E+0003  -2.85532690429688E+0003  -2.85524365234375E+0003  -2.85515600585938E+0003  -2.85505786132813E+0003  -2.85495263671875E+0003  -2.85483496093750E+0003  -2.85471069335938E+0003  -2.85458129882813E+0003  -2.85444970703125E+0003  -2.85432153320313E+0003  -2.85415063476563E+0003  -2.85392163085938E+0003  -2.85368750000000E+0003  -2.85345507812500E+0003  -2.85323486328125E+0003  -2.85303125000000E+0003  -2.85285278320313E+0003  -2.85270825195313E+0003  -2.85260449218750E+0003  -2.85254492187500E+0003  -2.85252709960938E+0003  -2.85254101562500E+0003  -2.85258056640625E+0003  -2.85263842773438E+0003  -2.85270971679688E+0003  -2.85278393554688E+0003  -2.85286108398438E+0003  -2.85291113281250E+0003  -2.85288427734375E+0003  -2.85286694335938E+0003  -2.85285986328125E+0003  -2.85286596679688E+0003  -2.85288623046875E+0003  -2.85291796875000E+0003  -2.85295800781250E+0003  -2.85300463867188E+0003  -2.85305297851563E+0003  -2.85309985351563E+0003  -2.85314575195313E+0003  -2.85318579101563E+0003  -2.85321923828125E+0003  -2.85324487304688E+0003  -2.85326342773438E+0003  -2.85327514648438E+0003  -2.85327978515625E+0003  -2.85327563476563E+0003  -2.85326171875000E+0003  -2.85323974609375E+0003  -2.85320874023438E+0003  -2.85316699218750E+0003  -2.85311596679688E+0003  -2.85305371093750E+0003  -2.85298291015625E+0003  -2.85290014648438E+0003  -2.85280737304688E+0003  -2.85270605468750E+0003  -2.85259643554688E+0003  -2.85247607421875E+0003  -2.85234912109375E+0003  -2.85221215820313E+0003  -2.85202026367188E+0003  -2.85175854492188E+0003  -2.85147949218750E+0003  -2.85119433593750E+0003  -2.85090869140625E+0003  -2.85063769531250E+0003  -2.85038623046875E+0003  -2.85016796875000E+0003  -2.84999438476563E+0003  -2.84986987304688E+0003  -2.84979248046875E+0003  -2.84976489257813E+0003  -2.84977978515625E+0003  -2.84983398437500E+0003  -2.84992016601563E+0003  -2.85003369140625E+0003  -2.85017089843750E+0003  -2.85032934570313E+0003  -2.85051293945313E+0003  -2.85071508789063E+0003  -2.85093725585938E+0003  -2.85117578125000E+0003  -2.85133886718750E+0003  -2.85145166015625E+0003  -2.85164331054688E+0003  -2.85190966796875E+0003  -2.85224316406250E+0003  -2.85263110351563E+0003  -2.85296557617188E+0003  -2.85331079101563E+0003  -2.85365600585938E+0003  -2.85398754882813E+0003  -2.85429931640625E+0003  -2.85458837890625E+0003  -2.85485498046875E+0003  -2.85509667968750E+0003  -2.85530932617188E+0003  -2.85549072265625E+0003  -2.85564477539063E+0003  -2.85576733398438E+0003  -2.85586328125000E+0003  -2.85593847656250E+0003  -2.85599975585938E+0003  -2.85604956054688E+0003  -2.85609106445313E+0003  -2.85612329101563E+0003  -2.85614965820313E+0003  -2.85617065429688E+0003  -2.85619213867188E+0003  -2.85620996093750E+0003  -2.85622070312500E+0003  -2.85623095703125E+0003  -2.85619506835938E+0003  -2.85605273437500E+0003  -2.85582543945313E+0003
  -2.85501904296875E+0003  -2.85528173828125E+0003  -2.85552978515625E+0003  -2.85576611328125E+0003  -2.85598583984375E+0003  -2.85619067382813E+0003  -2.85637988281250E+0003  -2.85655175781250E+0003  -2.85670825195313E+0003  -2.85685034179688E+0003  -2.85697705078125E+0003  -2.85709179687500E+0003  -2.85719506835938E+0003  -2.85728466796875E+0003  -2.85736791992188E+0003  -2.85744018554688E+0003  -2.85750366210938E+0003  -2.85756005859375E+0003  -2.85760888671875E+0003  -2.85765063476563E+0003  -2.85768701171875E+0003  -2.85771899414063E+0003  -2.85774487304688E+0003  -2.85776831054688E+0003  -2.85778735351563E+0003  -2.85780371093750E+0003  -2.85781689453125E+0003  -2.85783105468750E+0003  -2.85784375000000E+0003  -2.85785473632813E+0003  -2.85786547851563E+0003  -2.85787548828125E+0003  -2.85788720703125E+0003  -2.85789892578125E+0003  -2.85791015625000E+0003  -2.85792236328125E+0003  -2.85793481445313E+0003  -2.85794482421875E+0003  -2.85795581054688E+0003  -2.85796704101563E+0003  -2.85797729492188E+0003  -2.85798803710938E+0003  -2.85799707031250E+0003  -2.85800927734375E+0003  -2.85801977539063E+0003  -2.85803051757813E+0003  -2.85804321289063E+0003  -2.85805200195313E+0003  -2.85806445312500E+0003  -2.85807519531250E+0003  -2.85808666992188E+0003  -2.85809814453125E+0003  -2.85810571289063E+0003  -2.85811523437500E+0003  -2.85812255859375E+0003  -2.85812988281250E+0003  -2.85813647460938E+0003  -2.85814062500000E+0003  -2.85814208984375E+0003  -2.85814257812500E+0003  -2.85814135742188E+0003  -2.85813549804688E+0003  -2.85812939453125E+0003  -2.85811938476563E+0003  -2.85810913085938E+0003  -2.85809521484375E+0003  -2.85808129882813E+0003  -2.85806787109375E+0003  -2.85805151367188E+0003  -2.85803247070313E+0003  -2.85801123046875E+0003  -2.85798803710938E+0003  -2.85796215820313E+0003  -2.85793579101563E+0003  -2.85790698242188E+0003  -2.85787402343750E+0003  -2.85783081054688E+0003  -2.85777685546875E+0003  -2.85771020507813E+0003  -2.85763330078125E+0003  -2.85754907226563E+0003  -2.85746142578125E+0003  -2.85736694335938E+0003  -2.85726586914063E+0003  -2.85715966796875E+0003  -2.85704345703125E+0003  -2.85692211914063E+0003  -2.85680151367188E+0003  -2.85667431640625E+0003  -2.85654467773438E+0003  -2.85640722656250E+0003  -2.85627246093750E+0003  -2.85613964843750E+0003  -2.85600976562500E+0003  -2.85588745117188E+0003  -2.85578002929688E+0003  -2.85568872070313E+0003  -2.85561669921875E+0003  -2.85555834960938E+0003  -2.85551171875000E+0003  -2.85547070312500E+0003  -2.85543725585938E+0003  -2.85540478515625E+0003  -2.85537744140625E+0003  -2.85535253906250E+0003  -2.85532910156250E+0003  -2.85530883789063E+0003  -2.85528466796875E+0003  -2.85526074218750E+0003  -2.85523657226563E+0003  -2.85520898437500E+0003  -2.85517651367188E+0003  -2.85514038085938E+0003  -2.85509643554688E+0003  -2.85504687500000E+0003  -2.85498730468750E+0003  -2.85491796875000E+0003  -2.85483496093750E+0003  -2.85474072265625E+0003  -2.85463549804688E+0003  -2.85452001953125E+0003  -2.85439453125000E+0003  -2.85425683593750E+0003  -2.85410888671875E+0003  -2.85394848632813E+0003  -2.85378002929688E+0003  -2.85360717773438E+0003  -2.85343627929688E+0003  -2.85325268554688E+0003  -2.85298168945313E+0003  -2.85269848632813E+0003  -2.85241430664063E+0003  -2.85213842773438E+0003  -2.85187500000000E+0003  -2.85163696289063E+0003  -2.85143212890625E+0003  -2.85127148437500E+0003  -2.85116406250000E+0003  -2.85111425781250E+0003  -2.85111694335938E+0003  -2.85115795898438E+0003  -2.85122705078125E+0003  -2.85131958007813E+0003  -2.85142260742188E+0003  -2.85153173828125E+0003  -2.85163793945313E+0003  -2.85173608398438E+0003  -2.85177075195313E+0003  -2.85175708007813E+0003  -2.85175805664063E+0003  -2.85177856445313E+0003  -2.85181665039063E+0003  -2.85187548828125E+0003  -2.85194604492188E+0003  -2.85202172851563E+0003  -2.85209863281250E+0003  -2.85217431640625E+0003  -2.85224511718750E+0003  -2.85230859375000E+0003  -2.85236425781250E+0003  -2.85240942382813E+0003  -2.85244384765625E+0003  -2.85246801757813E+0003  -2.85248168945313E+0003  -2.85248559570313E+0003  -2.85247973632813E+0003  -2.85246044921875E+0003  -2.85243164062500E+0003  -2.85239013671875E+0003  -2.85233569335938E+0003  -2.85226806640625E+0003  -2.85218627929688E+0003  -2.85209106445313E+0003  -2.85198071289063E+0003  -2.85185937500000E+0003  -2.85172558593750E+0003  -2.85157861328125E+0003  -2.85141870117188E+0003  -2.85124829101563E+0003  -2.85096215820313E+0003  -2.85064160156250E+0003  -2.85030444335938E+0003  -2.84995605468750E+0003  -2.84961059570313E+0003  -2.84927612304688E+0003  -2.84896264648438E+0003  -2.84868750000000E+0003  -2.84846533203125E+0003  -2.84830029296875E+0003  -2.84819921875000E+0003  -2.84815698242188E+0003  -2.84816479492188E+0003  -2.84821997070313E+0003  -2.84831225585938E+0003  -2.84843310546875E+0003  -2.84857299804688E+0003  -2.84874023437500E+0003  -2.84892529296875E+0003  -2.84912768554688E+0003  -2.84934692382813E+0003  -2.84954907226563E+0003  -2.84966308593750E+0003  -2.84976806640625E+0003  -2.84996948242188E+0003  -2.85026245117188E+0003  -2.85063696289063E+0003  -2.85107812500000E+0003  -2.85156884765625E+0003  -2.85196508789063E+0003  -2.85236743164063E+0003  -2.85276440429688E+0003  -2.85314965820313E+0003  -2.85351953125000E+0003  -2.85386889648438E+0003  -2.85419238281250E+0003  -2.85448632812500E+0003  -2.85474780273438E+0003  -2.85497705078125E+0003  -2.85516870117188E+0003  -2.85532446289063E+0003  -2.85545190429688E+0003  -2.85555615234375E+0003  -2.85564331054688E+0003  -2.85571679687500E+0003  -2.85577465820313E+0003  -2.85582373046875E+0003  -2.85586743164063E+0003  -2.85590502929688E+0003  -2.85593090820313E+0003  -2.85593920898438E+0003  -2.85592724609375E+0003  -2.85586816406250E+0003  -2.85573486328125E+0003  -2.85553027343750E+0003
  -2.85506738281250E+0003  -2.85532495117188E+0003  -2.85557153320313E+0003  -2.85580371093750E+0003  -2.85602246093750E+0003  -2.85622534179688E+0003  -2.85641650390625E+0003  -2.85658911132813E+0003  -2.85674975585938E+0003  -2.85689599609375E+0003  -2.85702612304688E+0003  -2.85714599609375E+0003  -2.85725463867188E+0003  -2.85735229492188E+0003  -2.85743823242188E+0003  -2.85751464843750E+0003  -2.85758447265625E+0003  -2.85764282226563E+0003  -2.85769580078125E+0003  -2.85774096679688E+0003  -2.85777832031250E+0003  -2.85781152343750E+0003  -2.85784008789063E+0003  -2.85786401367188E+0003  -2.85788452148438E+0003  -2.85790087890625E+0003  -2.85791406250000E+0003  -2.85792431640625E+0003  -2.85793505859375E+0003  -2.85794409179688E+0003  -2.85795092773438E+0003  -2.85795922851563E+0003  -2.85796655273438E+0003  -2.85797460937500E+0003  -2.85798217773438E+0003  -2.85798852539063E+0003  -2.85799658203125E+0003  -2.85800292968750E+0003  -2.85800903320313E+0003  -2.85801489257813E+0003  -2.85802050781250E+0003  -2.85802709960938E+0003  -2.85803173828125E+0003  -2.85803808593750E+0003  -2.85804467773438E+0003  -2.85805078125000E+0003  -2.85805786132813E+0003  -2.85806518554688E+0003  -2.85807153320313E+0003  -2.85807836914063E+0003  -2.85808496093750E+0003  -2.85809130859375E+0003  -2.85809716796875E+0003  -2.85810229492188E+0003  -2.85810400390625E+0003  -2.85810766601563E+0003  -2.85810693359375E+0003  -2.85810717773438E+0003  -2.85810278320313E+0003  -2.85809838867188E+0003  -2.85809106445313E+0003  -2.85808154296875E+0003  -2.85806762695313E+0003  -2.85805297851563E+0003  -2.85803491210938E+0003  -2.85801684570313E+0003  -2.85799731445313E+0003  -2.85797631835938E+0003  -2.85795214843750E+0003  -2.85792407226563E+0003  -2.85789355468750E+0003  -2.85785986328125E+0003  -2.85782446289063E+0003  -2.85778466796875E+0003  -2.85774145507813E+0003  -2.85768945312500E+0003  -2.85762475585938E+0003  -2.85754516601563E+0003  -2.85744848632813E+0003  -2.85734155273438E+0003  -2.85722485351563E+0003  -2.85710302734375E+0003  -2.85697338867188E+0003  -2.85683715820313E+0003  -2.85669653320313E+0003  -2.85654565429688E+0003  -2.85639086914063E+0003  -2.85623364257813E+0003  -2.85606860351563E+0003  -2.85590234375000E+0003  -2.85573388671875E+0003  -2.85557128906250E+0003  -2.85541870117188E+0003  -2.85527612304688E+0003  -2.85514672851563E+0003  -2.85503662109375E+0003  -2.85495068359375E+0003  -2.85488037109375E+0003  -2.85482885742188E+0003  -2.85478955078125E+0003  -2.85475756835938E+0003  -2.85473095703125E+0003  -2.85470996093750E+0003  -2.85469360351563E+0003  -2.85467944335938E+0003  -2.85466455078125E+0003  -2.85465161132813E+0003  -2.85463842773438E+0003  -2.85462182617188E+0003  -2.85460327148438E+0003  -2.85457934570313E+0003  -2.85454907226563E+0003  -2.85451269531250E+0003  -2.85446630859375E+0003  -2.85441015625000E+0003  -2.85433935546875E+0003  -2.85425488281250E+0003  -2.85415234375000E+0003  -2.85403393554688E+0003  -2.85389648437500E+0003  -2.85374438476563E+0003  -2.85357690429688E+0003  -2.85339477539063E+0003  -2.85319750976563E+0003  -2.85298779296875E+0003  -2.85276977539063E+0003  -2.85254956054688E+0003  -2.85233666992188E+0003  -2.85204785156250E+0003  -2.85172290039063E+0003  -2.85138867187500E+0003  -2.85105444335938E+0003  -2.85072949218750E+0003  -2.85042333984375E+0003  -2.85014257812500E+0003  -2.84990600585938E+0003  -2.84972338867188E+0003  -2.84960742187500E+0003  -2.84956152343750E+0003  -2.84958276367188E+0003  -2.84965161132813E+0003  -2.84975439453125E+0003  -2.84987890625000E+0003  -2.85001489257813E+0003  -2.85015576171875E+0003  -2.85029223632813E+0003  -2.85041992187500E+0003  -2.85052636718750E+0003  -2.85052099609375E+0003  -2.85052832031250E+0003  -2.85056372070313E+0003  -2.85062573242188E+0003  -2.85071655273438E+0003  -2.85082495117188E+0003  -2.85093872070313E+0003  -2.85105200195313E+0003  -2.85116015625000E+0003  -2.85126074218750E+0003  -2.85135473632813E+0003  -2.85143286132813E+0003  -2.85150024414063E+0003  -2.85155517578125E+0003  -2.85159472656250E+0003  -2.85162207031250E+0003  -2.85163671875000E+0003  -2.85163769531250E+0003  -2.85162451171875E+0003  -2.85159887695313E+0003  -2.85155566406250E+0003  -2.85150073242188E+0003  -2.85142700195313E+0003  -2.85133789062500E+0003  -2.85123266601563E+0003  -2.85110913085938E+0003  -2.85097045898438E+0003  -2.85081445312500E+0003  -2.85064111328125E+0003  -2.85045288085938E+0003  -2.85021459960938E+0003  -2.84987719726563E+0003  -2.84950830078125E+0003  -2.84911987304688E+0003  -2.84872167968750E+0003  -2.84832348632813E+0003  -2.84793701171875E+0003  -2.84757153320313E+0003  -2.84724365234375E+0003  -2.84697607421875E+0003  -2.84677587890625E+0003  -2.84665917968750E+0003  -2.84661206054688E+0003  -2.84662548828125E+0003  -2.84669335937500E+0003  -2.84679614257813E+0003  -2.84692578125000E+0003  -2.84707836914063E+0003  -2.84725244140625E+0003  -2.84744311523438E+0003  -2.84764526367188E+0003  -2.84786010742188E+0003  -2.84796606445313E+0003  -2.84805834960938E+0003  -2.84817968750000E+0003  -2.84837768554688E+0003  -2.84868798828125E+0003  -2.84909277343750E+0003  -2.84956958007813E+0003  -2.85009912109375E+0003  -2.85060571289063E+0003  -2.85104541015625E+0003  -2.85148876953125E+0003  -2.85192968750000E+0003  -2.85236401367188E+0003  -2.85278417968750E+0003  -2.85318359375000E+0003  -2.85355615234375E+0003  -2.85389965820313E+0003  -2.85420458984375E+0003  -2.85446655273438E+0003  -2.85468676757813E+0003  -2.85487255859375E+0003  -2.85502709960938E+0003  -2.85515917968750E+0003  -2.85526757812500E+0003  -2.85535888671875E+0003  -2.85543505859375E+0003  -2.85550000000000E+0003  -2.85555151367188E+0003  -2.85558374023438E+0003  -2.85559033203125E+0003  -2.85556640625000E+0003  -2.85549804687500E+0003  -2.85537084960938E+0003  -2.85518261718750E+0003
  -2.85511743164063E+0003  -2.85537353515625E+0003  -2.85561718750000E+0003  -2.85584814453125E+0003  -2.85606713867188E+0003  -2.85627001953125E+0003  -2.85645971679688E+0003  -2.85663598632813E+0003  -2.85679687500000E+0003  -2.85694677734375E+0003  -2.85708178710938E+0003  -2.85720629882813E+0003  -2.85731787109375E+0003  -2.85741967773438E+0003  -2.85751049804688E+0003  -2.85759204101563E+0003  -2.85766186523438E+0003  -2.85772460937500E+0003  -2.85777905273438E+0003  -2.85782592773438E+0003  -2.85786791992188E+0003  -2.85790234375000E+0003  -2.85792944335938E+0003  -2.85795239257813E+0003  -2.85797167968750E+0003  -2.85798681640625E+0003  -2.85799951171875E+0003  -2.85800781250000E+0003  -2.85801367187500E+0003  -2.85801953125000E+0003  -2.85802368164063E+0003  -2.85802783203125E+0003  -2.85803198242188E+0003  -2.85803198242188E+0003  -2.85803540039063E+0003  -2.85803442382813E+0003  -2.85803662109375E+0003  -2.85803710937500E+0003  -2.85803833007813E+0003  -2.85803784179688E+0003  -2.85803784179688E+0003  -2.85803808593750E+0003  -2.85803808593750E+0003  -2.85803735351563E+0003  -2.85803735351563E+0003  -2.85803881835938E+0003  -2.85804101562500E+0003  -2.85804199218750E+0003  -2.85804296875000E+0003  -2.85804541015625E+0003  -2.85804589843750E+0003  -2.85804760742188E+0003  -2.85804638671875E+0003  -2.85804418945313E+0003  -2.85804150390625E+0003  -2.85803833007813E+0003  -2.85803271484375E+0003  -2.85802490234375E+0003  -2.85801367187500E+0003  -2.85800317382813E+0003  -2.85798706054688E+0003  -2.85797021484375E+0003  -2.85794677734375E+0003  -2.85792285156250E+0003  -2.85789648437500E+0003  -2.85786767578125E+0003  -2.85783764648438E+0003  -2.85780517578125E+0003  -2.85776879882813E+0003  -2.85772705078125E+0003  -2.85767749023438E+0003  -2.85762377929688E+0003  -2.85756884765625E+0003  -2.85750634765625E+0003  -2.85743579101563E+0003  -2.85735400390625E+0003  -2.85725781250000E+0003  -2.85714208984375E+0003  -2.85701000976563E+0003  -2.85687011718750E+0003  -2.85671557617188E+0003  -2.85655541992188E+0003  -2.85638647460938E+0003  -2.85621044921875E+0003  -2.85602856445313E+0003  -2.85583984375000E+0003  -2.85564404296875E+0003  -2.85544653320313E+0003  -2.85524804687500E+0003  -2.85504760742188E+0003  -2.85485058593750E+0003  -2.85466650390625E+0003  -2.85449951171875E+0003  -2.85435327148438E+0003  -2.85423217773438E+0003  -2.85413525390625E+0003  -2.85406225585938E+0003  -2.85401049804688E+0003  -2.85397729492188E+0003  -2.85395678710938E+0003  -2.85394677734375E+0003  -2.85394116210938E+0003  -2.85393872070313E+0003  -2.85393676757813E+0003  -2.85393725585938E+0003  -2.85393847656250E+0003  -2.85393872070313E+0003  -2.85393774414063E+0003  -2.85393237304688E+0003  -2.85392309570313E+0003  -2.85390747070313E+0003  -2.85388427734375E+0003  -2.85385107421875E+0003  -2.85380712890625E+0003  -2.85374584960938E+0003  -2.85366943359375E+0003  -2.85357031250000E+0003  -2.85345141601563E+0003  -2.85330688476563E+0003  -2.85314038085938E+0003  -2.85294970703125E+0003  -2.85273315429688E+0003  -2.85250000000000E+0003  -2.85224926757813E+0003  -2.85198291015625E+0003  -2.85171166992188E+0003  -2.85144238281250E+0003  -2.85116064453125E+0003  -2.85079370117188E+0003  -2.85041210937500E+0003  -2.85002734375000E+0003  -2.84964697265625E+0003  -2.84927734375000E+0003  -2.84892602539063E+0003  -2.84859838867188E+0003  -2.84831372070313E+0003  -2.84809619140625E+0003  -2.84795507812500E+0003  -2.84790429687500E+0003  -2.84793164062500E+0003  -2.84801879882813E+0003  -2.84814892578125E+0003  -2.84830273437500E+0003  -2.84846923828125E+0003  -2.84864038085938E+0003  -2.84880737304688E+0003  -2.84896166992188E+0003  -2.84909350585938E+0003  -2.84913769531250E+0003  -2.84914941406250E+0003  -2.84920117187500E+0003  -2.84929418945313E+0003  -2.84942578125000E+0003  -2.84957714843750E+0003  -2.84973828125000E+0003  -2.84989379882813E+0003  -2.85004321289063E+0003  -2.85018310546875E+0003  -2.85031127929688E+0003  -2.85042480468750E+0003  -2.85052124023438E+0003  -2.85060009765625E+0003  -2.85066186523438E+0003  -2.85070703125000E+0003  -2.85073168945313E+0003  -2.85074145507813E+0003  -2.85073437500000E+0003  -2.85071191406250E+0003  -2.85066967773438E+0003  -2.85061474609375E+0003  -2.85054028320313E+0003  -2.85044628906250E+0003  -2.85033764648438E+0003  -2.85020434570313E+0003  -2.85005151367188E+0003  -2.84987353515625E+0003  -2.84967578125000E+0003  -2.84945922851563E+0003  -2.84915625000000E+0003  -2.84877856445313E+0003  -2.84837084960938E+0003  -2.84794311523438E+0003  -2.84750781250000E+0003  -2.84707690429688E+0003  -2.84665649414063E+0003  -2.84625415039063E+0003  -2.84589257812500E+0003  -2.84559667968750E+0003  -2.84537451171875E+0003  -2.84526538085938E+0003  -2.84522485351563E+0003  -2.84523632812500E+0003  -2.84531811523438E+0003  -2.84543798828125E+0003  -2.84558129882813E+0003  -2.84574804687500E+0003  -2.84593603515625E+0003  -2.84613183593750E+0003  -2.84634082031250E+0003  -2.84655517578125E+0003  -2.84659887695313E+0003  -2.84667114257813E+0003  -2.84679565429688E+0003  -2.84698120117188E+0003  -2.84730273437500E+0003  -2.84772387695313E+0003  -2.84821704101563E+0003  -2.84876196289063E+0003  -2.84932714843750E+0003  -2.84978320312500E+0003  -2.85024487304688E+0003  -2.85071679687500E+0003  -2.85118798828125E+0003  -2.85165698242188E+0003  -2.85211743164063E+0003  -2.85256005859375E+0003  -2.85297534179688E+0003  -2.85335253906250E+0003  -2.85368188476563E+0003  -2.85396704101563E+0003  -2.85421020507813E+0003  -2.85441625976563E+0003  -2.85459399414063E+0003  -2.85474316406250E+0003  -2.85487011718750E+0003  -2.85497485351563E+0003  -2.85506298828125E+0003  -2.85512939453125E+0003  -2.85516918945313E+0003  -2.85517846679688E+0003  -2.85515258789063E+0003  -2.85508276367188E+0003  -2.85496215820313E+0003  -2.85478540039063E+0003
  -2.85517504882813E+0003  -2.85542895507813E+0003  -2.85567211914063E+0003  -2.85589990234375E+0003  -2.85611645507813E+0003  -2.85631958007813E+0003  -2.85651074218750E+0003  -2.85668676757813E+0003  -2.85685083007813E+0003  -2.85700317382813E+0003  -2.85714257812500E+0003  -2.85726977539063E+0003  -2.85738598632813E+0003  -2.85748950195313E+0003  -2.85758349609375E+0003  -2.85766601562500E+0003  -2.85774047851563E+0003  -2.85780566406250E+0003  -2.85786230468750E+0003  -2.85790820312500E+0003  -2.85794995117188E+0003  -2.85798339843750E+0003  -2.85801171875000E+0003  -2.85803295898438E+0003  -2.85805102539063E+0003  -2.85806396484375E+0003  -2.85807226562500E+0003  -2.85807739257813E+0003  -2.85808105468750E+0003  -2.85808203125000E+0003  -2.85808203125000E+0003  -2.85807934570313E+0003  -2.85807592773438E+0003  -2.85807128906250E+0003  -2.85806640625000E+0003  -2.85806127929688E+0003  -2.85805590820313E+0003  -2.85804858398438E+0003  -2.85804272460938E+0003  -2.85803588867188E+0003  -2.85802832031250E+0003  -2.85802001953125E+0003  -2.85801391601563E+0003  -2.85800537109375E+0003  -2.85800000000000E+0003  -2.85799365234375E+0003  -2.85798876953125E+0003  -2.85798291015625E+0003  -2.85797656250000E+0003  -2.85797290039063E+0003  -2.85796728515625E+0003  -2.85796069335938E+0003  -2.85795361328125E+0003  -2.85794433593750E+0003  -2.85793383789063E+0003  -2.85792358398438E+0003  -2.85790844726563E+0003  -2.85789184570313E+0003  -2.85787255859375E+0003  -2.85785131835938E+0003  -2.85782543945313E+0003  -2.85779638671875E+0003  -2.85776318359375E+0003  -2.85772729492188E+0003  -2.85768579101563E+0003  -2.85764257812500E+0003  -2.85759667968750E+0003  -2.85754760742188E+0003  -2.85748974609375E+0003  -2.85742480468750E+0003  -2.85735229492188E+0003  -2.85727075195313E+0003  -2.85718359375000E+0003  -2.85708764648438E+0003  -2.85697949218750E+0003  -2.85685595703125E+0003  -2.85671850585938E+0003  -2.85656079101563E+0003  -2.85638793945313E+0003  -2.85620483398438E+0003  -2.85600878906250E+0003  -2.85580541992188E+0003  -2.85559472656250E+0003  -2.85537646484375E+0003  -2.85515063476563E+0003  -2.85491699218750E+0003  -2.85467846679688E+0003  -2.85443823242188E+0003  -2.85420385742188E+0003  -2.85397314453125E+0003  -2.85375390625000E+0003  -2.85355541992188E+0003  -2.85338208007813E+0003  -2.85324414062500E+0003  -2.85314282226563E+0003  -2.85307397460938E+0003  -2.85302978515625E+0003  -2.85301049804688E+0003  -2.85301293945313E+0003  -2.85302612304688E+0003  -2.85304809570313E+0003  -2.85307104492188E+0003  -2.85309594726563E+0003  -2.85311816406250E+0003  -2.85314013671875E+0003  -2.85316162109375E+0003  -2.85318164062500E+0003  -2.85319604492188E+0003  -2.85320874023438E+0003  -2.85321215820313E+0003  -2.85321069335938E+0003  -2.85319702148438E+0003  -2.85317187500000E+0003  -2.85313232421875E+0003  -2.85307250976563E+0003  -2.85299414062500E+0003  -2.85288769531250E+0003  -2.85275097656250E+0003  -2.85258471679688E+0003  -2.85238623046875E+0003  -2.85215112304688E+0003  -2.85188647460938E+0003  -2.85159204101563E+0003  -2.85127832031250E+0003  -2.85095336914063E+0003  -2.85062182617188E+0003  -2.85029565429688E+0003  -2.84992749023438E+0003  -2.84950512695313E+0003  -2.84907739257813E+0003  -2.84864575195313E+0003  -2.84821557617188E+0003  -2.84780297851563E+0003  -2.84740161132813E+0003  -2.84701196289063E+0003  -2.84666162109375E+0003  -2.84637646484375E+0003  -2.84618603515625E+0003  -2.84611645507813E+0003  -2.84613671875000E+0003  -2.84623925781250E+0003  -2.84639306640625E+0003  -2.84657861328125E+0003  -2.84677221679688E+0003  -2.84697729492188E+0003  -2.84717724609375E+0003  -2.84736523437500E+0003  -2.84751635742188E+0003  -2.84760815429688E+0003  -2.84763500976563E+0003  -2.84770336914063E+0003  -2.84782788085938E+0003  -2.84799951171875E+0003  -2.84820654296875E+0003  -2.84841650390625E+0003  -2.84862182617188E+0003  -2.84881713867188E+0003  -2.84900195312500E+0003  -2.84917211914063E+0003  -2.84932568359375E+0003  -2.84945922851563E+0003  -2.84957202148438E+0003  -2.84966308593750E+0003  -2.84972900390625E+0003  -2.84976806640625E+0003  -2.84978881835938E+0003  -2.84978833007813E+0003  -2.84976855468750E+0003  -2.84973120117188E+0003  -2.84967504882813E+0003  -2.84960424804688E+0003  -2.84951245117188E+0003  -2.84940039062500E+0003  -2.84926391601563E+0003  -2.84910034179688E+0003  -2.84890649414063E+0003  -2.84868261718750E+0003  -2.84843627929688E+0003  -2.84808081054688E+0003  -2.84767114257813E+0003  -2.84723583984375E+0003  -2.84678320312500E+0003  -2.84632568359375E+0003  -2.84587646484375E+0003  -2.84544653320313E+0003  -2.84503051757813E+0003  -2.84465991210938E+0003  -2.84436303710938E+0003  -2.84416406250000E+0003  -2.84406787109375E+0003  -2.84403540039063E+0003  -2.84404833984375E+0003  -2.84412744140625E+0003  -2.84426855468750E+0003  -2.84443652343750E+0003  -2.84462573242188E+0003  -2.84482543945313E+0003  -2.84503637695313E+0003  -2.84525244140625E+0003  -2.84547143554688E+0003  -2.84548925781250E+0003  -2.84555053710938E+0003  -2.84568676757813E+0003  -2.84586108398438E+0003  -2.84617968750000E+0003  -2.84659765625000E+0003  -2.84708520507813E+0003  -2.84762182617188E+0003  -2.84818896484375E+0003  -2.84863818359375E+0003  -2.84909545898438E+0003  -2.84956372070313E+0003  -2.85004443359375E+0003  -2.85053808593750E+0003  -2.85103881835938E+0003  -2.85153515625000E+0003  -2.85201074218750E+0003  -2.85245043945313E+0003  -2.85284301757813E+0003  -2.85318383789063E+0003  -2.85347973632813E+0003  -2.85373681640625E+0003  -2.85395800781250E+0003  -2.85414794921875E+0003  -2.85430908203125E+0003  -2.85444506835938E+0003  -2.85455419921875E+0003  -2.85463696289063E+0003  -2.85468896484375E+0003  -2.85470581054688E+0003  -2.85468310546875E+0003  -2.85462011718750E+0003  -2.85450708007813E+0003  -2.85434301757813E+0003
  -2.85523559570313E+0003  -2.85548999023438E+0003  -2.85573120117188E+0003  -2.85595922851563E+0003  -2.85617553710938E+0003  -2.85637841796875E+0003  -2.85656884765625E+0003  -2.85674780273438E+0003  -2.85691381835938E+0003  -2.85706689453125E+0003  -2.85720727539063E+0003  -2.85733715820313E+0003  -2.85745556640625E+0003  -2.85756176757813E+0003  -2.85765698242188E+0003  -2.85774267578125E+0003  -2.85781713867188E+0003  -2.85788208007813E+0003  -2.85793945312500E+0003  -2.85798559570313E+0003  -2.85802661132813E+0003  -2.85805786132813E+0003  -2.85808520507813E+0003  -2.85810571289063E+0003  -2.85811987304688E+0003  -2.85812817382813E+0003  -2.85813476562500E+0003  -2.85813525390625E+0003  -2.85813330078125E+0003  -2.85812890625000E+0003  -2.85812158203125E+0003  -2.85811352539063E+0003  -2.85810302734375E+0003  -2.85809350585938E+0003  -2.85807885742188E+0003  -2.85806616210938E+0003  -2.85805200195313E+0003  -2.85803637695313E+0003  -2.85802148437500E+0003  -2.85800659179688E+0003  -2.85799047851563E+0003  -2.85797387695313E+0003  -2.85795947265625E+0003  -2.85794433593750E+0003  -2.85792822265625E+0003  -2.85791601562500E+0003  -2.85790161132813E+0003  -2.85788842773438E+0003  -2.85787670898438E+0003  -2.85786254882813E+0003  -2.85784887695313E+0003  -2.85783471679688E+0003  -2.85781787109375E+0003  -2.85780175781250E+0003  -2.85778100585938E+0003  -2.85775952148438E+0003  -2.85773486328125E+0003  -2.85770703125000E+0003  -2.85767651367188E+0003  -2.85764257812500E+0003  -2.85760375976563E+0003  -2.85756054687500E+0003  -2.85751293945313E+0003  -2.85746020507813E+0003  -2.85740087890625E+0003  -2.85733837890625E+0003  -2.85727172851563E+0003  -2.85719775390625E+0003  -2.85711523437500E+0003  -2.85702221679688E+0003  -2.85691870117188E+0003  -2.85680468750000E+0003  -2.85667822265625E+0003  -2.85654223632813E+0003  -2.85638793945313E+0003  -2.85621582031250E+0003  -2.85602514648438E+0003  -2.85582006835938E+0003  -2.85559936523438E+0003  -2.85536962890625E+0003  -2.85513061523438E+0003  -2.85488256835938E+0003  -2.85462548828125E+0003  -2.85436303710938E+0003  -2.85409375000000E+0003  -2.85381445312500E+0003  -2.85353613281250E+0003  -2.85325854492188E+0003  -2.85298901367188E+0003  -2.85273120117188E+0003  -2.85249145507813E+0003  -2.85228442382813E+0003  -2.85211499023438E+0003  -2.85199609375000E+0003  -2.85192163085938E+0003  -2.85188867187500E+0003  -2.85188549804688E+0003  -2.85191088867188E+0003  -2.85195507812500E+0003  -2.85201147460938E+0003  -2.85207397460938E+0003  -2.85213085937500E+0003  -2.85218554687500E+0003  -2.85223803710938E+0003  -2.85228710937500E+0003  -2.85233325195313E+0003  -2.85237597656250E+0003  -2.85241162109375E+0003  -2.85244384765625E+0003  -2.85246850585938E+0003  -2.85248266601563E+0003  -2.85248510742188E+0003  -2.85247290039063E+0003  -2.85244287109375E+0003  -2.85238916015625E+0003  -2.85230688476563E+0003  -2.85219311523438E+0003  -2.85204199218750E+0003  -2.85185107421875E+0003  -2.85161547851563E+0003  -2.85133520507813E+0003  -2.85100708007813E+0003  -2.85064868164063E+0003  -2.85026611328125E+0003  -2.84987182617188E+0003  -2.84947851562500E+0003  -2.84909790039063E+0003  -2.84864990234375E+0003  -2.84818383789063E+0003  -2.84771899414063E+0003  -2.84723925781250E+0003  -2.84674438476563E+0003  -2.84625952148438E+0003  -2.84577563476563E+0003  -2.84528881835938E+0003  -2.84483496093750E+0003  -2.84445605468750E+0003  -2.84420019531250E+0003  -2.84410473632813E+0003  -2.84412573242188E+0003  -2.84425903320313E+0003  -2.84445776367188E+0003  -2.84469262695313E+0003  -2.84493212890625E+0003  -2.84517968750000E+0003  -2.84541381835938E+0003  -2.84563305664063E+0003  -2.84581469726563E+0003  -2.84595532226563E+0003  -2.84600854492188E+0003  -2.84610937500000E+0003  -2.84627270507813E+0003  -2.84648046875000E+0003  -2.84673413085938E+0003  -2.84699072265625E+0003  -2.84724389648438E+0003  -2.84747729492188E+0003  -2.84770776367188E+0003  -2.84792016601563E+0003  -2.84811206054688E+0003  -2.84828686523438E+0003  -2.84844042968750E+0003  -2.84856835937500E+0003  -2.84866210937500E+0003  -2.84872021484375E+0003  -2.84874780273438E+0003  -2.84875292968750E+0003  -2.84873706054688E+0003  -2.84870141601563E+0003  -2.84864965820313E+0003  -2.84858398437500E+0003  -2.84850219726563E+0003  -2.84840161132813E+0003  -2.84819067382813E+0003  -2.84798461914063E+0003  -2.84778125000000E+0003  -2.84758178710938E+0003  -2.84735449218750E+0003  -2.84695996093750E+0003  -2.84653491210938E+0003  -2.84608593750000E+0003  -2.84562500000000E+0003  -2.84516015625000E+0003  -2.84470800781250E+0003  -2.84427685546875E+0003  -2.84386938476563E+0003  -2.84351782226563E+0003  -2.84323999023438E+0003  -2.84306469726563E+0003  -2.84299023437500E+0003  -2.84297290039063E+0003  -2.84300000000000E+0003  -2.84309204101563E+0003  -2.84325927734375E+0003  -2.84345605468750E+0003  -2.84366748046875E+0003  -2.84388916015625E+0003  -2.84411279296875E+0003  -2.84434179687500E+0003  -2.84456884765625E+0003  -2.84460375976563E+0003  -2.84466577148438E+0003  -2.84481396484375E+0003  -2.84499267578125E+0003  -2.84528466796875E+0003  -2.84567602539063E+0003  -2.84613989257813E+0003  -2.84665039062500E+0003  -2.84717260742188E+0003  -2.84759936523438E+0003  -2.84803784179688E+0003  -2.84848754882813E+0003  -2.84895898437500E+0003  -2.84945239257813E+0003  -2.84997387695313E+0003  -2.85050634765625E+0003  -2.85102880859375E+0003  -2.85152075195313E+0003  -2.85196484375000E+0003  -2.85235693359375E+0003  -2.85270068359375E+0003  -2.85300146484375E+0003  -2.85326464843750E+0003  -2.85349414062500E+0003  -2.85368872070313E+0003  -2.85385327148438E+0003  -2.85398559570313E+0003  -2.85408740234375E+0003  -2.85415161132813E+0003  -2.85417968750000E+0003  -2.85416748046875E+0003  -2.85411035156250E+0003  -2.85400756835938E+0003  -2.85385498046875E+0003
  -2.85530273437500E+0003  -2.85555444335938E+0003  -2.85579565429688E+0003  -2.85602197265625E+0003  -2.85623852539063E+0003  -2.85644165039063E+0003  -2.85663232421875E+0003  -2.85681054687500E+0003  -2.85697875976563E+0003  -2.85713232421875E+0003  -2.85727416992188E+0003  -2.85740380859375E+0003  -2.85752441406250E+0003  -2.85763305664063E+0003  -2.85772900390625E+0003  -2.85781396484375E+0003  -2.85788891601563E+0003  -2.85795361328125E+0003  -2.85801000976563E+0003  -2.85805664062500E+0003  -2.85809594726563E+0003  -2.85812548828125E+0003  -2.85814990234375E+0003  -2.85816625976563E+0003  -2.85817553710938E+0003  -2.85818164062500E+0003  -2.85818188476563E+0003  -2.85817749023438E+0003  -2.85816992187500E+0003  -2.85815966796875E+0003  -2.85814379882813E+0003  -2.85812890625000E+0003  -2.85810961914063E+0003  -2.85809179687500E+0003  -2.85806982421875E+0003  -2.85804760742188E+0003  -2.85802294921875E+0003  -2.85800000000000E+0003  -2.85797631835938E+0003  -2.85795092773438E+0003  -2.85792578125000E+0003  -2.85789965820313E+0003  -2.85787500000000E+0003  -2.85785107421875E+0003  -2.85782739257813E+0003  -2.85780346679688E+0003  -2.85777978515625E+0003  -2.85775927734375E+0003  -2.85773706054688E+0003  -2.85771459960938E+0003  -2.85769091796875E+0003  -2.85766650390625E+0003  -2.85764160156250E+0003  -2.85761303710938E+0003  -2.85758203125000E+0003  -2.85754858398438E+0003  -2.85751123046875E+0003  -2.85747167968750E+0003  -2.85742675781250E+0003  -2.85737646484375E+0003  -2.85732275390625E+0003  -2.85726367187500E+0003  -2.85719555664063E+0003  -2.85712133789063E+0003  -2.85704077148438E+0003  -2.85695434570313E+0003  -2.85686303710938E+0003  -2.85676049804688E+0003  -2.85664721679688E+0003  -2.85652343750000E+0003  -2.85638574218750E+0003  -2.85623242187500E+0003  -2.85606420898438E+0003  -2.85587744140625E+0003  -2.85567211914063E+0003  -2.85544775390625E+0003  -2.85520751953125E+0003  -2.85495166015625E+0003  -2.85468237304688E+0003  -2.85440380859375E+0003  -2.85411791992188E+0003  -2.85382250976563E+0003  -2.85352124023438E+0003  -2.85321435546875E+0003  -2.85290356445313E+0003  -2.85258593750000E+0003  -2.85227026367188E+0003  -2.85195996093750E+0003  -2.85166259765625E+0003  -2.85138159179688E+0003  -2.85112768554688E+0003  -2.85091381835938E+0003  -2.85075488281250E+0003  -2.85065795898438E+0003  -2.85061987304688E+0003  -2.85062548828125E+0003  -2.85066870117188E+0003  -2.85073925781250E+0003  -2.85083032226563E+0003  -2.85093139648438E+0003  -2.85103393554688E+0003  -2.85113061523438E+0003  -2.85122143554688E+0003  -2.85130224609375E+0003  -2.85138110351563E+0003  -2.85145385742188E+0003  -2.85152148437500E+0003  -2.85158251953125E+0003  -2.85163671875000E+0003  -2.85168432617188E+0003  -2.85171948242188E+0003  -2.85174194335938E+0003  -2.85174731445313E+0003  -2.85173071289063E+0003  -2.85168530273438E+0003  -2.85160375976563E+0003  -2.85148388671875E+0003  -2.85131005859375E+0003  -2.85108764648438E+0003  -2.85080932617188E+0003  -2.85047143554688E+0003  -2.85008007812500E+0003  -2.84964550781250E+0003  -2.84918725585938E+0003  -2.84872534179688E+0003  -2.84827270507813E+0003  -2.84783911132813E+0003  -2.84732934570313E+0003  -2.84683325195313E+0003  -2.84633715820313E+0003  -2.84579565429688E+0003  -2.84520727539063E+0003  -2.84460058593750E+0003  -2.84397241210938E+0003  -2.84333300781250E+0003  -2.84273388671875E+0003  -2.84224169921875E+0003  -2.84191333007813E+0003  -2.84179492187500E+0003  -2.84185083007813E+0003  -2.84204638671875E+0003  -2.84232543945313E+0003  -2.84264697265625E+0003  -2.84296215820313E+0003  -2.84325732421875E+0003  -2.84352880859375E+0003  -2.84377392578125E+0003  -2.84399023437500E+0003  -2.84418554687500E+0003  -2.84427978515625E+0003  -2.84442578125000E+0003  -2.84462280273438E+0003  -2.84486669921875E+0003  -2.84515039062500E+0003  -2.84543896484375E+0003  -2.84573022460938E+0003  -2.84600878906250E+0003  -2.84628027343750E+0003  -2.84653442382813E+0003  -2.84676635742188E+0003  -2.84698120117188E+0003  -2.84717749023438E+0003  -2.84734423828125E+0003  -2.84746972656250E+0003  -2.84754174804688E+0003  -2.84757836914063E+0003  -2.84759082031250E+0003  -2.84757666015625E+0003  -2.84754394531250E+0003  -2.84750097656250E+0003  -2.84744262695313E+0003  -2.84723974609375E+0003  -2.84702075195313E+0003  -2.84680761718750E+0003  -2.84659790039063E+0003  -2.84638427734375E+0003  -2.84616552734375E+0003  -2.84598486328125E+0003  -2.84574169921875E+0003  -2.84535864257813E+0003  -2.84491577148438E+0003  -2.84445849609375E+0003  -2.84400317382813E+0003  -2.84355786132813E+0003  -2.84313867187500E+0003  -2.84275708007813E+0003  -2.84243432617188E+0003  -2.84218310546875E+0003  -2.84202514648438E+0003  -2.84197509765625E+0003  -2.84198193359375E+0003  -2.84203662109375E+0003  -2.84216943359375E+0003  -2.84236694335938E+0003  -2.84259326171875E+0003  -2.84283203125000E+0003  -2.84307666015625E+0003  -2.84332177734375E+0003  -2.84356713867188E+0003  -2.84380981445313E+0003  -2.84390405273438E+0003  -2.84397583007813E+0003  -2.84412670898438E+0003  -2.84430200195313E+0003  -2.84456152343750E+0003  -2.84491503906250E+0003  -2.84533691406250E+0003  -2.84580786132813E+0003  -2.84624487304688E+0003  -2.84664599609375E+0003  -2.84705712890625E+0003  -2.84748681640625E+0003  -2.84793872070313E+0003  -2.84842114257813E+0003  -2.84894506835938E+0003  -2.84949902343750E+0003  -2.85005200195313E+0003  -2.85058398437500E+0003  -2.85106762695313E+0003  -2.85150073242188E+0003  -2.85188378906250E+0003  -2.85222583007813E+0003  -2.85252709960938E+0003  -2.85279150390625E+0003  -2.85301879882813E+0003  -2.85321240234375E+0003  -2.85336743164063E+0003  -2.85348706054688E+0003  -2.85356762695313E+0003  -2.85360693359375E+0003  -2.85360473632813E+0003  -2.85356005859375E+0003  -2.85346777343750E+0003  -2.85332836914063E+0003
  -2.85537158203125E+0003  -2.85562304687500E+0003  -2.85586206054688E+0003  -2.85608959960938E+0003  -2.85630541992188E+0003  -2.85650903320313E+0003  -2.85669921875000E+0003  -2.85687768554688E+0003  -2.85704492187500E+0003  -2.85719995117188E+0003  -2.85734301757813E+0003  -2.85747412109375E+0003  -2.85759301757813E+0003  -2.85770214843750E+0003  -2.85779589843750E+0003  -2.85788183593750E+0003  -2.85795507812500E+0003  -2.85802026367188E+0003  -2.85807250976563E+0003  -2.85811865234375E+0003  -2.85815454101563E+0003  -2.85818188476563E+0003  -2.85819995117188E+0003  -2.85821362304688E+0003  -2.85821850585938E+0003  -2.85821875000000E+0003  -2.85821386718750E+0003  -2.85820361328125E+0003  -2.85818872070313E+0003  -2.85816967773438E+0003  -2.85814892578125E+0003  -2.85812573242188E+0003  -2.85809790039063E+0003  -2.85806958007813E+0003  -2.85803906250000E+0003  -2.85800561523438E+0003  -2.85797290039063E+0003  -2.85793896484375E+0003  -2.85790356445313E+0003  -2.85786962890625E+0003  -2.85783447265625E+0003  -2.85779882812500E+0003  -2.85776318359375E+0003  -2.85772607421875E+0003  -2.85769165039063E+0003  -2.85765747070313E+0003  -2.85762329101563E+0003  -2.85759179687500E+0003  -2.85755957031250E+0003  -2.85752856445313E+0003  -2.85749267578125E+0003  -2.85745849609375E+0003  -2.85742138671875E+0003  -2.85738159179688E+0003  -2.85733837890625E+0003  -2.85729150390625E+0003  -2.85723876953125E+0003  -2.85718383789063E+0003  -2.85712280273438E+0003  -2.85705590820313E+0003  -2.85698217773438E+0003  -2.85690136718750E+0003  -2.85681372070313E+0003  -2.85671655273438E+0003  -2.85661230468750E+0003  -2.85649951171875E+0003  -2.85637646484375E+0003  -2.85624340820313E+0003  -2.85609765625000E+0003  -2.85593750000000E+0003  -2.85575781250000E+0003  -2.85556030273438E+0003  -2.85534179687500E+0003  -2.85510375976563E+0003  -2.85484521484375E+0003  -2.85456811523438E+0003  -2.85427783203125E+0003  -2.85397167968750E+0003  -2.85365649414063E+0003  -2.85333349609375E+0003  -2.85300463867188E+0003  -2.85266918945313E+0003  -2.85232836914063E+0003  -2.85198608398438E+0003  -2.85164135742188E+0003  -2.85129394531250E+0003  -2.85095068359375E+0003  -2.85061425781250E+0003  -2.85029101562500E+0003  -2.84998510742188E+0003  -2.84971386718750E+0003  -2.84949389648438E+0003  -2.84934204101563E+0003  -2.84927490234375E+0003  -2.84927612304688E+0003  -2.84932666015625E+0003  -2.84941503906250E+0003  -2.84953247070313E+0003  -2.84966748046875E+0003  -2.84981323242188E+0003  -2.84995703125000E+0003  -2.85008911132813E+0003  -2.85021313476563E+0003  -2.85032641601563E+0003  -2.85042846679688E+0003  -2.85052392578125E+0003  -2.85061352539063E+0003  -2.85070190429688E+0003  -2.85078076171875E+0003  -2.85085693359375E+0003  -2.85091870117188E+0003  -2.85096630859375E+0003  -2.85099218750000E+0003  -2.85099243164063E+0003  -2.85095874023438E+0003  -2.85087939453125E+0003  -2.85074340820313E+0003  -2.85054174804688E+0003  -2.85027539062500E+0003  -2.84993945312500E+0003  -2.84953906250000E+0003  -2.84907788085938E+0003  -2.84857470703125E+0003  -2.84804956054688E+0003  -2.84752539062500E+0003  -2.84702563476563E+0003  -2.84656420898438E+0003  -2.84601464843750E+0003  -2.84548486328125E+0003  -2.84493334960938E+0003  -2.84430761718750E+0003  -2.84359863281250E+0003  -2.84281616210938E+0003  -2.84197607421875E+0003  -2.84111035156250E+0003  -2.84029956054688E+0003  -2.83963647460938E+0003  -2.83921069335938E+0003  -2.83909350585938E+0003  -2.83924267578125E+0003  -2.83956176757813E+0003  -2.83997729492188E+0003  -2.84042553710938E+0003  -2.84084643554688E+0003  -2.84120507812500E+0003  -2.84151416015625E+0003  -2.84178125000000E+0003  -2.84202758789063E+0003  -2.84226464843750E+0003  -2.84241552734375E+0003  -2.84261279296875E+0003  -2.84285229492188E+0003  -2.84312304687500E+0003  -2.84342041015625E+0003  -2.84373339843750E+0003  -2.84405444335938E+0003  -2.84437695312500E+0003  -2.84469067382813E+0003  -2.84498901367188E+0003  -2.84526586914063E+0003  -2.84551806640625E+0003  -2.84575073242188E+0003  -2.84594921875000E+0003  -2.84609521484375E+0003  -2.84618090820313E+0003  -2.84622924804688E+0003  -2.84625195312500E+0003  -2.84625000000000E+0003  -2.84623144531250E+0003  -2.84620410156250E+0003  -2.84593139648438E+0003  -2.84567919921875E+0003  -2.84545800781250E+0003  -2.84523193359375E+0003  -2.84501245117188E+0003  -2.84480322265625E+0003  -2.84460595703125E+0003  -2.84445800781250E+0003  -2.84426293945313E+0003  -2.84408422851563E+0003  -2.84371215820313E+0003  -2.84327807617188E+0003  -2.84284155273438E+0003  -2.84242187500000E+0003  -2.84202832031250E+0003  -2.84167626953125E+0003  -2.84138671875000E+0003  -2.84117285156250E+0003  -2.84103881835938E+0003  -2.84098852539063E+0003  -2.84101904296875E+0003  -2.84113793945313E+0003  -2.84131884765625E+0003  -2.84155175781250E+0003  -2.84180810546875E+0003  -2.84207275390625E+0003  -2.84234277343750E+0003  -2.84261230468750E+0003  -2.84287597656250E+0003  -2.84313256835938E+0003  -2.84333203125000E+0003  -2.84341992187500E+0003  -2.84357421875000E+0003  -2.84374072265625E+0003  -2.84397241210938E+0003  -2.84428417968750E+0003  -2.84465820312500E+0003  -2.84506103515625E+0003  -2.84539428710938E+0003  -2.84575756835938E+0003  -2.84614306640625E+0003  -2.84655029296875E+0003  -2.84697680664063E+0003  -2.84744433593750E+0003  -2.84796875000000E+0003  -2.84853076171875E+0003  -2.84910131835938E+0003  -2.84965454101563E+0003  -2.85016796875000E+0003  -2.85063012695313E+0003  -2.85104858398438E+0003  -2.85142211914063E+0003  -2.85175683593750E+0003  -2.85205322265625E+0003  -2.85231030273438E+0003  -2.85253027343750E+0003  -2.85270849609375E+0003  -2.85284570312500E+0003  -2.85294189453125E+0003  -2.85299462890625E+0003  -2.85300317382813E+0003  -2.85296972656250E+0003  -2.85288940429688E+0003  -2.85276318359375E+0003
  -2.85544335937500E+0003  -2.85569482421875E+0003  -2.85593286132813E+0003  -2.85615966796875E+0003  -2.85637500000000E+0003  -2.85657690429688E+0003  -2.85676928710938E+0003  -2.85694726562500E+0003  -2.85711303710938E+0003  -2.85726855468750E+0003  -2.85740942382813E+0003  -2.85754028320313E+0003  -2.85765966796875E+0003  -2.85776538085938E+0003  -2.85785986328125E+0003  -2.85794458007813E+0003  -2.85801440429688E+0003  -2.85807714843750E+0003  -2.85812792968750E+0003  -2.85816894531250E+0003  -2.85820190429688E+0003  -2.85822485351563E+0003  -2.85823828125000E+0003  -2.85824707031250E+0003  -2.85824780273438E+0003  -2.85824072265625E+0003  -2.85822949218750E+0003  -2.85821191406250E+0003  -2.85819091796875E+0003  -2.85816333007813E+0003  -2.85813281250000E+0003  -2.85810034179688E+0003  -2.85806225585938E+0003  -2.85802539062500E+0003  -2.85798510742188E+0003  -2.85794262695313E+0003  -2.85789794921875E+0003  -2.85785400390625E+0003  -2.85780834960938E+0003  -2.85776147460938E+0003  -2.85771533203125E+0003  -2.85766674804688E+0003  -2.85761938476563E+0003  -2.85757226562500E+0003  -2.85752587890625E+0003  -2.85747851562500E+0003  -2.85743481445313E+0003  -2.85739135742188E+0003  -2.85734838867188E+0003  -2.85730346679688E+0003  -2.85725781250000E+0003  -2.85721191406250E+0003  -2.85716137695313E+0003  -2.85710815429688E+0003  -2.85705029296875E+0003  -2.85698852539063E+0003  -2.85692065429688E+0003  -2.85684643554688E+0003  -2.85676684570313E+0003  -2.85667895507813E+0003  -2.85658374023438E+0003  -2.85648144531250E+0003  -2.85636938476563E+0003  -2.85624804687500E+0003  -2.85611499023438E+0003  -2.85597363281250E+0003  -2.85582128906250E+0003  -2.85565502929688E+0003  -2.85547094726563E+0003  -2.85526806640625E+0003  -2.85504248046875E+0003  -2.85479541015625E+0003  -2.85452490234375E+0003  -2.85423559570313E+0003  -2.85392407226563E+0003  -2.85359521484375E+0003  -2.85325439453125E+0003  -2.85290576171875E+0003  -2.85255078125000E+0003  -2.85218969726563E+0003  -2.85182812500000E+0003  -2.85146313476563E+0003  -2.85109863281250E+0003  -2.85073364257813E+0003  -2.85036767578125E+0003  -2.85000000000000E+0003  -2.84963647460938E+0003  -2.84928051757813E+0003  -2.84893408203125E+0003  -2.84860644531250E+0003  -2.84831616210938E+0003  -2.84808398437500E+0003  -2.84794287109375E+0003  -2.84789941406250E+0003  -2.84793457031250E+0003  -2.84801782226563E+0003  -2.84814257812500E+0003  -2.84829638671875E+0003  -2.84846582031250E+0003  -2.84864599609375E+0003  -2.84882739257813E+0003  -2.84899511718750E+0003  -2.84914746093750E+0003  -2.84928735351563E+0003  -2.84940966796875E+0003  -2.84952197265625E+0003  -2.84963037109375E+0003  -2.84973999023438E+0003  -2.84985156250000E+0003  -2.84995141601563E+0003  -2.85004272460938E+0003  -2.85011889648438E+0003  -2.85017089843750E+0003  -2.85018872070313E+0003  -2.85016455078125E+0003  -2.85008520507813E+0003  -2.84993432617188E+0003  -2.84969677734375E+0003  -2.84937353515625E+0003  -2.84896875000000E+0003  -2.84849951171875E+0003  -2.84798022460938E+0003  -2.84741918945313E+0003  -2.84684204101563E+0003  -2.84627539062500E+0003  -2.84575048828125E+0003  -2.84528051757813E+0003  -2.84472460937500E+0003  -2.84414965820313E+0003  -2.84352734375000E+0003  -2.84280322265625E+0003  -2.84195141601563E+0003  -2.84095971679688E+0003  -2.83985571289063E+0003  -2.83870532226563E+0003  -2.83761840820313E+0003  -2.83672851562500E+0003  -2.83617846679688E+0003  -2.83608959960938E+0003  -2.83639086914063E+0003  -2.83689135742188E+0003  -2.83748486328125E+0003  -2.83808911132813E+0003  -2.83862500000000E+0003  -2.83904907226563E+0003  -2.83937915039063E+0003  -2.83965600585938E+0003  -2.83991723632813E+0003  -2.84017382812500E+0003  -2.84037890625000E+0003  -2.84063696289063E+0003  -2.84092138671875E+0003  -2.84122485351563E+0003  -2.84154272460938E+0003  -2.84187573242188E+0003  -2.84222534179688E+0003  -2.84258276367188E+0003  -2.84294140625000E+0003  -2.84328515625000E+0003  -2.84360473632813E+0003  -2.84388964843750E+0003  -2.84414184570313E+0003  -2.84435839843750E+0003  -2.84451562500000E+0003  -2.84461132812500E+0003  -2.84467163085938E+0003  -2.84471069335938E+0003  -2.84473730468750E+0003  -2.84475463867188E+0003  -2.84450317382813E+0003  -2.84423437500000E+0003  -2.84396972656250E+0003  -2.84370776367188E+0003  -2.84344042968750E+0003  -2.84319506835938E+0003  -2.84300390625000E+0003  -2.84287768554688E+0003  -2.84281323242188E+0003  -2.84269824218750E+0003  -2.84259912109375E+0003  -2.84246752929688E+0003  -2.84207666015625E+0003  -2.84168041992188E+0003  -2.84129565429688E+0003  -2.84093627929688E+0003  -2.84061889648438E+0003  -2.84036645507813E+0003  -2.84018676757813E+0003  -2.84008935546875E+0003  -2.84007568359375E+0003  -2.84014575195313E+0003  -2.84029492187500E+0003  -2.84051245117188E+0003  -2.84077294921875E+0003  -2.84105810546875E+0003  -2.84135400390625E+0003  -2.84165063476563E+0003  -2.84194360351563E+0003  -2.84222534179688E+0003  -2.84249682617188E+0003  -2.84275585937500E+0003  -2.84294946289063E+0003  -2.84311108398438E+0003  -2.84326879882813E+0003  -2.84347729492188E+0003  -2.84375292968750E+0003  -2.84405566406250E+0003  -2.84431909179688E+0003  -2.84461450195313E+0003  -2.84493994140625E+0003  -2.84529467773438E+0003  -2.84567724609375E+0003  -2.84608276367188E+0003  -2.84653735351563E+0003  -2.84706103515625E+0003  -2.84761840820313E+0003  -2.84819042968750E+0003  -2.84875390625000E+0003  -2.84927905273438E+0003  -2.84976123046875E+0003  -2.85020361328125E+0003  -2.85060253906250E+0003  -2.85096459960938E+0003  -2.85128906250000E+0003  -2.85157470703125E+0003  -2.85181616210938E+0003  -2.85201684570313E+0003  -2.85217358398438E+0003  -2.85228100585938E+0003  -2.85234814453125E+0003  -2.85236987304688E+0003  -2.85234667968750E+0003  -2.85227954101563E+0003  -2.85216870117188E+0003
  -2.85551586914063E+0003  -2.85576684570313E+0003  -2.85600366210938E+0003  -2.85623120117188E+0003  -2.85644604492188E+0003  -2.85664770507813E+0003  -2.85683764648438E+0003  -2.85701464843750E+0003  -2.85718017578125E+0003  -2.85733251953125E+0003  -2.85747583007813E+0003  -2.85760229492188E+0003  -2.85771948242188E+0003  -2.85782421875000E+0003  -2.85791772460938E+0003  -2.85799731445313E+0003  -2.85806567382813E+0003  -2.85812255859375E+0003  -2.85816918945313E+0003  -2.85820849609375E+0003  -2.85823461914063E+0003  -2.85825268554688E+0003  -2.85826220703125E+0003  -2.85826464843750E+0003  -2.85825854492188E+0003  -2.85824609375000E+0003  -2.85822729492188E+0003  -2.85820068359375E+0003  -2.85817065429688E+0003  -2.85813598632813E+0003  -2.85809765625000E+0003  -2.85805371093750E+0003  -2.85800878906250E+0003  -2.85796118164063E+0003  -2.85790795898438E+0003  -2.85785449218750E+0003  -2.85779980468750E+0003  -2.85774462890625E+0003  -2.85768798828125E+0003  -2.85762915039063E+0003  -2.85756835937500E+0003  -2.85750878906250E+0003  -2.85744970703125E+0003  -2.85738891601563E+0003  -2.85732836914063E+0003  -2.85727001953125E+0003  -2.85721362304688E+0003  -2.85715820312500E+0003  -2.85710107421875E+0003  -2.85704589843750E+0003  -2.85698876953125E+0003  -2.85692700195313E+0003  -2.85686206054688E+0003  -2.85679443359375E+0003  -2.85671997070313E+0003  -2.85664086914063E+0003  -2.85655468750000E+0003  -2.85646069335938E+0003  -2.85635913085938E+0003  -2.85624951171875E+0003  -2.85613256835938E+0003  -2.85600488281250E+0003  -2.85586596679688E+0003  -2.85571582031250E+0003  -2.85555493164063E+0003  -2.85538305664063E+0003  -2.85519433593750E+0003  -2.85499023437500E+0003  -2.85476513671875E+0003  -2.85451733398438E+0003  -2.85424462890625E+0003  -2.85394628906250E+0003  -2.85362573242188E+0003  -2.85328637695313E+0003  -2.85292578125000E+0003  -2.85255322265625E+0003  -2.85217138671875E+0003  -2.85178588867188E+0003  -2.85139941406250E+0003  -2.85101684570313E+0003  -2.85063256835938E+0003  -2.85025415039063E+0003  -2.84987548828125E+0003  -2.84950170898438E+0003  -2.84912646484375E+0003  -2.84874951171875E+0003  -2.84837548828125E+0003  -2.84801147460938E+0003  -2.84765576171875E+0003  -2.84731616210938E+0003  -2.84701708984375E+0003  -2.84678613281250E+0003  -2.84664501953125E+0003  -2.84660693359375E+0003  -2.84664184570313E+0003  -2.84672680664063E+0003  -2.84685571289063E+0003  -2.84701147460938E+0003  -2.84718115234375E+0003  -2.84736572265625E+0003  -2.84756420898438E+0003  -2.84776318359375E+0003  -2.84794726562500E+0003  -2.84811694335938E+0003  -2.84826123046875E+0003  -2.84838842773438E+0003  -2.84851147460938E+0003  -2.84864111328125E+0003  -2.84877221679688E+0003  -2.84889428710938E+0003  -2.84900708007813E+0003  -2.84910766601563E+0003  -2.84917919921875E+0003  -2.84921191406250E+0003  -2.84919824218750E+0003  -2.84912304687500E+0003  -2.84895727539063E+0003  -2.84868530273438E+0003  -2.84831274414063E+0003  -2.84784790039063E+0003  -2.84731152343750E+0003  -2.84674487304688E+0003  -2.84614965820313E+0003  -2.84553442382813E+0003  -2.84495239257813E+0003  -2.84442089843750E+0003  -2.84394116210938E+0003  -2.84339062500000E+0003  -2.84278710937500E+0003  -2.84210986328125E+0003  -2.84130175781250E+0003  -2.84031933593750E+0003  -2.83913281250000E+0003  -2.83778076171875E+0003  -2.83635522460938E+0003  -2.83499536132813E+0003  -2.83387084960938E+0003  -2.83319433593750E+0003  -2.83314477539063E+0003  -2.83360302734375E+0003  -2.83427978515625E+0003  -2.83503808593750E+0003  -2.83577954101563E+0003  -2.83640747070313E+0003  -2.83686572265625E+0003  -2.83719018554688E+0003  -2.83744677734375E+0003  -2.83769897460938E+0003  -2.83794555664063E+0003  -2.83820507812500E+0003  -2.83851904296875E+0003  -2.83885327148438E+0003  -2.83918627929688E+0003  -2.83952270507813E+0003  -2.83987158203125E+0003  -2.84024316406250E+0003  -2.84063867187500E+0003  -2.84103930664063E+0003  -2.84142553710938E+0003  -2.84178442382813E+0003  -2.84209716796875E+0003  -2.84236669921875E+0003  -2.84258862304688E+0003  -2.84274658203125E+0003  -2.84284814453125E+0003  -2.84291674804688E+0003  -2.84297680664063E+0003  -2.84304663085938E+0003  -2.84285034179688E+0003  -2.84263208007813E+0003  -2.84240039062500E+0003  -2.84212304687500E+0003  -2.84180590820313E+0003  -2.84148681640625E+0003  -2.84121899414063E+0003  -2.84106030273438E+0003  -2.84101806640625E+0003  -2.84106884765625E+0003  -2.84106933593750E+0003  -2.84107983398438E+0003  -2.84108935546875E+0003  -2.84086035156250E+0003  -2.84051806640625E+0003  -2.84017797851563E+0003  -2.83985742187500E+0003  -2.83957714843750E+0003  -2.83935693359375E+0003  -2.83921728515625E+0003  -2.83915966796875E+0003  -2.83918554687500E+0003  -2.83929370117188E+0003  -2.83947875976563E+0003  -2.83972680664063E+0003  -2.84001489257813E+0003  -2.84033178710938E+0003  -2.84065502929688E+0003  -2.84097900390625E+0003  -2.84129614257813E+0003  -2.84159936523438E+0003  -2.84188208007813E+0003  -2.84215283203125E+0003  -2.84240844726563E+0003  -2.84265551757813E+0003  -2.84282470703125E+0003  -2.84299584960938E+0003  -2.84318701171875E+0003  -2.84340063476563E+0003  -2.84363647460938E+0003  -2.84390258789063E+0003  -2.84419677734375E+0003  -2.84452319335938E+0003  -2.84488256835938E+0003  -2.84527832031250E+0003  -2.84572192382813E+0003  -2.84622338867188E+0003  -2.84676416015625E+0003  -2.84732690429688E+0003  -2.84788330078125E+0003  -2.84841259765625E+0003  -2.84890576171875E+0003  -2.84936059570313E+0003  -2.84978051757813E+0003  -2.85016479492188E+0003  -2.85051074218750E+0003  -2.85081713867188E+0003  -2.85107910156250E+0003  -2.85129785156250E+0003  -2.85146972656250E+0003  -2.85159423828125E+0003  -2.85167163085938E+0003  -2.85170629882813E+0003  -2.85169604492188E+0003  -2.85164282226563E+0003  -2.85154443359375E+0003
  -2.85558813476563E+0003  -2.85583666992188E+0003  -2.85607592773438E+0003  -2.85630224609375E+0003  -2.85651562500000E+0003  -2.85671655273438E+0003  -2.85690576171875E+0003  -2.85707983398438E+0003  -2.85724560546875E+0003  -2.85739648437500E+0003  -2.85753515625000E+0003  -2.85766113281250E+0003  -2.85777465820313E+0003  -2.85787695312500E+0003  -2.85796533203125E+0003  -2.85804150390625E+0003  -2.85810546875000E+0003  -2.85815893554688E+0003  -2.85820117187500E+0003  -2.85823291015625E+0003  -2.85825463867188E+0003  -2.85826782226563E+0003  -2.85827050781250E+0003  -2.85826440429688E+0003  -2.85825122070313E+0003  -2.85823120117188E+0003  -2.85820214843750E+0003  -2.85816943359375E+0003  -2.85813061523438E+0003  -2.85808837890625E+0003  -2.85803857421875E+0003  -2.85798535156250E+0003  -2.85792993164063E+0003  -2.85787011718750E+0003  -2.85781030273438E+0003  -2.85774536132813E+0003  -2.85767993164063E+0003  -2.85761157226563E+0003  -2.85754248046875E+0003  -2.85747119140625E+0003  -2.85739843750000E+0003  -2.85732641601563E+0003  -2.85725195312500E+0003  -2.85717822265625E+0003  -2.85710473632813E+0003  -2.85703247070313E+0003  -2.85696166992188E+0003  -2.85689282226563E+0003  -2.85682568359375E+0003  -2.85675634765625E+0003  -2.85668359375000E+0003  -2.85660742187500E+0003  -2.85652563476563E+0003  -2.85644067382813E+0003  -2.85634887695313E+0003  -2.85624975585938E+0003  -2.85614306640625E+0003  -2.85602709960938E+0003  -2.85590307617188E+0003  -2.85577099609375E+0003  -2.85562548828125E+0003  -2.85547265625000E+0003  -2.85530639648438E+0003  -2.85512670898438E+0003  -2.85493286132813E+0003  -2.85472509765625E+0003  -2.85450097656250E+0003  -2.85425268554688E+0003  -2.85398388671875E+0003  -2.85368969726563E+0003  -2.85336889648438E+0003  -2.85302368164063E+0003  -2.85265869140625E+0003  -2.85227490234375E+0003  -2.85187695312500E+0003  -2.85147070312500E+0003  -2.85106054687500E+0003  -2.85065307617188E+0003  -2.85025122070313E+0003  -2.84985302734375E+0003  -2.84946484375000E+0003  -2.84908300781250E+0003  -2.84870312500000E+0003  -2.84832983398438E+0003  -2.84795288085938E+0003  -2.84757397460938E+0003  -2.84720263671875E+0003  -2.84684350585938E+0003  -2.84649633789063E+0003  -2.84616625976563E+0003  -2.84588061523438E+0003  -2.84566064453125E+0003  -2.84551660156250E+0003  -2.84545190429688E+0003  -2.84544873046875E+0003  -2.84548535156250E+0003  -2.84555761718750E+0003  -2.84566162109375E+0003  -2.84578515625000E+0003  -2.84593774414063E+0003  -2.84612084960938E+0003  -2.84632763671875E+0003  -2.84653662109375E+0003  -2.84673901367188E+0003  -2.84691186523438E+0003  -2.84705664062500E+0003  -2.84719335937500E+0003  -2.84733715820313E+0003  -2.84747705078125E+0003  -2.84759521484375E+0003  -2.84772241210938E+0003  -2.84782958984375E+0003  -2.84790771484375E+0003  -2.84794604492188E+0003  -2.84793066406250E+0003  -2.84786230468750E+0003  -2.84770288085938E+0003  -2.84740942382813E+0003  -2.84700634765625E+0003  -2.84650683593750E+0003  -2.84593652343750E+0003  -2.84534301757813E+0003  -2.84472973632813E+0003  -2.84411132812500E+0003  -2.84353051757813E+0003  -2.84299731445313E+0003  -2.84250683593750E+0003  -2.84197192382813E+0003  -2.84135766601563E+0003  -2.84065722656250E+0003  -2.83980517578125E+0003  -2.83874389648438E+0003  -2.83743481445313E+0003  -2.83591967773438E+0003  -2.83430395507813E+0003  -2.83275195312500E+0003  -2.83145434570313E+0003  -2.83067211914063E+0003  -2.83065014648438E+0003  -2.83119970703125E+0003  -2.83198535156250E+0003  -2.83284033203125E+0003  -2.83365283203125E+0003  -2.83430932617188E+0003  -2.83473852539063E+0003  -2.83500561523438E+0003  -2.83519873046875E+0003  -2.83541333007813E+0003  -2.83562158203125E+0003  -2.83592749023438E+0003  -2.83629858398438E+0003  -2.83667773437500E+0003  -2.83703564453125E+0003  -2.83738256835938E+0003  -2.83774438476563E+0003  -2.83813452148438E+0003  -2.83856005859375E+0003  -2.83900073242188E+0003  -2.83942724609375E+0003  -2.83981958007813E+0003  -2.84015844726563E+0003  -2.84043920898438E+0003  -2.84065991210938E+0003  -2.84080761718750E+0003  -2.84089770507813E+0003  -2.84096850585938E+0003  -2.84104785156250E+0003  -2.84089208984375E+0003  -2.84074731445313E+0003  -2.84061547851563E+0003  -2.84043505859375E+0003  -2.84015185546875E+0003  -2.83978564453125E+0003  -2.83941235351563E+0003  -2.83912182617188E+0003  -2.83900268554688E+0003  -2.83905810546875E+0003  -2.83924023437500E+0003  -2.83939916992188E+0003  -2.83954565429688E+0003  -2.83967504882813E+0003  -2.83963867187500E+0003  -2.83936157226563E+0003  -2.83907177734375E+0003  -2.83879174804688E+0003  -2.83854418945313E+0003  -2.83835693359375E+0003  -2.83825219726563E+0003  -2.83823266601563E+0003  -2.83829663085938E+0003  -2.83844165039063E+0003  -2.83865942382813E+0003  -2.83894140625000E+0003  -2.83926123046875E+0003  -2.83960644531250E+0003  -2.83996069335938E+0003  -2.84031445312500E+0003  -2.84065502929688E+0003  -2.84097680664063E+0003  -2.84127343750000E+0003  -2.84154956054688E+0003  -2.84180712890625E+0003  -2.84205517578125E+0003  -2.84221411132813E+0003  -2.84238354492188E+0003  -2.84257202148438E+0003  -2.84277636718750E+0003  -2.84299926757813E+0003  -2.84324609375000E+0003  -2.84352148437500E+0003  -2.84382641601563E+0003  -2.84416503906250E+0003  -2.84454370117188E+0003  -2.84497021484375E+0003  -2.84544848632813E+0003  -2.84596704101563E+0003  -2.84651123046875E+0003  -2.84705639648438E+0003  -2.84757910156250E+0003  -2.84807226562500E+0003  -2.84853442382813E+0003  -2.84896557617188E+0003  -2.84936499023438E+0003  -2.84972827148438E+0003  -2.85005151367188E+0003  -2.85032958984375E+0003  -2.85056323242188E+0003  -2.85074731445313E+0003  -2.85088354492188E+0003  -2.85097509765625E+0003  -2.85101953125000E+0003  -2.85102343750000E+0003  -2.85098291015625E+0003  -2.85089941406250E+0003
  -2.85566088867188E+0003  -2.85591137695313E+0003  -2.85614697265625E+0003  -2.85637280273438E+0003  -2.85658471679688E+0003  -2.85678271484375E+0003  -2.85696997070313E+0003  -2.85714404296875E+0003  -2.85730468750000E+0003  -2.85745190429688E+0003  -2.85758886718750E+0003  -2.85771142578125E+0003  -2.85782250976563E+0003  -2.85791748046875E+0003  -2.85800366210938E+0003  -2.85807568359375E+0003  -2.85813378906250E+0003  -2.85818090820313E+0003  -2.85821728515625E+0003  -2.85824316406250E+0003  -2.85825781250000E+0003  -2.85826293945313E+0003  -2.85825805664063E+0003  -2.85824633789063E+0003  -2.85822412109375E+0003  -2.85819482421875E+0003  -2.85815844726563E+0003  -2.85811572265625E+0003  -2.85806713867188E+0003  -2.85801367187500E+0003  -2.85795703125000E+0003  -2.85789428710938E+0003  -2.85782836914063E+0003  -2.85775952148438E+0003  -2.85768676757813E+0003  -2.85761181640625E+0003  -2.85753442382813E+0003  -2.85745458984375E+0003  -2.85737231445313E+0003  -2.85728979492188E+0003  -2.85720263671875E+0003  -2.85711694335938E+0003  -2.85702880859375E+0003  -2.85693994140625E+0003  -2.85685205078125E+0003  -2.85676562500000E+0003  -2.85668139648438E+0003  -2.85660058593750E+0003  -2.85651879882813E+0003  -2.85643432617188E+0003  -2.85634643554688E+0003  -2.85625292968750E+0003  -2.85615405273438E+0003  -2.85604858398438E+0003  -2.85593554687500E+0003  -2.85581542968750E+0003  -2.85568505859375E+0003  -2.85554589843750E+0003  -2.85539794921875E+0003  -2.85523950195313E+0003  -2.85507006835938E+0003  -2.85488867187500E+0003  -2.85469018554688E+0003  -2.85447851562500E+0003  -2.85425073242188E+0003  -2.85400537109375E+0003  -2.85373925781250E+0003  -2.85345092773438E+0003  -2.85314013671875E+0003  -2.85280175781250E+0003  -2.85243457031250E+0003  -2.85204858398438E+0003  -2.85164257812500E+0003  -2.85122534179688E+0003  -2.85080200195313E+0003  -2.85037719726563E+0003  -2.84995581054688E+0003  -2.84954345703125E+0003  -2.84914135742188E+0003  -2.84874877929688E+0003  -2.84836401367188E+0003  -2.84798559570313E+0003  -2.84761010742188E+0003  -2.84723754882813E+0003  -2.84686547851563E+0003  -2.84649682617188E+0003  -2.84613793945313E+0003  -2.84579687500000E+0003  -2.84547656250000E+0003  -2.84518188476563E+0003  -2.84493188476563E+0003  -2.84472973632813E+0003  -2.84457299804688E+0003  -2.84445581054688E+0003  -2.84437207031250E+0003  -2.84430737304688E+0003  -2.84426708984375E+0003  -2.84425390625000E+0003  -2.84427368164063E+0003  -2.84433666992188E+0003  -2.84445507812500E+0003  -2.84462963867188E+0003  -2.84484155273438E+0003  -2.84506713867188E+0003  -2.84528051757813E+0003  -2.84546606445313E+0003  -2.84563256835938E+0003  -2.84579516601563E+0003  -2.84592407226563E+0003  -2.84600537109375E+0003  -2.84608862304688E+0003  -2.84615551757813E+0003  -2.84620825195313E+0003  -2.84623925781250E+0003  -2.84622875976563E+0003  -2.84617651367188E+0003  -2.84603173828125E+0003  -2.84574145507813E+0003  -2.84533813476563E+0003  -2.84485278320313E+0003  -2.84429760742188E+0003  -2.84371142578125E+0003  -2.84310815429688E+0003  -2.84251391601563E+0003  -2.84194970703125E+0003  -2.84142407226563E+0003  -2.84093408203125E+0003  -2.84044946289063E+0003  -2.83984960937500E+0003  -2.83916772460938E+0003  -2.83833154296875E+0003  -2.83727612304688E+0003  -2.83595166015625E+0003  -2.83441308593750E+0003  -2.83276977539063E+0003  -2.83119824218750E+0003  -2.82988867187500E+0003  -2.82908666992188E+0003  -2.82901904296875E+0003  -2.82951660156250E+0003  -2.83026269531250E+0003  -2.83108520507813E+0003  -2.83185351562500E+0003  -2.83243505859375E+0003  -2.83275366210938E+0003  -2.83288867187500E+0003  -2.83295849609375E+0003  -2.83303833007813E+0003  -2.83322656250000E+0003  -2.83357714843750E+0003  -2.83400341796875E+0003  -2.83442651367188E+0003  -2.83480493164063E+0003  -2.83516040039063E+0003  -2.83552661132813E+0003  -2.83592919921875E+0003  -2.83638378906250E+0003  -2.83685766601563E+0003  -2.83732153320313E+0003  -2.83774145507813E+0003  -2.83809423828125E+0003  -2.83837915039063E+0003  -2.83858496093750E+0003  -2.83870263671875E+0003  -2.83874877929688E+0003  -2.83879541015625E+0003  -2.83859521484375E+0003  -2.83847436523438E+0003  -2.83847167968750E+0003  -2.83846997070313E+0003  -2.83836889648438E+0003  -2.83809301757813E+0003  -2.83767407226563E+0003  -2.83722753906250E+0003  -2.83689331054688E+0003  -2.83681298828125E+0003  -2.83698901367188E+0003  -2.83733715820313E+0003  -2.83770019531250E+0003  -2.83801220703125E+0003  -2.83828222656250E+0003  -2.83841040039063E+0003  -2.83821289062500E+0003  -2.83797900390625E+0003  -2.83773486328125E+0003  -2.83751806640625E+0003  -2.83735815429688E+0003  -2.83728100585938E+0003  -2.83729467773438E+0003  -2.83739208984375E+0003  -2.83757031250000E+0003  -2.83782543945313E+0003  -2.83813647460938E+0003  -2.83849047851563E+0003  -2.83886840820313E+0003  -2.83925512695313E+0003  -2.83963818359375E+0003  -2.84000341796875E+0003  -2.84034399414063E+0003  -2.84064868164063E+0003  -2.84092529296875E+0003  -2.84118627929688E+0003  -2.84141894531250E+0003  -2.84157934570313E+0003  -2.84175634765625E+0003  -2.84194921875000E+0003  -2.84215527343750E+0003  -2.84237988281250E+0003  -2.84262255859375E+0003  -2.84288574218750E+0003  -2.84318066406250E+0003  -2.84350756835938E+0003  -2.84387109375000E+0003  -2.84428125000000E+0003  -2.84473632812500E+0003  -2.84523437500000E+0003  -2.84575561523438E+0003  -2.84627832031250E+0003  -2.84679003906250E+0003  -2.84727514648438E+0003  -2.84773779296875E+0003  -2.84817382812500E+0003  -2.84857836914063E+0003  -2.84894995117188E+0003  -2.84928393554688E+0003  -2.84957226562500E+0003  -2.84981713867188E+0003  -2.85001196289063E+0003  -2.85015869140625E+0003  -2.85026171875000E+0003  -2.85031933593750E+0003  -2.85033398437500E+0003  -2.85030786132813E+0003  -2.85023730468750E+0003
  -2.85573095703125E+0003  -2.85598120117188E+0003  -2.85621704101563E+0003  -2.85643872070313E+0003  -2.85664916992188E+0003  -2.85684716796875E+0003  -2.85703149414063E+0003  -2.85720166015625E+0003  -2.85735913085938E+0003  -2.85750317382813E+0003  -2.85763500976563E+0003  -2.85775463867188E+0003  -2.85785888671875E+0003  -2.85795019531250E+0003  -2.85802954101563E+0003  -2.85809521484375E+0003  -2.85814672851563E+0003  -2.85818847656250E+0003  -2.85821826171875E+0003  -2.85823681640625E+0003  -2.85824291992188E+0003  -2.85824047851563E+0003  -2.85822680664063E+0003  -2.85820507812500E+0003  -2.85817578125000E+0003  -2.85813671875000E+0003  -2.85809130859375E+0003  -2.85804052734375E+0003  -2.85798193359375E+0003  -2.85791772460938E+0003  -2.85785107421875E+0003  -2.85777905273438E+0003  -2.85770190429688E+0003  -2.85762524414063E+0003  -2.85754077148438E+0003  -2.85745678710938E+0003  -2.85736645507813E+0003  -2.85727416992188E+0003  -2.85718066406250E+0003  -2.85708276367188E+0003  -2.85698437500000E+0003  -2.85688330078125E+0003  -2.85678051757813E+0003  -2.85667846679688E+0003  -2.85657275390625E+0003  -2.85647241210938E+0003  -2.85637573242188E+0003  -2.85627978515625E+0003  -2.85618359375000E+0003  -2.85608447265625E+0003  -2.85597656250000E+0003  -2.85586450195313E+0003  -2.85574536132813E+0003  -2.85562060546875E+0003  -2.85548510742188E+0003  -2.85534204101563E+0003  -2.85518652343750E+0003  -2.85502270507813E+0003  -2.85484594726563E+0003  -2.85465991210938E+0003  -2.85446166992188E+0003  -2.85424877929688E+0003  -2.85401977539063E+0003  -2.85377490234375E+0003  -2.85351367187500E+0003  -2.85323046875000E+0003  -2.85292602539063E+0003  -2.85259936523438E+0003  -2.85224829101563E+0003  -2.85186816406250E+0003  -2.85146386718750E+0003  -2.85103955078125E+0003  -2.85060546875000E+0003  -2.85016650390625E+0003  -2.84973168945313E+0003  -2.84930346679688E+0003  -2.84888598632813E+0003  -2.84848559570313E+0003  -2.84809716796875E+0003  -2.84771948242188E+0003  -2.84734472656250E+0003  -2.84697241210938E+0003  -2.84659985351563E+0003  -2.84623437500000E+0003  -2.84587475585938E+0003  -2.84552124023438E+0003  -2.84518481445313E+0003  -2.84487280273438E+0003  -2.84459667968750E+0003  -2.84435693359375E+0003  -2.84415209960938E+0003  -2.84396777343750E+0003  -2.84379052734375E+0003  -2.84360083007813E+0003  -2.84339990234375E+0003  -2.84319360351563E+0003  -2.84299194335938E+0003  -2.84280297851563E+0003  -2.84265283203125E+0003  -2.84256738281250E+0003  -2.84256884765625E+0003  -2.84267993164063E+0003  -2.84287573242188E+0003  -2.84312133789063E+0003  -2.84338085937500E+0003  -2.84362573242188E+0003  -2.84384106445313E+0003  -2.84401611328125E+0003  -2.84411572265625E+0003  -2.84412841796875E+0003  -2.84409814453125E+0003  -2.84405834960938E+0003  -2.84404321289063E+0003  -2.84406323242188E+0003  -2.84407568359375E+0003  -2.84405126953125E+0003  -2.84392773437500E+0003  -2.84367456054688E+0003  -2.84331005859375E+0003  -2.84286596679688E+0003  -2.84236499023438E+0003  -2.84182910156250E+0003  -2.84127319335938E+0003  -2.84072314453125E+0003  -2.84019604492188E+0003  -2.83969702148438E+0003  -2.83922558593750E+0003  -2.83877661132813E+0003  -2.83827270507813E+0003  -2.83765014648438E+0003  -2.83688647460938E+0003  -2.83592016601563E+0003  -2.83470141601563E+0003  -2.83328149414063E+0003  -2.83178222656250E+0003  -2.83036181640625E+0003  -2.82919262695313E+0003  -2.82845361328125E+0003  -2.82828613281250E+0003  -2.82859716796875E+0003  -2.82916406250000E+0003  -2.82982788085938E+0003  -2.83043066406250E+0003  -2.83083129882813E+0003  -2.83095214843750E+0003  -2.83088476562500E+0003  -2.83076904296875E+0003  -2.83064624023438E+0003  -2.83081958007813E+0003  -2.83120019531250E+0003  -2.83167333984375E+0003  -2.83213549804688E+0003  -2.83252832031250E+0003  -2.83288647460938E+0003  -2.83325878906250E+0003  -2.83367724609375E+0003  -2.83416870117188E+0003  -2.83467431640625E+0003  -2.83515649414063E+0003  -2.83559643554688E+0003  -2.83595678710938E+0003  -2.83623510742188E+0003  -2.83641894531250E+0003  -2.83648339843750E+0003  -2.83646411132813E+0003  -2.83613378906250E+0003  -2.83590380859375E+0003  -2.83590966796875E+0003  -2.83608984375000E+0003  -2.83625537109375E+0003  -2.83626025390625E+0003  -2.83600854492188E+0003  -2.83554101562500E+0003  -2.83500878906250E+0003  -2.83461450195313E+0003  -2.83457470703125E+0003  -2.83489160156250E+0003  -2.83543457031250E+0003  -2.83603588867188E+0003  -2.83653051757813E+0003  -2.83694555664063E+0003  -2.83719848632813E+0003  -2.83708178710938E+0003  -2.83690185546875E+0003  -2.83669873046875E+0003  -2.83649877929688E+0003  -2.83636547851563E+0003  -2.83630517578125E+0003  -2.83633325195313E+0003  -2.83645605468750E+0003  -2.83666577148438E+0003  -2.83694946289063E+0003  -2.83729589843750E+0003  -2.83768359375000E+0003  -2.83809619140625E+0003  -2.83852783203125E+0003  -2.83895117187500E+0003  -2.83933666992188E+0003  -2.83968359375000E+0003  -2.83999511718750E+0003  -2.84027343750000E+0003  -2.84053125000000E+0003  -2.84074145507813E+0003  -2.84091137695313E+0003  -2.84110131835938E+0003  -2.84130590820313E+0003  -2.84152709960938E+0003  -2.84175634765625E+0003  -2.84200415039063E+0003  -2.84227197265625E+0003  -2.84256713867188E+0003  -2.84289062500000E+0003  -2.84324951171875E+0003  -2.84364501953125E+0003  -2.84408325195313E+0003  -2.84455761718750E+0003  -2.84504980468750E+0003  -2.84554858398438E+0003  -2.84604101562500E+0003  -2.84651757812500E+0003  -2.84697265625000E+0003  -2.84740429687500E+0003  -2.84781005859375E+0003  -2.84818505859375E+0003  -2.84852368164063E+0003  -2.84881811523438E+0003  -2.84906835937500E+0003  -2.84927050781250E+0003  -2.84942700195313E+0003  -2.84953857421875E+0003  -2.84960595703125E+0003  -2.84963256835938E+0003  -2.84961645507813E+0003  -2.84956201171875E+0003
  -2.85580249023438E+0003  -2.85605102539063E+0003  -2.85628442382813E+0003  -2.85650537109375E+0003  -2.85671191406250E+0003  -2.85690600585938E+0003  -2.85708715820313E+0003  -2.85725292968750E+0003  -2.85740625000000E+0003  -2.85754541015625E+0003  -2.85767358398438E+0003  -2.85778491210938E+0003  -2.85788476562500E+0003  -2.85797143554688E+0003  -2.85804223632813E+0003  -2.85810107421875E+0003  -2.85814648437500E+0003  -2.85818017578125E+0003  -2.85820019531250E+0003  -2.85820996093750E+0003  -2.85820922851563E+0003  -2.85819702148438E+0003  -2.85817626953125E+0003  -2.85814477539063E+0003  -2.85810473632813E+0003  -2.85805761718750E+0003  -2.85800268554688E+0003  -2.85794091796875E+0003  -2.85787377929688E+0003  -2.85780053710938E+0003  -2.85772290039063E+0003  -2.85764111328125E+0003  -2.85755541992188E+0003  -2.85746459960938E+0003  -2.85737158203125E+0003  -2.85727465820313E+0003  -2.85717333984375E+0003  -2.85707031250000E+0003  -2.85696264648438E+0003  -2.85685253906250E+0003  -2.85674023437500E+0003  -2.85662597656250E+0003  -2.85650903320313E+0003  -2.85639160156250E+0003  -2.85627490234375E+0003  -2.85615966796875E+0003  -2.85604614257813E+0003  -2.85593457031250E+0003  -2.85582177734375E+0003  -2.85570385742188E+0003  -2.85557763671875E+0003  -2.85544726562500E+0003  -2.85530761718750E+0003  -2.85515869140625E+0003  -2.85500097656250E+0003  -2.85483105468750E+0003  -2.85465014648438E+0003  -2.85445874023438E+0003  -2.85425585937500E+0003  -2.85404077148438E+0003  -2.85381030273438E+0003  -2.85356591796875E+0003  -2.85330712890625E+0003  -2.85302978515625E+0003  -2.85273364257813E+0003  -2.85241503906250E+0003  -2.85207617187500E+0003  -2.85171289062500E+0003  -2.85132641601563E+0003  -2.85091455078125E+0003  -2.85047900390625E+0003  -2.85002856445313E+0003  -2.84957641601563E+0003  -2.84912719726563E+0003  -2.84869140625000E+0003  -2.84827319335938E+0003  -2.84787304687500E+0003  -2.84748828125000E+0003  -2.84711474609375E+0003  -2.84675024414063E+0003  -2.84638623046875E+0003  -2.84602099609375E+0003  -2.84566137695313E+0003  -2.84530395507813E+0003  -2.84495678710938E+0003  -2.84462548828125E+0003  -2.84432055664063E+0003  -2.84404565429688E+0003  -2.84381518554688E+0003  -2.84362817382813E+0003  -2.84346606445313E+0003  -2.84329614257813E+0003  -2.84308764648438E+0003  -2.84281469726563E+0003  -2.84248339843750E+0003  -2.84212109375000E+0003  -2.84174096679688E+0003  -2.84135961914063E+0003  -2.84101196289063E+0003  -2.84074755859375E+0003  -2.84060742187500E+0003  -2.84062866210938E+0003  -2.84079003906250E+0003  -2.84105834960938E+0003  -2.84136303710938E+0003  -2.84165527343750E+0003  -2.84190112304688E+0003  -2.84206665039063E+0003  -2.84210913085938E+0003  -2.84201269531250E+0003  -2.84184057617188E+0003  -2.84166455078125E+0003  -2.84156713867188E+0003  -2.84157568359375E+0003  -2.84162231445313E+0003  -2.84163427734375E+0003  -2.84155346679688E+0003  -2.84135278320313E+0003  -2.84104980468750E+0003  -2.84067211914063E+0003  -2.84024389648438E+0003  -2.83978027343750E+0003  -2.83929858398438E+0003  -2.83881054687500E+0003  -2.83833300781250E+0003  -2.83787548828125E+0003  -2.83743652343750E+0003  -2.83701586914063E+0003  -2.83661474609375E+0003  -2.83611425781250E+0003  -2.83546459960938E+0003  -2.83464233398438E+0003  -2.83359594726563E+0003  -2.83237817382813E+0003  -2.83109277343750E+0003  -2.82988403320313E+0003  -2.82889453125000E+0003  -2.82823193359375E+0003  -2.82797875976563E+0003  -2.82809106445313E+0003  -2.82844604492188E+0003  -2.82889453125000E+0003  -2.82927807617188E+0003  -2.82944873046875E+0003  -2.82932739257813E+0003  -2.82902661132813E+0003  -2.82858837890625E+0003  -2.82835375976563E+0003  -2.82847363281250E+0003  -2.82886035156250E+0003  -2.82935327148438E+0003  -2.82983618164063E+0003  -2.83023510742188E+0003  -2.83060327148438E+0003  -2.83098657226563E+0003  -2.83143408203125E+0003  -2.83195654296875E+0003  -2.83249072265625E+0003  -2.83299951171875E+0003  -2.83345629882813E+0003  -2.83382397460938E+0003  -2.83409814453125E+0003  -2.83426098632813E+0003  -2.83428417968750E+0003  -2.83382885742188E+0003  -2.83343530273438E+0003  -2.83326293945313E+0003  -2.83340014648438E+0003  -2.83376098632813E+0003  -2.83409521484375E+0003  -2.83421655273438E+0003  -2.83400952148438E+0003  -2.83352197265625E+0003  -2.83293188476563E+0003  -2.83250000000000E+0003  -2.83251513671875E+0003  -2.83296728515625E+0003  -2.83366772460938E+0003  -2.83447753906250E+0003  -2.83513403320313E+0003  -2.83568725585938E+0003  -2.83603637695313E+0003  -2.83598388671875E+0003  -2.83584545898438E+0003  -2.83567333984375E+0003  -2.83549316406250E+0003  -2.83536425781250E+0003  -2.83531518554688E+0003  -2.83534960937500E+0003  -2.83548901367188E+0003  -2.83571850585938E+0003  -2.83602783203125E+0003  -2.83640332031250E+0003  -2.83682373046875E+0003  -2.83727294921875E+0003  -2.83774902343750E+0003  -2.83820312500000E+0003  -2.83861328125000E+0003  -2.83897534179688E+0003  -2.83930053710938E+0003  -2.83958642578125E+0003  -2.83984667968750E+0003  -2.84002954101563E+0003  -2.84021679687500E+0003  -2.84042675781250E+0003  -2.84064892578125E+0003  -2.84088403320313E+0003  -2.84112890625000E+0003  -2.84138867187500E+0003  -2.84166748046875E+0003  -2.84197021484375E+0003  -2.84229833984375E+0003  -2.84265625000000E+0003  -2.84304760742188E+0003  -2.84346923828125E+0003  -2.84391821289063E+0003  -2.84438598632813E+0003  -2.84485961914063E+0003  -2.84533203125000E+0003  -2.84579003906250E+0003  -2.84623217773438E+0003  -2.84665771484375E+0003  -2.84705712890625E+0003  -2.84743041992188E+0003  -2.84776684570313E+0003  -2.84806445312500E+0003  -2.84831738281250E+0003  -2.84852368164063E+0003  -2.84868579101563E+0003  -2.84880566406250E+0003  -2.84888378906250E+0003  -2.84891943359375E+0003  -2.84891821289063E+0003  -2.84887500000000E+0003
  -2.85587231445313E+0003  -2.85611791992188E+0003  -2.85634887695313E+0003  -2.85656665039063E+0003  -2.85677026367188E+0003  -2.85695996093750E+0003  -2.85713525390625E+0003  -2.85729663085938E+0003  -2.85744482421875E+0003  -2.85757934570313E+0003  -2.85769921875000E+0003  -2.85780541992188E+0003  -2.85789721679688E+0003  -2.85797509765625E+0003  -2.85804028320313E+0003  -2.85809082031250E+0003  -2.85812890625000E+0003  -2.85815185546875E+0003  -2.85816455078125E+0003  -2.85816650390625E+0003  -2.85815380859375E+0003  -2.85813378906250E+0003  -2.85810302734375E+0003  -2.85806103515625E+0003  -2.85801245117188E+0003  -2.85795385742188E+0003  -2.85789013671875E+0003  -2.85781860351563E+0003  -2.85774121093750E+0003  -2.85765698242188E+0003  -2.85756982421875E+0003  -2.85747851562500E+0003  -2.85738256835938E+0003  -2.85728149414063E+0003  -2.85717773437500E+0003  -2.85707006835938E+0003  -2.85695605468750E+0003  -2.85683984375000E+0003  -2.85672045898438E+0003  -2.85659887695313E+0003  -2.85647265625000E+0003  -2.85634594726563E+0003  -2.85621606445313E+0003  -2.85608374023438E+0003  -2.85595385742188E+0003  -2.85582592773438E+0003  -2.85569677734375E+0003  -2.85556762695313E+0003  -2.85543652343750E+0003  -2.85529882812500E+0003  -2.85515258789063E+0003  -2.85500122070313E+0003  -2.85483959960938E+0003  -2.85466918945313E+0003  -2.85448583984375E+0003  -2.85429125976563E+0003  -2.85408398437500E+0003  -2.85386523437500E+0003  -2.85363476562500E+0003  -2.85338891601563E+0003  -2.85312866210938E+0003  -2.85285498046875E+0003  -2.85256176757813E+0003  -2.85225463867188E+0003  -2.85192431640625E+0003  -2.85157397460938E+0003  -2.85120214843750E+0003  -2.85080932617188E+0003  -2.85039575195313E+0003  -2.84995971679688E+0003  -2.84950488281250E+0003  -2.84904248046875E+0003  -2.84858447265625E+0003  -2.84813793945313E+0003  -2.84771142578125E+0003  -2.84731176757813E+0003  -2.84693212890625E+0003  -2.84656494140625E+0003  -2.84620507812500E+0003  -2.84584692382813E+0003  -2.84548901367188E+0003  -2.84512890625000E+0003  -2.84477050781250E+0003  -2.84441992187500E+0003  -2.84408618164063E+0003  -2.84377807617188E+0003  -2.84350073242188E+0003  -2.84326000976563E+0003  -2.84306250000000E+0003  -2.84291748046875E+0003  -2.84278906250000E+0003  -2.84262524414063E+0003  -2.84238037109375E+0003  -2.84201879882813E+0003  -2.84156445312500E+0003  -2.84105761718750E+0003  -2.84051513671875E+0003  -2.83996093750000E+0003  -2.83943530273438E+0003  -2.83899316406250E+0003  -2.83870385742188E+0003  -2.83862817382813E+0003  -2.83875073242188E+0003  -2.83902856445313E+0003  -2.83936596679688E+0003  -2.83967578125000E+0003  -2.83991357421875E+0003  -2.84003735351563E+0003  -2.83998730468750E+0003  -2.83974365234375E+0003  -2.83938281250000E+0003  -2.83902539062500E+0003  -2.83885937500000E+0003  -2.83893554687500E+0003  -2.83907202148438E+0003  -2.83912622070313E+0003  -2.83907958984375E+0003  -2.83892846679688E+0003  -2.83869091796875E+0003  -2.83838696289063E+0003  -2.83803857421875E+0003  -2.83766113281250E+0003  -2.83726269531250E+0003  -2.83684936523438E+0003  -2.83643115234375E+0003  -2.83601831054688E+0003  -2.83561254882813E+0003  -2.83522827148438E+0003  -2.83486889648438E+0003  -2.83451562500000E+0003  -2.83405322265625E+0003  -2.83339135742188E+0003  -2.83254638671875E+0003  -2.83155273437500E+0003  -2.83048974609375E+0003  -2.82947119140625E+0003  -2.82862182617188E+0003  -2.82801708984375E+0003  -2.82771337890625E+0003  -2.82769433593750E+0003  -2.82788037109375E+0003  -2.82813256835938E+0003  -2.82830249023438E+0003  -2.82824096679688E+0003  -2.82788525390625E+0003  -2.82724023437500E+0003  -2.82660717773438E+0003  -2.82623901367188E+0003  -2.82628784179688E+0003  -2.82662939453125E+0003  -2.82709765625000E+0003  -2.82756762695313E+0003  -2.82796630859375E+0003  -2.82834594726563E+0003  -2.82875903320313E+0003  -2.82923608398438E+0003  -2.82979345703125E+0003  -2.83036474609375E+0003  -2.83090844726563E+0003  -2.83139453125000E+0003  -2.83177905273438E+0003  -2.83205981445313E+0003  -2.83222094726563E+0003  -2.83181079101563E+0003  -2.83133666992188E+0003  -2.83098754882813E+0003  -2.83089257812500E+0003  -2.83114404296875E+0003  -2.83164379882813E+0003  -2.83211401367188E+0003  -2.83234692382813E+0003  -2.83221313476563E+0003  -2.83176220703125E+0003  -2.83118872070313E+0003  -2.83076074218750E+0003  -2.83078686523438E+0003  -2.83131372070313E+0003  -2.83213940429688E+0003  -2.83306445312500E+0003  -2.83385864257813E+0003  -2.83447607421875E+0003  -2.83481689453125E+0003  -2.83485375976563E+0003  -2.83481152343750E+0003  -2.83465307617188E+0003  -2.83448437500000E+0003  -2.83436621093750E+0003  -2.83431542968750E+0003  -2.83434326171875E+0003  -2.83448559570313E+0003  -2.83472094726563E+0003  -2.83504980468750E+0003  -2.83544580078125E+0003  -2.83589526367188E+0003  -2.83637548828125E+0003  -2.83687841796875E+0003  -2.83736376953125E+0003  -2.83780493164063E+0003  -2.83820117187500E+0003  -2.83854785156250E+0003  -2.83885253906250E+0003  -2.83910131835938E+0003  -2.83929077148438E+0003  -2.83950732421875E+0003  -2.83973730468750E+0003  -2.83998291015625E+0003  -2.84023291015625E+0003  -2.84049487304688E+0003  -2.84077197265625E+0003  -2.84106347656250E+0003  -2.84137939453125E+0003  -2.84171606445313E+0003  -2.84207861328125E+0003  -2.84246337890625E+0003  -2.84287280273438E+0003  -2.84330273437500E+0003  -2.84374658203125E+0003  -2.84419653320313E+0003  -2.84464404296875E+0003  -2.84508520507813E+0003  -2.84551513671875E+0003  -2.84592602539063E+0003  -2.84631762695313E+0003  -2.84668261718750E+0003  -2.84701586914063E+0003  -2.84730932617188E+0003  -2.84756298828125E+0003  -2.84777294921875E+0003  -2.84793847656250E+0003  -2.84806518554688E+0003  -2.84815087890625E+0003  -2.84819824218750E+0003  -2.84820703125000E+0003  -2.84817822265625E+0003
  -2.85594018554688E+0003  -2.85618261718750E+0003  -2.85641088867188E+0003  -2.85662426757813E+0003  -2.85682324218750E+0003  -2.85700683593750E+0003  -2.85717749023438E+0003  -2.85733349609375E+0003  -2.85747314453125E+0003  -2.85760156250000E+0003  -2.85771362304688E+0003  -2.85781176757813E+0003  -2.85789746093750E+0003  -2.85796557617188E+0003  -2.85802270507813E+0003  -2.85806323242188E+0003  -2.85809106445313E+0003  -2.85810595703125E+0003  -2.85810888671875E+0003  -2.85810034179688E+0003  -2.85807885742188E+0003  -2.85804809570313E+0003  -2.85800732421875E+0003  -2.85795629882813E+0003  -2.85789746093750E+0003  -2.85782934570313E+0003  -2.85775537109375E+0003  -2.85767285156250E+0003  -2.85758642578125E+0003  -2.85749438476563E+0003  -2.85739575195313E+0003  -2.85729345703125E+0003  -2.85718676757813E+0003  -2.85707470703125E+0003  -2.85695776367188E+0003  -2.85683740234375E+0003  -2.85671264648438E+0003  -2.85658447265625E+0003  -2.85645141601563E+0003  -2.85631909179688E+0003  -2.85618041992188E+0003  -2.85604223632813E+0003  -2.85589892578125E+0003  -2.85575561523438E+0003  -2.85561328125000E+0003  -2.85546997070313E+0003  -2.85532592773438E+0003  -2.85517919921875E+0003  -2.85502807617188E+0003  -2.85487084960938E+0003  -2.85470507812500E+0003  -2.85453149414063E+0003  -2.85434887695313E+0003  -2.85415258789063E+0003  -2.85394775390625E+0003  -2.85372631835938E+0003  -2.85349291992188E+0003  -2.85324609375000E+0003  -2.85298754882813E+0003  -2.85271313476563E+0003  -2.85242407226563E+0003  -2.85211987304688E+0003  -2.85179907226563E+0003  -2.85146020507813E+0003  -2.85110253906250E+0003  -2.85072216796875E+0003  -2.85032226562500E+0003  -2.84990551757813E+0003  -2.84947412109375E+0003  -2.84902685546875E+0003  -2.84857104492188E+0003  -2.84811157226563E+0003  -2.84766064453125E+0003  -2.84722875976563E+0003  -2.84682031250000E+0003  -2.84644360351563E+0003  -2.84608764648438E+0003  -2.84573437500000E+0003  -2.84538183593750E+0003  -2.84502490234375E+0003  -2.84465991210938E+0003  -2.84429516601563E+0003  -2.84393164062500E+0003  -2.84357958984375E+0003  -2.84324682617188E+0003  -2.84294897460938E+0003  -2.84268408203125E+0003  -2.84245849609375E+0003  -2.84227539062500E+0003  -2.84214575195313E+0003  -2.84202783203125E+0003  -2.84185839843750E+0003  -2.84157250976563E+0003  -2.84113867187500E+0003  -2.84058666992188E+0003  -2.83997119140625E+0003  -2.83931225585938E+0003  -2.83863012695313E+0003  -2.83797314453125E+0003  -2.83739599609375E+0003  -2.83698876953125E+0003  -2.83682568359375E+0003  -2.83690332031250E+0003  -2.83716796875000E+0003  -2.83750390625000E+0003  -2.83779101562500E+0003  -2.83797998046875E+0003  -2.83802172851563E+0003  -2.83784008789063E+0003  -2.83739819335938E+0003  -2.83675268554688E+0003  -2.83610302734375E+0003  -2.83590527343750E+0003  -2.83628002929688E+0003  -2.83667309570313E+0003  -2.83675878906250E+0003  -2.83668457031250E+0003  -2.83655395507813E+0003  -2.83637011718750E+0003  -2.83613940429688E+0003  -2.83587255859375E+0003  -2.83557568359375E+0003  -2.83525390625000E+0003  -2.83490966796875E+0003  -2.83454541015625E+0003  -2.83416943359375E+0003  -2.83380053710938E+0003  -2.83345166015625E+0003  -2.83313793945313E+0003  -2.83284082031250E+0003  -2.83250976562500E+0003  -2.83210131835938E+0003  -2.83145654296875E+0003  -2.83065649414063E+0003  -2.82976928710938E+0003  -2.82890234375000E+0003  -2.82815649414063E+0003  -2.82759936523438E+0003  -2.82728295898438E+0003  -2.82719189453125E+0003  -2.82727368164063E+0003  -2.82739843750000E+0003  -2.82741210937500E+0003  -2.82717260742188E+0003  -2.82649511718750E+0003  -2.82568334960938E+0003  -2.82492578125000E+0003  -2.82444409179688E+0003  -2.82436767578125E+0003  -2.82458959960938E+0003  -2.82496093750000E+0003  -2.82537231445313E+0003  -2.82575781250000E+0003  -2.82615722656250E+0003  -2.82661791992188E+0003  -2.82713989257813E+0003  -2.82773510742188E+0003  -2.82835620117188E+0003  -2.82895605468750E+0003  -2.82948120117188E+0003  -2.82989770507813E+0003  -2.83020825195313E+0003  -2.82997949218750E+0003  -2.82959643554688E+0003  -2.82922192382813E+0003  -2.82898193359375E+0003  -2.82898706054688E+0003  -2.82931835937500E+0003  -2.82988403320313E+0003  -2.83043017578125E+0003  -2.83075781250000E+0003  -2.83073364257813E+0003  -2.83040698242188E+0003  -2.82992065429688E+0003  -2.82955957031250E+0003  -2.82967480468750E+0003  -2.83026269531250E+0003  -2.83112060546875E+0003  -2.83204785156250E+0003  -2.83286474609375E+0003  -2.83346215820313E+0003  -2.83368505859375E+0003  -2.83371923828125E+0003  -2.83369433593750E+0003  -2.83363354492188E+0003  -2.83348852539063E+0003  -2.83336059570313E+0003  -2.83329638671875E+0003  -2.83331958007813E+0003  -2.83344165039063E+0003  -2.83366870117188E+0003  -2.83399780273438E+0003  -2.83440844726563E+0003  -2.83487841796875E+0003  -2.83538403320313E+0003  -2.83590356445313E+0003  -2.83641479492188E+0003  -2.83689892578125E+0003  -2.83733935546875E+0003  -2.83772412109375E+0003  -2.83806835937500E+0003  -2.83830517578125E+0003  -2.83854541015625E+0003  -2.83879150390625E+0003  -2.83904614257813E+0003  -2.83930712890625E+0003  -2.83957714843750E+0003  -2.83985717773438E+0003  -2.84014843750000E+0003  -2.84045556640625E+0003  -2.84078393554688E+0003  -2.84113110351563E+0003  -2.84149584960938E+0003  -2.84187963867188E+0003  -2.84227929687500E+0003  -2.84269238281250E+0003  -2.84311621093750E+0003  -2.84354394531250E+0003  -2.84397241210938E+0003  -2.84439526367188E+0003  -2.84480810546875E+0003  -2.84520581054688E+0003  -2.84558740234375E+0003  -2.84594116210938E+0003  -2.84626708984375E+0003  -2.84655712890625E+0003  -2.84680761718750E+0003  -2.84701806640625E+0003  -2.84718945312500E+0003  -2.84732031250000E+0003  -2.84741503906250E+0003  -2.84747119140625E+0003  -2.84749096679688E+0003  -2.84747485351563E+0003
  -2.85600537109375E+0003  -2.85624438476563E+0003  -2.85646704101563E+0003  -2.85667651367188E+0003  -2.85686938476563E+0003  -2.85704809570313E+0003  -2.85721166992188E+0003  -2.85736010742188E+0003  -2.85749145507813E+0003  -2.85761181640625E+0003  -2.85771484375000E+0003  -2.85780468750000E+0003  -2.85788012695313E+0003  -2.85793823242188E+0003  -2.85798510742188E+0003  -2.85801757812500E+0003  -2.85803588867188E+0003  -2.85803930664063E+0003  -2.85803198242188E+0003  -2.85801245117188E+0003  -2.85798095703125E+0003  -2.85793847656250E+0003  -2.85788891601563E+0003  -2.85782690429688E+0003  -2.85775781250000E+0003  -2.85768115234375E+0003  -2.85759497070313E+0003  -2.85750390625000E+0003  -2.85740820312500E+0003  -2.85730395507813E+0003  -2.85719531250000E+0003  -2.85708251953125E+0003  -2.85696411132813E+0003  -2.85683984375000E+0003  -2.85671337890625E+0003  -2.85657861328125E+0003  -2.85644140625000E+0003  -2.85630224609375E+0003  -2.85615844726563E+0003  -2.85601391601563E+0003  -2.85586425781250E+0003  -2.85571386718750E+0003  -2.85556079101563E+0003  -2.85540625000000E+0003  -2.85525097656250E+0003  -2.85509521484375E+0003  -2.85493457031250E+0003  -2.85477099609375E+0003  -2.85459863281250E+0003  -2.85442333984375E+0003  -2.85423754882813E+0003  -2.85404199218750E+0003  -2.85383471679688E+0003  -2.85361645507813E+0003  -2.85338623046875E+0003  -2.85313964843750E+0003  -2.85288159179688E+0003  -2.85261010742188E+0003  -2.85232495117188E+0003  -2.85202563476563E+0003  -2.85170922851563E+0003  -2.85137841796875E+0003  -2.85102880859375E+0003  -2.85066284179688E+0003  -2.85027758789063E+0003  -2.84987451171875E+0003  -2.84945166015625E+0003  -2.84902099609375E+0003  -2.84858276367188E+0003  -2.84814135742188E+0003  -2.84769628906250E+0003  -2.84725756835938E+0003  -2.84682958984375E+0003  -2.84642578125000E+0003  -2.84604907226563E+0003  -2.84569677734375E+0003  -2.84535766601563E+0003  -2.84501269531250E+0003  -2.84465600585938E+0003  -2.84428759765625E+0003  -2.84390844726563E+0003  -2.84352416992188E+0003  -2.84313989257813E+0003  -2.84276660156250E+0003  -2.84241845703125E+0003  -2.84210449218750E+0003  -2.84183105468750E+0003  -2.84159643554688E+0003  -2.84140551757813E+0003  -2.84126513671875E+0003  -2.84113110351563E+0003  -2.84093383789063E+0003  -2.84061425781250E+0003  -2.84013476562500E+0003  -2.83952661132813E+0003  -2.83885205078125E+0003  -2.83813134765625E+0003  -2.83738476562500E+0003  -2.83666088867188E+0003  -2.83601293945313E+0003  -2.83553637695313E+0003  -2.83531616210938E+0003  -2.83534838867188E+0003  -2.83557641601563E+0003  -2.83586474609375E+0003  -2.83609008789063E+0003  -2.83619262695313E+0003  -2.83612158203125E+0003  -2.83578369140625E+0003  -2.83511010742188E+0003  -2.83412011718750E+0003  -2.83302465820313E+0003  -2.83273632812500E+0003  -2.83377954101563E+0003  -2.83466552734375E+0003  -2.83463256835938E+0003  -2.83446093750000E+0003  -2.83432202148438E+0003  -2.83417993164063E+0003  -2.83401562500000E+0003  -2.83381909179688E+0003  -2.83358837890625E+0003  -2.83332910156250E+0003  -2.83304785156250E+0003  -2.83272729492188E+0003  -2.83238110351563E+0003  -2.83203759765625E+0003  -2.83171704101563E+0003  -2.83144604492188E+0003  -2.83119897460938E+0003  -2.83093652343750E+0003  -2.83060278320313E+0003  -2.83016210937500E+0003  -2.82960986328125E+0003  -2.82884301757813E+0003  -2.82807641601563E+0003  -2.82740380859375E+0003  -2.82689135742188E+0003  -2.82657690429688E+0003  -2.82645922851563E+0003  -2.82650439453125E+0003  -2.82657519531250E+0003  -2.82645385742188E+0003  -2.82598632812500E+0003  -2.82524023437500E+0003  -2.82436230468750E+0003  -2.82354663085938E+0003  -2.82296777343750E+0003  -2.82273364257813E+0003  -2.82277343750000E+0003  -2.82298999023438E+0003  -2.82330664062500E+0003  -2.82366601562500E+0003  -2.82409521484375E+0003  -2.82460058593750E+0003  -2.82518408203125E+0003  -2.82584228515625E+0003  -2.82652294921875E+0003  -2.82717651367188E+0003  -2.82775048828125E+0003  -2.82821801757813E+0003  -2.82823852539063E+0003  -2.82797290039063E+0003  -2.82771093750000E+0003  -2.82749926757813E+0003  -2.82741894531250E+0003  -2.82754150390625E+0003  -2.82792211914063E+0003  -2.82849072265625E+0003  -2.82905859375000E+0003  -2.82946362304688E+0003  -2.82958276367188E+0003  -2.82941845703125E+0003  -2.82912109375000E+0003  -2.82896557617188E+0003  -2.82920141601563E+0003  -2.82981176757813E+0003  -2.83061840820313E+0003  -2.83144189453125E+0003  -2.83212500000000E+0003  -2.83261547851563E+0003  -2.83265258789063E+0003  -2.83262939453125E+0003  -2.83259179687500E+0003  -2.83254614257813E+0003  -2.83249658203125E+0003  -2.83235449218750E+0003  -2.83226904296875E+0003  -2.83226220703125E+0003  -2.83234985351563E+0003  -2.83254638671875E+0003  -2.83286596679688E+0003  -2.83328222656250E+0003  -2.83376708984375E+0003  -2.83429638671875E+0003  -2.83484326171875E+0003  -2.83538916015625E+0003  -2.83591381835938E+0003  -2.83640356445313E+0003  -2.83684448242188E+0003  -2.83718823242188E+0003  -2.83749707031250E+0003  -2.83778662109375E+0003  -2.83807177734375E+0003  -2.83834936523438E+0003  -2.83862915039063E+0003  -2.83891528320313E+0003  -2.83920996093750E+0003  -2.83951733398438E+0003  -2.83983837890625E+0003  -2.84017675781250E+0003  -2.84053198242188E+0003  -2.84090014648438E+0003  -2.84128100585938E+0003  -2.84167358398438E+0003  -2.84207495117188E+0003  -2.84248315429688E+0003  -2.84289477539063E+0003  -2.84330517578125E+0003  -2.84371191406250E+0003  -2.84410986328125E+0003  -2.84449365234375E+0003  -2.84485961914063E+0003  -2.84520458984375E+0003  -2.84552001953125E+0003  -2.84580468750000E+0003  -2.84605175781250E+0003  -2.84626269531250E+0003  -2.84643554687500E+0003  -2.84657153320313E+0003  -2.84667480468750E+0003  -2.84673925781250E+0003  -2.84677124023438E+0003  -2.84676733398438E+0003
  -2.85606860351563E+0003  -2.85630371093750E+0003  -2.85652148437500E+0003  -2.85672485351563E+0003  -2.85691040039063E+0003  -2.85708007812500E+0003  -2.85723559570313E+0003  -2.85737524414063E+0003  -2.85750000000000E+0003  -2.85760937500000E+0003  -2.85770312500000E+0003  -2.85778198242188E+0003  -2.85784521484375E+0003  -2.85789550781250E+0003  -2.85792944335938E+0003  -2.85794995117188E+0003  -2.85795751953125E+0003  -2.85795043945313E+0003  -2.85793261718750E+0003  -2.85790063476563E+0003  -2.85786059570313E+0003  -2.85780737304688E+0003  -2.85774584960938E+0003  -2.85767407226563E+0003  -2.85759472656250E+0003  -2.85750659179688E+0003  -2.85741259765625E+0003  -2.85731103515625E+0003  -2.85720288085938E+0003  -2.85708911132813E+0003  -2.85696875000000E+0003  -2.85684326171875E+0003  -2.85671313476563E+0003  -2.85657714843750E+0003  -2.85643774414063E+0003  -2.85629248046875E+0003  -2.85614282226563E+0003  -2.85599243164063E+0003  -2.85583666992188E+0003  -2.85568115234375E+0003  -2.85552221679688E+0003  -2.85536157226563E+0003  -2.85519995117188E+0003  -2.85503466796875E+0003  -2.85486791992188E+0003  -2.85469580078125E+0003  -2.85452148437500E+0003  -2.85434130859375E+0003  -2.85415185546875E+0003  -2.85395629882813E+0003  -2.85375024414063E+0003  -2.85353588867188E+0003  -2.85330664062500E+0003  -2.85306567382813E+0003  -2.85281079101563E+0003  -2.85254199218750E+0003  -2.85226098632813E+0003  -2.85196557617188E+0003  -2.85165722656250E+0003  -2.85133276367188E+0003  -2.85099291992188E+0003  -2.85063793945313E+0003  -2.85026562500000E+0003  -2.84987646484375E+0003  -2.84947045898438E+0003  -2.84904833984375E+0003  -2.84861450195313E+0003  -2.84818090820313E+0003  -2.84775024414063E+0003  -2.84732397460938E+0003  -2.84690209960938E+0003  -2.84649560546875E+0003  -2.84610913085938E+0003  -2.84574658203125E+0003  -2.84541137695313E+0003  -2.84508935546875E+0003  -2.84476416015625E+0003  -2.84441748046875E+0003  -2.84404394531250E+0003  -2.84364868164063E+0003  -2.84323291015625E+0003  -2.84280419921875E+0003  -2.84237524414063E+0003  -2.84195800781250E+0003  -2.84156982421875E+0003  -2.84122167968750E+0003  -2.84091650390625E+0003  -2.84065454101563E+0003  -2.84043457031250E+0003  -2.84025927734375E+0003  -2.84008789062500E+0003  -2.83985839843750E+0003  -2.83951220703125E+0003  -2.83901562500000E+0003  -2.83840112304688E+0003  -2.83771679687500E+0003  -2.83698803710938E+0003  -2.83623291015625E+0003  -2.83550341796875E+0003  -2.83485327148438E+0003  -2.83437475585938E+0003  -2.83414160156250E+0003  -2.83413818359375E+0003  -2.83430395507813E+0003  -2.83451220703125E+0003  -2.83464550781250E+0003  -2.83464428710938E+0003  -2.83444653320313E+0003  -2.83395654296875E+0003  -2.83308935546875E+0003  -2.83181933593750E+0003  -2.83011254882813E+0003  -2.82951391601563E+0003  -2.83181958007813E+0003  -2.83337377929688E+0003  -2.83272705078125E+0003  -2.83240844726563E+0003  -2.83226367187500E+0003  -2.83216015625000E+0003  -2.83204931640625E+0003  -2.83191015625000E+0003  -2.83173437500000E+0003  -2.83152026367188E+0003  -2.83129418945313E+0003  -2.83101049804688E+0003  -2.83067895507813E+0003  -2.83035766601563E+0003  -2.83006347656250E+0003  -2.82982250976563E+0003  -2.82961206054688E+0003  -2.82939404296875E+0003  -2.82911645507813E+0003  -2.82872949218750E+0003  -2.82826196289063E+0003  -2.82773852539063E+0003  -2.82705029296875E+0003  -2.82643725585938E+0003  -2.82596582031250E+0003  -2.82566064453125E+0003  -2.82553686523438E+0003  -2.82556103515625E+0003  -2.82552514648438E+0003  -2.82527832031250E+0003  -2.82480175781250E+0003  -2.82405053710938E+0003  -2.82316748046875E+0003  -2.82234033203125E+0003  -2.82169067382813E+0003  -2.82130981445313E+0003  -2.82116650390625E+0003  -2.82122485351563E+0003  -2.82143261718750E+0003  -2.82176293945313E+0003  -2.82221020507813E+0003  -2.82276245117188E+0003  -2.82340991210938E+0003  -2.82413256835938E+0003  -2.82487304687500E+0003  -2.82557861328125E+0003  -2.82620629882813E+0003  -2.82658691406250E+0003  -2.82638256835938E+0003  -2.82619482421875E+0003  -2.82605957031250E+0003  -2.82601416015625E+0003  -2.82609472656250E+0003  -2.82633520507813E+0003  -2.82676123046875E+0003  -2.82732421875000E+0003  -2.82790185546875E+0003  -2.82837939453125E+0003  -2.82865136718750E+0003  -2.82865942382813E+0003  -2.82861889648438E+0003  -2.82869482421875E+0003  -2.82906176757813E+0003  -2.82968994140625E+0003  -2.83042309570313E+0003  -2.83110424804688E+0003  -2.83159838867188E+0003  -2.83171411132813E+0003  -2.83168041992188E+0003  -2.83156469726563E+0003  -2.83148754882813E+0003  -2.83145068359375E+0003  -2.83142211914063E+0003  -2.83133813476563E+0003  -2.83121801757813E+0003  -2.83115698242188E+0003  -2.83119213867188E+0003  -2.83134887695313E+0003  -2.83164770507813E+0003  -2.83206469726563E+0003  -2.83256958007813E+0003  -2.83312573242188E+0003  -2.83371069335938E+0003  -2.83430102539063E+0003  -2.83487866210938E+0003  -2.83542993164063E+0003  -2.83588842773438E+0003  -2.83630688476563E+0003  -2.83668969726563E+0003  -2.83703759765625E+0003  -2.83735375976563E+0003  -2.83765405273438E+0003  -2.83794555664063E+0003  -2.83824145507813E+0003  -2.83854809570313E+0003  -2.83886962890625E+0003  -2.83920336914063E+0003  -2.83955053710938E+0003  -2.83991259765625E+0003  -2.84028442382813E+0003  -2.84066577148438E+0003  -2.84105395507813E+0003  -2.84144531250000E+0003  -2.84184204101563E+0003  -2.84224169921875E+0003  -2.84263793945313E+0003  -2.84303002929688E+0003  -2.84341284179688E+0003  -2.84378222656250E+0003  -2.84413598632813E+0003  -2.84446875000000E+0003  -2.84477490234375E+0003  -2.84505297851563E+0003  -2.84529736328125E+0003  -2.84550683593750E+0003  -2.84568237304688E+0003  -2.84582421875000E+0003  -2.84593139648438E+0003  -2.84600634765625E+0003  -2.84604760742188E+0003  -2.84605566406250E+0003
  -2.85612939453125E+0003  -2.85635742187500E+0003  -2.85657031250000E+0003  -2.85676660156250E+0003  -2.85694409179688E+0003  -2.85710717773438E+0003  -2.85725146484375E+0003  -2.85738110351563E+0003  -2.85749438476563E+0003  -2.85759179687500E+0003  -2.85767382812500E+0003  -2.85774194335938E+0003  -2.85779248046875E+0003  -2.85782934570313E+0003  -2.85785107421875E+0003  -2.85786181640625E+0003  -2.85785644531250E+0003  -2.85783740234375E+0003  -2.85780834960938E+0003  -2.85776708984375E+0003  -2.85771582031250E+0003  -2.85765332031250E+0003  -2.85757983398438E+0003  -2.85749755859375E+0003  -2.85740844726563E+0003  -2.85730834960938E+0003  -2.85720434570313E+0003  -2.85709057617188E+0003  -2.85697143554688E+0003  -2.85684570312500E+0003  -2.85671313476563E+0003  -2.85657519531250E+0003  -2.85643188476563E+0003  -2.85628417968750E+0003  -2.85612939453125E+0003  -2.85597363281250E+0003  -2.85581250000000E+0003  -2.85565039062500E+0003  -2.85548535156250E+0003  -2.85531982421875E+0003  -2.85515258789063E+0003  -2.85498461914063E+0003  -2.85481176757813E+0003  -2.85463818359375E+0003  -2.85445874023438E+0003  -2.85427636718750E+0003  -2.85408740234375E+0003  -2.85389208984375E+0003  -2.85368701171875E+0003  -2.85347436523438E+0003  -2.85324877929688E+0003  -2.85301269531250E+0003  -2.85276464843750E+0003  -2.85250390625000E+0003  -2.85222802734375E+0003  -2.85193823242188E+0003  -2.85163793945313E+0003  -2.85132104492188E+0003  -2.85099169921875E+0003  -2.85064624023438E+0003  -2.85028857421875E+0003  -2.84991259765625E+0003  -2.84952050781250E+0003  -2.84911352539063E+0003  -2.84869506835938E+0003  -2.84826489257813E+0003  -2.84782885742188E+0003  -2.84740063476563E+0003  -2.84699121093750E+0003  -2.84659472656250E+0003  -2.84620776367188E+0003  -2.84584716796875E+0003  -2.84551245117188E+0003  -2.84520581054688E+0003  -2.84492065429688E+0003  -2.84463476562500E+0003  -2.84432324218750E+0003  -2.84396875000000E+0003  -2.84356005859375E+0003  -2.84311083984375E+0003  -2.84262744140625E+0003  -2.84212548828125E+0003  -2.84161840820313E+0003  -2.84112915039063E+0003  -2.84067187500000E+0003  -2.84026513671875E+0003  -2.83991308593750E+0003  -2.83960815429688E+0003  -2.83934863281250E+0003  -2.83912646484375E+0003  -2.83891137695313E+0003  -2.83865209960938E+0003  -2.83829956054688E+0003  -2.83782031250000E+0003  -2.83723779296875E+0003  -2.83658691406250E+0003  -2.83589379882813E+0003  -2.83517749023438E+0003  -2.83449780273438E+0003  -2.83390649414063E+0003  -2.83348242187500E+0003  -2.83328149414063E+0003  -2.83326733398438E+0003  -2.83337426757813E+0003  -2.83349291992188E+0003  -2.83353027343750E+0003  -2.83342236328125E+0003  -2.83311254882813E+0003  -2.83249584960938E+0003  -2.83150488281250E+0003  -2.83013500976563E+0003  -2.82835351562500E+0003  -2.82776977539063E+0003  -2.83011523437500E+0003  -2.83161157226563E+0003  -2.83087402343750E+0003  -2.83054052734375E+0003  -2.83041577148438E+0003  -2.83034521484375E+0003  -2.83027612304688E+0003  -2.83017846679688E+0003  -2.83003979492188E+0003  -2.82986010742188E+0003  -2.82965991210938E+0003  -2.82940307617188E+0003  -2.82909716796875E+0003  -2.82879418945313E+0003  -2.82851708984375E+0003  -2.82829370117188E+0003  -2.82810278320313E+0003  -2.82790722656250E+0003  -2.82766137695313E+0003  -2.82732836914063E+0003  -2.82686816406250E+0003  -2.82637426757813E+0003  -2.82589257812500E+0003  -2.82534130859375E+0003  -2.82489843750000E+0003  -2.82460546875000E+0003  -2.82446655273438E+0003  -2.82439257812500E+0003  -2.82425048828125E+0003  -2.82401049804688E+0003  -2.82355444335938E+0003  -2.82284887695313E+0003  -2.82201904296875E+0003  -2.82122045898438E+0003  -2.82053906250000E+0003  -2.82004785156250E+0003  -2.81976684570313E+0003  -2.81969360351563E+0003  -2.81980932617188E+0003  -2.82010644531250E+0003  -2.82055517578125E+0003  -2.82114257812500E+0003  -2.82184741210938E+0003  -2.82262426757813E+0003  -2.82341650390625E+0003  -2.82417382812500E+0003  -2.82485058593750E+0003  -2.82490673828125E+0003  -2.82474340820313E+0003  -2.82461132812500E+0003  -2.82456567382813E+0003  -2.82464062500000E+0003  -2.82485034179688E+0003  -2.82519995117188E+0003  -2.82568432617188E+0003  -2.82626318359375E+0003  -2.82686401367188E+0003  -2.82741625976563E+0003  -2.82780249023438E+0003  -2.82803002929688E+0003  -2.82823461914063E+0003  -2.82852685546875E+0003  -2.82902856445313E+0003  -2.82969580078125E+0003  -2.83037939453125E+0003  -2.83092749023438E+0003  -2.83100878906250E+0003  -2.83087304687500E+0003  -2.83065014648438E+0003  -2.83045263671875E+0003  -2.83034790039063E+0003  -2.83031762695313E+0003  -2.83032031250000E+0003  -2.83028393554688E+0003  -2.83011743164063E+0003  -2.82999316406250E+0003  -2.82995507812500E+0003  -2.83005883789063E+0003  -2.83033325195313E+0003  -2.83075341796875E+0003  -2.83128564453125E+0003  -2.83188891601563E+0003  -2.83252856445313E+0003  -2.83318627929688E+0003  -2.83381347656250E+0003  -2.83439868164063E+0003  -2.83494848632813E+0003  -2.83545166015625E+0003  -2.83590576171875E+0003  -2.83630419921875E+0003  -2.83665063476563E+0003  -2.83696142578125E+0003  -2.83725610351563E+0003  -2.83755517578125E+0003  -2.83786962890625E+0003  -2.83820166015625E+0003  -2.83854736328125E+0003  -2.83890234375000E+0003  -2.83926879882813E+0003  -2.83964428710938E+0003  -2.84002587890625E+0003  -2.84041186523438E+0003  -2.84079980468750E+0003  -2.84119140625000E+0003  -2.84157617187500E+0003  -2.84196240234375E+0003  -2.84234252929688E+0003  -2.84271411132813E+0003  -2.84306958007813E+0003  -2.84341210937500E+0003  -2.84373217773438E+0003  -2.84403198242188E+0003  -2.84430297851563E+0003  -2.84454345703125E+0003  -2.84475292968750E+0003  -2.84493041992188E+0003  -2.84507641601563E+0003  -2.84519116210938E+0003  -2.84527392578125E+0003  -2.84532519531250E+0003  -2.84534326171875E+0003
  -2.85618750000000E+0003  -2.85641088867188E+0003  -2.85661450195313E+0003  -2.85680224609375E+0003  -2.85696997070313E+0003  -2.85712182617188E+0003  -2.85725585937500E+0003  -2.85737280273438E+0003  -2.85747314453125E+0003  -2.85755883789063E+0003  -2.85762744140625E+0003  -2.85768090820313E+0003  -2.85771997070313E+0003  -2.85774218750000E+0003  -2.85775268554688E+0003  -2.85774853515625E+0003  -2.85773095703125E+0003  -2.85770141601563E+0003  -2.85766064453125E+0003  -2.85760961914063E+0003  -2.85754711914063E+0003  -2.85747412109375E+0003  -2.85739111328125E+0003  -2.85729711914063E+0003  -2.85719482421875E+0003  -2.85708398437500E+0003  -2.85696655273438E+0003  -2.85684057617188E+0003  -2.85670825195313E+0003  -2.85657080078125E+0003  -2.85642578125000E+0003  -2.85627441406250E+0003  -2.85611816406250E+0003  -2.85595605468750E+0003  -2.85579077148438E+0003  -2.85562109375000E+0003  -2.85544946289063E+0003  -2.85527539062500E+0003  -2.85510327148438E+0003  -2.85492895507813E+0003  -2.85475512695313E+0003  -2.85457885742188E+0003  -2.85439990234375E+0003  -2.85421655273438E+0003  -2.85403100585938E+0003  -2.85383642578125E+0003  -2.85363623046875E+0003  -2.85342504882813E+0003  -2.85320507812500E+0003  -2.85297460937500E+0003  -2.85273242187500E+0003  -2.85248095703125E+0003  -2.85221508789063E+0003  -2.85193603515625E+0003  -2.85164355468750E+0003  -2.85133837890625E+0003  -2.85101928710938E+0003  -2.85068627929688E+0003  -2.85034130859375E+0003  -2.84998071289063E+0003  -2.84960375976563E+0003  -2.84921435546875E+0003  -2.84880737304688E+0003  -2.84838989257813E+0003  -2.84796557617188E+0003  -2.84753784179688E+0003  -2.84711352539063E+0003  -2.84670214843750E+0003  -2.84631738281250E+0003  -2.84595556640625E+0003  -2.84561962890625E+0003  -2.84531909179688E+0003  -2.84505200195313E+0003  -2.84481396484375E+0003  -2.84459033203125E+0003  -2.84434643554688E+0003  -2.84405053710938E+0003  -2.84367163085938E+0003  -2.84320458984375E+0003  -2.84266845703125E+0003  -2.84208325195313E+0003  -2.84147070312500E+0003  -2.84085083007813E+0003  -2.84025439453125E+0003  -2.83970141601563E+0003  -2.83921508789063E+0003  -2.83879736328125E+0003  -2.83844189453125E+0003  -2.83813940429688E+0003  -2.83788159179688E+0003  -2.83764086914063E+0003  -2.83737133789063E+0003  -2.83703710937500E+0003  -2.83659960937500E+0003  -2.83607421875000E+0003  -2.83548754882813E+0003  -2.83486230468750E+0003  -2.83422558593750E+0003  -2.83363110351563E+0003  -2.83313330078125E+0003  -2.83279882812500E+0003  -2.83266528320313E+0003  -2.83268212890625E+0003  -2.83277001953125E+0003  -2.83283862304688E+0003  -2.83280078125000E+0003  -2.83260913085938E+0003  -2.83220874023438E+0003  -2.83151831054688E+0003  -2.83049902343750E+0003  -2.82919946289063E+0003  -2.82785522460938E+0003  -2.82745068359375E+0003  -2.82848413085938E+0003  -2.82925756835938E+0003  -2.82909765625000E+0003  -2.82891137695313E+0003  -2.82882543945313E+0003  -2.82877783203125E+0003  -2.82872534179688E+0003  -2.82864428710938E+0003  -2.82852539062500E+0003  -2.82837426757813E+0003  -2.82818798828125E+0003  -2.82794970703125E+0003  -2.82766894531250E+0003  -2.82737548828125E+0003  -2.82710864257813E+0003  -2.82688476562500E+0003  -2.82669311523438E+0003  -2.82649365234375E+0003  -2.82625097656250E+0003  -2.82591577148438E+0003  -2.82549609375000E+0003  -2.82503759765625E+0003  -2.82458178710938E+0003  -2.82417065429688E+0003  -2.82376635742188E+0003  -2.82347192382813E+0003  -2.82325000000000E+0003  -2.82307031250000E+0003  -2.82289160156250E+0003  -2.82263232421875E+0003  -2.82221337890625E+0003  -2.82159204101563E+0003  -2.82086132812500E+0003  -2.82013134765625E+0003  -2.81947412109375E+0003  -2.81894189453125E+0003  -2.81858666992188E+0003  -2.81842846679688E+0003  -2.81848925781250E+0003  -2.81872949218750E+0003  -2.81917163085938E+0003  -2.81977880859375E+0003  -2.82051171875000E+0003  -2.82132495117188E+0003  -2.82216186523438E+0003  -2.82296606445313E+0003  -2.82361376953125E+0003  -2.82347900390625E+0003  -2.82333618164063E+0003  -2.82320947265625E+0003  -2.82317871093750E+0003  -2.82329638671875E+0003  -2.82358569335938E+0003  -2.82403466796875E+0003  -2.82459375000000E+0003  -2.82521655273438E+0003  -2.82586035156250E+0003  -2.82649121093750E+0003  -2.82699023437500E+0003  -2.82741503906250E+0003  -2.82783520507813E+0003  -2.82832324218750E+0003  -2.82896899414063E+0003  -2.82971289062500E+0003  -2.83029296875000E+0003  -2.83055029296875E+0003  -2.83044091796875E+0003  -2.83005688476563E+0003  -2.82958569335938E+0003  -2.82920556640625E+0003  -2.82906152343750E+0003  -2.82909228515625E+0003  -2.82915966796875E+0003  -2.82915014648438E+0003  -2.82895043945313E+0003  -2.82874316406250E+0003  -2.82862109375000E+0003  -2.82866235351563E+0003  -2.82891748046875E+0003  -2.82935620117188E+0003  -2.82993579101563E+0003  -2.83060620117188E+0003  -2.83130102539063E+0003  -2.83201977539063E+0003  -2.83273535156250E+0003  -2.83342553710938E+0003  -2.83406933593750E+0003  -2.83465209960938E+0003  -2.83516918945313E+0003  -2.83560327148438E+0003  -2.83596215820313E+0003  -2.83626977539063E+0003  -2.83655810546875E+0003  -2.83685229492188E+0003  -2.83716894531250E+0003  -2.83750488281250E+0003  -2.83785986328125E+0003  -2.83822314453125E+0003  -2.83859521484375E+0003  -2.83897509765625E+0003  -2.83935937500000E+0003  -2.83974462890625E+0003  -2.84013085937500E+0003  -2.84051464843750E+0003  -2.84089599609375E+0003  -2.84127319335938E+0003  -2.84164404296875E+0003  -2.84200390625000E+0003  -2.84235034179688E+0003  -2.84268383789063E+0003  -2.84299584960938E+0003  -2.84328710937500E+0003  -2.84355371093750E+0003  -2.84379248046875E+0003  -2.84400073242188E+0003  -2.84418139648438E+0003  -2.84433227539063E+0003  -2.84445288085938E+0003  -2.84454370117188E+0003  -2.84460400390625E+0003  -2.84463403320313E+0003
  -2.85624169921875E+0003  -2.85645751953125E+0003  -2.85665502929688E+0003  -2.85683129882813E+0003  -2.85698901367188E+0003  -2.85712695312500E+0003  -2.85724951171875E+0003  -2.85735107421875E+0003  -2.85743969726563E+0003  -2.85750952148438E+0003  -2.85756347656250E+0003  -2.85760131835938E+0003  -2.85762597656250E+0003  -2.85763452148438E+0003  -2.85763159179688E+0003  -2.85761254882813E+0003  -2.85758325195313E+0003  -2.85754150390625E+0003  -2.85748852539063E+0003  -2.85742651367188E+0003  -2.85735327148438E+0003  -2.85726953125000E+0003  -2.85717431640625E+0003  -2.85707080078125E+0003  -2.85695605468750E+0003  -2.85683178710938E+0003  -2.85670019531250E+0003  -2.85656152343750E+0003  -2.85641552734375E+0003  -2.85626269531250E+0003  -2.85610522460938E+0003  -2.85593969726563E+0003  -2.85576977539063E+0003  -2.85559448242188E+0003  -2.85541650390625E+0003  -2.85523413085938E+0003  -2.85505249023438E+0003  -2.85486889648438E+0003  -2.85468798828125E+0003  -2.85450830078125E+0003  -2.85432885742188E+0003  -2.85414526367188E+0003  -2.85396166992188E+0003  -2.85377197265625E+0003  -2.85357641601563E+0003  -2.85337377929688E+0003  -2.85316259765625E+0003  -2.85293920898438E+0003  -2.85270629882813E+0003  -2.85246240234375E+0003  -2.85220776367188E+0003  -2.85193945312500E+0003  -2.85165917968750E+0003  -2.85136669921875E+0003  -2.85105981445313E+0003  -2.85073876953125E+0003  -2.85040673828125E+0003  -2.85006152343750E+0003  -2.84970312500000E+0003  -2.84932861328125E+0003  -2.84894189453125E+0003  -2.84853857421875E+0003  -2.84812402343750E+0003  -2.84770019531250E+0003  -2.84727758789063E+0003  -2.84686254882813E+0003  -2.84645971679688E+0003  -2.84607153320313E+0003  -2.84571606445313E+0003  -2.84539819335938E+0003  -2.84513012695313E+0003  -2.84490234375000E+0003  -2.84471728515625E+0003  -2.84455859375000E+0003  -2.84440454101563E+0003  -2.84420874023438E+0003  -2.84392578125000E+0003  -2.84351293945313E+0003  -2.84296289062500E+0003  -2.84231152343750E+0003  -2.84158837890625E+0003  -2.84082812500000E+0003  -2.84006835937500E+0003  -2.83933618164063E+0003  -2.83866381835938E+0003  -2.83807836914063E+0003  -2.83758496093750E+0003  -2.83717309570313E+0003  -2.83683935546875E+0003  -2.83656640625000E+0003  -2.83632275390625E+0003  -2.83607104492188E+0003  -2.83577148437500E+0003  -2.83538818359375E+0003  -2.83493359375000E+0003  -2.83442797851563E+0003  -2.83389306640625E+0003  -2.83335961914063E+0003  -2.83287597656250E+0003  -2.83249023437500E+0003  -2.83226025390625E+0003  -2.83221875000000E+0003  -2.83229980468750E+0003  -2.83241650390625E+0003  -2.83247875976563E+0003  -2.83240747070313E+0003  -2.83215966796875E+0003  -2.83169750976563E+0003  -2.83096972656250E+0003  -2.82998754882813E+0003  -2.82884448242188E+0003  -2.82777001953125E+0003  -2.82724951171875E+0003  -2.82740258789063E+0003  -2.82764282226563E+0003  -2.82763745117188E+0003  -2.82755615234375E+0003  -2.82750146484375E+0003  -2.82745458984375E+0003  -2.82739257812500E+0003  -2.82730908203125E+0003  -2.82720434570313E+0003  -2.82706591796875E+0003  -2.82688500976563E+0003  -2.82665942382813E+0003  -2.82639379882813E+0003  -2.82611523437500E+0003  -2.82584765625000E+0003  -2.82560913085938E+0003  -2.82539770507813E+0003  -2.82517602539063E+0003  -2.82491430664063E+0003  -2.82457788085938E+0003  -2.82418139648438E+0003  -2.82375390625000E+0003  -2.82332617187500E+0003  -2.82292895507813E+0003  -2.82256811523438E+0003  -2.82224853515625E+0003  -2.82197216796875E+0003  -2.82174121093750E+0003  -2.82151269531250E+0003  -2.82122949218750E+0003  -2.82083935546875E+0003  -2.82031127929688E+0003  -2.81970068359375E+0003  -2.81907397460938E+0003  -2.81848681640625E+0003  -2.81798388671875E+0003  -2.81761621093750E+0003  -2.81742114257813E+0003  -2.81742773437500E+0003  -2.81764428710938E+0003  -2.81805834960938E+0003  -2.81864794921875E+0003  -2.81937597656250E+0003  -2.82020410156250E+0003  -2.82107153320313E+0003  -2.82192260742188E+0003  -2.82242016601563E+0003  -2.82232617187500E+0003  -2.82218286132813E+0003  -2.82200219726563E+0003  -2.82200878906250E+0003  -2.82195922851563E+0003  -2.82226953125000E+0003  -2.82281030273438E+0003  -2.82346508789063E+0003  -2.82415917968750E+0003  -2.82486376953125E+0003  -2.82557006835938E+0003  -2.82617016601563E+0003  -2.82675366210938E+0003  -2.82734643554688E+0003  -2.82799829101563E+0003  -2.82868432617188E+0003  -2.82938403320313E+0003  -2.82995605468750E+0003  -2.83017675781250E+0003  -2.82987792968750E+0003  -2.82922192382813E+0003  -2.82847167968750E+0003  -2.82788159179688E+0003  -2.82767578125000E+0003  -2.82774560546875E+0003  -2.82787036132813E+0003  -2.82790209960938E+0003  -2.82769067382813E+0003  -2.82740332031250E+0003  -2.82719433593750E+0003  -2.82717114257813E+0003  -2.82740112304688E+0003  -2.82785864257813E+0003  -2.82848339843750E+0003  -2.82922680664063E+0003  -2.83003540039063E+0003  -2.83087548828125E+0003  -2.83171337890625E+0003  -2.83251220703125E+0003  -2.83324731445313E+0003  -2.83390161132813E+0003  -2.83445922851563E+0003  -2.83491357421875E+0003  -2.83527368164063E+0003  -2.83557055664063E+0003  -2.83584399414063E+0003  -2.83612817382813E+0003  -2.83644458007813E+0003  -2.83678320312500E+0003  -2.83714526367188E+0003  -2.83751611328125E+0003  -2.83789550781250E+0003  -2.83827758789063E+0003  -2.83866455078125E+0003  -2.83905224609375E+0003  -2.83943701171875E+0003  -2.83981884765625E+0003  -2.84019628906250E+0003  -2.84056689453125E+0003  -2.84093139648438E+0003  -2.84128588867188E+0003  -2.84162548828125E+0003  -2.84195117187500E+0003  -2.84225854492188E+0003  -2.84254272460938E+0003  -2.84280639648438E+0003  -2.84304467773438E+0003  -2.84325463867188E+0003  -2.84343774414063E+0003  -2.84359228515625E+0003  -2.84371997070313E+0003  -2.84381738281250E+0003  -2.84388549804688E+0003  -2.84392456054688E+0003
  -2.85629345703125E+0003  -2.85650024414063E+0003  -2.85668627929688E+0003  -2.85685034179688E+0003  -2.85699584960938E+0003  -2.85712060546875E+0003  -2.85722875976563E+0003  -2.85731738281250E+0003  -2.85738818359375E+0003  -2.85744238281250E+0003  -2.85748095703125E+0003  -2.85750317382813E+0003  -2.85751123046875E+0003  -2.85750512695313E+0003  -2.85748632812500E+0003  -2.85745532226563E+0003  -2.85741235351563E+0003  -2.85735644531250E+0003  -2.85729394531250E+0003  -2.85721948242188E+0003  -2.85713427734375E+0003  -2.85703857421875E+0003  -2.85693310546875E+0003  -2.85681591796875E+0003  -2.85668701171875E+0003  -2.85654785156250E+0003  -2.85640283203125E+0003  -2.85624829101563E+0003  -2.85608959960938E+0003  -2.85592309570313E+0003  -2.85575048828125E+0003  -2.85556933593750E+0003  -2.85538598632813E+0003  -2.85519750976563E+0003  -2.85500659179688E+0003  -2.85481250000000E+0003  -2.85461987304688E+0003  -2.85442895507813E+0003  -2.85423999023438E+0003  -2.85405541992188E+0003  -2.85387133789063E+0003  -2.85368530273438E+0003  -2.85349536132813E+0003  -2.85330126953125E+0003  -2.85310034179688E+0003  -2.85288989257813E+0003  -2.85266870117188E+0003  -2.85243676757813E+0003  -2.85219360351563E+0003  -2.85193579101563E+0003  -2.85166284179688E+0003  -2.85135888671875E+0003  -2.85105175781250E+0003  -2.85074218750000E+0003  -2.85043139648438E+0003  -2.85011791992188E+0003  -2.84979687500000E+0003  -2.84943945312500E+0003  -2.84906713867188E+0003  -2.84868212890625E+0003  -2.84828491210938E+0003  -2.84787353515625E+0003  -2.84745214843750E+0003  -2.84703100585938E+0003  -2.84661523437500E+0003  -2.84621508789063E+0003  -2.84583471679688E+0003  -2.84548217773438E+0003  -2.84516577148438E+0003  -2.84490795898438E+0003  -2.84471411132813E+0003  -2.84457543945313E+0003  -2.84447778320313E+0003  -2.84440673828125E+0003  -2.84432641601563E+0003  -2.84418212890625E+0003  -2.84390917968750E+0003  -2.84345068359375E+0003  -2.84280175781250E+0003  -2.84201123046875E+0003  -2.84112646484375E+0003  -2.84020263671875E+0003  -2.83927539062500E+0003  -2.83839111328125E+0003  -2.83758325195313E+0003  -2.83688940429688E+0003  -2.83631591796875E+0003  -2.83585913085938E+0003  -2.83550708007813E+0003  -2.83523510742188E+0003  -2.83501245117188E+0003  -2.83479223632813E+0003  -2.83454028320313E+0003  -2.83421752929688E+0003  -2.83383422851563E+0003  -2.83341162109375E+0003  -2.83297705078125E+0003  -2.83255468750000E+0003  -2.83218750000000E+0003  -2.83192309570313E+0003  -2.83180615234375E+0003  -2.83186108398438E+0003  -2.83202026367188E+0003  -2.83219165039063E+0003  -2.83227905273438E+0003  -2.83219628906250E+0003  -2.83191430664063E+0003  -2.83140600585938E+0003  -2.83066406250000E+0003  -2.82972045898438E+0003  -2.82869238281250E+0003  -2.82773657226563E+0003  -2.82707934570313E+0003  -2.82679272460938E+0003  -2.82667382812500E+0003  -2.82657763671875E+0003  -2.82649462890625E+0003  -2.82641943359375E+0003  -2.82633789062500E+0003  -2.82625146484375E+0003  -2.82615576171875E+0003  -2.82605224609375E+0003  -2.82592114257813E+0003  -2.82574926757813E+0003  -2.82552734375000E+0003  -2.82527392578125E+0003  -2.82500439453125E+0003  -2.82472924804688E+0003  -2.82446704101563E+0003  -2.82421655273438E+0003  -2.82396240234375E+0003  -2.82367675781250E+0003  -2.82333911132813E+0003  -2.82295751953125E+0003  -2.82255371093750E+0003  -2.82214892578125E+0003  -2.82176147460938E+0003  -2.82139990234375E+0003  -2.82106396484375E+0003  -2.82075854492188E+0003  -2.82048046875000E+0003  -2.82020532226563E+0003  -2.81990136718750E+0003  -2.81953735351563E+0003  -2.81909204101563E+0003  -2.81859570312500E+0003  -2.81808544921875E+0003  -2.81759448242188E+0003  -2.81716162109375E+0003  -2.81682690429688E+0003  -2.81663330078125E+0003  -2.81661474609375E+0003  -2.81679150390625E+0003  -2.81715649414063E+0003  -2.81769189453125E+0003  -2.81838696289063E+0003  -2.81920336914063E+0003  -2.82008178710938E+0003  -2.82097192382813E+0003  -2.82146801757813E+0003  -2.82143652343750E+0003  -2.82130395507813E+0003  -2.82113061523438E+0003  -2.82090844726563E+0003  -2.82066162109375E+0003  -2.82093139648438E+0003  -2.82156396484375E+0003  -2.82233886718750E+0003  -2.82312622070313E+0003  -2.82389721679688E+0003  -2.82466088867188E+0003  -2.82533837890625E+0003  -2.82602856445313E+0003  -2.82660717773438E+0003  -2.82724218750000E+0003  -2.82800097656250E+0003  -2.82880859375000E+0003  -2.82946728515625E+0003  -2.82968383789063E+0003  -2.82922778320313E+0003  -2.82831176757813E+0003  -2.82728149414063E+0003  -2.82649194335938E+0003  -2.82625512695313E+0003  -2.82640283203125E+0003  -2.82660571289063E+0003  -2.82666723632813E+0003  -2.82642871093750E+0003  -2.82606591796875E+0003  -2.82577783203125E+0003  -2.82569897460938E+0003  -2.82591796875000E+0003  -2.82640112304688E+0003  -2.82708886718750E+0003  -2.82791674804688E+0003  -2.82882812500000E+0003  -2.82977734375000E+0003  -2.83072387695313E+0003  -2.83162011718750E+0003  -2.83243139648438E+0003  -2.83313964843750E+0003  -2.83373242187500E+0003  -2.83420776367188E+0003  -2.83455615234375E+0003  -2.83484277343750E+0003  -2.83510253906250E+0003  -2.83537915039063E+0003  -2.83569311523438E+0003  -2.83603930664063E+0003  -2.83640454101563E+0003  -2.83678369140625E+0003  -2.83716918945313E+0003  -2.83755957031250E+0003  -2.83794995117188E+0003  -2.83833911132813E+0003  -2.83872607421875E+0003  -2.83910742187500E+0003  -2.83948242187500E+0003  -2.83985180664063E+0003  -2.84021240234375E+0003  -2.84056054687500E+0003  -2.84089770507813E+0003  -2.84121704101563E+0003  -2.84151904296875E+0003  -2.84180249023438E+0003  -2.84206274414063E+0003  -2.84229956054688E+0003  -2.84251098632813E+0003  -2.84269702148438E+0003  -2.84285717773438E+0003  -2.84298950195313E+0003  -2.84309375000000E+0003  -2.84317089843750E+0003  -2.84321777343750E+0003
  -2.85633447265625E+0003  -2.85653466796875E+0003  -2.85671069335938E+0003  -2.85686230468750E+0003  -2.85699438476563E+0003  -2.85710400390625E+0003  -2.85719580078125E+0003  -2.85726879882813E+0003  -2.85732250976563E+0003  -2.85735937500000E+0003  -2.85737988281250E+0003  -2.85738671875000E+0003  -2.85737744140625E+0003  -2.85735546875000E+0003  -2.85732080078125E+0003  -2.85727563476563E+0003  -2.85721850585938E+0003  -2.85715258789063E+0003  -2.85707373046875E+0003  -2.85698828125000E+0003  -2.85689184570313E+0003  -2.85678320312500E+0003  -2.85666162109375E+0003  -2.85652905273438E+0003  -2.85638623046875E+0003  -2.85623291015625E+0003  -2.85607177734375E+0003  -2.85590405273438E+0003  -2.85572949218750E+0003  -2.85554785156250E+0003  -2.85536059570313E+0003  -2.85516577148438E+0003  -2.85496582031250E+0003  -2.85476342773438E+0003  -2.85455908203125E+0003  -2.85435522460938E+0003  -2.85415380859375E+0003  -2.85395410156250E+0003  -2.85375927734375E+0003  -2.85356982421875E+0003  -2.85338159179688E+0003  -2.85319482421875E+0003  -2.85300268554688E+0003  -2.85280444335938E+0003  -2.85259985351563E+0003  -2.85238354492188E+0003  -2.85215673828125E+0003  -2.85191625976563E+0003  -2.85166137695313E+0003  -2.85135131835938E+0003  -2.85103271484375E+0003  -2.85071044921875E+0003  -2.85038598632813E+0003  -2.85005981445313E+0003  -2.84973339843750E+0003  -2.84940527343750E+0003  -2.84907373046875E+0003  -2.84873706054688E+0003  -2.84839331054688E+0003  -2.84803247070313E+0003  -2.84762329101563E+0003  -2.84720556640625E+0003  -2.84678125000000E+0003  -2.84636376953125E+0003  -2.84595922851563E+0003  -2.84557617187500E+0003  -2.84522338867188E+0003  -2.84490673828125E+0003  -2.84464672851563E+0003  -2.84445776367188E+0003  -2.84434643554688E+0003  -2.84429785156250E+0003  -2.84428222656250E+0003  -2.84427905273438E+0003  -2.84430981445313E+0003  -2.84422412109375E+0003  -2.84396630859375E+0003  -2.84346166992188E+0003  -2.84269335937500E+0003  -2.84174780273438E+0003  -2.84068725585938E+0003  -2.83958056640625E+0003  -2.83848071289063E+0003  -2.83743310546875E+0003  -2.83647827148438E+0003  -2.83565625000000E+0003  -2.83499169921875E+0003  -2.83450415039063E+0003  -2.83416894531250E+0003  -2.83393603515625E+0003  -2.83375756835938E+0003  -2.83358593750000E+0003  -2.83338037109375E+0003  -2.83311035156250E+0003  -2.83279052734375E+0003  -2.83244555664063E+0003  -2.83210083007813E+0003  -2.83178125000000E+0003  -2.83152539062500E+0003  -2.83137109375000E+0003  -2.83135571289063E+0003  -2.83149780273438E+0003  -2.83172680664063E+0003  -2.83194995117188E+0003  -2.83206616210938E+0003  -2.83198974609375E+0003  -2.83168823242188E+0003  -2.83115405273438E+0003  -2.83040380859375E+0003  -2.82948657226563E+0003  -2.82851611328125E+0003  -2.82759863281250E+0003  -2.82686328125000E+0003  -2.82637353515625E+0003  -2.82605297851563E+0003  -2.82583154296875E+0003  -2.82566186523438E+0003  -2.82551879882813E+0003  -2.82538842773438E+0003  -2.82527075195313E+0003  -2.82516503906250E+0003  -2.82505493164063E+0003  -2.82492333984375E+0003  -2.82476196289063E+0003  -2.82455102539063E+0003  -2.82429858398438E+0003  -2.82402392578125E+0003  -2.82373876953125E+0003  -2.82345288085938E+0003  -2.82316577148438E+0003  -2.82286865234375E+0003  -2.82255493164063E+0003  -2.82221289062500E+0003  -2.82184619140625E+0003  -2.82146386718750E+0003  -2.82107812500000E+0003  -2.82069726562500E+0003  -2.82033178710938E+0003  -2.81998168945313E+0003  -2.81964941406250E+0003  -2.81933691406250E+0003  -2.81902856445313E+0003  -2.81871484375000E+0003  -2.81837426757813E+0003  -2.81799829101563E+0003  -2.81759814453125E+0003  -2.81719653320313E+0003  -2.81680908203125E+0003  -2.81645825195313E+0003  -2.81617797851563E+0003  -2.81600634765625E+0003  -2.81596875000000E+0003  -2.81609863281250E+0003  -2.81639599609375E+0003  -2.81686108398438E+0003  -2.81748779296875E+0003  -2.81826074218750E+0003  -2.81911767578125E+0003  -2.82000000000000E+0003  -2.82067724609375E+0003  -2.82070947265625E+0003  -2.82058715820313E+0003  -2.82022119140625E+0003  -2.81980664062500E+0003  -2.81955639648438E+0003  -2.81976293945313E+0003  -2.82046362304688E+0003  -2.82133227539063E+0003  -2.82218432617188E+0003  -2.82299218750000E+0003  -2.82375219726563E+0003  -2.82431567382813E+0003  -2.82491870117188E+0003  -2.82555151367188E+0003  -2.82624243164063E+0003  -2.82706372070313E+0003  -2.82792358398438E+0003  -2.82863378906250E+0003  -2.82886376953125E+0003  -2.82833251953125E+0003  -2.82727514648438E+0003  -2.82608374023438E+0003  -2.82518505859375E+0003  -2.82495434570313E+0003  -2.82517822265625E+0003  -2.82544873046875E+0003  -2.82554101562500E+0003  -2.82528710937500E+0003  -2.82487866210938E+0003  -2.82454345703125E+0003  -2.82442651367188E+0003  -2.82463427734375E+0003  -2.82513256835938E+0003  -2.82584863281250E+0003  -2.82672900390625E+0003  -2.82770385742188E+0003  -2.82872753906250E+0003  -2.82974316406250E+0003  -2.83070532226563E+0003  -2.83156909179688E+0003  -2.83231469726563E+0003  -2.83300122070313E+0003  -2.83348803710938E+0003  -2.83378710937500E+0003  -2.83406396484375E+0003  -2.83432250976563E+0003  -2.83460083007813E+0003  -2.83492114257813E+0003  -2.83527319335938E+0003  -2.83564794921875E+0003  -2.83603637695313E+0003  -2.83642846679688E+0003  -2.83682495117188E+0003  -2.83721923828125E+0003  -2.83761157226563E+0003  -2.83800097656250E+0003  -2.83838476562500E+0003  -2.83876000976563E+0003  -2.83912695312500E+0003  -2.83948535156250E+0003  -2.83983227539063E+0003  -2.84016577148438E+0003  -2.84048291015625E+0003  -2.84078320312500E+0003  -2.84106274414063E+0003  -2.84132373046875E+0003  -2.84156030273438E+0003  -2.84177392578125E+0003  -2.84196313476563E+0003  -2.84212719726563E+0003  -2.84226440429688E+0003  -2.84237548828125E+0003  -2.84245776367188E+0003  -2.84251538085938E+0003
  -2.85637036132813E+0003  -2.85655932617188E+0003  -2.85672338867188E+0003  -2.85686352539063E+0003  -2.85698022460938E+0003  -2.85707470703125E+0003  -2.85714916992188E+0003  -2.85720361328125E+0003  -2.85724072265625E+0003  -2.85725903320313E+0003  -2.85726098632813E+0003  -2.85724877929688E+0003  -2.85722412109375E+0003  -2.85718579101563E+0003  -2.85713745117188E+0003  -2.85707641601563E+0003  -2.85700512695313E+0003  -2.85692480468750E+0003  -2.85683496093750E+0003  -2.85673242187500E+0003  -2.85662011718750E+0003  -2.85649707031250E+0003  -2.85636279296875E+0003  -2.85621337890625E+0003  -2.85605468750000E+0003  -2.85588330078125E+0003  -2.85570898437500E+0003  -2.85552441406250E+0003  -2.85533276367188E+0003  -2.85513574218750E+0003  -2.85493237304688E+0003  -2.85472290039063E+0003  -2.85450732421875E+0003  -2.85429248046875E+0003  -2.85407690429688E+0003  -2.85386083984375E+0003  -2.85364843750000E+0003  -2.85344360351563E+0003  -2.85324438476563E+0003  -2.85305126953125E+0003  -2.85286230468750E+0003  -2.85267187500000E+0003  -2.85247924804688E+0003  -2.85227978515625E+0003  -2.85207373046875E+0003  -2.85185546875000E+0003  -2.85162207031250E+0003  -2.85137597656250E+0003  -2.85105981445313E+0003  -2.85073022460938E+0003  -2.85039526367188E+0003  -2.85005688476563E+0003  -2.84971606445313E+0003  -2.84937353515625E+0003  -2.84903076171875E+0003  -2.84868627929688E+0003  -2.84833911132813E+0003  -2.84798754882813E+0003  -2.84762939453125E+0003  -2.84726538085938E+0003  -2.84689477539063E+0003  -2.84651806640625E+0003  -2.84610278320313E+0003  -2.84569311523438E+0003  -2.84530175781250E+0003  -2.84493652343750E+0003  -2.84461059570313E+0003  -2.84433642578125E+0003  -2.84413378906250E+0003  -2.84401733398438E+0003  -2.84392944335938E+0003  -2.84388476562500E+0003  -2.84391748046875E+0003  -2.84398950195313E+0003  -2.84408520507813E+0003  -2.84412573242188E+0003  -2.84406030273438E+0003  -2.84350024414063E+0003  -2.84261669921875E+0003  -2.84149682617188E+0003  -2.84025610351563E+0003  -2.83896411132813E+0003  -2.83768847656250E+0003  -2.83647534179688E+0003  -2.83535742187500E+0003  -2.83437011718750E+0003  -2.83358398437500E+0003  -2.83309082031250E+0003  -2.83283935546875E+0003  -2.83270971679688E+0003  -2.83261889648438E+0003  -2.83250415039063E+0003  -2.83234130859375E+0003  -2.83210815429688E+0003  -2.83182885742188E+0003  -2.83153173828125E+0003  -2.83124926757813E+0003  -2.83100976562500E+0003  -2.83083984375000E+0003  -2.83076904296875E+0003  -2.83083032226563E+0003  -2.83102856445313E+0003  -2.83129809570313E+0003  -2.83154833984375E+0003  -2.83167846679688E+0003  -2.83160180664063E+0003  -2.83129492187500E+0003  -2.83075488281250E+0003  -2.83001904296875E+0003  -2.82914257812500E+0003  -2.82821240234375E+0003  -2.82731689453125E+0003  -2.82655053710938E+0003  -2.82596215820313E+0003  -2.82552416992188E+0003  -2.82519238281250E+0003  -2.82493603515625E+0003  -2.82472753906250E+0003  -2.82455639648438E+0003  -2.82442041015625E+0003  -2.82430541992188E+0003  -2.82419311523438E+0003  -2.82406738281250E+0003  -2.82391088867188E+0003  -2.82370507812500E+0003  -2.82345288085938E+0003  -2.82317260742188E+0003  -2.82286962890625E+0003  -2.82255908203125E+0003  -2.82223706054688E+0003  -2.82190771484375E+0003  -2.82156933593750E+0003  -2.82122143554688E+0003  -2.82086694335938E+0003  -2.82050390625000E+0003  -2.82013867187500E+0003  -2.81976708984375E+0003  -2.81939916992188E+0003  -2.81903344726563E+0003  -2.81867895507813E+0003  -2.81834252929688E+0003  -2.81801733398438E+0003  -2.81769995117188E+0003  -2.81738500976563E+0003  -2.81706494140625E+0003  -2.81674633789063E+0003  -2.81643408203125E+0003  -2.81613452148438E+0003  -2.81585327148438E+0003  -2.81561791992188E+0003  -2.81545947265625E+0003  -2.81540844726563E+0003  -2.81548803710938E+0003  -2.81571118164063E+0003  -2.81608764648438E+0003  -2.81662768554688E+0003  -2.81731982421875E+0003  -2.81809179687500E+0003  -2.81889550781250E+0003  -2.81970556640625E+0003  -2.81993090820313E+0003  -2.81980029296875E+0003  -2.81948754882813E+0003  -2.81911621093750E+0003  -2.81889331054688E+0003  -2.81910717773438E+0003  -2.81978027343750E+0003  -2.82060937500000E+0003  -2.82132470703125E+0003  -2.82191821289063E+0003  -2.82253393554688E+0003  -2.82311694335938E+0003  -2.82371142578125E+0003  -2.82433056640625E+0003  -2.82499658203125E+0003  -2.82578173828125E+0003  -2.82659692382813E+0003  -2.82726440429688E+0003  -2.82749804687500E+0003  -2.82703149414063E+0003  -2.82607958984375E+0003  -2.82500708007813E+0003  -2.82420336914063E+0003  -2.82401220703125E+0003  -2.82423876953125E+0003  -2.82450366210938E+0003  -2.82458984375000E+0003  -2.82432910156250E+0003  -2.82392504882813E+0003  -2.82358496093750E+0003  -2.82345874023438E+0003  -2.82365649414063E+0003  -2.82414038085938E+0003  -2.82484594726563E+0003  -2.82571655273438E+0003  -2.82669311523438E+0003  -2.82772290039063E+0003  -2.82875415039063E+0003  -2.82973315429688E+0003  -2.83061157226563E+0003  -2.83139575195313E+0003  -2.83210083007813E+0003  -2.83260937500000E+0003  -2.83293017578125E+0003  -2.83321533203125E+0003  -2.83349682617188E+0003  -2.83379321289063E+0003  -2.83412719726563E+0003  -2.83449316406250E+0003  -2.83487841796875E+0003  -2.83527612304688E+0003  -2.83567797851563E+0003  -2.83607910156250E+0003  -2.83647998046875E+0003  -2.83687792968750E+0003  -2.83727026367188E+0003  -2.83765429687500E+0003  -2.83803100585938E+0003  -2.83839941406250E+0003  -2.83875830078125E+0003  -2.83910400390625E+0003  -2.83943432617188E+0003  -2.83974926757813E+0003  -2.84004882812500E+0003  -2.84032885742188E+0003  -2.84058911132813E+0003  -2.84082568359375E+0003  -2.84104052734375E+0003  -2.84123339843750E+0003  -2.84140283203125E+0003  -2.84154394531250E+0003  -2.84166064453125E+0003  -2.84175097656250E+0003  -2.84181518554688E+0003
  -2.85639526367188E+0003  -2.85657299804688E+0003  -2.85672729492188E+0003  -2.85685131835938E+0003  -2.85695214843750E+0003  -2.85703100585938E+0003  -2.85708666992188E+0003  -2.85712158203125E+0003  -2.85713964843750E+0003  -2.85714086914063E+0003  -2.85712377929688E+0003  -2.85709448242188E+0003  -2.85705151367188E+0003  -2.85699731445313E+0003  -2.85693212890625E+0003  -2.85685717773438E+0003  -2.85677197265625E+0003  -2.85667675781250E+0003  -2.85657080078125E+0003  -2.85645532226563E+0003  -2.85632690429688E+0003  -2.85618579101563E+0003  -2.85603344726563E+0003  -2.85586767578125E+0003  -2.85569067382813E+0003  -2.85550488281250E+0003  -2.85531005859375E+0003  -2.85510864257813E+0003  -2.85490063476563E+0003  -2.85468603515625E+0003  -2.85446582031250E+0003  -2.85423828125000E+0003  -2.85401074218750E+0003  -2.85378002929688E+0003  -2.85355126953125E+0003  -2.85332666015625E+0003  -2.85310644531250E+0003  -2.85289331054688E+0003  -2.85269238281250E+0003  -2.85249560546875E+0003  -2.85230786132813E+0003  -2.85211840820313E+0003  -2.85192651367188E+0003  -2.85173022460938E+0003  -2.85152294921875E+0003  -2.85130224609375E+0003  -2.85106860351563E+0003  -2.85077856445313E+0003  -2.85044311523438E+0003  -2.85009936523438E+0003  -2.84975000000000E+0003  -2.84939599609375E+0003  -2.84903881835938E+0003  -2.84867919921875E+0003  -2.84831811523438E+0003  -2.84795507812500E+0003  -2.84758984375000E+0003  -2.84722094726563E+0003  -2.84684863281250E+0003  -2.84647412109375E+0003  -2.84609521484375E+0003  -2.84571557617188E+0003  -2.84533959960938E+0003  -2.84497143554688E+0003  -2.84461791992188E+0003  -2.84428247070313E+0003  -2.84398510742188E+0003  -2.84374047851563E+0003  -2.84354907226563E+0003  -2.84342724609375E+0003  -2.84339038085938E+0003  -2.84341870117188E+0003  -2.84350854492188E+0003  -2.84365112304688E+0003  -2.84381054687500E+0003  -2.84391528320313E+0003  -2.84388403320313E+0003  -2.84347656250000E+0003  -2.84248217773438E+0003  -2.84121411132813E+0003  -2.83979858398438E+0003  -2.83833715820313E+0003  -2.83689990234375E+0003  -2.83553515625000E+0003  -2.83427124023438E+0003  -2.83312255859375E+0003  -2.83221289062500E+0003  -2.83174145507813E+0003  -2.83162622070313E+0003  -2.83163281250000E+0003  -2.83163378906250E+0003  -2.83156567382813E+0003  -2.83141528320313E+0003  -2.83118701171875E+0003  -2.83092333984375E+0003  -2.83065136718750E+0003  -2.83040478515625E+0003  -2.83021704101563E+0003  -2.83011181640625E+0003  -2.83010156250000E+0003  -2.83020874023438E+0003  -2.83043334960938E+0003  -2.83070898437500E+0003  -2.83095556640625E+0003  -2.83108032226563E+0003  -2.83100097656250E+0003  -2.83070043945313E+0003  -2.83017871093750E+0003  -2.82947875976563E+0003  -2.82865258789063E+0003  -2.82777368164063E+0003  -2.82690991210938E+0003  -2.82613598632813E+0003  -2.82549951171875E+0003  -2.82498754882813E+0003  -2.82458056640625E+0003  -2.82426416015625E+0003  -2.82401635742188E+0003  -2.82382397460938E+0003  -2.82368139648438E+0003  -2.82356225585938E+0003  -2.82345141601563E+0003  -2.82332885742188E+0003  -2.82317773437500E+0003  -2.82297656250000E+0003  -2.82272290039063E+0003  -2.82242480468750E+0003  -2.82210717773438E+0003  -2.82176635742188E+0003  -2.82141284179688E+0003  -2.82105517578125E+0003  -2.82069848632813E+0003  -2.82034985351563E+0003  -2.82000854492188E+0003  -2.81966601562500E+0003  -2.81931445312500E+0003  -2.81895581054688E+0003  -2.81858764648438E+0003  -2.81821508789063E+0003  -2.81784985351563E+0003  -2.81749194335938E+0003  -2.81715332031250E+0003  -2.81683886718750E+0003  -2.81654516601563E+0003  -2.81627661132813E+0003  -2.81602612304688E+0003  -2.81578686523438E+0003  -2.81555078125000E+0003  -2.81531518554688E+0003  -2.81510717773438E+0003  -2.81495166015625E+0003  -2.81487817382813E+0003  -2.81491088867188E+0003  -2.81506103515625E+0003  -2.81534936523438E+0003  -2.81578637695313E+0003  -2.81636328125000E+0003  -2.81701293945313E+0003  -2.81767871093750E+0003  -2.81831567382813E+0003  -2.81884765625000E+0003  -2.81902514648438E+0003  -2.81881958007813E+0003  -2.81864233398438E+0003  -2.81861791992188E+0003  -2.81889355468750E+0003  -2.81920776367188E+0003  -2.81965966796875E+0003  -2.82018920898438E+0003  -2.82074853515625E+0003  -2.82133789062500E+0003  -2.82190283203125E+0003  -2.82243652343750E+0003  -2.82297827148438E+0003  -2.82355346679688E+0003  -2.82422192382813E+0003  -2.82491455078125E+0003  -2.82547753906250E+0003  -2.82570556640625E+0003  -2.82541723632813E+0003  -2.82477441406250E+0003  -2.82403979492188E+0003  -2.82349194335938E+0003  -2.82337963867188E+0003  -2.82356396484375E+0003  -2.82377368164063E+0003  -2.82383496093750E+0003  -2.82357812500000E+0003  -2.82321435546875E+0003  -2.82290917968750E+0003  -2.82279638671875E+0003  -2.82297241210938E+0003  -2.82340869140625E+0003  -2.82405688476563E+0003  -2.82486572265625E+0003  -2.82578540039063E+0003  -2.82676318359375E+0003  -2.82775244140625E+0003  -2.82869848632813E+0003  -2.82956713867188E+0003  -2.83035278320313E+0003  -2.83103491210938E+0003  -2.83157373046875E+0003  -2.83197753906250E+0003  -2.83231298828125E+0003  -2.83262963867188E+0003  -2.83295947265625E+0003  -2.83332006835938E+0003  -2.83370458984375E+0003  -2.83410253906250E+0003  -2.83451171875000E+0003  -2.83492041015625E+0003  -2.83532958984375E+0003  -2.83573852539063E+0003  -2.83613989257813E+0003  -2.83653637695313E+0003  -2.83692358398438E+0003  -2.83730322265625E+0003  -2.83767407226563E+0003  -2.83803027343750E+0003  -2.83837500000000E+0003  -2.83870532226563E+0003  -2.83902124023438E+0003  -2.83931958007813E+0003  -2.83959985351563E+0003  -2.83985839843750E+0003  -2.84009790039063E+0003  -2.84031420898438E+0003  -2.84051000976563E+0003  -2.84068066406250E+0003  -2.84082836914063E+0003  -2.84094921875000E+0003  -2.84104687500000E+0003  -2.84111767578125E+0003
  -2.85640942382813E+0003  -2.85657788085938E+0003  -2.85671557617188E+0003  -2.85682592773438E+0003  -2.85691040039063E+0003  -2.85697094726563E+0003  -2.85700781250000E+0003  -2.85702465820313E+0003  -2.85702050781250E+0003  -2.85700146484375E+0003  -2.85696752929688E+0003  -2.85691918945313E+0003  -2.85686010742188E+0003  -2.85678955078125E+0003  -2.85670971679688E+0003  -2.85662011718750E+0003  -2.85652001953125E+0003  -2.85640966796875E+0003  -2.85628930664063E+0003  -2.85615405273438E+0003  -2.85600830078125E+0003  -2.85584985351563E+0003  -2.85567529296875E+0003  -2.85549072265625E+0003  -2.85529614257813E+0003  -2.85509008789063E+0003  -2.85487719726563E+0003  -2.85465429687500E+0003  -2.85442797851563E+0003  -2.85419531250000E+0003  -2.85395410156250E+0003  -2.85371166992188E+0003  -2.85346533203125E+0003  -2.85322192382813E+0003  -2.85298193359375E+0003  -2.85274584960938E+0003  -2.85251635742188E+0003  -2.85229980468750E+0003  -2.85209619140625E+0003  -2.85190332031250E+0003  -2.85171679687500E+0003  -2.85153149414063E+0003  -2.85134497070313E+0003  -2.85115063476563E+0003  -2.85094653320313E+0003  -2.85072973632813E+0003  -2.85049438476563E+0003  -2.85016235351563E+0003  -2.84981518554688E+0003  -2.84945800781250E+0003  -2.84909350585938E+0003  -2.84872290039063E+0003  -2.84834790039063E+0003  -2.84796875000000E+0003  -2.84758691406250E+0003  -2.84720263671875E+0003  -2.84681738281250E+0003  -2.84643066406250E+0003  -2.84604370117188E+0003  -2.84565820312500E+0003  -2.84527246093750E+0003  -2.84489086914063E+0003  -2.84451660156250E+0003  -2.84415429687500E+0003  -2.84381103515625E+0003  -2.84349682617188E+0003  -2.84322216796875E+0003  -2.84300097656250E+0003  -2.84284716796875E+0003  -2.84277465820313E+0003  -2.84278662109375E+0003  -2.84287255859375E+0003  -2.84302026367188E+0003  -2.84321801757813E+0003  -2.84342358398438E+0003  -2.84355761718750E+0003  -2.84353662109375E+0003  -2.84325048828125E+0003  -2.84219018554688E+0003  -2.84080786132813E+0003  -2.83926342773438E+0003  -2.83767358398438E+0003  -2.83611401367188E+0003  -2.83464697265625E+0003  -2.83329199218750E+0003  -2.83206372070313E+0003  -2.83110620117188E+0003  -2.83068286132813E+0003  -2.83068798828125E+0003  -2.83078613281250E+0003  -2.83082885742188E+0003  -2.83075000000000E+0003  -2.83056030273438E+0003  -2.83030712890625E+0003  -2.83003759765625E+0003  -2.82977319335938E+0003  -2.82954931640625E+0003  -2.82939746093750E+0003  -2.82933520507813E+0003  -2.82936865234375E+0003  -2.82950585937500E+0003  -2.82973681640625E+0003  -2.83000268554688E+0003  -2.83023315429688E+0003  -2.83033935546875E+0003  -2.83025756835938E+0003  -2.82997460937500E+0003  -2.82949096679688E+0003  -2.82884741210938E+0003  -2.82807788085938E+0003  -2.82725097656250E+0003  -2.82642431640625E+0003  -2.82565869140625E+0003  -2.82500000000000E+0003  -2.82445068359375E+0003  -2.82400854492188E+0003  -2.82365014648438E+0003  -2.82337695312500E+0003  -2.82317651367188E+0003  -2.82303100585938E+0003  -2.82291235351563E+0003  -2.82280468750000E+0003  -2.82268579101563E+0003  -2.82253515625000E+0003  -2.82233349609375E+0003  -2.82207299804688E+0003  -2.82177197265625E+0003  -2.82142797851563E+0003  -2.82105688476563E+0003  -2.82066186523438E+0003  -2.82027905273438E+0003  -2.81990551757813E+0003  -2.81955297851563E+0003  -2.81922045898438E+0003  -2.81889013671875E+0003  -2.81855786132813E+0003  -2.81820605468750E+0003  -2.81784008789063E+0003  -2.81746606445313E+0003  -2.81709521484375E+0003  -2.81673461914063E+0003  -2.81639086914063E+0003  -2.81608056640625E+0003  -2.81581250000000E+0003  -2.81558862304688E+0003  -2.81539331054688E+0003  -2.81521362304688E+0003  -2.81502734375000E+0003  -2.81481640625000E+0003  -2.81461694335938E+0003  -2.81445483398438E+0003  -2.81435449218750E+0003  -2.81434008789063E+0003  -2.81442822265625E+0003  -2.81463281250000E+0003  -2.81496655273438E+0003  -2.81542065429688E+0003  -2.81593823242188E+0003  -2.81645898437500E+0003  -2.81693310546875E+0003  -2.81731298828125E+0003  -2.81757202148438E+0003  -2.81770654296875E+0003  -2.81775268554688E+0003  -2.81777856445313E+0003  -2.81791186523438E+0003  -2.81819921875000E+0003  -2.81861181640625E+0003  -2.81910205078125E+0003  -2.81963134765625E+0003  -2.82017919921875E+0003  -2.82070410156250E+0003  -2.82114160156250E+0003  -2.82156762695313E+0003  -2.82201708984375E+0003  -2.82254565429688E+0003  -2.82310546875000E+0003  -2.82357934570313E+0003  -2.82382958984375E+0003  -2.82374462890625E+0003  -2.82343579101563E+0003  -2.82307006835938E+0003  -2.82281860351563E+0003  -2.82283203125000E+0003  -2.82302026367188E+0003  -2.82320751953125E+0003  -2.82326538085938E+0003  -2.82302563476563E+0003  -2.82271459960938E+0003  -2.82244970703125E+0003  -2.82234570312500E+0003  -2.82248413085938E+0003  -2.82285327148438E+0003  -2.82341137695313E+0003  -2.82412182617188E+0003  -2.82494165039063E+0003  -2.82583105468750E+0003  -2.82674487304688E+0003  -2.82764086914063E+0003  -2.82848022460938E+0003  -2.82925878906250E+0003  -2.82994360351563E+0003  -2.83051757812500E+0003  -2.83098461914063E+0003  -2.83137719726563E+0003  -2.83174462890625E+0003  -2.83211791992188E+0003  -2.83250878906250E+0003  -2.83291552734375E+0003  -2.83332763671875E+0003  -2.83374707031250E+0003  -2.83416748046875E+0003  -2.83458422851563E+0003  -2.83499755859375E+0003  -2.83540307617188E+0003  -2.83580468750000E+0003  -2.83619580078125E+0003  -2.83657885742188E+0003  -2.83694921875000E+0003  -2.83730786132813E+0003  -2.83765307617188E+0003  -2.83798339843750E+0003  -2.83829931640625E+0003  -2.83859692382813E+0003  -2.83887670898438E+0003  -2.83913671875000E+0003  -2.83937622070313E+0003  -2.83959472656250E+0003  -2.83979223632813E+0003  -2.83996655273438E+0003  -2.84011767578125E+0003  -2.84024365234375E+0003  -2.84034643554688E+0003  -2.84042333984375E+0003
  -2.85641113281250E+0003  -2.85656762695313E+0003  -2.85669360351563E+0003  -2.85678686523438E+0003  -2.85685327148438E+0003  -2.85689379882813E+0003  -2.85691040039063E+0003  -2.85690502929688E+0003  -2.85688159179688E+0003  -2.85684375000000E+0003  -2.85679028320313E+0003  -2.85672631835938E+0003  -2.85665063476563E+0003  -2.85656323242188E+0003  -2.85646923828125E+0003  -2.85636450195313E+0003  -2.85624902343750E+0003  -2.85612280273438E+0003  -2.85598437500000E+0003  -2.85583203125000E+0003  -2.85566650390625E+0003  -2.85548681640625E+0003  -2.85529443359375E+0003  -2.85508789062500E+0003  -2.85487133789063E+0003  -2.85464379882813E+0003  -2.85440771484375E+0003  -2.85416577148438E+0003  -2.85391601562500E+0003  -2.85366137695313E+0003  -2.85340307617188E+0003  -2.85314086914063E+0003  -2.85287597656250E+0003  -2.85261645507813E+0003  -2.85236132812500E+0003  -2.85211352539063E+0003  -2.85187768554688E+0003  -2.85165649414063E+0003  -2.85145336914063E+0003  -2.85126464843750E+0003  -2.85108642578125E+0003  -2.85091162109375E+0003  -2.85073168945313E+0003  -2.85054565429688E+0003  -2.85034838867188E+0003  -2.85013378906250E+0003  -2.84987548828125E+0003  -2.84953295898438E+0003  -2.84917431640625E+0003  -2.84880249023438E+0003  -2.84842089843750E+0003  -2.84803149414063E+0003  -2.84763574218750E+0003  -2.84723486328125E+0003  -2.84683056640625E+0003  -2.84642309570313E+0003  -2.84601538085938E+0003  -2.84560864257813E+0003  -2.84520605468750E+0003  -2.84480957031250E+0003  -2.84441772460938E+0003  -2.84403344726563E+0003  -2.84365991210938E+0003  -2.84330297851563E+0003  -2.84297094726563E+0003  -2.84267138671875E+0003  -2.84241503906250E+0003  -2.84221655273438E+0003  -2.84208935546875E+0003  -2.84204809570313E+0003  -2.84209570312500E+0003  -2.84221801757813E+0003  -2.84240039062500E+0003  -2.84262719726563E+0003  -2.84285327148438E+0003  -2.84299609375000E+0003  -2.84296826171875E+0003  -2.84265844726563E+0003  -2.84164672851563E+0003  -2.84021582031250E+0003  -2.83860839843750E+0003  -2.83695166015625E+0003  -2.83533227539063E+0003  -2.83382177734375E+0003  -2.83245605468750E+0003  -2.83125830078125E+0003  -2.83037548828125E+0003  -2.83003613281250E+0003  -2.83009619140625E+0003  -2.83020629882813E+0003  -2.83020043945313E+0003  -2.83002905273438E+0003  -2.82973291015625E+0003  -2.82941845703125E+0003  -2.82912915039063E+0003  -2.82886572265625E+0003  -2.82865332031250E+0003  -2.82853222656250E+0003  -2.82850903320313E+0003  -2.82857592773438E+0003  -2.82873608398438E+0003  -2.82897167968750E+0003  -2.82922949218750E+0003  -2.82944091796875E+0003  -2.82953710937500E+0003  -2.82945947265625E+0003  -2.82920434570313E+0003  -2.82877514648438E+0003  -2.82818725585938E+0003  -2.82747680664063E+0003  -2.82669677734375E+0003  -2.82590283203125E+0003  -2.82515258789063E+0003  -2.82448852539063E+0003  -2.82393554687500E+0003  -2.82348974609375E+0003  -2.82312768554688E+0003  -2.82281811523438E+0003  -2.82260229492188E+0003  -2.82245703125000E+0003  -2.82234130859375E+0003  -2.82223291015625E+0003  -2.82211401367188E+0003  -2.82195825195313E+0003  -2.82174658203125E+0003  -2.82147509765625E+0003  -2.82116381835938E+0003  -2.82079370117188E+0003  -2.82037768554688E+0003  -2.81995410156250E+0003  -2.81954614257813E+0003  -2.81915283203125E+0003  -2.81879345703125E+0003  -2.81846020507813E+0003  -2.81814160156250E+0003  -2.81781274414063E+0003  -2.81747729492188E+0003  -2.81711840820313E+0003  -2.81674072265625E+0003  -2.81637011718750E+0003  -2.81601367187500E+0003  -2.81567749023438E+0003  -2.81537719726563E+0003  -2.81513647460938E+0003  -2.81495141601563E+0003  -2.81479882812500E+0003  -2.81468139648438E+0003  -2.81452929687500E+0003  -2.81432153320313E+0003  -2.81411621093750E+0003  -2.81394335937500E+0003  -2.81381860351563E+0003  -2.81376611328125E+0003  -2.81379833984375E+0003  -2.81392846679688E+0003  -2.81416943359375E+0003  -2.81451416015625E+0003  -2.81491503906250E+0003  -2.81531298828125E+0003  -2.81566796875000E+0003  -2.81594482421875E+0003  -2.81615942382813E+0003  -2.81632470703125E+0003  -2.81646777343750E+0003  -2.81662036132813E+0003  -2.81683422851563E+0003  -2.81714624023438E+0003  -2.81755981445313E+0003  -2.81804467773438E+0003  -2.81856127929688E+0003  -2.81907031250000E+0003  -2.81954272460938E+0003  -2.81987646484375E+0003  -2.82017187500000E+0003  -2.82048242187500E+0003  -2.82087792968750E+0003  -2.82132763671875E+0003  -2.82174658203125E+0003  -2.82204736328125E+0003  -2.82216088867188E+0003  -2.82214868164063E+0003  -2.82210937500000E+0003  -2.82214111328125E+0003  -2.82231982421875E+0003  -2.82258056640625E+0003  -2.82280419921875E+0003  -2.82285839843750E+0003  -2.82266259765625E+0003  -2.82239160156250E+0003  -2.82214379882813E+0003  -2.82202197265625E+0003  -2.82210229492188E+0003  -2.82237841796875E+0003  -2.82282641601563E+0003  -2.82341845703125E+0003  -2.82412841796875E+0003  -2.82491796875000E+0003  -2.82574853515625E+0003  -2.82658325195313E+0003  -2.82739477539063E+0003  -2.82816552734375E+0003  -2.82886303710938E+0003  -2.82947412109375E+0003  -2.82999121093750E+0003  -2.83044165039063E+0003  -2.83086376953125E+0003  -2.83128198242188E+0003  -2.83170483398438E+0003  -2.83213281250000E+0003  -2.83256201171875E+0003  -2.83299267578125E+0003  -2.83342089843750E+0003  -2.83384619140625E+0003  -2.83426611328125E+0003  -2.83467749023438E+0003  -2.83508178710938E+0003  -2.83547607421875E+0003  -2.83586035156250E+0003  -2.83623266601563E+0003  -2.83659204101563E+0003  -2.83693725585938E+0003  -2.83726904296875E+0003  -2.83758398437500E+0003  -2.83788183593750E+0003  -2.83816088867188E+0003  -2.83841992187500E+0003  -2.83866259765625E+0003  -2.83888134765625E+0003  -2.83908129882813E+0003  -2.83925878906250E+0003  -2.83941235351563E+0003  -2.83954370117188E+0003  -2.83964916992188E+0003  -2.83973217773438E+0003
  -2.85640014648438E+0003  -2.85654565429688E+0003  -2.85665576171875E+0003  -2.85673242187500E+0003  -2.85677880859375E+0003  -2.85679785156250E+0003  -2.85679272460938E+0003  -2.85676660156250E+0003  -2.85672314453125E+0003  -2.85666430664063E+0003  -2.85659204101563E+0003  -2.85651171875000E+0003  -2.85642041015625E+0003  -2.85632006835938E+0003  -2.85620971679688E+0003  -2.85609082031250E+0003  -2.85595776367188E+0003  -2.85581518554688E+0003  -2.85565795898438E+0003  -2.85548632812500E+0003  -2.85530151367188E+0003  -2.85510180664063E+0003  -2.85488769531250E+0003  -2.85465893554688E+0003  -2.85441699218750E+0003  -2.85416723632813E+0003  -2.85390820312500E+0003  -2.85363964843750E+0003  -2.85336718750000E+0003  -2.85308862304688E+0003  -2.85280664062500E+0003  -2.85252124023438E+0003  -2.85223803710938E+0003  -2.85195898437500E+0003  -2.85168750000000E+0003  -2.85142700195313E+0003  -2.85118408203125E+0003  -2.85095996093750E+0003  -2.85076049804688E+0003  -2.85058081054688E+0003  -2.85041479492188E+0003  -2.85025415039063E+0003  -2.85008935546875E+0003  -2.84991479492188E+0003  -2.84972680664063E+0003  -2.84951953125000E+0003  -2.84924096679688E+0003  -2.84889013671875E+0003  -2.84851855468750E+0003  -2.84812915039063E+0003  -2.84772656250000E+0003  -2.84731445312500E+0003  -2.84689624023438E+0003  -2.84647216796875E+0003  -2.84604370117188E+0003  -2.84561035156250E+0003  -2.84517626953125E+0003  -2.84474804687500E+0003  -2.84432910156250E+0003  -2.84391967773438E+0003  -2.84352001953125E+0003  -2.84313256835938E+0003  -2.84276025390625E+0003  -2.84240966796875E+0003  -2.84208764648438E+0003  -2.84180053710938E+0003  -2.84155786132813E+0003  -2.84137231445313E+0003  -2.84125854492188E+0003  -2.84122998046875E+0003  -2.84128833007813E+0003  -2.84141796875000E+0003  -2.84160131835938E+0003  -2.84182128906250E+0003  -2.84203295898438E+0003  -2.84215649414063E+0003  -2.84210913085938E+0003  -2.84178784179688E+0003  -2.84080249023438E+0003  -2.83938256835938E+0003  -2.83779003906250E+0003  -2.83614526367188E+0003  -2.83454638671875E+0003  -2.83306884765625E+0003  -2.83176806640625E+0003  -2.83069433593750E+0003  -2.82996826171875E+0003  -2.82973315429688E+0003  -2.82981201171875E+0003  -2.82986376953125E+0003  -2.82972021484375E+0003  -2.82935522460938E+0003  -2.82888354492188E+0003  -2.82847656250000E+0003  -2.82815966796875E+0003  -2.82789501953125E+0003  -2.82770581054688E+0003  -2.82761596679688E+0003  -2.82762768554688E+0003  -2.82773046875000E+0003  -2.82791821289063E+0003  -2.82816601562500E+0003  -2.82842871093750E+0003  -2.82864184570313E+0003  -2.82874780273438E+0003  -2.82869433593750E+0003  -2.82847973632813E+0003  -2.82810278320313E+0003  -2.82756762695313E+0003  -2.82690332031250E+0003  -2.82615722656250E+0003  -2.82538476562500E+0003  -2.82464575195313E+0003  -2.82398583984375E+0003  -2.82344531250000E+0003  -2.82299291992188E+0003  -2.82261425781250E+0003  -2.82229223632813E+0003  -2.82209497070313E+0003  -2.82195141601563E+0003  -2.82183520507813E+0003  -2.82172436523438E+0003  -2.82159716796875E+0003  -2.82142968750000E+0003  -2.82120214843750E+0003  -2.82090966796875E+0003  -2.82056274414063E+0003  -2.82015258789063E+0003  -2.81970874023438E+0003  -2.81926245117188E+0003  -2.81882324218750E+0003  -2.81840673828125E+0003  -2.81803198242188E+0003  -2.81769042968750E+0003  -2.81736767578125E+0003  -2.81704003906250E+0003  -2.81670605468750E+0003  -2.81635815429688E+0003  -2.81598608398438E+0003  -2.81562573242188E+0003  -2.81528320312500E+0003  -2.81496386718750E+0003  -2.81468603515625E+0003  -2.81446728515625E+0003  -2.81431469726563E+0003  -2.81420581054688E+0003  -2.81412573242188E+0003  -2.81398730468750E+0003  -2.81378857421875E+0003  -2.81358227539063E+0003  -2.81339770507813E+0003  -2.81325170898438E+0003  -2.81316772460938E+0003  -2.81315747070313E+0003  -2.81323291015625E+0003  -2.81340234375000E+0003  -2.81366528320313E+0003  -2.81397753906250E+0003  -2.81429174804688E+0003  -2.81456005859375E+0003  -2.81476977539063E+0003  -2.81493896484375E+0003  -2.81510156250000E+0003  -2.81527026367188E+0003  -2.81546655273438E+0003  -2.81572387695313E+0003  -2.81607250976563E+0003  -2.81651562500000E+0003  -2.81702636718750E+0003  -2.81754541015625E+0003  -2.81802612304688E+0003  -2.81842114257813E+0003  -2.81868896484375E+0003  -2.81885815429688E+0003  -2.81904077148438E+0003  -2.81932006835938E+0003  -2.81968750000000E+0003  -2.82008374023438E+0003  -2.82045361328125E+0003  -2.82074365234375E+0003  -2.82098754882813E+0003  -2.82123413085938E+0003  -2.82152758789063E+0003  -2.82189599609375E+0003  -2.82227880859375E+0003  -2.82257983398438E+0003  -2.82264331054688E+0003  -2.82248022460938E+0003  -2.82221166992188E+0003  -2.82193188476563E+0003  -2.82174804687500E+0003  -2.82173876953125E+0003  -2.82190502929688E+0003  -2.82223364257813E+0003  -2.82270776367188E+0003  -2.82331176757813E+0003  -2.82400952148438E+0003  -2.82477099609375E+0003  -2.82555810546875E+0003  -2.82634692382813E+0003  -2.82711645507813E+0003  -2.82783129882813E+0003  -2.82847338867188E+0003  -2.82903491210938E+0003  -2.82953735351563E+0003  -2.83000537109375E+0003  -2.83046240234375E+0003  -2.83091503906250E+0003  -2.83136401367188E+0003  -2.83180981445313E+0003  -2.83225219726563E+0003  -2.83269116210938E+0003  -2.83312304687500E+0003  -2.83354858398438E+0003  -2.83396484375000E+0003  -2.83437451171875E+0003  -2.83476953125000E+0003  -2.83515625000000E+0003  -2.83552978515625E+0003  -2.83588842773438E+0003  -2.83623413085938E+0003  -2.83656469726563E+0003  -2.83687963867188E+0003  -2.83717626953125E+0003  -2.83745434570313E+0003  -2.83771606445313E+0003  -2.83795605468750E+0003  -2.83817626953125E+0003  -2.83837768554688E+0003  -2.83855712890625E+0003  -2.83871264648438E+0003  -2.83884814453125E+0003  -2.83895849609375E+0003  -2.83904589843750E+0003
  -2.85637475585938E+0003  -2.85650903320313E+0003  -2.85660302734375E+0003  -2.85666308593750E+0003  -2.85668676757813E+0003  -2.85668359375000E+0003  -2.85665502929688E+0003  -2.85660791015625E+0003  -2.85654223632813E+0003  -2.85646362304688E+0003  -2.85637622070313E+0003  -2.85627954101563E+0003  -2.85617260742188E+0003  -2.85605981445313E+0003  -2.85593408203125E+0003  -2.85579833984375E+0003  -2.85565014648438E+0003  -2.85548754882813E+0003  -2.85531298828125E+0003  -2.85512158203125E+0003  -2.85491577148438E+0003  -2.85469360351563E+0003  -2.85445703125000E+0003  -2.85420458984375E+0003  -2.85394042968750E+0003  -2.85366308593750E+0003  -2.85337695312500E+0003  -2.85308374023438E+0003  -2.85278466796875E+0003  -2.85248168945313E+0003  -2.85217309570313E+0003  -2.85186206054688E+0003  -2.85155590820313E+0003  -2.85125415039063E+0003  -2.85096606445313E+0003  -2.85069067382813E+0003  -2.85043945312500E+0003  -2.85021484375000E+0003  -2.85002148437500E+0003  -2.84985620117188E+0003  -2.84970922851563E+0003  -2.84956616210938E+0003  -2.84942016601563E+0003  -2.84926123046875E+0003  -2.84908471679688E+0003  -2.84888281250000E+0003  -2.84859008789063E+0003  -2.84823046875000E+0003  -2.84784423828125E+0003  -2.84743579101563E+0003  -2.84701074218750E+0003  -2.84657421875000E+0003  -2.84613378906250E+0003  -2.84568505859375E+0003  -2.84522534179688E+0003  -2.84476440429688E+0003  -2.84430468750000E+0003  -2.84385351562500E+0003  -2.84341528320313E+0003  -2.84299096679688E+0003  -2.84258251953125E+0003  -2.84219140625000E+0003  -2.84182177734375E+0003  -2.84147729492188E+0003  -2.84116357421875E+0003  -2.84088525390625E+0003  -2.84064965820313E+0003  -2.84046826171875E+0003  -2.84035424804688E+0003  -2.84031909179688E+0003  -2.84036474609375E+0003  -2.84047460937500E+0003  -2.84063061523438E+0003  -2.84081518554688E+0003  -2.84098632812500E+0003  -2.84107250976563E+0003  -2.84099975585938E+0003  -2.84068090820313E+0003  -2.83968188476563E+0003  -2.83833398437500E+0003  -2.83682690429688E+0003  -2.83527075195313E+0003  -2.83375610351563E+0003  -2.83236669921875E+0003  -2.83117041015625E+0003  -2.83024414062500E+0003  -2.82966284179688E+0003  -2.82948754882813E+0003  -2.82953149414063E+0003  -2.82947753906250E+0003  -2.82917529296875E+0003  -2.82857934570313E+0003  -2.82793969726563E+0003  -2.82745800781250E+0003  -2.82711840820313E+0003  -2.82686547851563E+0003  -2.82670434570313E+0003  -2.82665161132813E+0003  -2.82670190429688E+0003  -2.82684301757813E+0003  -2.82706005859375E+0003  -2.82733496093750E+0003  -2.82761523437500E+0003  -2.82785083007813E+0003  -2.82798339843750E+0003  -2.82796972656250E+0003  -2.82780468750000E+0003  -2.82747827148438E+0003  -2.82698999023438E+0003  -2.82635644531250E+0003  -2.82562744140625E+0003  -2.82487060546875E+0003  -2.82414331054688E+0003  -2.82349218750000E+0003  -2.82294897460938E+0003  -2.82249804687500E+0003  -2.82211694335938E+0003  -2.82181616210938E+0003  -2.82162768554688E+0003  -2.82148754882813E+0003  -2.82136669921875E+0003  -2.82124804687500E+0003  -2.82110424804688E+0003  -2.82091723632813E+0003  -2.82066235351563E+0003  -2.82033764648438E+0003  -2.81994799804688E+0003  -2.81951196289063E+0003  -2.81905151367188E+0003  -2.81857299804688E+0003  -2.81809936523438E+0003  -2.81765502929688E+0003  -2.81725537109375E+0003  -2.81689672851563E+0003  -2.81656274414063E+0003  -2.81623559570313E+0003  -2.81589770507813E+0003  -2.81554394531250E+0003  -2.81519311523438E+0003  -2.81485205078125E+0003  -2.81453149414063E+0003  -2.81423681640625E+0003  -2.81398535156250E+0003  -2.81379052734375E+0003  -2.81367480468750E+0003  -2.81359350585938E+0003  -2.81351269531250E+0003  -2.81338598632813E+0003  -2.81321166992188E+0003  -2.81301489257813E+0003  -2.81282299804688E+0003  -2.81266406250000E+0003  -2.81256005859375E+0003  -2.81251904296875E+0003  -2.81255786132813E+0003  -2.81267797851563E+0003  -2.81288745117188E+0003  -2.81314648437500E+0003  -2.81340844726563E+0003  -2.81362792968750E+0003  -2.81379223632813E+0003  -2.81392260742188E+0003  -2.81405029296875E+0003  -2.81420190429688E+0003  -2.81439428710938E+0003  -2.81467651367188E+0003  -2.81505688476563E+0003  -2.81554028320313E+0003  -2.81608447265625E+0003  -2.81661596679688E+0003  -2.81707519531250E+0003  -2.81740209960938E+0003  -2.81761157226563E+0003  -2.81767333984375E+0003  -2.81774047851563E+0003  -2.81792163085938E+0003  -2.81823217773438E+0003  -2.81862622070313E+0003  -2.81906982421875E+0003  -2.81951074218750E+0003  -2.81996777343750E+0003  -2.82045507812500E+0003  -2.82098364257813E+0003  -2.82154785156250E+0003  -2.82208203125000E+0003  -2.82247509765625E+0003  -2.82256445312500E+0003  -2.82241894531250E+0003  -2.82211303710938E+0003  -2.82176293945313E+0003  -2.82148364257813E+0003  -2.82136230468750E+0003  -2.82140991210938E+0003  -2.82162207031250E+0003  -2.82199169921875E+0003  -2.82250341796875E+0003  -2.82312792968750E+0003  -2.82383325195313E+0003  -2.82458764648438E+0003  -2.82536718750000E+0003  -2.82613623046875E+0003  -2.82686645507813E+0003  -2.82753588867188E+0003  -2.82813574218750E+0003  -2.82867602539063E+0003  -2.82918212890625E+0003  -2.82967333984375E+0003  -2.83014916992188E+0003  -2.83061669921875E+0003  -2.83107739257813E+0003  -2.83153125000000E+0003  -2.83197851562500E+0003  -2.83241772460938E+0003  -2.83284790039063E+0003  -2.83326904296875E+0003  -2.83367846679688E+0003  -2.83407812500000E+0003  -2.83446606445313E+0003  -2.83483837890625E+0003  -2.83519775390625E+0003  -2.83554345703125E+0003  -2.83587109375000E+0003  -2.83618530273438E+0003  -2.83648071289063E+0003  -2.83675805664063E+0003  -2.83701928710938E+0003  -2.83725805664063E+0003  -2.83747924804688E+0003  -2.83767993164063E+0003  -2.83786083984375E+0003  -2.83801855468750E+0003  -2.83815600585938E+0003  -2.83826831054688E+0003  -2.83836083984375E+0003
  -2.85633300781250E+0003  -2.85645629882813E+0003  -2.85653588867188E+0003  -2.85657519531250E+0003  -2.85657568359375E+0003  -2.85654833984375E+0003  -2.85649658203125E+0003  -2.85642431640625E+0003  -2.85633935546875E+0003  -2.85624462890625E+0003  -2.85614135742188E+0003  -2.85603125000000E+0003  -2.85591088867188E+0003  -2.85578198242188E+0003  -2.85564208984375E+0003  -2.85548852539063E+0003  -2.85532324218750E+0003  -2.85514331054688E+0003  -2.85494873046875E+0003  -2.85473803710938E+0003  -2.85451196289063E+0003  -2.85426757812500E+0003  -2.85400634765625E+0003  -2.85372900390625E+0003  -2.85343872070313E+0003  -2.85313525390625E+0003  -2.85282202148438E+0003  -2.85250366210938E+0003  -2.85217651367188E+0003  -2.85184643554688E+0003  -2.85150878906250E+0003  -2.85117187500000E+0003  -2.85083764648438E+0003  -2.85051293945313E+0003  -2.85020434570313E+0003  -2.84991699218750E+0003  -2.84965771484375E+0003  -2.84943408203125E+0003  -2.84925048828125E+0003  -2.84910180664063E+0003  -2.84897509765625E+0003  -2.84885815429688E+0003  -2.84873217773438E+0003  -2.84859082031250E+0003  -2.84842382812500E+0003  -2.84822387695313E+0003  -2.84792041015625E+0003  -2.84754980468750E+0003  -2.84714916992188E+0003  -2.84672387695313E+0003  -2.84627661132813E+0003  -2.84581713867188E+0003  -2.84535205078125E+0003  -2.84487695312500E+0003  -2.84438891601563E+0003  -2.84389794921875E+0003  -2.84341064453125E+0003  -2.84293432617188E+0003  -2.84247460937500E+0003  -2.84203466796875E+0003  -2.84161596679688E+0003  -2.84122167968750E+0003  -2.84085424804688E+0003  -2.84051586914063E+0003  -2.84020849609375E+0003  -2.83993408203125E+0003  -2.83969799804688E+0003  -2.83951049804688E+0003  -2.83938232421875E+0003  -2.83932543945313E+0003  -2.83934008789063E+0003  -2.83941210937500E+0003  -2.83952490234375E+0003  -2.83966210937500E+0003  -2.83978637695313E+0003  -2.83983544921875E+0003  -2.83974462890625E+0003  -2.83940039062500E+0003  -2.83840039062500E+0003  -2.83716186523438E+0003  -2.83578247070313E+0003  -2.83435229492188E+0003  -2.83295825195313E+0003  -2.83167456054688E+0003  -2.83057885742188E+0003  -2.82974291992188E+0003  -2.82920629882813E+0003  -2.82896679687500E+0003  -2.82885156250000E+0003  -2.82863623046875E+0003  -2.82819531250000E+0003  -2.82753271484375E+0003  -2.82684155273438E+0003  -2.82634448242188E+0003  -2.82601293945313E+0003  -2.82578857421875E+0003  -2.82566601562500E+0003  -2.82565551757813E+0003  -2.82574633789063E+0003  -2.82592382812500E+0003  -2.82617504882813E+0003  -2.82647485351563E+0003  -2.82677978515625E+0003  -2.82704125976563E+0003  -2.82721435546875E+0003  -2.82725292968750E+0003  -2.82714013671875E+0003  -2.82686157226563E+0003  -2.82641210937500E+0003  -2.82579907226563E+0003  -2.82508813476563E+0003  -2.82434155273438E+0003  -2.82362963867188E+0003  -2.82299584960938E+0003  -2.82245019531250E+0003  -2.82200146484375E+0003  -2.82164868164063E+0003  -2.82139526367188E+0003  -2.82121240234375E+0003  -2.82107299804688E+0003  -2.82094531250000E+0003  -2.82080859375000E+0003  -2.82064208984375E+0003  -2.82042285156250E+0003  -2.82013745117188E+0003  -2.81977539062500E+0003  -2.81935742187500E+0003  -2.81889257812500E+0003  -2.81839184570313E+0003  -2.81787670898438E+0003  -2.81736938476563E+0003  -2.81689062500000E+0003  -2.81646533203125E+0003  -2.81608593750000E+0003  -2.81573461914063E+0003  -2.81540039062500E+0003  -2.81505761718750E+0003  -2.81471752929688E+0003  -2.81438085937500E+0003  -2.81406445312500E+0003  -2.81376586914063E+0003  -2.81349853515625E+0003  -2.81327734375000E+0003  -2.81311523437500E+0003  -2.81302270507813E+0003  -2.81296118164063E+0003  -2.81288842773438E+0003  -2.81277514648438E+0003  -2.81261767578125E+0003  -2.81243066406250E+0003  -2.81224267578125E+0003  -2.81208032226563E+0003  -2.81196313476563E+0003  -2.81190527343750E+0003  -2.81192163085938E+0003  -2.81201245117188E+0003  -2.81219653320313E+0003  -2.81243237304688E+0003  -2.81266381835938E+0003  -2.81285278320313E+0003  -2.81298461914063E+0003  -2.81308691406250E+0003  -2.81318603515625E+0003  -2.81331396484375E+0003  -2.81349877929688E+0003  -2.81377685546875E+0003  -2.81419433593750E+0003  -2.81470727539063E+0003  -2.81527661132813E+0003  -2.81581298828125E+0003  -2.81624487304688E+0003  -2.81650903320313E+0003  -2.81661914062500E+0003  -2.81663769531250E+0003  -2.81660571289063E+0003  -2.81670458984375E+0003  -2.81696948242188E+0003  -2.81736425781250E+0003  -2.81786376953125E+0003  -2.81842968750000E+0003  -2.81905981445313E+0003  -2.81974511718750E+0003  -2.82047656250000E+0003  -2.82123120117188E+0003  -2.82192065429688E+0003  -2.82236694335938E+0003  -2.82253662109375E+0003  -2.82239086914063E+0003  -2.82202954101563E+0003  -2.82159228515625E+0003  -2.82120654296875E+0003  -2.82097436523438E+0003  -2.82091577148438E+0003  -2.82102734375000E+0003  -2.82130419921875E+0003  -2.82174023437500E+0003  -2.82230541992188E+0003  -2.82296997070313E+0003  -2.82370336914063E+0003  -2.82446875000000E+0003  -2.82523608398438E+0003  -2.82597900390625E+0003  -2.82666821289063E+0003  -2.82729223632813E+0003  -2.82786303710938E+0003  -2.82839794921875E+0003  -2.82891210937500E+0003  -2.82941186523438E+0003  -2.82989453125000E+0003  -2.83036791992188E+0003  -2.83083081054688E+0003  -2.83128540039063E+0003  -2.83173217773438E+0003  -2.83216723632813E+0003  -2.83259155273438E+0003  -2.83300292968750E+0003  -2.83340380859375E+0003  -2.83378833007813E+0003  -2.83416162109375E+0003  -2.83452050781250E+0003  -2.83486425781250E+0003  -2.83519213867188E+0003  -2.83550219726563E+0003  -2.83579541015625E+0003  -2.83607226562500E+0003  -2.83633129882813E+0003  -2.83657104492188E+0003  -2.83679174804688E+0003  -2.83699169921875E+0003  -2.83717260742188E+0003  -2.83733178710938E+0003  -2.83747045898438E+0003  -2.83758666992188E+0003  -2.83768115234375E+0003
  -2.85627441406250E+0003  -2.85638525390625E+0003  -2.85645019531250E+0003  -2.85646582031250E+0003  -2.85644116210938E+0003  -2.85638720703125E+0003  -2.85631103515625E+0003  -2.85621948242188E+0003  -2.85611621093750E+0003  -2.85600830078125E+0003  -2.85589135742188E+0003  -2.85577001953125E+0003  -2.85563354492188E+0003  -2.85548852539063E+0003  -2.85533227539063E+0003  -2.85516308593750E+0003  -2.85498095703125E+0003  -2.85478222656250E+0003  -2.85456884765625E+0003  -2.85433911132813E+0003  -2.85409130859375E+0003  -2.85382470703125E+0003  -2.85353955078125E+0003  -2.85323828125000E+0003  -2.85292065429688E+0003  -2.85259033203125E+0003  -2.85225000000000E+0003  -2.85190356445313E+0003  -2.85155029296875E+0003  -2.85119067382813E+0003  -2.85082446289063E+0003  -2.85045654296875E+0003  -2.85009375000000E+0003  -2.84974365234375E+0003  -2.84941162109375E+0003  -2.84910766601563E+0003  -2.84884277343750E+0003  -2.84862182617188E+0003  -2.84845458984375E+0003  -2.84832885742188E+0003  -2.84822656250000E+0003  -2.84813403320313E+0003  -2.84803320312500E+0003  -2.84791210937500E+0003  -2.84775048828125E+0003  -2.84755053710938E+0003  -2.84723486328125E+0003  -2.84685180664063E+0003  -2.84643774414063E+0003  -2.84599804687500E+0003  -2.84553027343750E+0003  -2.84504907226563E+0003  -2.84455957031250E+0003  -2.84405786132813E+0003  -2.84354150390625E+0003  -2.84301977539063E+0003  -2.84250366210938E+0003  -2.84200097656250E+0003  -2.84151904296875E+0003  -2.84106201171875E+0003  -2.84063232421875E+0003  -2.84023364257813E+0003  -2.83986840820313E+0003  -2.83953466796875E+0003  -2.83923095703125E+0003  -2.83895556640625E+0003  -2.83871020507813E+0003  -2.83850512695313E+0003  -2.83835083007813E+0003  -2.83825854492188E+0003  -2.83823046875000E+0003  -2.83825512695313E+0003  -2.83832080078125E+0003  -2.83841503906250E+0003  -2.83850512695313E+0003  -2.83853417968750E+0003  -2.83844335937500E+0003  -2.83797583007813E+0003  -2.83706005859375E+0003  -2.83594580078125E+0003  -2.83470751953125E+0003  -2.83342041015625E+0003  -2.83215454101563E+0003  -2.83097265625000E+0003  -2.82994750976563E+0003  -2.82913671875000E+0003  -2.82855224609375E+0003  -2.82815673828125E+0003  -2.82782373046875E+0003  -2.82741088867188E+0003  -2.82687597656250E+0003  -2.82623144531250E+0003  -2.82560620117188E+0003  -2.82514575195313E+0003  -2.82484863281250E+0003  -2.82467163085938E+0003  -2.82460424804688E+0003  -2.82464355468750E+0003  -2.82477709960938E+0003  -2.82499243164063E+0003  -2.82527075195313E+0003  -2.82559179687500E+0003  -2.82591894531250E+0003  -2.82620556640625E+0003  -2.82641088867188E+0003  -2.82649829101563E+0003  -2.82643798828125E+0003  -2.82620556640625E+0003  -2.82578881835938E+0003  -2.82520288085938E+0003  -2.82451025390625E+0003  -2.82378320312500E+0003  -2.82309277343750E+0003  -2.82248339843750E+0003  -2.82196679687500E+0003  -2.82154443359375E+0003  -2.82122534179688E+0003  -2.82099804687500E+0003  -2.82083081054688E+0003  -2.82069360351563E+0003  -2.82055590820313E+0003  -2.82039428710938E+0003  -2.82019287109375E+0003  -2.81992993164063E+0003  -2.81960449218750E+0003  -2.81920825195313E+0003  -2.81875878906250E+0003  -2.81826147460938E+0003  -2.81772631835938E+0003  -2.81717480468750E+0003  -2.81662890625000E+0003  -2.81611791992188E+0003  -2.81566162109375E+0003  -2.81525854492188E+0003  -2.81489282226563E+0003  -2.81454882812500E+0003  -2.81420922851563E+0003  -2.81387866210938E+0003  -2.81356127929688E+0003  -2.81326391601563E+0003  -2.81299169921875E+0003  -2.81275537109375E+0003  -2.81256518554688E+0003  -2.81243188476563E+0003  -2.81235302734375E+0003  -2.81230615234375E+0003  -2.81224536132813E+0003  -2.81215649414063E+0003  -2.81201928710938E+0003  -2.81184936523438E+0003  -2.81167504882813E+0003  -2.81152099609375E+0003  -2.81140649414063E+0003  -2.81134130859375E+0003  -2.81134277343750E+0003  -2.81143090820313E+0003  -2.81161157226563E+0003  -2.81182739257813E+0003  -2.81204956054688E+0003  -2.81222656250000E+0003  -2.81234667968750E+0003  -2.81244335937500E+0003  -2.81253930664063E+0003  -2.81266333007813E+0003  -2.81284667968750E+0003  -2.81313232421875E+0003  -2.81355908203125E+0003  -2.81408129882813E+0003  -2.81464672851563E+0003  -2.81516479492188E+0003  -2.81556127929688E+0003  -2.81576440429688E+0003  -2.81578540039063E+0003  -2.81572265625000E+0003  -2.81566625976563E+0003  -2.81569409179688E+0003  -2.81591040039063E+0003  -2.81628906250000E+0003  -2.81681713867188E+0003  -2.81746606445313E+0003  -2.81822119140625E+0003  -2.81906005859375E+0003  -2.81995849609375E+0003  -2.82088037109375E+0003  -2.82166259765625E+0003  -2.82222509765625E+0003  -2.82247363281250E+0003  -2.82232421875000E+0003  -2.82189819335938E+0003  -2.82137475585938E+0003  -2.82089453125000E+0003  -2.82057519531250E+0003  -2.82043212890625E+0003  -2.82046362304688E+0003  -2.82067236328125E+0003  -2.82105053710938E+0003  -2.82156811523438E+0003  -2.82220776367188E+0003  -2.82291821289063E+0003  -2.82366699218750E+0003  -2.82442529296875E+0003  -2.82517138671875E+0003  -2.82587133789063E+0003  -2.82651147460938E+0003  -2.82710034179688E+0003  -2.82765673828125E+0003  -2.82819018554688E+0003  -2.82870312500000E+0003  -2.82920068359375E+0003  -2.82968505859375E+0003  -2.83015673828125E+0003  -2.83061816406250E+0003  -2.83106884765625E+0003  -2.83150634765625E+0003  -2.83193212890625E+0003  -2.83234570312500E+0003  -2.83274658203125E+0003  -2.83313012695313E+0003  -2.83350146484375E+0003  -2.83385864257813E+0003  -2.83419970703125E+0003  -2.83452392578125E+0003  -2.83483325195313E+0003  -2.83512500000000E+0003  -2.83539794921875E+0003  -2.83565356445313E+0003  -2.83589257812500E+0003  -2.83611083984375E+0003  -2.83631127929688E+0003  -2.83649145507813E+0003  -2.83665063476563E+0003  -2.83679125976563E+0003  -2.83690942382813E+0003  -2.83700781250000E+0003
  -2.85619702148438E+0003  -2.85629736328125E+0003  -2.85634301757813E+0003  -2.85633154296875E+0003  -2.85627783203125E+0003  -2.85619799804688E+0003  -2.85610107421875E+0003  -2.85599365234375E+0003  -2.85587988281250E+0003  -2.85575805664063E+0003  -2.85562866210938E+0003  -2.85549072265625E+0003  -2.85534106445313E+0003  -2.85518041992188E+0003  -2.85500830078125E+0003  -2.85482202148438E+0003  -2.85462231445313E+0003  -2.85440722656250E+0003  -2.85417456054688E+0003  -2.85392529296875E+0003  -2.85365771484375E+0003  -2.85336865234375E+0003  -2.85306127929688E+0003  -2.85273486328125E+0003  -2.85239111328125E+0003  -2.85203393554688E+0003  -2.85166650390625E+0003  -2.85129150390625E+0003  -2.85091137695313E+0003  -2.85052099609375E+0003  -2.85012451171875E+0003  -2.84972729492188E+0003  -2.84933300781250E+0003  -2.84895361328125E+0003  -2.84859741210938E+0003  -2.84827319335938E+0003  -2.84800073242188E+0003  -2.84778857421875E+0003  -2.84764184570313E+0003  -2.84754492187500E+0003  -2.84747314453125E+0003  -2.84740454101563E+0003  -2.84733251953125E+0003  -2.84722973632813E+0003  -2.84707543945313E+0003  -2.84686669921875E+0003  -2.84653979492188E+0003  -2.84614184570313E+0003  -2.84571533203125E+0003  -2.84525927734375E+0003  -2.84477563476563E+0003  -2.84427416992188E+0003  -2.84375854492188E+0003  -2.84322802734375E+0003  -2.84268359375000E+0003  -2.84213427734375E+0003  -2.84159130859375E+0003  -2.84106396484375E+0003  -2.84055981445313E+0003  -2.84008422851563E+0003  -2.83964184570313E+0003  -2.83923754882813E+0003  -2.83887329101563E+0003  -2.83854345703125E+0003  -2.83824072265625E+0003  -2.83795825195313E+0003  -2.83769482421875E+0003  -2.83746142578125E+0003  -2.83727001953125E+0003  -2.83713281250000E+0003  -2.83705541992188E+0003  -2.83703295898438E+0003  -2.83705957031250E+0003  -2.83712939453125E+0003  -2.83721313476563E+0003  -2.83725292968750E+0003  -2.83718945312500E+0003  -2.83660473632813E+0003  -2.83577197265625E+0003  -2.83477124023438E+0003  -2.83366088867188E+0003  -2.83250097656250E+0003  -2.83134643554688E+0003  -2.83024780273438E+0003  -2.82926074218750E+0003  -2.82843383789063E+0003  -2.82776098632813E+0003  -2.82720166015625E+0003  -2.82667578125000E+0003  -2.82610644531250E+0003  -2.82547998046875E+0003  -2.82484863281250E+0003  -2.82428833007813E+0003  -2.82387988281250E+0003  -2.82364135742188E+0003  -2.82353149414063E+0003  -2.82353515625000E+0003  -2.82363305664063E+0003  -2.82381323242188E+0003  -2.82405859375000E+0003  -2.82435888671875E+0003  -2.82469116210938E+0003  -2.82502270507813E+0003  -2.82531909179688E+0003  -2.82554858398438E+0003  -2.82567260742188E+0003  -2.82565991210938E+0003  -2.82550390625000E+0003  -2.82511547851563E+0003  -2.82453808593750E+0003  -2.82387182617188E+0003  -2.82317431640625E+0003  -2.82251611328125E+0003  -2.82194213867188E+0003  -2.82146313476563E+0003  -2.82108227539063E+0003  -2.82080444335938E+0003  -2.82061425781250E+0003  -2.82047509765625E+0003  -2.82034912109375E+0003  -2.82019555664063E+0003  -2.81999145507813E+0003  -2.81973657226563E+0003  -2.81941845703125E+0003  -2.81900903320313E+0003  -2.81856738281250E+0003  -2.81810937500000E+0003  -2.81761840820313E+0003  -2.81705029296875E+0003  -2.81645996093750E+0003  -2.81587646484375E+0003  -2.81533105468750E+0003  -2.81484667968750E+0003  -2.81442065429688E+0003  -2.81404370117188E+0003  -2.81369433593750E+0003  -2.81335815429688E+0003  -2.81303930664063E+0003  -2.81273876953125E+0003  -2.81246484375000E+0003  -2.81221875000000E+0003  -2.81200952148438E+0003  -2.81184790039063E+0003  -2.81173803710938E+0003  -2.81167504882813E+0003  -2.81164013671875E+0003  -2.81159960937500E+0003  -2.81153808593750E+0003  -2.81142871093750E+0003  -2.81129052734375E+0003  -2.81114306640625E+0003  -2.81101049804688E+0003  -2.81091113281250E+0003  -2.81085449218750E+0003  -2.81085742187500E+0003  -2.81095117187500E+0003  -2.81112500000000E+0003  -2.81134155273438E+0003  -2.81156298828125E+0003  -2.81174755859375E+0003  -2.81188427734375E+0003  -2.81200146484375E+0003  -2.81212133789063E+0003  -2.81227319335938E+0003  -2.81248120117188E+0003  -2.81279248046875E+0003  -2.81321166992188E+0003  -2.81370751953125E+0003  -2.81423364257813E+0003  -2.81470678710938E+0003  -2.81505078125000E+0003  -2.81518554687500E+0003  -2.81513623046875E+0003  -2.81499462890625E+0003  -2.81487451171875E+0003  -2.81489599609375E+0003  -2.81505517578125E+0003  -2.81538916015625E+0003  -2.81589697265625E+0003  -2.81657788085938E+0003  -2.81740478515625E+0003  -2.81834082031250E+0003  -2.81934179687500E+0003  -2.82034082031250E+0003  -2.82126318359375E+0003  -2.82196801757813E+0003  -2.82229272460938E+0003  -2.82213525390625E+0003  -2.82165283203125E+0003  -2.82106762695313E+0003  -2.82053198242188E+0003  -2.82016650390625E+0003  -2.81997363281250E+0003  -2.81995703125000E+0003  -2.82012060546875E+0003  -2.82045922851563E+0003  -2.82094848632813E+0003  -2.82155761718750E+0003  -2.82224511718750E+0003  -2.82297387695313E+0003  -2.82371801757813E+0003  -2.82445410156250E+0003  -2.82515087890625E+0003  -2.82579565429688E+0003  -2.82639575195313E+0003  -2.82696435546875E+0003  -2.82751025390625E+0003  -2.82803417968750E+0003  -2.82854028320313E+0003  -2.82903344726563E+0003  -2.82951074218750E+0003  -2.82997656250000E+0003  -2.83043041992188E+0003  -2.83086889648438E+0003  -2.83129736328125E+0003  -2.83170776367188E+0003  -2.83210693359375E+0003  -2.83249047851563E+0003  -2.83285888671875E+0003  -2.83321118164063E+0003  -2.83354980468750E+0003  -2.83387060546875E+0003  -2.83417578125000E+0003  -2.83446411132813E+0003  -2.83473437500000E+0003  -2.83498779296875E+0003  -2.83522314453125E+0003  -2.83543896484375E+0003  -2.83563745117188E+0003  -2.83581665039063E+0003  -2.83597656250000E+0003  -2.83611645507813E+0003  -2.83623754882813E+0003  -2.83633789062500E+0003
  -2.85609643554688E+0003  -2.85618994140625E+0003  -2.85621435546875E+0003  -2.85617114257813E+0003  -2.85608642578125E+0003  -2.85597851562500E+0003  -2.85586523437500E+0003  -2.85574755859375E+0003  -2.85562353515625E+0003  -2.85549047851563E+0003  -2.85534863281250E+0003  -2.85519677734375E+0003  -2.85503173828125E+0003  -2.85485595703125E+0003  -2.85466821289063E+0003  -2.85446533203125E+0003  -2.85424853515625E+0003  -2.85401611328125E+0003  -2.85376538085938E+0003  -2.85349658203125E+0003  -2.85320971679688E+0003  -2.85290185546875E+0003  -2.85257202148438E+0003  -2.85222241210938E+0003  -2.85185351562500E+0003  -2.85147216796875E+0003  -2.85107690429688E+0003  -2.85067504882813E+0003  -2.85026586914063E+0003  -2.84984838867188E+0003  -2.84942456054688E+0003  -2.84899755859375E+0003  -2.84857543945313E+0003  -2.84816674804688E+0003  -2.84778149414063E+0003  -2.84743725585938E+0003  -2.84715332031250E+0003  -2.84695410156250E+0003  -2.84683715820313E+0003  -2.84676879882813E+0003  -2.84672290039063E+0003  -2.84667529296875E+0003  -2.84662500000000E+0003  -2.84653930664063E+0003  -2.84638696289063E+0003  -2.84617114257813E+0003  -2.84584960937500E+0003  -2.84543408203125E+0003  -2.84498876953125E+0003  -2.84451391601563E+0003  -2.84401220703125E+0003  -2.84348828125000E+0003  -2.84294531250000E+0003  -2.84238647460938E+0003  -2.84181591796875E+0003  -2.84124316406250E+0003  -2.84067700195313E+0003  -2.84012670898438E+0003  -2.83960083007813E+0003  -2.83910595703125E+0003  -2.83865014648438E+0003  -2.83823974609375E+0003  -2.83787719726563E+0003  -2.83755126953125E+0003  -2.83724926757813E+0003  -2.83695825195313E+0003  -2.83667358398438E+0003  -2.83640820312500E+0003  -2.83617675781250E+0003  -2.83599365234375E+0003  -2.83586914062500E+0003  -2.83580664062500E+0003  -2.83580859375000E+0003  -2.83587622070313E+0003  -2.83598217773438E+0003  -2.83606298828125E+0003  -2.83589331054688E+0003  -2.83532910156250E+0003  -2.83457568359375E+0003  -2.83367700195313E+0003  -2.83267675781250E+0003  -2.83162084960938E+0003  -2.83055444335938E+0003  -2.82951513671875E+0003  -2.82854248046875E+0003  -2.82767309570313E+0003  -2.82690185546875E+0003  -2.82619458007813E+0003  -2.82551000976563E+0003  -2.82481909179688E+0003  -2.82412695312500E+0003  -2.82348706054688E+0003  -2.82296362304688E+0003  -2.82261059570313E+0003  -2.82243798828125E+0003  -2.82241088867188E+0003  -2.82248706054688E+0003  -2.82264477539063E+0003  -2.82286694335938E+0003  -2.82313964843750E+0003  -2.82344921875000E+0003  -2.82377514648438E+0003  -2.82409521484375E+0003  -2.82436987304688E+0003  -2.82459545898438E+0003  -2.82476220703125E+0003  -2.82479101562500E+0003  -2.82468164062500E+0003  -2.82433496093750E+0003  -2.82379736328125E+0003  -2.82316528320313E+0003  -2.82251049804688E+0003  -2.82189282226563E+0003  -2.82136279296875E+0003  -2.82092968750000E+0003  -2.82059765625000E+0003  -2.82037109375000E+0003  -2.82023217773438E+0003  -2.82013476562500E+0003  -2.82002807617188E+0003  -2.81986108398438E+0003  -2.81958666992188E+0003  -2.81922924804688E+0003  -2.81882666015625E+0003  -2.81837670898438E+0003  -2.81788647460938E+0003  -2.81737060546875E+0003  -2.81684472656250E+0003  -2.81632592773438E+0003  -2.81573193359375E+0003  -2.81511279296875E+0003  -2.81453369140625E+0003  -2.81402734375000E+0003  -2.81358813476563E+0003  -2.81319531250000E+0003  -2.81284765625000E+0003  -2.81251953125000E+0003  -2.81221289062500E+0003  -2.81193090820313E+0003  -2.81167773437500E+0003  -2.81145605468750E+0003  -2.81127124023438E+0003  -2.81113989257813E+0003  -2.81105200195313E+0003  -2.81101293945313E+0003  -2.81099462890625E+0003  -2.81097973632813E+0003  -2.81095581054688E+0003  -2.81088769531250E+0003  -2.81079077148438E+0003  -2.81068090820313E+0003  -2.81057836914063E+0003  -2.81049804687500E+0003  -2.81045751953125E+0003  -2.81047241210938E+0003  -2.81056591796875E+0003  -2.81074560546875E+0003  -2.81097290039063E+0003  -2.81120703125000E+0003  -2.81141796875000E+0003  -2.81158984375000E+0003  -2.81174902343750E+0003  -2.81191650390625E+0003  -2.81211718750000E+0003  -2.81236962890625E+0003  -2.81270532226563E+0003  -2.81310571289063E+0003  -2.81356201171875E+0003  -2.81403491210938E+0003  -2.81444213867188E+0003  -2.81471386718750E+0003  -2.81478222656250E+0003  -2.81465917968750E+0003  -2.81444970703125E+0003  -2.81425146484375E+0003  -2.81416870117188E+0003  -2.81425415039063E+0003  -2.81451733398438E+0003  -2.81497412109375E+0003  -2.81563305664063E+0003  -2.81646191406250E+0003  -2.81742114257813E+0003  -2.81847583007813E+0003  -2.81959692382813E+0003  -2.82064941406250E+0003  -2.82147119140625E+0003  -2.82187768554688E+0003  -2.82174340820313E+0003  -2.82125537109375E+0003  -2.82066308593750E+0003  -2.82012524414063E+0003  -2.81975219726563E+0003  -2.81955419921875E+0003  -2.81952612304688E+0003  -2.81967749023438E+0003  -2.81999536132813E+0003  -2.82046484375000E+0003  -2.82103759765625E+0003  -2.82168847656250E+0003  -2.82238842773438E+0003  -2.82311132812500E+0003  -2.82382617187500E+0003  -2.82451098632813E+0003  -2.82515234375000E+0003  -2.82575195312500E+0003  -2.82632568359375E+0003  -2.82687622070313E+0003  -2.82740454101563E+0003  -2.82791699218750E+0003  -2.82841357421875E+0003  -2.82889599609375E+0003  -2.82936474609375E+0003  -2.82981713867188E+0003  -2.83025659179688E+0003  -2.83068286132813E+0003  -2.83109277343750E+0003  -2.83148681640625E+0003  -2.83186914062500E+0003  -2.83223437500000E+0003  -2.83258447265625E+0003  -2.83291674804688E+0003  -2.83323339843750E+0003  -2.83353393554688E+0003  -2.83381835937500E+0003  -2.83408374023438E+0003  -2.83433203125000E+0003  -2.83456445312500E+0003  -2.83477856445313E+0003  -2.83497363281250E+0003  -2.83515063476563E+0003  -2.83530908203125E+0003  -2.83544897460938E+0003  -2.83556982421875E+0003  -2.83567260742188E+0003
  -2.85596704101563E+0003  -2.85606420898438E+0003  -2.85606274414063E+0003  -2.85596923828125E+0003  -2.85586010742188E+0003  -2.85573754882813E+0003  -2.85561059570313E+0003  -2.85548632812500E+0003  -2.85535205078125E+0003  -2.85520678710938E+0003  -2.85505102539063E+0003  -2.85488330078125E+0003  -2.85470434570313E+0003  -2.85451342773438E+0003  -2.85430786132813E+0003  -2.85408837890625E+0003  -2.85385546875000E+0003  -2.85360620117188E+0003  -2.85334106445313E+0003  -2.85305444335938E+0003  -2.85274804687500E+0003  -2.85242138671875E+0003  -2.85207202148438E+0003  -2.85170068359375E+0003  -2.85131079101563E+0003  -2.85090625000000E+0003  -2.85048876953125E+0003  -2.85006396484375E+0003  -2.84962988281250E+0003  -2.84918750000000E+0003  -2.84873876953125E+0003  -2.84828833007813E+0003  -2.84784179687500E+0003  -2.84740966796875E+0003  -2.84699707031250E+0003  -2.84663452148438E+0003  -2.84633935546875E+0003  -2.84615209960938E+0003  -2.84606176757813E+0003  -2.84600854492188E+0003  -2.84597729492188E+0003  -2.84594189453125E+0003  -2.84589453125000E+0003  -2.84581298828125E+0003  -2.84566430664063E+0003  -2.84545068359375E+0003  -2.84515258789063E+0003  -2.84472314453125E+0003  -2.84425732421875E+0003  -2.84376025390625E+0003  -2.84323559570313E+0003  -2.84268701171875E+0003  -2.84211791992188E+0003  -2.84153417968750E+0003  -2.84094091796875E+0003  -2.84034667968750E+0003  -2.83976000976563E+0003  -2.83918872070313E+0003  -2.83864184570313E+0003  -2.83812915039063E+0003  -2.83766015625000E+0003  -2.83724487304688E+0003  -2.83688598632813E+0003  -2.83656713867188E+0003  -2.83626977539063E+0003  -2.83597412109375E+0003  -2.83567333984375E+0003  -2.83538232421875E+0003  -2.83511865234375E+0003  -2.83489916992188E+0003  -2.83473950195313E+0003  -2.83465185546875E+0003  -2.83464721679688E+0003  -2.83473437500000E+0003  -2.83488623046875E+0003  -2.83503027343750E+0003  -2.83468994140625E+0003  -2.83417333984375E+0003  -2.83349389648438E+0003  -2.83268334960938E+0003  -2.83177832031250E+0003  -2.83080834960938E+0003  -2.82980590820313E+0003  -2.82880566406250E+0003  -2.82783203125000E+0003  -2.82690966796875E+0003  -2.82603979492188E+0003  -2.82520800781250E+0003  -2.82439746093750E+0003  -2.82360351562500E+0003  -2.82285546875000E+0003  -2.82220483398438E+0003  -2.82170483398438E+0003  -2.82140698242188E+0003  -2.82130029296875E+0003  -2.82134594726563E+0003  -2.82149609375000E+0003  -2.82170483398438E+0003  -2.82195776367188E+0003  -2.82224316406250E+0003  -2.82254492187500E+0003  -2.82283740234375E+0003  -2.82308056640625E+0003  -2.82333520507813E+0003  -2.82357470703125E+0003  -2.82376806640625E+0003  -2.82383349609375E+0003  -2.82372094726563E+0003  -2.82343627929688E+0003  -2.82295727539063E+0003  -2.82238671875000E+0003  -2.82178320312500E+0003  -2.82121655273438E+0003  -2.82073730468750E+0003  -2.82035302734375E+0003  -2.82007910156250E+0003  -2.81991601562500E+0003  -2.81985034179688E+0003  -2.81981396484375E+0003  -2.81965087890625E+0003  -2.81938525390625E+0003  -2.81905908203125E+0003  -2.81867358398438E+0003  -2.81823193359375E+0003  -2.81774096679688E+0003  -2.81720703125000E+0003  -2.81663793945313E+0003  -2.81604687500000E+0003  -2.81545434570313E+0003  -2.81489892578125E+0003  -2.81435351562500E+0003  -2.81374658203125E+0003  -2.81321972656250E+0003  -2.81276611328125E+0003  -2.81236645507813E+0003  -2.81201855468750E+0003  -2.81170239257813E+0003  -2.81140966796875E+0003  -2.81114746093750E+0003  -2.81091381835938E+0003  -2.81071557617188E+0003  -2.81055468750000E+0003  -2.81044775390625E+0003  -2.81039111328125E+0003  -2.81038281250000E+0003  -2.81040185546875E+0003  -2.81042993164063E+0003  -2.81044848632813E+0003  -2.81043359375000E+0003  -2.81038818359375E+0003  -2.81032397460938E+0003  -2.81025512695313E+0003  -2.81019409179688E+0003  -2.81016235351563E+0003  -2.81018432617188E+0003  -2.81028588867188E+0003  -2.81047900390625E+0003  -2.81072314453125E+0003  -2.81098535156250E+0003  -2.81123461914063E+0003  -2.81145556640625E+0003  -2.81166577148438E+0003  -2.81188525390625E+0003  -2.81213208007813E+0003  -2.81243408203125E+0003  -2.81278491210938E+0003  -2.81317602539063E+0003  -2.81359570312500E+0003  -2.81400952148438E+0003  -2.81435205078125E+0003  -2.81455102539063E+0003  -2.81454003906250E+0003  -2.81434155273438E+0003  -2.81404248046875E+0003  -2.81373876953125E+0003  -2.81352148437500E+0003  -2.81344921875000E+0003  -2.81356176757813E+0003  -2.81392846679688E+0003  -2.81454296875000E+0003  -2.81535644531250E+0003  -2.81631420898438E+0003  -2.81739868164063E+0003  -2.81858593750000E+0003  -2.81971508789063E+0003  -2.82062060546875E+0003  -2.82111425781250E+0003  -2.82107617187500E+0003  -2.82067602539063E+0003  -2.82015991210938E+0003  -2.81968847656250E+0003  -2.81935937500000E+0003  -2.81919287109375E+0003  -2.81918237304688E+0003  -2.81934326171875E+0003  -2.81965649414063E+0003  -2.82010571289063E+0003  -2.82064062500000E+0003  -2.82125292968750E+0003  -2.82191333007813E+0003  -2.82259985351563E+0003  -2.82329028320313E+0003  -2.82395410156250E+0003  -2.82458032226563E+0003  -2.82517309570313E+0003  -2.82574365234375E+0003  -2.82629272460938E+0003  -2.82682275390625E+0003  -2.82733764648438E+0003  -2.82783422851563E+0003  -2.82831689453125E+0003  -2.82878320312500E+0003  -2.82923608398438E+0003  -2.82967211914063E+0003  -2.83009497070313E+0003  -2.83050195312500E+0003  -2.83089160156250E+0003  -2.83126831054688E+0003  -2.83162866210938E+0003  -2.83197216796875E+0003  -2.83229907226563E+0003  -2.83260986328125E+0003  -2.83290600585938E+0003  -2.83318457031250E+0003  -2.83344677734375E+0003  -2.83369018554688E+0003  -2.83391625976563E+0003  -2.83412695312500E+0003  -2.83431860351563E+0003  -2.83449169921875E+0003  -2.83464990234375E+0003  -2.83478857421875E+0003  -2.83490917968750E+0003  -2.83501245117188E+0003
  -2.85577392578125E+0003  -2.85589477539063E+0003  -2.85588061523438E+0003  -2.85573461914063E+0003  -2.85560058593750E+0003  -2.85547265625000E+0003  -2.85533642578125E+0003  -2.85519824218750E+0003  -2.85505688476563E+0003  -2.85490063476563E+0003  -2.85472827148438E+0003  -2.85454785156250E+0003  -2.85435131835938E+0003  -2.85414575195313E+0003  -2.85392675781250E+0003  -2.85369140625000E+0003  -2.85344360351563E+0003  -2.85317919921875E+0003  -2.85289819335938E+0003  -2.85259545898438E+0003  -2.85227392578125E+0003  -2.85193139648438E+0003  -2.85156445312500E+0003  -2.85117651367188E+0003  -2.85077001953125E+0003  -2.85034497070313E+0003  -2.84991040039063E+0003  -2.84946337890625E+0003  -2.84901074218750E+0003  -2.84854907226563E+0003  -2.84808325195313E+0003  -2.84761669921875E+0003  -2.84715917968750E+0003  -2.84671557617188E+0003  -2.84629248046875E+0003  -2.84591333007813E+0003  -2.84562500000000E+0003  -2.84543774414063E+0003  -2.84533569335938E+0003  -2.84528369140625E+0003  -2.84525146484375E+0003  -2.84521582031250E+0003  -2.84516357421875E+0003  -2.84507617187500E+0003  -2.84493066406250E+0003  -2.84472216796875E+0003  -2.84445141601563E+0003  -2.84401318359375E+0003  -2.84352709960938E+0003  -2.84300439453125E+0003  -2.84245263671875E+0003  -2.84187719726563E+0003  -2.84128295898438E+0003  -2.84067553710938E+0003  -2.84006079101563E+0003  -2.83944628906250E+0003  -2.83884008789063E+0003  -2.83824975585938E+0003  -2.83768383789063E+0003  -2.83715478515625E+0003  -2.83667504882813E+0003  -2.83625781250000E+0003  -2.83590625000000E+0003  -2.83559985351563E+0003  -2.83531420898438E+0003  -2.83502441406250E+0003  -2.83472094726563E+0003  -2.83442065429688E+0003  -2.83414379882813E+0003  -2.83390893554688E+0003  -2.83373608398438E+0003  -2.83364599609375E+0003  -2.83365673828125E+0003  -2.83378344726563E+0003  -2.83399804687500E+0003  -2.83396093750000E+0003  -2.83362622070313E+0003  -2.83315576171875E+0003  -2.83254296875000E+0003  -2.83180957031250E+0003  -2.83098242187500E+0003  -2.83008178710938E+0003  -2.82913183593750E+0003  -2.82815136718750E+0003  -2.82716772460938E+0003  -2.82619458007813E+0003  -2.82524340820313E+0003  -2.82431591796875E+0003  -2.82341357421875E+0003  -2.82254101562500E+0003  -2.82175048828125E+0003  -2.82108374023438E+0003  -2.82059936523438E+0003  -2.82034179687500E+0003  -2.82029174804688E+0003  -2.82039599609375E+0003  -2.82059472656250E+0003  -2.82083325195313E+0003  -2.82110571289063E+0003  -2.82138085937500E+0003  -2.82164575195313E+0003  -2.82183203125000E+0003  -2.82205688476563E+0003  -2.82230078125000E+0003  -2.82253662109375E+0003  -2.82273364257813E+0003  -2.82280981445313E+0003  -2.82271215820313E+0003  -2.82245825195313E+0003  -2.82204541015625E+0003  -2.82153466796875E+0003  -2.82098828125000E+0003  -2.82047753906250E+0003  -2.82004956054688E+0003  -2.81972558593750E+0003  -2.81951293945313E+0003  -2.81943237304688E+0003  -2.81945922851563E+0003  -2.81933300781250E+0003  -2.81915087890625E+0003  -2.81889721679688E+0003  -2.81854321289063E+0003  -2.81809350585938E+0003  -2.81757763671875E+0003  -2.81704614257813E+0003  -2.81650170898438E+0003  -2.81590673828125E+0003  -2.81526220703125E+0003  -2.81460205078125E+0003  -2.81397436523438E+0003  -2.81343823242188E+0003  -2.81297607421875E+0003  -2.81243627929688E+0003  -2.81196728515625E+0003  -2.81156591796875E+0003  -2.81122705078125E+0003  -2.81092187500000E+0003  -2.81064648437500E+0003  -2.81039965820313E+0003  -2.81018823242188E+0003  -2.81000683593750E+0003  -2.80986914062500E+0003  -2.80979150390625E+0003  -2.80977172851563E+0003  -2.80981127929688E+0003  -2.80988964843750E+0003  -2.80998168945313E+0003  -2.81006396484375E+0003  -2.81011206054688E+0003  -2.81012524414063E+0003  -2.81011059570313E+0003  -2.81007324218750E+0003  -2.81001977539063E+0003  -2.80998754882813E+0003  -2.81000634765625E+0003  -2.81011425781250E+0003  -2.81032519531250E+0003  -2.81060205078125E+0003  -2.81090551757813E+0003  -2.81120117187500E+0003  -2.81147094726563E+0003  -2.81172973632813E+0003  -2.81199072265625E+0003  -2.81228686523438E+0003  -2.81262109375000E+0003  -2.81298535156250E+0003  -2.81336914062500E+0003  -2.81376831054688E+0003  -2.81414404296875E+0003  -2.81442846679688E+0003  -2.81455517578125E+0003  -2.81445874023438E+0003  -2.81415869140625E+0003  -2.81373486328125E+0003  -2.81327636718750E+0003  -2.81287158203125E+0003  -2.81262084960938E+0003  -2.81261962890625E+0003  -2.81286157226563E+0003  -2.81338452148438E+0003  -2.81414892578125E+0003  -2.81509106445313E+0003  -2.81616088867188E+0003  -2.81730688476563E+0003  -2.81844116210938E+0003  -2.81940502929688E+0003  -2.82000170898438E+0003  -2.82012304687500E+0003  -2.81991284179688E+0003  -2.81957006835938E+0003  -2.81922973632813E+0003  -2.81900292968750E+0003  -2.81890551757813E+0003  -2.81893969726563E+0003  -2.81912255859375E+0003  -2.81942651367188E+0003  -2.81985034179688E+0003  -2.82036279296875E+0003  -2.82092968750000E+0003  -2.82154467773438E+0003  -2.82219091796875E+0003  -2.82284130859375E+0003  -2.82347753906250E+0003  -2.82408496093750E+0003  -2.82466259765625E+0003  -2.82522412109375E+0003  -2.82576855468750E+0003  -2.82629199218750E+0003  -2.82680419921875E+0003  -2.82729711914063E+0003  -2.82777490234375E+0003  -2.82823754882813E+0003  -2.82868481445313E+0003  -2.82911621093750E+0003  -2.82953344726563E+0003  -2.82993408203125E+0003  -2.83032031250000E+0003  -2.83068920898438E+0003  -2.83104174804688E+0003  -2.83138012695313E+0003  -2.83170092773438E+0003  -2.83200561523438E+0003  -2.83229467773438E+0003  -2.83256445312500E+0003  -2.83282128906250E+0003  -2.83305883789063E+0003  -2.83328051757813E+0003  -2.83348559570313E+0003  -2.83367138671875E+0003  -2.83384228515625E+0003  -2.83399682617188E+0003  -2.83413500976563E+0003  -2.83425512695313E+0003  -2.83435815429688E+0003
  -2.85546997070313E+0003  -2.85560302734375E+0003  -2.85559863281250E+0003  -2.85546923828125E+0003  -2.85531787109375E+0003  -2.85517138671875E+0003  -2.85502294921875E+0003  -2.85487500000000E+0003  -2.85472070312500E+0003  -2.85455297851563E+0003  -2.85437084960938E+0003  -2.85417700195313E+0003  -2.85396972656250E+0003  -2.85375000000000E+0003  -2.85351757812500E+0003  -2.85327172851563E+0003  -2.85301000976563E+0003  -2.85273168945313E+0003  -2.85243505859375E+0003  -2.85212207031250E+0003  -2.85178564453125E+0003  -2.85143017578125E+0003  -2.85105078125000E+0003  -2.85064843750000E+0003  -2.85022900390625E+0003  -2.84979174804688E+0003  -2.84934252929688E+0003  -2.84888452148438E+0003  -2.84841772460938E+0003  -2.84794702148438E+0003  -2.84747070312500E+0003  -2.84699365234375E+0003  -2.84653930664063E+0003  -2.84609960937500E+0003  -2.84567138671875E+0003  -2.84529589843750E+0003  -2.84500927734375E+0003  -2.84481103515625E+0003  -2.84468872070313E+0003  -2.84461962890625E+0003  -2.84457495117188E+0003  -2.84453149414063E+0003  -2.84446752929688E+0003  -2.84436914062500E+0003  -2.84421972656250E+0003  -2.84400805664063E+0003  -2.84372973632813E+0003  -2.84331518554688E+0003  -2.84280615234375E+0003  -2.84225585937500E+0003  -2.84167456054688E+0003  -2.84106958007813E+0003  -2.84044750976563E+0003  -2.83981445312500E+0003  -2.83917675781250E+0003  -2.83854199218750E+0003  -2.83791723632813E+0003  -2.83730908203125E+0003  -2.83672705078125E+0003  -2.83618481445313E+0003  -2.83569824218750E+0003  -2.83528320312500E+0003  -2.83494458007813E+0003  -2.83465771484375E+0003  -2.83439428710938E+0003  -2.83412524414063E+0003  -2.83383935546875E+0003  -2.83355419921875E+0003  -2.83329174804688E+0003  -2.83307177734375E+0003  -2.83291625976563E+0003  -2.83285205078125E+0003  -2.83290307617188E+0003  -2.83308715820313E+0003  -2.83325146484375E+0003  -2.83302587890625E+0003  -2.83272021484375E+0003  -2.83229687500000E+0003  -2.83174780273438E+0003  -2.83108056640625E+0003  -2.83031640625000E+0003  -2.82946533203125E+0003  -2.82854711914063E+0003  -2.82757714843750E+0003  -2.82658300781250E+0003  -2.82557446289063E+0003  -2.82457373046875E+0003  -2.82358496093750E+0003  -2.82262719726563E+0003  -2.82171020507813E+0003  -2.82087792968750E+0003  -2.82019946289063E+0003  -2.81972021484375E+0003  -2.81947924804688E+0003  -2.81946679687500E+0003  -2.81959545898438E+0003  -2.81980883789063E+0003  -2.82005908203125E+0003  -2.82031689453125E+0003  -2.82056884765625E+0003  -2.82072412109375E+0003  -2.82087524414063E+0003  -2.82106958007813E+0003  -2.82129003906250E+0003  -2.82150585937500E+0003  -2.82168603515625E+0003  -2.82175170898438E+0003  -2.82165722656250E+0003  -2.82143090820313E+0003  -2.82106591796875E+0003  -2.82061132812500E+0003  -2.82012548828125E+0003  -2.81967138671875E+0003  -2.81929858398438E+0003  -2.81903271484375E+0003  -2.81889428710938E+0003  -2.81890942382813E+0003  -2.81890063476563E+0003  -2.81880297851563E+0003  -2.81868310546875E+0003  -2.81844921875000E+0003  -2.81804614257813E+0003  -2.81746191406250E+0003  -2.81672558593750E+0003  -2.81613330078125E+0003  -2.81574560546875E+0003  -2.81517382812500E+0003  -2.81449584960938E+0003  -2.81377954101563E+0003  -2.81309179687500E+0003  -2.81249853515625E+0003  -2.81206469726563E+0003  -2.81167236328125E+0003  -2.81120483398438E+0003  -2.81080883789063E+0003  -2.81048168945313E+0003  -2.81019091796875E+0003  -2.80993090820313E+0003  -2.80970239257813E+0003  -2.80950561523438E+0003  -2.80933911132813E+0003  -2.80922216796875E+0003  -2.80917651367188E+0003  -2.80920727539063E+0003  -2.80931591796875E+0003  -2.80947656250000E+0003  -2.80965112304688E+0003  -2.80981762695313E+0003  -2.80994848632813E+0003  -2.81003051757813E+0003  -2.81006762695313E+0003  -2.81005249023438E+0003  -2.80999536132813E+0003  -2.80994189453125E+0003  -2.80994091796875E+0003  -2.81005126953125E+0003  -2.81028637695313E+0003  -2.81060620117188E+0003  -2.81096166992188E+0003  -2.81130688476563E+0003  -2.81161889648438E+0003  -2.81191259765625E+0003  -2.81220874023438E+0003  -2.81253491210938E+0003  -2.81289038085938E+0003  -2.81326123046875E+0003  -2.81364575195313E+0003  -2.81404028320313E+0003  -2.81440161132813E+0003  -2.81465136718750E+0003  -2.81471557617188E+0003  -2.81452197265625E+0003  -2.81408959960938E+0003  -2.81349560546875E+0003  -2.81282836914063E+0003  -2.81220922851563E+0003  -2.81178906250000E+0003  -2.81157568359375E+0003  -2.81164501953125E+0003  -2.81205371093750E+0003  -2.81274633789063E+0003  -2.81364819335938E+0003  -2.81469921875000E+0003  -2.81583544921875E+0003  -2.81693334960938E+0003  -2.81788476562500E+0003  -2.81859521484375E+0003  -2.81893164062500E+0003  -2.81898925781250E+0003  -2.81890112304688E+0003  -2.81877636718750E+0003  -2.81870458984375E+0003  -2.81870776367188E+0003  -2.81880493164063E+0003  -2.81901489257813E+0003  -2.81932153320313E+0003  -2.81971191406250E+0003  -2.82018725585938E+0003  -2.82071362304688E+0003  -2.82127636718750E+0003  -2.82187402343750E+0003  -2.82247875976563E+0003  -2.82308105468750E+0003  -2.82366064453125E+0003  -2.82422241210938E+0003  -2.82477099609375E+0003  -2.82530249023438E+0003  -2.82581884765625E+0003  -2.82631909179688E+0003  -2.82680322265625E+0003  -2.82727246093750E+0003  -2.82772705078125E+0003  -2.82816577148438E+0003  -2.82858984375000E+0003  -2.82900024414063E+0003  -2.82939062500000E+0003  -2.82976953125000E+0003  -2.83013159179688E+0003  -2.83047631835938E+0003  -2.83080688476563E+0003  -2.83111914062500E+0003  -2.83141528320313E+0003  -2.83169726562500E+0003  -2.83196093750000E+0003  -2.83220727539063E+0003  -2.83243994140625E+0003  -2.83265429687500E+0003  -2.83285400390625E+0003  -2.83303613281250E+0003  -2.83320239257813E+0003  -2.83335327148438E+0003  -2.83348803710938E+0003  -2.83360693359375E+0003  -2.83370922851563E+0003
  -2.85506176757813E+0003  -2.85516967773438E+0003  -2.85518237304688E+0003  -2.85509643554688E+0003  -2.85495874023438E+0003  -2.85481225585938E+0003  -2.85465966796875E+0003  -2.85450390625000E+0003  -2.85433911132813E+0003  -2.85416406250000E+0003  -2.85397485351563E+0003  -2.85377221679688E+0003  -2.85355639648438E+0003  -2.85332666015625E+0003  -2.85308374023438E+0003  -2.85282470703125E+0003  -2.85255322265625E+0003  -2.85226196289063E+0003  -2.85195556640625E+0003  -2.85162963867188E+0003  -2.85128344726563E+0003  -2.85091650390625E+0003  -2.85052783203125E+0003  -2.85011718750000E+0003  -2.84968774414063E+0003  -2.84924218750000E+0003  -2.84878417968750E+0003  -2.84831811523438E+0003  -2.84784375000000E+0003  -2.84736694335938E+0003  -2.84688208007813E+0003  -2.84639868164063E+0003  -2.84593457031250E+0003  -2.84549609375000E+0003  -2.84508447265625E+0003  -2.84472534179688E+0003  -2.84444116210938E+0003  -2.84423315429688E+0003  -2.84409179687500E+0003  -2.84400292968750E+0003  -2.84393847656250E+0003  -2.84388037109375E+0003  -2.84380322265625E+0003  -2.84369140625000E+0003  -2.84353320312500E+0003  -2.84331176757813E+0003  -2.84301953125000E+0003  -2.84263159179688E+0003  -2.84209570312500E+0003  -2.84151464843750E+0003  -2.84090087890625E+0003  -2.84026391601563E+0003  -2.83961059570313E+0003  -2.83894995117188E+0003  -2.83828881835938E+0003  -2.83763378906250E+0003  -2.83699194335938E+0003  -2.83636962890625E+0003  -2.83577514648438E+0003  -2.83522436523438E+0003  -2.83473559570313E+0003  -2.83432788085938E+0003  -2.83400732421875E+0003  -2.83374658203125E+0003  -2.83351416015625E+0003  -2.83327954101563E+0003  -2.83302905273438E+0003  -2.83278149414063E+0003  -2.83255859375000E+0003  -2.83237963867188E+0003  -2.83226855468750E+0003  -2.83225512695313E+0003  -2.83236474609375E+0003  -2.83260888671875E+0003  -2.83243408203125E+0003  -2.83222753906250E+0003  -2.83195581054688E+0003  -2.83158227539063E+0003  -2.83109619140625E+0003  -2.83049414062500E+0003  -2.82978295898438E+0003  -2.82896606445313E+0003  -2.82805883789063E+0003  -2.82708349609375E+0003  -2.82606738281250E+0003  -2.82503369140625E+0003  -2.82400683593750E+0003  -2.82299291992188E+0003  -2.82201367187500E+0003  -2.82108129882813E+0003  -2.82023828125000E+0003  -2.81954614257813E+0003  -2.81906225585938E+0003  -2.81883349609375E+0003  -2.81881567382813E+0003  -2.81893847656250E+0003  -2.81913793945313E+0003  -2.81937084960938E+0003  -2.81959936523438E+0003  -2.81981396484375E+0003  -2.81988549804688E+0003  -2.81999389648438E+0003  -2.82015063476563E+0003  -2.82032568359375E+0003  -2.82050268554688E+0003  -2.82064575195313E+0003  -2.82068359375000E+0003  -2.82058032226563E+0003  -2.82036914062500E+0003  -2.82004296875000E+0003  -2.81964453125000E+0003  -2.81922119140625E+0003  -2.81882324218750E+0003  -2.81850170898438E+0003  -2.81829028320313E+0003  -2.81822387695313E+0003  -2.81833154296875E+0003  -2.81827172851563E+0003  -2.81825292968750E+0003  -2.81821826171875E+0003  -2.81805688476563E+0003  -2.81767529296875E+0003  -2.81680859375000E+0003  -2.81538378906250E+0003  -2.81495703125000E+0003  -2.81497900390625E+0003  -2.81444824218750E+0003  -2.81375219726563E+0003  -2.81299560546875E+0003  -2.81226538085938E+0003  -2.81163330078125E+0003  -2.81116894531250E+0003  -2.81093334960938E+0003  -2.81048779296875E+0003  -2.81010937500000E+0003  -2.80979174804688E+0003  -2.80951635742188E+0003  -2.80927197265625E+0003  -2.80906323242188E+0003  -2.80888427734375E+0003  -2.80873681640625E+0003  -2.80863623046875E+0003  -2.80861352539063E+0003  -2.80870556640625E+0003  -2.80889233398438E+0003  -2.80914526367188E+0003  -2.80941528320313E+0003  -2.80967138671875E+0003  -2.80988574218750E+0003  -2.81004345703125E+0003  -2.81012939453125E+0003  -2.81013085937500E+0003  -2.81006103515625E+0003  -2.80997631835938E+0003  -2.80995410156250E+0003  -2.81006274414063E+0003  -2.81032641601563E+0003  -2.81069409179688E+0003  -2.81110620117188E+0003  -2.81149902343750E+0003  -2.81184521484375E+0003  -2.81216381835938E+0003  -2.81249340820313E+0003  -2.81283959960938E+0003  -2.81320117187500E+0003  -2.81357495117188E+0003  -2.81396557617188E+0003  -2.81436572265625E+0003  -2.81472753906250E+0003  -2.81496020507813E+0003  -2.81496801757813E+0003  -2.81467675781250E+0003  -2.81409326171875E+0003  -2.81330102539063E+0003  -2.81239062500000E+0003  -2.81160595703125E+0003  -2.81094482421875E+0003  -2.81051318359375E+0003  -2.81040551757813E+0003  -2.81069458007813E+0003  -2.81130029296875E+0003  -2.81214526367188E+0003  -2.81316064453125E+0003  -2.81427343750000E+0003  -2.81535913085938E+0003  -2.81630053710938E+0003  -2.81705932617188E+0003  -2.81763623046875E+0003  -2.81800341796875E+0003  -2.81823022460938E+0003  -2.81837573242188E+0003  -2.81848803710938E+0003  -2.81861059570313E+0003  -2.81878051757813E+0003  -2.81901171875000E+0003  -2.81931616210938E+0003  -2.81967602539063E+0003  -2.82009350585938E+0003  -2.82057690429688E+0003  -2.82109179687500E+0003  -2.82163305664063E+0003  -2.82219482421875E+0003  -2.82275292968750E+0003  -2.82330517578125E+0003  -2.82384521484375E+0003  -2.82437719726563E+0003  -2.82489526367188E+0003  -2.82539648437500E+0003  -2.82588305664063E+0003  -2.82635449218750E+0003  -2.82681176757813E+0003  -2.82725415039063E+0003  -2.82767993164063E+0003  -2.82809375000000E+0003  -2.82849169921875E+0003  -2.82887719726563E+0003  -2.82924194335938E+0003  -2.82959448242188E+0003  -2.82993188476563E+0003  -2.83025024414063E+0003  -2.83055468750000E+0003  -2.83084204101563E+0003  -2.83111425781250E+0003  -2.83136816406250E+0003  -2.83160839843750E+0003  -2.83183105468750E+0003  -2.83203979492188E+0003  -2.83223266601563E+0003  -2.83240844726563E+0003  -2.83256933593750E+0003  -2.83271606445313E+0003  -2.83284716796875E+0003  -2.83296337890625E+0003  -2.83306542968750E+0003
  -2.85458398437500E+0003  -2.85467480468750E+0003  -2.85469189453125E+0003  -2.85463330078125E+0003  -2.85452075195313E+0003  -2.85438476562500E+0003  -2.85423828125000E+0003  -2.85408129882813E+0003  -2.85391406250000E+0003  -2.85373437500000E+0003  -2.85354223632813E+0003  -2.85333496093750E+0003  -2.85310986328125E+0003  -2.85287084960938E+0003  -2.85261840820313E+0003  -2.85235180664063E+0003  -2.85206933593750E+0003  -2.85177148437500E+0003  -2.85145434570313E+0003  -2.85111816406250E+0003  -2.85076269531250E+0003  -2.85039038085938E+0003  -2.84999511718750E+0003  -2.84957714843750E+0003  -2.84914208984375E+0003  -2.84869042968750E+0003  -2.84822729492188E+0003  -2.84775610351563E+0003  -2.84727856445313E+0003  -2.84679174804688E+0003  -2.84629980468750E+0003  -2.84581030273438E+0003  -2.84534204101563E+0003  -2.84490209960938E+0003  -2.84450048828125E+0003  -2.84415747070313E+0003  -2.84387524414063E+0003  -2.84365966796875E+0003  -2.84350830078125E+0003  -2.84340307617188E+0003  -2.84332397460938E+0003  -2.84324975585938E+0003  -2.84316015625000E+0003  -2.84303784179688E+0003  -2.84286840820313E+0003  -2.84263574218750E+0003  -2.84232324218750E+0003  -2.84193969726563E+0003  -2.84139331054688E+0003  -2.84077758789063E+0003  -2.84012792968750E+0003  -2.83945532226563E+0003  -2.83876928710938E+0003  -2.83807958984375E+0003  -2.83739501953125E+0003  -2.83672192382813E+0003  -2.83606640625000E+0003  -2.83543408203125E+0003  -2.83483251953125E+0003  -2.83427978515625E+0003  -2.83379492187500E+0003  -2.83339941406250E+0003  -2.83310107421875E+0003  -2.83287133789063E+0003  -2.83267626953125E+0003  -2.83248510742188E+0003  -2.83228369140625E+0003  -2.83208935546875E+0003  -2.83192333984375E+0003  -2.83180517578125E+0003  -2.83175781250000E+0003  -2.83181030273438E+0003  -2.83198876953125E+0003  -2.83187695312500E+0003  -2.83171826171875E+0003  -2.83154052734375E+0003  -2.83130859375000E+0003  -2.83099682617188E+0003  -2.83058300781250E+0003  -2.83004809570313E+0003  -2.82938598632813E+0003  -2.82858520507813E+0003  -2.82766284179688E+0003  -2.82665722656250E+0003  -2.82560498046875E+0003  -2.82454223632813E+0003  -2.82350097656250E+0003  -2.82248535156250E+0003  -2.82151171875000E+0003  -2.82059130859375E+0003  -2.81976757812500E+0003  -2.81908691406250E+0003  -2.81860424804688E+0003  -2.81836108398438E+0003  -2.81831518554688E+0003  -2.81840161132813E+0003  -2.81856591796875E+0003  -2.81875854492188E+0003  -2.81894970703125E+0003  -2.81911645507813E+0003  -2.81914355468750E+0003  -2.81921093750000E+0003  -2.81931225585938E+0003  -2.81942651367188E+0003  -2.81954321289063E+0003  -2.81963159179688E+0003  -2.81963330078125E+0003  -2.81951171875000E+0003  -2.81930566406250E+0003  -2.81901538085938E+0003  -2.81867236328125E+0003  -2.81830322265625E+0003  -2.81795678710938E+0003  -2.81767895507813E+0003  -2.81751269531250E+0003  -2.81749707031250E+0003  -2.81761376953125E+0003  -2.81758471679688E+0003  -2.81763916015625E+0003  -2.81770361328125E+0003  -2.81772656250000E+0003  -2.81765478515625E+0003  -2.81632031250000E+0003  -2.81389135742188E+0003  -2.81388378906250E+0003  -2.81425488281250E+0003  -2.81374243164063E+0003  -2.81303515625000E+0003  -2.81225854492188E+0003  -2.81150878906250E+0003  -2.81086035156250E+0003  -2.81038476562500E+0003  -2.81014331054688E+0003  -2.80981762695313E+0003  -2.80945410156250E+0003  -2.80915332031250E+0003  -2.80889453125000E+0003  -2.80866943359375E+0003  -2.80847583007813E+0003  -2.80831323242188E+0003  -2.80818237304688E+0003  -2.80810693359375E+0003  -2.80811767578125E+0003  -2.80826708984375E+0003  -2.80853344726563E+0003  -2.80887475585938E+0003  -2.80923071289063E+0003  -2.80956811523438E+0003  -2.80985595703125E+0003  -2.81007958984375E+0003  -2.81020996093750E+0003  -2.81022729492188E+0003  -2.81014160156250E+0003  -2.81003588867188E+0003  -2.80999121093750E+0003  -2.81009619140625E+0003  -2.81038891601563E+0003  -2.81080761718750E+0003  -2.81127148437500E+0003  -2.81171240234375E+0003  -2.81209277343750E+0003  -2.81244458007813E+0003  -2.81279516601563E+0003  -2.81314550781250E+0003  -2.81350878906250E+0003  -2.81388598632813E+0003  -2.81427954101563E+0003  -2.81469042968750E+0003  -2.81505810546875E+0003  -2.81527734375000E+0003  -2.81523388671875E+0003  -2.81484594726563E+0003  -2.81411376953125E+0003  -2.81312622070313E+0003  -2.81205346679688E+0003  -2.81104711914063E+0003  -2.81016577148438E+0003  -2.80953857421875E+0003  -2.80927587890625E+0003  -2.80944824218750E+0003  -2.80996728515625E+0003  -2.81074877929688E+0003  -2.81172412109375E+0003  -2.81280590820313E+0003  -2.81387988281250E+0003  -2.81482690429688E+0003  -2.81564355468750E+0003  -2.81641137695313E+0003  -2.81709716796875E+0003  -2.81765966796875E+0003  -2.81809155273438E+0003  -2.81839428710938E+0003  -2.81862744140625E+0003  -2.81885644531250E+0003  -2.81910180664063E+0003  -2.81938769531250E+0003  -2.81971313476563E+0003  -2.82007958984375E+0003  -2.82049194335938E+0003  -2.82096142578125E+0003  -2.82145312500000E+0003  -2.82196459960938E+0003  -2.82248706054688E+0003  -2.82300708007813E+0003  -2.82352270507813E+0003  -2.82403588867188E+0003  -2.82453881835938E+0003  -2.82502539062500E+0003  -2.82549487304688E+0003  -2.82594848632813E+0003  -2.82638867187500E+0003  -2.82681469726563E+0003  -2.82722900390625E+0003  -2.82762817382813E+0003  -2.82801147460938E+0003  -2.82838183593750E+0003  -2.82873632812500E+0003  -2.82907666015625E+0003  -2.82940161132813E+0003  -2.82971020507813E+0003  -2.83000268554688E+0003  -2.83028002929688E+0003  -2.83054150390625E+0003  -2.83078808593750E+0003  -2.83101782226563E+0003  -2.83123315429688E+0003  -2.83143408203125E+0003  -2.83161767578125E+0003  -2.83178686523438E+0003  -2.83194433593750E+0003  -2.83208593750000E+0003  -2.83221289062500E+0003  -2.83232641601563E+0003  -2.83242724609375E+0003
  -2.85406005859375E+0003  -2.85413745117188E+0003  -2.85415429687500E+0003  -2.85411108398438E+0003  -2.85402124023438E+0003  -2.85390112304688E+0003  -2.85376025390625E+0003  -2.85360766601563E+0003  -2.85344262695313E+0003  -2.85326245117188E+0003  -2.85306884765625E+0003  -2.85285693359375E+0003  -2.85262817382813E+0003  -2.85238403320313E+0003  -2.85212597656250E+0003  -2.85185180664063E+0003  -2.85156103515625E+0003  -2.85125439453125E+0003  -2.85093017578125E+0003  -2.85058764648438E+0003  -2.85022656250000E+0003  -2.84984765625000E+0003  -2.84944628906250E+0003  -2.84902319335938E+0003  -2.84858056640625E+0003  -2.84812622070313E+0003  -2.84765795898438E+0003  -2.84718432617188E+0003  -2.84669970703125E+0003  -2.84620581054688E+0003  -2.84570654296875E+0003  -2.84521728515625E+0003  -2.84474169921875E+0003  -2.84430297851563E+0003  -2.84391088867188E+0003  -2.84357397460938E+0003  -2.84329589843750E+0003  -2.84307519531250E+0003  -2.84291528320313E+0003  -2.84279931640625E+0003  -2.84271166992188E+0003  -2.84262817382813E+0003  -2.84253295898438E+0003  -2.84240209960938E+0003  -2.84222119140625E+0003  -2.84197290039063E+0003  -2.84163940429688E+0003  -2.84122656250000E+0003  -2.84069433593750E+0003  -2.84003930664063E+0003  -2.83935009765625E+0003  -2.83863964843750E+0003  -2.83791943359375E+0003  -2.83720068359375E+0003  -2.83649438476563E+0003  -2.83580639648438E+0003  -2.83514184570313E+0003  -2.83450537109375E+0003  -2.83390454101563E+0003  -2.83335742187500E+0003  -2.83288378906250E+0003  -2.83250659179688E+0003  -2.83223364257813E+0003  -2.83203662109375E+0003  -2.83188281250000E+0003  -2.83174096679688E+0003  -2.83159643554688E+0003  -2.83146484375000E+0003  -2.83136572265625E+0003  -2.83131665039063E+0003  -2.83134008789063E+0003  -2.83146337890625E+0003  -2.83136596679688E+0003  -2.83121508789063E+0003  -2.83107861328125E+0003  -2.83093139648438E+0003  -2.83075244140625E+0003  -2.83051879882813E+0003  -2.83019848632813E+0003  -2.82975439453125E+0003  -2.82914843750000E+0003  -2.82834594726563E+0003  -2.82736987304688E+0003  -2.82629296875000E+0003  -2.82517407226563E+0003  -2.82407275390625E+0003  -2.82301879882813E+0003  -2.82201416015625E+0003  -2.82106738281250E+0003  -2.82018603515625E+0003  -2.81940014648438E+0003  -2.81875073242188E+0003  -2.81827783203125E+0003  -2.81801245117188E+0003  -2.81792626953125E+0003  -2.81796166992188E+0003  -2.81807446289063E+0003  -2.81821459960938E+0003  -2.81835815429688E+0003  -2.81848730468750E+0003  -2.81848046875000E+0003  -2.81849902343750E+0003  -2.81853857421875E+0003  -2.81859033203125E+0003  -2.81863671875000E+0003  -2.81866162109375E+0003  -2.81862792968750E+0003  -2.81848486328125E+0003  -2.81828344726563E+0003  -2.81802392578125E+0003  -2.81771899414063E+0003  -2.81739794921875E+0003  -2.81709448242188E+0003  -2.81684716796875E+0003  -2.81670483398438E+0003  -2.81671704101563E+0003  -2.81680786132813E+0003  -2.81680932617188E+0003  -2.81690136718750E+0003  -2.81702221679688E+0003  -2.81716430664063E+0003  -2.81732104492188E+0003  -2.81620385742188E+0003  -2.81435766601563E+0003  -2.81364648437500E+0003  -2.81359716796875E+0003  -2.81305957031250E+0003  -2.81234716796875E+0003  -2.81157543945313E+0003  -2.81083496093750E+0003  -2.81019677734375E+0003  -2.80972973632813E+0003  -2.80949169921875E+0003  -2.80920092773438E+0003  -2.80885571289063E+0003  -2.80857641601563E+0003  -2.80833691406250E+0003  -2.80812817382813E+0003  -2.80795434570313E+0003  -2.80780810546875E+0003  -2.80769604492188E+0003  -2.80765600585938E+0003  -2.80770068359375E+0003  -2.80788134765625E+0003  -2.80820410156250E+0003  -2.80861108398438E+0003  -2.80903857421875E+0003  -2.80944750976563E+0003  -2.80979931640625E+0003  -2.81006396484375E+0003  -2.81022119140625E+0003  -2.81025781250000E+0003  -2.81017407226563E+0003  -2.81004956054688E+0003  -2.80999267578125E+0003  -2.81010546875000E+0003  -2.81042553710938E+0003  -2.81088403320313E+0003  -2.81139648437500E+0003  -2.81187988281250E+0003  -2.81228979492188E+0003  -2.81268041992188E+0003  -2.81304272460938E+0003  -2.81339965820313E+0003  -2.81376904296875E+0003  -2.81415234375000E+0003  -2.81455126953125E+0003  -2.81496166992188E+0003  -2.81532592773438E+0003  -2.81552416992188E+0003  -2.81543579101563E+0003  -2.81495727539063E+0003  -2.81410156250000E+0003  -2.81294946289063E+0003  -2.81174829101563E+0003  -2.81057202148438E+0003  -2.80952539062500E+0003  -2.80874829101563E+0003  -2.80837182617188E+0003  -2.80845458984375E+0003  -2.80889770507813E+0003  -2.80962084960938E+0003  -2.81055639648438E+0003  -2.81161669921875E+0003  -2.81269482421875E+0003  -2.81368896484375E+0003  -2.81462158203125E+0003  -2.81554711914063E+0003  -2.81651025390625E+0003  -2.81735327148438E+0003  -2.81801684570313E+0003  -2.81846801757813E+0003  -2.81877832031250E+0003  -2.81903051757813E+0003  -2.81926660156250E+0003  -2.81951538085938E+0003  -2.81979077148438E+0003  -2.82010131835938E+0003  -2.82045166015625E+0003  -2.82085913085938E+0003  -2.82130712890625E+0003  -2.82177612304688E+0003  -2.82225903320313E+0003  -2.82275708007813E+0003  -2.82325000000000E+0003  -2.82374340820313E+0003  -2.82423217773438E+0003  -2.82470117187500E+0003  -2.82515161132813E+0003  -2.82558618164063E+0003  -2.82600708007813E+0003  -2.82641601562500E+0003  -2.82681054687500E+0003  -2.82719189453125E+0003  -2.82755786132813E+0003  -2.82791308593750E+0003  -2.82825219726563E+0003  -2.82857812500000E+0003  -2.82888793945313E+0003  -2.82918359375000E+0003  -2.82946240234375E+0003  -2.82972924804688E+0003  -2.82997924804688E+0003  -2.83021459960938E+0003  -2.83043701171875E+0003  -2.83064282226563E+0003  -2.83083471679688E+0003  -2.83101098632813E+0003  -2.83117480468750E+0003  -2.83132348632813E+0003  -2.83146118164063E+0003  -2.83158325195313E+0003  -2.83169409179688E+0003  -2.83179321289063E+0003
  -2.85350683593750E+0003  -2.85357348632813E+0003  -2.85358935546875E+0003  -2.85355371093750E+0003  -2.85347827148438E+0003  -2.85336938476563E+0003  -2.85323876953125E+0003  -2.85309130859375E+0003  -2.85293017578125E+0003  -2.85274975585938E+0003  -2.85255639648438E+0003  -2.85234228515625E+0003  -2.85211279296875E+0003  -2.85186425781250E+0003  -2.85160180664063E+0003  -2.85132226562500E+0003  -2.85102441406250E+0003  -2.85071191406250E+0003  -2.85038378906250E+0003  -2.85003637695313E+0003  -2.84967089843750E+0003  -2.84928540039063E+0003  -2.84887817382813E+0003  -2.84844921875000E+0003  -2.84800317382813E+0003  -2.84754418945313E+0003  -2.84707080078125E+0003  -2.84658520507813E+0003  -2.84609252929688E+0003  -2.84559252929688E+0003  -2.84508789062500E+0003  -2.84459179687500E+0003  -2.84412011718750E+0003  -2.84368334960938E+0003  -2.84329638671875E+0003  -2.84296191406250E+0003  -2.84268457031250E+0003  -2.84246411132813E+0003  -2.84229882812500E+0003  -2.84217968750000E+0003  -2.84208593750000E+0003  -2.84200073242188E+0003  -2.84190258789063E+0003  -2.84177001953125E+0003  -2.84158374023438E+0003  -2.84132104492188E+0003  -2.84096484375000E+0003  -2.84051708984375E+0003  -2.83999340820313E+0003  -2.83929443359375E+0003  -2.83856225585938E+0003  -2.83781201171875E+0003  -2.83705712890625E+0003  -2.83631103515625E+0003  -2.83558544921875E+0003  -2.83488696289063E+0003  -2.83421875000000E+0003  -2.83358496093750E+0003  -2.83299316406250E+0003  -2.83246020507813E+0003  -2.83200634765625E+0003  -2.83165283203125E+0003  -2.83140771484375E+0003  -2.83124438476563E+0003  -2.83113232421875E+0003  -2.83104174804688E+0003  -2.83095727539063E+0003  -2.83089208984375E+0003  -2.83086059570313E+0003  -2.83087939453125E+0003  -2.83096752929688E+0003  -2.83088574218750E+0003  -2.83072509765625E+0003  -2.83059106445313E+0003  -2.83047607421875E+0003  -2.83036669921875E+0003  -2.83025146484375E+0003  -2.83012304687500E+0003  -2.82993823242188E+0003  -2.82961865234375E+0003  -2.82908178710938E+0003  -2.82825097656250E+0003  -2.82717163085938E+0003  -2.82597094726563E+0003  -2.82474902343750E+0003  -2.82358862304688E+0003  -2.82251757812500E+0003  -2.82153149414063E+0003  -2.82062695312500E+0003  -2.81980102539063E+0003  -2.81907202148438E+0003  -2.81846923828125E+0003  -2.81802075195313E+0003  -2.81774438476563E+0003  -2.81761499023438E+0003  -2.81759692382813E+0003  -2.81764599609375E+0003  -2.81772680664063E+0003  -2.81781201171875E+0003  -2.81789135742188E+0003  -2.81787036132813E+0003  -2.81784106445313E+0003  -2.81782275390625E+0003  -2.81780834960938E+0003  -2.81778710937500E+0003  -2.81775219726563E+0003  -2.81769384765625E+0003  -2.81753173828125E+0003  -2.81733007812500E+0003  -2.81708569335938E+0003  -2.81681396484375E+0003  -2.81652636718750E+0003  -2.81625170898438E+0003  -2.81602050781250E+0003  -2.81588134765625E+0003  -2.81588549804688E+0003  -2.81592895507813E+0003  -2.81592749023438E+0003  -2.81599926757813E+0003  -2.81608593750000E+0003  -2.81613085937500E+0003  -2.81603686523438E+0003  -2.81535058593750E+0003  -2.81429248046875E+0003  -2.81353271484375E+0003  -2.81299023437500E+0003  -2.81239428710938E+0003  -2.81168750000000E+0003  -2.81094873046875E+0003  -2.81024877929688E+0003  -2.80964941406250E+0003  -2.80921044921875E+0003  -2.80898388671875E+0003  -2.80865502929688E+0003  -2.80832836914063E+0003  -2.80806567382813E+0003  -2.80784204101563E+0003  -2.80765307617188E+0003  -2.80749707031250E+0003  -2.80737988281250E+0003  -2.80729394531250E+0003  -2.80727539062500E+0003  -2.80735083007813E+0003  -2.80754736328125E+0003  -2.80788867187500E+0003  -2.80831835937500E+0003  -2.80877832031250E+0003  -2.80922436523438E+0003  -2.80961621093750E+0003  -2.80991333007813E+0003  -2.81008935546875E+0003  -2.81015380859375E+0003  -2.81007788085938E+0003  -2.80995849609375E+0003  -2.80991015625000E+0003  -2.81003881835938E+0003  -2.81038598632813E+0003  -2.81087719726563E+0003  -2.81142846679688E+0003  -2.81194384765625E+0003  -2.81238208007813E+0003  -2.81281420898438E+0003  -2.81319848632813E+0003  -2.81357519531250E+0003  -2.81395385742188E+0003  -2.81434057617188E+0003  -2.81473657226563E+0003  -2.81513745117188E+0003  -2.81548168945313E+0003  -2.81564794921875E+0003  -2.81550585937500E+0003  -2.81496801757813E+0003  -2.81401489257813E+0003  -2.81275903320313E+0003  -2.81147998046875E+0003  -2.81020483398438E+0003  -2.80906542968750E+0003  -2.80821289062500E+0003  -2.80777343750000E+0003  -2.80780493164063E+0003  -2.80819213867188E+0003  -2.80886718750000E+0003  -2.80977270507813E+0003  -2.81083129882813E+0003  -2.81195581054688E+0003  -2.81307373046875E+0003  -2.81417968750000E+0003  -2.81527563476563E+0003  -2.81641015625000E+0003  -2.81741625976563E+0003  -2.81820385742188E+0003  -2.81872485351563E+0003  -2.81905444335938E+0003  -2.81928955078125E+0003  -2.81948144531250E+0003  -2.81967724609375E+0003  -2.81988940429688E+0003  -2.82013281250000E+0003  -2.82042431640625E+0003  -2.82076831054688E+0003  -2.82117431640625E+0003  -2.82160864257813E+0003  -2.82206420898438E+0003  -2.82253857421875E+0003  -2.82301855468750E+0003  -2.82349462890625E+0003  -2.82396972656250E+0003  -2.82442211914063E+0003  -2.82485424804688E+0003  -2.82526708984375E+0003  -2.82566577148438E+0003  -2.82605273437500E+0003  -2.82642480468750E+0003  -2.82678466796875E+0003  -2.82713159179688E+0003  -2.82746655273438E+0003  -2.82778588867188E+0003  -2.82809399414063E+0003  -2.82838696289063E+0003  -2.82866699218750E+0003  -2.82893383789063E+0003  -2.82918774414063E+0003  -2.82942553710938E+0003  -2.82965039062500E+0003  -2.82986157226563E+0003  -2.83005712890625E+0003  -2.83024047851563E+0003  -2.83040869140625E+0003  -2.83056542968750E+0003  -2.83070849609375E+0003  -2.83083862304688E+0003  -2.83095800781250E+0003  -2.83106616210938E+0003  -2.83116333007813E+0003
  -2.85292700195313E+0003  -2.85298486328125E+0003  -2.85299780273438E+0003  -2.85296606445313E+0003  -2.85289599609375E+0003  -2.85279687500000E+0003  -2.85267260742188E+0003  -2.85253125000000E+0003  -2.85237402343750E+0003  -2.85219702148438E+0003  -2.85200415039063E+0003  -2.85179052734375E+0003  -2.85155883789063E+0003  -2.85130981445313E+0003  -2.85104467773438E+0003  -2.85076049804688E+0003  -2.85046118164063E+0003  -2.85014428710938E+0003  -2.84980932617188E+0003  -2.84945898437500E+0003  -2.84908837890625E+0003  -2.84869702148438E+0003  -2.84828320312500E+0003  -2.84784887695313E+0003  -2.84739672851563E+0003  -2.84693261718750E+0003  -2.84645361328125E+0003  -2.84596020507813E+0003  -2.84545361328125E+0003  -2.84494262695313E+0003  -2.84443334960938E+0003  -2.84393505859375E+0003  -2.84346533203125E+0003  -2.84303466796875E+0003  -2.84264892578125E+0003  -2.84231665039063E+0003  -2.84203808593750E+0003  -2.84181469726563E+0003  -2.84165063476563E+0003  -2.84153125000000E+0003  -2.84143896484375E+0003  -2.84135644531250E+0003  -2.84126147460938E+0003  -2.84113403320313E+0003  -2.84094555664063E+0003  -2.84067138671875E+0003  -2.84028979492188E+0003  -2.83980859375000E+0003  -2.83925122070313E+0003  -2.83853540039063E+0003  -2.83775781250000E+0003  -2.83696801757813E+0003  -2.83618115234375E+0003  -2.83541015625000E+0003  -2.83466870117188E+0003  -2.83396289062500E+0003  -2.83329516601563E+0003  -2.83266918945313E+0003  -2.83209130859375E+0003  -2.83157812500000E+0003  -2.83114868164063E+0003  -2.83082324218750E+0003  -2.83060815429688E+0003  -2.83047998046875E+0003  -2.83041015625000E+0003  -2.83037011718750E+0003  -2.83034423828125E+0003  -2.83034057617188E+0003  -2.83037036132813E+0003  -2.83044482421875E+0003  -2.83040258789063E+0003  -2.83024462890625E+0003  -2.83009399414063E+0003  -2.82996337890625E+0003  -2.82985644531250E+0003  -2.82977441406250E+0003  -2.82972387695313E+0003  -2.82973364257813E+0003  -2.82973803710938E+0003  -2.82959448242188E+0003  -2.82914672851563E+0003  -2.82825732421875E+0003  -2.82700488281250E+0003  -2.82562792968750E+0003  -2.82428100585938E+0003  -2.82304980468750E+0003  -2.82196386718750E+0003  -2.82100317382813E+0003  -2.82015039062500E+0003  -2.81939770507813E+0003  -2.81874511718750E+0003  -2.81820654296875E+0003  -2.81779467773438E+0003  -2.81751562500000E+0003  -2.81735449218750E+0003  -2.81728393554688E+0003  -2.81726733398438E+0003  -2.81728173828125E+0003  -2.81730639648438E+0003  -2.81733154296875E+0003  -2.81730444335938E+0003  -2.81722558593750E+0003  -2.81714990234375E+0003  -2.81707421875000E+0003  -2.81699267578125E+0003  -2.81690087890625E+0003  -2.81679882812500E+0003  -2.81665380859375E+0003  -2.81644409179688E+0003  -2.81620556640625E+0003  -2.81595214843750E+0003  -2.81568652343750E+0003  -2.81542553710938E+0003  -2.81519384765625E+0003  -2.81503955078125E+0003  -2.81500878906250E+0003  -2.81500195312500E+0003  -2.81497509765625E+0003  -2.81499511718750E+0003  -2.81500805664063E+0003  -2.81495263671875E+0003  -2.81474902343750E+0003  -2.81428515625000E+0003  -2.81361718750000E+0003  -2.81295874023438E+0003  -2.81235571289063E+0003  -2.81172143554688E+0003  -2.81104101562500E+0003  -2.81035937500000E+0003  -2.80972387695313E+0003  -2.80918457031250E+0003  -2.80879003906250E+0003  -2.80854760742188E+0003  -2.80816528320313E+0003  -2.80786279296875E+0003  -2.80761694335938E+0003  -2.80741235351563E+0003  -2.80723901367188E+0003  -2.80710449218750E+0003  -2.80700659179688E+0003  -2.80694848632813E+0003  -2.80695239257813E+0003  -2.80704248046875E+0003  -2.80724340820313E+0003  -2.80756616210938E+0003  -2.80797851562500E+0003  -2.80842993164063E+0003  -2.80887426757813E+0003  -2.80927368164063E+0003  -2.80958447265625E+0003  -2.80980078125000E+0003  -2.80988842773438E+0003  -2.80983251953125E+0003  -2.80973803710938E+0003  -2.80971997070313E+0003  -2.80987670898438E+0003  -2.81025073242188E+0003  -2.81077343750000E+0003  -2.81135693359375E+0003  -2.81190820312500E+0003  -2.81238525390625E+0003  -2.81283105468750E+0003  -2.81325317382813E+0003  -2.81365991210938E+0003  -2.81406225585938E+0003  -2.81445898437500E+0003  -2.81484790039063E+0003  -2.81523071289063E+0003  -2.81554028320313E+0003  -2.81565942382813E+0003  -2.81547924804688E+0003  -2.81488793945313E+0003  -2.81388208007813E+0003  -2.81257666015625E+0003  -2.81126416015625E+0003  -2.80995239257813E+0003  -2.80877929687500E+0003  -2.80789355468750E+0003  -2.80742358398438E+0003  -2.80741943359375E+0003  -2.80776953125000E+0003  -2.80841455078125E+0003  -2.80930444335938E+0003  -2.81037255859375E+0003  -2.81156005859375E+0003  -2.81282202148438E+0003  -2.81410229492188E+0003  -2.81534741210938E+0003  -2.81659252929688E+0003  -2.81768798828125E+0003  -2.81853198242188E+0003  -2.81906811523438E+0003  -2.81937792968750E+0003  -2.81956152343750E+0003  -2.81969116210938E+0003  -2.81982666015625E+0003  -2.81997900390625E+0003  -2.82016333007813E+0003  -2.82039526367188E+0003  -2.82068920898438E+0003  -2.82105322265625E+0003  -2.82146044921875E+0003  -2.82189599609375E+0003  -2.82235595703125E+0003  -2.82282324218750E+0003  -2.82328906250000E+0003  -2.82374975585938E+0003  -2.82418725585938E+0003  -2.82459814453125E+0003  -2.82499096679688E+0003  -2.82536669921875E+0003  -2.82572705078125E+0003  -2.82607421875000E+0003  -2.82640771484375E+0003  -2.82673022460938E+0003  -2.82704101562500E+0003  -2.82733789062500E+0003  -2.82762377929688E+0003  -2.82789770507813E+0003  -2.82816088867188E+0003  -2.82841162109375E+0003  -2.82864916992188E+0003  -2.82887622070313E+0003  -2.82908959960938E+0003  -2.82928979492188E+0003  -2.82947753906250E+0003  -2.82965063476563E+0003  -2.82981250000000E+0003  -2.82996044921875E+0003  -2.83009814453125E+0003  -2.83022460937500E+0003  -2.83033813476563E+0003  -2.83044189453125E+0003  -2.83053759765625E+0003
  -2.85232055664063E+0003  -2.85237036132813E+0003  -2.85237719726563E+0003  -2.85234741210938E+0003  -2.85228125000000E+0003  -2.85218750000000E+0003  -2.85206982421875E+0003  -2.85193432617188E+0003  -2.85178125000000E+0003  -2.85160668945313E+0003  -2.85141552734375E+0003  -2.85120214843750E+0003  -2.85097314453125E+0003  -2.85072265625000E+0003  -2.85045581054688E+0003  -2.85016967773438E+0003  -2.84986645507813E+0003  -2.84954492187500E+0003  -2.84920776367188E+0003  -2.84885107421875E+0003  -2.84847290039063E+0003  -2.84807470703125E+0003  -2.84765234375000E+0003  -2.84721093750000E+0003  -2.84675415039063E+0003  -2.84628662109375E+0003  -2.84580371093750E+0003  -2.84530297851563E+0003  -2.84478637695313E+0003  -2.84426293945313E+0003  -2.84374731445313E+0003  -2.84324902343750E+0003  -2.84277929687500E+0003  -2.84235058593750E+0003  -2.84196630859375E+0003  -2.84163208007813E+0003  -2.84135156250000E+0003  -2.84112646484375E+0003  -2.84096166992188E+0003  -2.84084716796875E+0003  -2.84075976562500E+0003  -2.84068481445313E+0003  -2.84060400390625E+0003  -2.84048461914063E+0003  -2.84029882812500E+0003  -2.84001416015625E+0003  -2.83960815429688E+0003  -2.83909008789063E+0003  -2.83848779296875E+0003  -2.83775244140625E+0003  -2.83693017578125E+0003  -2.83610253906250E+0003  -2.83528588867188E+0003  -2.83449511718750E+0003  -2.83374365234375E+0003  -2.83303344726563E+0003  -2.83236865234375E+0003  -2.83175219726563E+0003  -2.83118969726563E+0003  -2.83069750976563E+0003  -2.83029418945313E+0003  -2.82999829101563E+0003  -2.82981665039063E+0003  -2.82972607421875E+0003  -2.82969848632813E+0003  -2.82970654296875E+0003  -2.82973217773438E+0003  -2.82977905273438E+0003  -2.82985375976563E+0003  -2.82989501953125E+0003  -2.82974682617188E+0003  -2.82958691406250E+0003  -2.82942675781250E+0003  -2.82927978515625E+0003  -2.82915576171875E+0003  -2.82906958007813E+0003  -2.82906298828125E+0003  -2.82922070312500E+0003  -2.82946240234375E+0003  -2.82954516601563E+0003  -2.82922143554688E+0003  -2.82824121093750E+0003  -2.82676635742188E+0003  -2.82518359375000E+0003  -2.82370727539063E+0003  -2.82241674804688E+0003  -2.82132568359375E+0003  -2.82040014648438E+0003  -2.81961499023438E+0003  -2.81894506835938E+0003  -2.81838354492188E+0003  -2.81792456054688E+0003  -2.81756420898438E+0003  -2.81730029296875E+0003  -2.81711621093750E+0003  -2.81699291992188E+0003  -2.81691796875000E+0003  -2.81686840820313E+0003  -2.81683569335938E+0003  -2.81680371093750E+0003  -2.81675903320313E+0003  -2.81664550781250E+0003  -2.81651684570313E+0003  -2.81638500976563E+0003  -2.81624780273438E+0003  -2.81610253906250E+0003  -2.81595117187500E+0003  -2.81579541015625E+0003  -2.81561645507813E+0003  -2.81538037109375E+0003  -2.81512988281250E+0003  -2.81486987304688E+0003  -2.81460888671875E+0003  -2.81436450195313E+0003  -2.81417846679688E+0003  -2.81409497070313E+0003  -2.81406054687500E+0003  -2.81400000000000E+0003  -2.81396972656250E+0003  -2.81392382812500E+0003  -2.81381494140625E+0003  -2.81360009765625E+0003  -2.81324291992188E+0003  -2.81275854492188E+0003  -2.81221044921875E+0003  -2.81162988281250E+0003  -2.81101757812500E+0003  -2.81039160156250E+0003  -2.80978222656250E+0003  -2.80922509765625E+0003  -2.80875830078125E+0003  -2.80841967773438E+0003  -2.80806982421875E+0003  -2.80772485351563E+0003  -2.80745190429688E+0003  -2.80722802734375E+0003  -2.80704345703125E+0003  -2.80688989257813E+0003  -2.80677026367188E+0003  -2.80668652343750E+0003  -2.80663793945313E+0003  -2.80664477539063E+0003  -2.80672924804688E+0003  -2.80691137695313E+0003  -2.80720581054688E+0003  -2.80757568359375E+0003  -2.80799023437500E+0003  -2.80840820312500E+0003  -2.80878759765625E+0003  -2.80909545898438E+0003  -2.80931982421875E+0003  -2.80943603515625E+0003  -2.80942382812500E+0003  -2.80937792968750E+0003  -2.80940332031250E+0003  -2.80960351562500E+0003  -2.81001293945313E+0003  -2.81056884765625E+0003  -2.81117846679688E+0003  -2.81176391601563E+0003  -2.81228637695313E+0003  -2.81275561523438E+0003  -2.81322192382813E+0003  -2.81366674804688E+0003  -2.81410156250000E+0003  -2.81451391601563E+0003  -2.81490356445313E+0003  -2.81526000976563E+0003  -2.81552709960938E+0003  -2.81559814453125E+0003  -2.81537695312500E+0003  -2.81475512695313E+0003  -2.81374658203125E+0003  -2.81244531250000E+0003  -2.81112231445313E+0003  -2.80981835937500E+0003  -2.80864746093750E+0003  -2.80775244140625E+0003  -2.80725610351563E+0003  -2.80722119140625E+0003  -2.80755078125000E+0003  -2.80817578125000E+0003  -2.80905908203125E+0003  -2.81013940429688E+0003  -2.81137573242188E+0003  -2.81272460937500E+0003  -2.81411059570313E+0003  -2.81544750976563E+0003  -2.81678149414063E+0003  -2.81794360351563E+0003  -2.81882739257813E+0003  -2.81936279296875E+0003  -2.81963696289063E+0003  -2.81976318359375E+0003  -2.81983691406250E+0003  -2.81991943359375E+0003  -2.82003173828125E+0003  -2.82017456054688E+0003  -2.82036645507813E+0003  -2.82062231445313E+0003  -2.82094897460938E+0003  -2.82136157226563E+0003  -2.82179028320313E+0003  -2.82221801757813E+0003  -2.82266845703125E+0003  -2.82312426757813E+0003  -2.82357519531250E+0003  -2.82399462890625E+0003  -2.82438720703125E+0003  -2.82475561523438E+0003  -2.82510571289063E+0003  -2.82544018554688E+0003  -2.82575756835938E+0003  -2.82606127929688E+0003  -2.82635473632813E+0003  -2.82663378906250E+0003  -2.82690502929688E+0003  -2.82716552734375E+0003  -2.82741796875000E+0003  -2.82766040039063E+0003  -2.82789404296875E+0003  -2.82811694335938E+0003  -2.82832910156250E+0003  -2.82853100585938E+0003  -2.82872167968750E+0003  -2.82889916992188E+0003  -2.82906445312500E+0003  -2.82921752929688E+0003  -2.82935913085938E+0003  -2.82949023437500E+0003  -2.82961010742188E+0003  -2.82971997070313E+0003  -2.82982202148438E+0003  -2.82991552734375E+0003
  -2.85168823242188E+0003  -2.85172753906250E+0003  -2.85173022460938E+0003  -2.85169775390625E+0003  -2.85163403320313E+0003  -2.85154443359375E+0003  -2.85143066406250E+0003  -2.85129882812500E+0003  -2.85114819335938E+0003  -2.85097729492188E+0003  -2.85078857421875E+0003  -2.85057958984375E+0003  -2.85034936523438E+0003  -2.85010229492188E+0003  -2.84983300781250E+0003  -2.84954638671875E+0003  -2.84924047851563E+0003  -2.84891748046875E+0003  -2.84857177734375E+0003  -2.84820556640625E+0003  -2.84781860351563E+0003  -2.84741015625000E+0003  -2.84698144531250E+0003  -2.84653955078125E+0003  -2.84608740234375E+0003  -2.84562084960938E+0003  -2.84513623046875E+0003  -2.84462304687500E+0003  -2.84409252929688E+0003  -2.84355615234375E+0003  -2.84303076171875E+0003  -2.84252783203125E+0003  -2.84205908203125E+0003  -2.84162695312500E+0003  -2.84124145507813E+0003  -2.84090112304688E+0003  -2.84061645507813E+0003  -2.84039038085938E+0003  -2.84022583007813E+0003  -2.84011889648438E+0003  -2.84004003906250E+0003  -2.83997778320313E+0003  -2.83991210937500E+0003  -2.83980859375000E+0003  -2.83963232421875E+0003  -2.83934350585938E+0003  -2.83891186523438E+0003  -2.83835107421875E+0003  -2.83770483398438E+0003  -2.83694116210938E+0003  -2.83607568359375E+0003  -2.83521508789063E+0003  -2.83437377929688E+0003  -2.83356616210938E+0003  -2.83280590820313E+0003  -2.83209570312500E+0003  -2.83143652343750E+0003  -2.83082861328125E+0003  -2.83027978515625E+0003  -2.82980639648438E+0003  -2.82942773437500E+0003  -2.82916162109375E+0003  -2.82901586914063E+0003  -2.82896606445313E+0003  -2.82898217773438E+0003  -2.82903491210938E+0003  -2.82910253906250E+0003  -2.82918139648438E+0003  -2.82927343750000E+0003  -2.82922216796875E+0003  -2.82906127929688E+0003  -2.82888452148438E+0003  -2.82869262695313E+0003  -2.82849194335938E+0003  -2.82829663085938E+0003  -2.82812377929688E+0003  -2.82807373046875E+0003  -2.82831274414063E+0003  -2.82875268554688E+0003  -2.82904760742188E+0003  -2.82886132812500E+0003  -2.82784570312500E+0003  -2.82622534179688E+0003  -2.82451538085938E+0003  -2.82295776367188E+0003  -2.82163891601563E+0003  -2.82056274414063E+0003  -2.81968774414063E+0003  -2.81898144531250E+0003  -2.81841186523438E+0003  -2.81795458984375E+0003  -2.81758935546875E+0003  -2.81729858398438E+0003  -2.81706005859375E+0003  -2.81686547851563E+0003  -2.81670532226563E+0003  -2.81657983398438E+0003  -2.81647875976563E+0003  -2.81639404296875E+0003  -2.81630908203125E+0003  -2.81622094726563E+0003  -2.81609863281250E+0003  -2.81591967773438E+0003  -2.81573632812500E+0003  -2.81554687500000E+0003  -2.81535083007813E+0003  -2.81515185546875E+0003  -2.81495581054688E+0003  -2.81476635742188E+0003  -2.81458447265625E+0003  -2.81434326171875E+0003  -2.81407788085938E+0003  -2.81380175781250E+0003  -2.81353100585938E+0003  -2.81330517578125E+0003  -2.81315991210938E+0003  -2.81313232421875E+0003  -2.81304394531250E+0003  -2.81297241210938E+0003  -2.81288745117188E+0003  -2.81275195312500E+0003  -2.81254003906250E+0003  -2.81223803710938E+0003  -2.81184594726563E+0003  -2.81137622070313E+0003  -2.81084936523438E+0003  -2.81029028320313E+0003  -2.80972778320313E+0003  -2.80919384765625E+0003  -2.80871826171875E+0003  -2.80832910156250E+0003  -2.80797656250000E+0003  -2.80761010742188E+0003  -2.80731884765625E+0003  -2.80708618164063E+0003  -2.80689477539063E+0003  -2.80673266601563E+0003  -2.80659814453125E+0003  -2.80648681640625E+0003  -2.80640087890625E+0003  -2.80634399414063E+0003  -2.80633007812500E+0003  -2.80638305664063E+0003  -2.80652416992188E+0003  -2.80676562500000E+0003  -2.80708349609375E+0003  -2.80744262695313E+0003  -2.80781079101563E+0003  -2.80815185546875E+0003  -2.80844458007813E+0003  -2.80866333007813E+0003  -2.80879809570313E+0003  -2.80883886718750E+0003  -2.80885742187500E+0003  -2.80894677734375E+0003  -2.80920068359375E+0003  -2.80965380859375E+0003  -2.81024243164063E+0003  -2.81089208984375E+0003  -2.81152343750000E+0003  -2.81210302734375E+0003  -2.81263427734375E+0003  -2.81314404296875E+0003  -2.81363500976563E+0003  -2.81410742187500E+0003  -2.81454125976563E+0003  -2.81492944335938E+0003  -2.81526000976563E+0003  -2.81547875976563E+0003  -2.81550488281250E+0003  -2.81525122070313E+0003  -2.81462573242188E+0003  -2.81364404296875E+0003  -2.81240283203125E+0003  -2.81109643554688E+0003  -2.80984228515625E+0003  -2.80870751953125E+0003  -2.80782788085938E+0003  -2.80731933593750E+0003  -2.80725805664063E+0003  -2.80756494140625E+0003  -2.80817089843750E+0003  -2.80903662109375E+0003  -2.81011157226563E+0003  -2.81134838867188E+0003  -2.81270947265625E+0003  -2.81410937500000E+0003  -2.81549072265625E+0003  -2.81684008789063E+0003  -2.81801293945313E+0003  -2.81890551757813E+0003  -2.81943750000000E+0003  -2.81969018554688E+0003  -2.81979785156250E+0003  -2.81985058593750E+0003  -2.81992065429688E+0003  -2.82002075195313E+0003  -2.82015234375000E+0003  -2.82033105468750E+0003  -2.82057397460938E+0003  -2.82087280273438E+0003  -2.82127978515625E+0003  -2.82170507812500E+0003  -2.82211840820313E+0003  -2.82255688476563E+0003  -2.82300659179688E+0003  -2.82344409179688E+0003  -2.82384667968750E+0003  -2.82421826171875E+0003  -2.82456274414063E+0003  -2.82488476562500E+0003  -2.82518896484375E+0003  -2.82547363281250E+0003  -2.82574511718750E+0003  -2.82600195312500E+0003  -2.82625000000000E+0003  -2.82648828125000E+0003  -2.82671899414063E+0003  -2.82694580078125E+0003  -2.82716552734375E+0003  -2.82737915039063E+0003  -2.82758593750000E+0003  -2.82778466796875E+0003  -2.82797290039063E+0003  -2.82815234375000E+0003  -2.82832177734375E+0003  -2.82847900390625E+0003  -2.82862353515625E+0003  -2.82875952148438E+0003  -2.82888403320313E+0003  -2.82899902343750E+0003  -2.82910620117188E+0003  -2.82920483398438E+0003  -2.82929638671875E+0003
  -2.85103564453125E+0003  -2.85106616210938E+0003  -2.85106225585938E+0003  -2.85102563476563E+0003  -2.85096166992188E+0003  -2.85087158203125E+0003  -2.85075952148438E+0003  -2.85062915039063E+0003  -2.85048046875000E+0003  -2.85031396484375E+0003  -2.85012670898438E+0003  -2.84991918945313E+0003  -2.84969262695313E+0003  -2.84944677734375E+0003  -2.84917846679688E+0003  -2.84889013671875E+0003  -2.84858422851563E+0003  -2.84825439453125E+0003  -2.84790014648438E+0003  -2.84751611328125E+0003  -2.84711425781250E+0003  -2.84669897460938E+0003  -2.84627539062500E+0003  -2.84584204101563E+0003  -2.84540356445313E+0003  -2.84494750976563E+0003  -2.84445629882813E+0003  -2.84392651367188E+0003  -2.84337524414063E+0003  -2.84281982421875E+0003  -2.84228222656250E+0003  -2.84177099609375E+0003  -2.84129687500000E+0003  -2.84086083984375E+0003  -2.84046801757813E+0003  -2.84012329101563E+0003  -2.83983325195313E+0003  -2.83960302734375E+0003  -2.83944091796875E+0003  -2.83933520507813E+0003  -2.83926757812500E+0003  -2.83922241210938E+0003  -2.83917749023438E+0003  -2.83909350585938E+0003  -2.83893408203125E+0003  -2.83864379882813E+0003  -2.83818481445313E+0003  -2.83758398437500E+0003  -2.83689062500000E+0003  -2.83609082031250E+0003  -2.83518701171875E+0003  -2.83430004882813E+0003  -2.83344116210938E+0003  -2.83262377929688E+0003  -2.83185742187500E+0003  -2.83114575195313E+0003  -2.83049023437500E+0003  -2.82989233398438E+0003  -2.82935375976563E+0003  -2.82889501953125E+0003  -2.82853662109375E+0003  -2.82829882812500E+0003  -2.82818872070313E+0003  -2.82818041992188E+0003  -2.82824047851563E+0003  -2.82833349609375E+0003  -2.82843066406250E+0003  -2.82851855468750E+0003  -2.82859399414063E+0003  -2.82851196289063E+0003  -2.82832910156250E+0003  -2.82811743164063E+0003  -2.82786938476563E+0003  -2.82757641601563E+0003  -2.82724096679688E+0003  -2.82688330078125E+0003  -2.82666015625000E+0003  -2.82685278320313E+0003  -2.82738256835938E+0003  -2.82780053710938E+0003  -2.82770019531250E+0003  -2.82678784179688E+0003  -2.82524633789063E+0003  -2.82356420898438E+0003  -2.82201196289063E+0003  -2.82070922851563E+0003  -2.81966821289063E+0003  -2.81885913085938E+0003  -2.81824584960938E+0003  -2.81778491210938E+0003  -2.81744262695313E+0003  -2.81718041992188E+0003  -2.81697167968750E+0003  -2.81677612304688E+0003  -2.81658398437500E+0003  -2.81640527343750E+0003  -2.81624511718750E+0003  -2.81610668945313E+0003  -2.81598022460938E+0003  -2.81585522460938E+0003  -2.81572338867188E+0003  -2.81557641601563E+0003  -2.81535961914063E+0003  -2.81512841796875E+0003  -2.81489013671875E+0003  -2.81464624023438E+0003  -2.81440356445313E+0003  -2.81417016601563E+0003  -2.81395385742188E+0003  -2.81375634765625E+0003  -2.81356518554688E+0003  -2.81331811523438E+0003  -2.81301806640625E+0003  -2.81270849609375E+0003  -2.81242993164063E+0003  -2.81221899414063E+0003  -2.81211108398438E+0003  -2.81210766601563E+0003  -2.81203662109375E+0003  -2.81192602539063E+0003  -2.81177954101563E+0003  -2.81157714843750E+0003  -2.81130908203125E+0003  -2.81096801757813E+0003  -2.81054882812500E+0003  -2.81006665039063E+0003  -2.80955541992188E+0003  -2.80904931640625E+0003  -2.80858300781250E+0003  -2.80818237304688E+0003  -2.80781347656250E+0003  -2.80744995117188E+0003  -2.80716015625000E+0003  -2.80693554687500E+0003  -2.80675805664063E+0003  -2.80660986328125E+0003  -2.80648193359375E+0003  -2.80636035156250E+0003  -2.80624975585938E+0003  -2.80614794921875E+0003  -2.80605590820313E+0003  -2.80599438476563E+0003  -2.80598803710938E+0003  -2.80606567382813E+0003  -2.80623681640625E+0003  -2.80648559570313E+0003  -2.80677978515625E+0003  -2.80708935546875E+0003  -2.80738647460938E+0003  -2.80765234375000E+0003  -2.80786376953125E+0003  -2.80800415039063E+0003  -2.80808764648438E+0003  -2.80817480468750E+0003  -2.80833789062500E+0003  -2.80865795898438E+0003  -2.80916674804688E+0003  -2.80980346679688E+0003  -2.81050415039063E+0003  -2.81119897460938E+0003  -2.81185058593750E+0003  -2.81246313476563E+0003  -2.81304296875000E+0003  -2.81358959960938E+0003  -2.81409643554688E+0003  -2.81455102539063E+0003  -2.81494067382813E+0003  -2.81524853515625E+0003  -2.81543359375000E+0003  -2.81542382812500E+0003  -2.81514746093750E+0003  -2.81453955078125E+0003  -2.81362133789063E+0003  -2.81247583007813E+0003  -2.81121875000000E+0003  -2.81005004882813E+0003  -2.80899047851563E+0003  -2.80816186523438E+0003  -2.80766333007813E+0003  -2.80758325195313E+0003  -2.80786059570313E+0003  -2.80843286132813E+0003  -2.80925488281250E+0003  -2.81027807617188E+0003  -2.81145629882813E+0003  -2.81274560546875E+0003  -2.81406958007813E+0003  -2.81542553710938E+0003  -2.81669287109375E+0003  -2.81779565429688E+0003  -2.81864331054688E+0003  -2.81917163085938E+0003  -2.81946069335938E+0003  -2.81960278320313E+0003  -2.81969604492188E+0003  -2.81979711914063E+0003  -2.81992456054688E+0003  -2.82008251953125E+0003  -2.82028076171875E+0003  -2.82053564453125E+0003  -2.82084033203125E+0003  -2.82121362304688E+0003  -2.82162060546875E+0003  -2.82204614257813E+0003  -2.82248706054688E+0003  -2.82293212890625E+0003  -2.82335327148438E+0003  -2.82373876953125E+0003  -2.82408886718750E+0003  -2.82441137695313E+0003  -2.82470263671875E+0003  -2.82497314453125E+0003  -2.82522045898438E+0003  -2.82545361328125E+0003  -2.82567285156250E+0003  -2.82588256835938E+0003  -2.82608300781250E+0003  -2.82628076171875E+0003  -2.82647753906250E+0003  -2.82667285156250E+0003  -2.82686547851563E+0003  -2.82705297851563E+0003  -2.82723632812500E+0003  -2.82741333007813E+0003  -2.82758374023438E+0003  -2.82774218750000E+0003  -2.82789208984375E+0003  -2.82803100585938E+0003  -2.82815893554688E+0003  -2.82827954101563E+0003  -2.82839013671875E+0003  -2.82849487304688E+0003  -2.82859057617188E+0003  -2.82868017578125E+0003
  -2.85036596679688E+0003  -2.85038623046875E+0003  -2.85037255859375E+0003  -2.85033129882813E+0003  -2.85026171875000E+0003  -2.85016772460938E+0003  -2.85005615234375E+0003  -2.84992749023438E+0003  -2.84977954101563E+0003  -2.84961474609375E+0003  -2.84943017578125E+0003  -2.84922485351563E+0003  -2.84900048828125E+0003  -2.84875463867188E+0003  -2.84848852539063E+0003  -2.84820092773438E+0003  -2.84789111328125E+0003  -2.84755566406250E+0003  -2.84718969726563E+0003  -2.84679223632813E+0003  -2.84637695312500E+0003  -2.84595971679688E+0003  -2.84554248046875E+0003  -2.84512500000000E+0003  -2.84470312500000E+0003  -2.84425488281250E+0003  -2.84375292968750E+0003  -2.84319848632813E+0003  -2.84262011718750E+0003  -2.84204687500000E+0003  -2.84149609375000E+0003  -2.84097534179688E+0003  -2.84049316406250E+0003  -2.84005151367188E+0003  -2.83965087890625E+0003  -2.83929614257813E+0003  -2.83899829101563E+0003  -2.83876562500000E+0003  -2.83859838867188E+0003  -2.83849609375000E+0003  -2.83843554687500E+0003  -2.83840161132813E+0003  -2.83837377929688E+0003  -2.83831054687500E+0003  -2.83816992187500E+0003  -2.83788867187500E+0003  -2.83739379882813E+0003  -2.83675561523438E+0003  -2.83602075195313E+0003  -2.83518310546875E+0003  -2.83424975585938E+0003  -2.83334521484375E+0003  -2.83247778320313E+0003  -2.83165673828125E+0003  -2.83088940429688E+0003  -2.83017895507813E+0003  -2.82952661132813E+0003  -2.82893383789063E+0003  -2.82840551757813E+0003  -2.82795898437500E+0003  -2.82761523437500E+0003  -2.82739794921875E+0003  -2.82731494140625E+0003  -2.82733862304688E+0003  -2.82743310546875E+0003  -2.82755566406250E+0003  -2.82766918945313E+0003  -2.82774780273438E+0003  -2.82778515625000E+0003  -2.82774145507813E+0003  -2.82753540039063E+0003  -2.82729101562500E+0003  -2.82699194335938E+0003  -2.82660766601563E+0003  -2.82612329101563E+0003  -2.82554296875000E+0003  -2.82507910156250E+0003  -2.82515405273438E+0003  -2.82571362304688E+0003  -2.82620410156250E+0003  -2.82620312500000E+0003  -2.82545068359375E+0003  -2.82407714843750E+0003  -2.82249951171875E+0003  -2.82100537109375E+0003  -2.81973925781250E+0003  -2.81874707031250E+0003  -2.81801123046875E+0003  -2.81748901367188E+0003  -2.81713598632813E+0003  -2.81690063476563E+0003  -2.81674023437500E+0003  -2.81660815429688E+0003  -2.81645678710938E+0003  -2.81628222656250E+0003  -2.81609936523438E+0003  -2.81591967773438E+0003  -2.81575537109375E+0003  -2.81559838867188E+0003  -2.81544287109375E+0003  -2.81528100585938E+0003  -2.81510034179688E+0003  -2.81485327148438E+0003  -2.81458056640625E+0003  -2.81429956054688E+0003  -2.81401293945313E+0003  -2.81373022460938E+0003  -2.81346313476563E+0003  -2.81322290039063E+0003  -2.81301220703125E+0003  -2.81281518554688E+0003  -2.81260571289063E+0003  -2.81227319335938E+0003  -2.81191821289063E+0003  -2.81158154296875E+0003  -2.81130346679688E+0003  -2.81112280273438E+0003  -2.81104833984375E+0003  -2.81103979492188E+0003  -2.81104272460938E+0003  -2.81089306640625E+0003  -2.81070166015625E+0003  -2.81045678710938E+0003  -2.81014648437500E+0003  -2.80976049804688E+0003  -2.80931274414063E+0003  -2.80884106445313E+0003  -2.80838256835938E+0003  -2.80797412109375E+0003  -2.80755786132813E+0003  -2.80720751953125E+0003  -2.80692871093750E+0003  -2.80672045898438E+0003  -2.80656665039063E+0003  -2.80645385742188E+0003  -2.80635595703125E+0003  -2.80625659179688E+0003  -2.80615185546875E+0003  -2.80603271484375E+0003  -2.80590112304688E+0003  -2.80575952148438E+0003  -2.80563232421875E+0003  -2.80555053710938E+0003  -2.80554638671875E+0003  -2.80563891601563E+0003  -2.80580908203125E+0003  -2.80603442382813E+0003  -2.80628613281250E+0003  -2.80653540039063E+0003  -2.80676831054688E+0003  -2.80696972656250E+0003  -2.80712280273438E+0003  -2.80723413085938E+0003  -2.80737841796875E+0003  -2.80761596679688E+0003  -2.80800439453125E+0003  -2.80857910156250E+0003  -2.80928051757813E+0003  -2.81004638671875E+0003  -2.81081518554688E+0003  -2.81155102539063E+0003  -2.81225537109375E+0003  -2.81291333007813E+0003  -2.81352612304688E+0003  -2.81408081054688E+0003  -2.81456323242188E+0003  -2.81495678710938E+0003  -2.81524633789063E+0003  -2.81539746093750E+0003  -2.81535620117188E+0003  -2.81507763671875E+0003  -2.81451049804688E+0003  -2.81367529296875E+0003  -2.81265039062500E+0003  -2.81151586914063E+0003  -2.81041967773438E+0003  -2.80946972656250E+0003  -2.80871484375000E+0003  -2.80825610351563E+0003  -2.80816723632813E+0003  -2.80841259765625E+0003  -2.80893334960938E+0003  -2.80968212890625E+0003  -2.81061035156250E+0003  -2.81167431640625E+0003  -2.81282836914063E+0003  -2.81406762695313E+0003  -2.81528637695313E+0003  -2.81641088867188E+0003  -2.81739160156250E+0003  -2.81816821289063E+0003  -2.81869384765625E+0003  -2.81902709960938E+0003  -2.81923974609375E+0003  -2.81938500976563E+0003  -2.81954223632813E+0003  -2.81973632812500E+0003  -2.81996166992188E+0003  -2.82020141601563E+0003  -2.82048437500000E+0003  -2.82080981445313E+0003  -2.82117504882813E+0003  -2.82158227539063E+0003  -2.82201464843750E+0003  -2.82245458984375E+0003  -2.82288769531250E+0003  -2.82329394531250E+0003  -2.82365917968750E+0003  -2.82399047851563E+0003  -2.82428369140625E+0003  -2.82454345703125E+0003  -2.82477880859375E+0003  -2.82498828125000E+0003  -2.82517822265625E+0003  -2.82535473632813E+0003  -2.82552075195313E+0003  -2.82568359375000E+0003  -2.82584301757813E+0003  -2.82600854492188E+0003  -2.82617602539063E+0003  -2.82634765625000E+0003  -2.82651855468750E+0003  -2.82668554687500E+0003  -2.82685083007813E+0003  -2.82701049804688E+0003  -2.82716235351563E+0003  -2.82730346679688E+0003  -2.82743676757813E+0003  -2.82755786132813E+0003  -2.82767480468750E+0003  -2.82778173828125E+0003  -2.82788208007813E+0003  -2.82797631835938E+0003  -2.82806542968750E+0003
  -2.84968164062500E+0003  -2.84968750000000E+0003  -2.84966552734375E+0003  -2.84961352539063E+0003  -2.84953735351563E+0003  -2.84943920898438E+0003  -2.84932250976563E+0003  -2.84919165039063E+0003  -2.84904638671875E+0003  -2.84888208007813E+0003  -2.84869897460938E+0003  -2.84849560546875E+0003  -2.84827294921875E+0003  -2.84802856445313E+0003  -2.84776440429688E+0003  -2.84747460937500E+0003  -2.84716333007813E+0003  -2.84681835937500E+0003  -2.84644262695313E+0003  -2.84603955078125E+0003  -2.84561914062500E+0003  -2.84519848632813E+0003  -2.84478857421875E+0003  -2.84438720703125E+0003  -2.84397729492188E+0003  -2.84352807617188E+0003  -2.84300439453125E+0003  -2.84242285156250E+0003  -2.84182080078125E+0003  -2.84122973632813E+0003  -2.84066699218750E+0003  -2.84013842773438E+0003  -2.83964794921875E+0003  -2.83919775390625E+0003  -2.83878808593750E+0003  -2.83842529296875E+0003  -2.83811791992188E+0003  -2.83787182617188E+0003  -2.83770043945313E+0003  -2.83759204101563E+0003  -2.83753417968750E+0003  -2.83750195312500E+0003  -2.83748120117188E+0003  -2.83742529296875E+0003  -2.83728955078125E+0003  -2.83700781250000E+0003  -2.83649389648438E+0003  -2.83583178710938E+0003  -2.83507128906250E+0003  -2.83419702148438E+0003  -2.83324780273438E+0003  -2.83233691406250E+0003  -2.83147045898438E+0003  -2.83065332031250E+0003  -2.82989135742188E+0003  -2.82918676757813E+0003  -2.82854003906250E+0003  -2.82795312500000E+0003  -2.82743090820313E+0003  -2.82699169921875E+0003  -2.82665722656250E+0003  -2.82644775390625E+0003  -2.82637280273438E+0003  -2.82640625000000E+0003  -2.82651220703125E+0003  -2.82664355468750E+0003  -2.82675561523438E+0003  -2.82681494140625E+0003  -2.82681079101563E+0003  -2.82678173828125E+0003  -2.82666748046875E+0003  -2.82642187500000E+0003  -2.82611059570313E+0003  -2.82568579101563E+0003  -2.82502514648438E+0003  -2.82385937500000E+0003  -2.82297949218750E+0003  -2.82367114257813E+0003  -2.82424560546875E+0003  -2.82479223632813E+0003  -2.82487133789063E+0003  -2.82424609375000E+0003  -2.82301245117188E+0003  -2.82153857421875E+0003  -2.82009765625000E+0003  -2.81886865234375E+0003  -2.81792114257813E+0003  -2.81716308593750E+0003  -2.81669458007813E+0003  -2.81654199218750E+0003  -2.81639526367188E+0003  -2.81631079101563E+0003  -2.81624365234375E+0003  -2.81613232421875E+0003  -2.81597851562500E+0003  -2.81579833984375E+0003  -2.81561254882813E+0003  -2.81543359375000E+0003  -2.81526269531250E+0003  -2.81508691406250E+0003  -2.81490112304688E+0003  -2.81469873046875E+0003  -2.81442089843750E+0003  -2.81411621093750E+0003  -2.81380078125000E+0003  -2.81347802734375E+0003  -2.81316113281250E+0003  -2.81286328125000E+0003  -2.81259936523438E+0003  -2.81237280273438E+0003  -2.81216455078125E+0003  -2.81195336914063E+0003  -2.81158911132813E+0003  -2.81118554687500E+0003  -2.81079199218750E+0003  -2.81045532226563E+0003  -2.81020874023438E+0003  -2.81007714843750E+0003  -2.81002441406250E+0003  -2.81001196289063E+0003  -2.80999047851563E+0003  -2.80990478515625E+0003  -2.80967797851563E+0003  -2.80939160156250E+0003  -2.80903247070313E+0003  -2.80861474609375E+0003  -2.80817724609375E+0003  -2.80770019531250E+0003  -2.80725952148438E+0003  -2.80690869140625E+0003  -2.80663500976563E+0003  -2.80643554687500E+0003  -2.80630175781250E+0003  -2.80621582031250E+0003  -2.80615942382813E+0003  -2.80610620117188E+0003  -2.80603857421875E+0003  -2.80593994140625E+0003  -2.80581005859375E+0003  -2.80563940429688E+0003  -2.80543994140625E+0003  -2.80524121093750E+0003  -2.80507592773438E+0003  -2.80498461914063E+0003  -2.80499707031250E+0003  -2.80509765625000E+0003  -2.80525659179688E+0003  -2.80545239257813E+0003  -2.80565966796875E+0003  -2.80586523437500E+0003  -2.80605273437500E+0003  -2.80621289062500E+0003  -2.80634960937500E+0003  -2.80652734375000E+0003  -2.80682690429688E+0003  -2.80728613281250E+0003  -2.80792822265625E+0003  -2.80870336914063E+0003  -2.80954638671875E+0003  -2.81040380859375E+0003  -2.81123535156250E+0003  -2.81203027343750E+0003  -2.81277026367188E+0003  -2.81344848632813E+0003  -2.81405200195313E+0003  -2.81456738281250E+0003  -2.81497875976563E+0003  -2.81525781250000E+0003  -2.81538159179688E+0003  -2.81532373046875E+0003  -2.81505175781250E+0003  -2.81453662109375E+0003  -2.81379980468750E+0003  -2.81291186523438E+0003  -2.81194140625000E+0003  -2.81095434570313E+0003  -2.81008911132813E+0003  -2.80943066406250E+0003  -2.80902514648438E+0003  -2.80893798828125E+0003  -2.80914941406250E+0003  -2.80960327148438E+0003  -2.81025463867188E+0003  -2.81106054687500E+0003  -2.81197753906250E+0003  -2.81303344726563E+0003  -2.81410058593750E+0003  -2.81512719726563E+0003  -2.81607983398438E+0003  -2.81692333984375E+0003  -2.81761425781250E+0003  -2.81811035156250E+0003  -2.81839160156250E+0003  -2.81860156250000E+0003  -2.81879785156250E+0003  -2.81902929687500E+0003  -2.81930078125000E+0003  -2.81961279296875E+0003  -2.81996508789063E+0003  -2.82035668945313E+0003  -2.82075634765625E+0003  -2.82114111328125E+0003  -2.82155419921875E+0003  -2.82199169921875E+0003  -2.82243457031250E+0003  -2.82286083984375E+0003  -2.82325463867188E+0003  -2.82360083007813E+0003  -2.82390576171875E+0003  -2.82416796875000E+0003  -2.82439306640625E+0003  -2.82458764648438E+0003  -2.82475341796875E+0003  -2.82490063476563E+0003  -2.82503222656250E+0003  -2.82515551757813E+0003  -2.82527539062500E+0003  -2.82539794921875E+0003  -2.82553173828125E+0003  -2.82567260742188E+0003  -2.82582202148438E+0003  -2.82597485351563E+0003  -2.82612988281250E+0003  -2.82628320312500E+0003  -2.82643237304688E+0003  -2.82657666015625E+0003  -2.82671142578125E+0003  -2.82683789062500E+0003  -2.82695703125000E+0003  -2.82706689453125E+0003  -2.82717187500000E+0003  -2.82727294921875E+0003  -2.82736499023438E+0003  -2.82745507812500E+0003
  -2.84897680664063E+0003  -2.84897192382813E+0003  -2.84893725585938E+0003  -2.84887426757813E+0003  -2.84878857421875E+0003  -2.84867944335938E+0003  -2.84855908203125E+0003  -2.84842749023438E+0003  -2.84828222656250E+0003  -2.84812011718750E+0003  -2.84793603515625E+0003  -2.84773364257813E+0003  -2.84751000976563E+0003  -2.84726611328125E+0003  -2.84700073242188E+0003  -2.84670996093750E+0003  -2.84639550781250E+0003  -2.84604516601563E+0003  -2.84565820312500E+0003  -2.84525122070313E+0003  -2.84483056640625E+0003  -2.84440185546875E+0003  -2.84398876953125E+0003  -2.84358837890625E+0003  -2.84317431640625E+0003  -2.84271362304688E+0003  -2.84217260742188E+0003  -2.84157421875000E+0003  -2.84096362304688E+0003  -2.84036328125000E+0003  -2.83979321289063E+0003  -2.83925805664063E+0003  -2.83876098632813E+0003  -2.83830200195313E+0003  -2.83788452148438E+0003  -2.83751074218750E+0003  -2.83718994140625E+0003  -2.83693286132813E+0003  -2.83674414062500E+0003  -2.83662109375000E+0003  -2.83654931640625E+0003  -2.83650317382813E+0003  -2.83647241210938E+0003  -2.83641015625000E+0003  -2.83625634765625E+0003  -2.83595214843750E+0003  -2.83544726562500E+0003  -2.83477636718750E+0003  -2.83400805664063E+0003  -2.83311230468750E+0003  -2.83216455078125E+0003  -2.83126147460938E+0003  -2.83040600585938E+0003  -2.82960180664063E+0003  -2.82885253906250E+0003  -2.82815966796875E+0003  -2.82752392578125E+0003  -2.82694604492188E+0003  -2.82643041992188E+0003  -2.82599389648438E+0003  -2.82565844726563E+0003  -2.82543750000000E+0003  -2.82534033203125E+0003  -2.82534619140625E+0003  -2.82542138671875E+0003  -2.82552294921875E+0003  -2.82560888671875E+0003  -2.82564306640625E+0003  -2.82561938476563E+0003  -2.82558496093750E+0003  -2.82554907226563E+0003  -2.82545336914063E+0003  -2.82520678710938E+0003  -2.82467895507813E+0003  -2.82378515625000E+0003  -2.82251660156250E+0003  -2.82145434570313E+0003  -2.82191210937500E+0003  -2.82355615234375E+0003  -2.82403759765625E+0003  -2.82408349609375E+0003  -2.82347851562500E+0003  -2.82229736328125E+0003  -2.82087207031250E+0003  -2.81945629882813E+0003  -2.81826489257813E+0003  -2.81702294921875E+0003  -2.81620703125000E+0003  -2.81585742187500E+0003  -2.81581347656250E+0003  -2.81594970703125E+0003  -2.81594848632813E+0003  -2.81591284179688E+0003  -2.81582397460938E+0003  -2.81568579101563E+0003  -2.81551342773438E+0003  -2.81533251953125E+0003  -2.81515258789063E+0003  -2.81497509765625E+0003  -2.81479223632813E+0003  -2.81459716796875E+0003  -2.81438232421875E+0003  -2.81408251953125E+0003  -2.81375830078125E+0003  -2.81341918945313E+0003  -2.81307006835938E+0003  -2.81272509765625E+0003  -2.81239965820313E+0003  -2.81210913085938E+0003  -2.81185864257813E+0003  -2.81162792968750E+0003  -2.81139404296875E+0003  -2.81099267578125E+0003  -2.81054565429688E+0003  -2.81011206054688E+0003  -2.80972680664063E+0003  -2.80942700195313E+0003  -2.80923071289063E+0003  -2.80914721679688E+0003  -2.80911645507813E+0003  -2.80909399414063E+0003  -2.80904272460938E+0003  -2.80893164062500E+0003  -2.80871899414063E+0003  -2.80838623046875E+0003  -2.80796508789063E+0003  -2.80748559570313E+0003  -2.80702416992188E+0003  -2.80663671875000E+0003  -2.80634179687500E+0003  -2.80613061523438E+0003  -2.80599096679688E+0003  -2.80591210937500E+0003  -2.80587426757813E+0003  -2.80586010742188E+0003  -2.80583740234375E+0003  -2.80578637695313E+0003  -2.80569873046875E+0003  -2.80554833984375E+0003  -2.80533740234375E+0003  -2.80508374023438E+0003  -2.80480957031250E+0003  -2.80456835937500E+0003  -2.80440356445313E+0003  -2.80434301757813E+0003  -2.80438256835938E+0003  -2.80448950195313E+0003  -2.80464404296875E+0003  -2.80482055664063E+0003  -2.80500341796875E+0003  -2.80518310546875E+0003  -2.80534228515625E+0003  -2.80548901367188E+0003  -2.80568310546875E+0003  -2.80601855468750E+0003  -2.80653686523438E+0003  -2.80725048828125E+0003  -2.80810791015625E+0003  -2.80903906250000E+0003  -2.80999194335938E+0003  -2.81092431640625E+0003  -2.81180615234375E+0003  -2.81262304687500E+0003  -2.81335839843750E+0003  -2.81400585937500E+0003  -2.81456958007813E+0003  -2.81502441406250E+0003  -2.81531225585938E+0003  -2.81541137695313E+0003  -2.81533715820313E+0003  -2.81508154296875E+0003  -2.81462597656250E+0003  -2.81399340820313E+0003  -2.81323876953125E+0003  -2.81242309570313E+0003  -2.81160766601563E+0003  -2.81085937500000E+0003  -2.81025537109375E+0003  -2.80988085937500E+0003  -2.80980053710938E+0003  -2.80997265625000E+0003  -2.81035034179688E+0003  -2.81090869140625E+0003  -2.81162158203125E+0003  -2.81242773437500E+0003  -2.81328369140625E+0003  -2.81414892578125E+0003  -2.81498535156250E+0003  -2.81576562500000E+0003  -2.81646875000000E+0003  -2.81702392578125E+0003  -2.81737182617188E+0003  -2.81763281250000E+0003  -2.81785791015625E+0003  -2.81810083007813E+0003  -2.81839770507813E+0003  -2.81874438476563E+0003  -2.81914111328125E+0003  -2.81957421875000E+0003  -2.82004272460938E+0003  -2.82053564453125E+0003  -2.82105053710938E+0003  -2.82149707031250E+0003  -2.82195166015625E+0003  -2.82240551757813E+0003  -2.82283715820313E+0003  -2.82322119140625E+0003  -2.82354858398438E+0003  -2.82382177734375E+0003  -2.82405126953125E+0003  -2.82423486328125E+0003  -2.82438696289063E+0003  -2.82450854492188E+0003  -2.82460668945313E+0003  -2.82469409179688E+0003  -2.82477343750000E+0003  -2.82485156250000E+0003  -2.82493701171875E+0003  -2.82503979492188E+0003  -2.82515405273438E+0003  -2.82528198242188E+0003  -2.82541845703125E+0003  -2.82556127929688E+0003  -2.82570483398438E+0003  -2.82584692382813E+0003  -2.82598413085938E+0003  -2.82611181640625E+0003  -2.82623681640625E+0003  -2.82635253906250E+0003  -2.82646044921875E+0003  -2.82656323242188E+0003  -2.82666259765625E+0003  -2.82675463867188E+0003  -2.82684521484375E+0003
  -2.84825756835938E+0003  -2.84823925781250E+0003  -2.84819116210938E+0003  -2.84811547851563E+0003  -2.84801660156250E+0003  -2.84789697265625E+0003  -2.84776855468750E+0003  -2.84763598632813E+0003  -2.84749316406250E+0003  -2.84733056640625E+0003  -2.84714648437500E+0003  -2.84694042968750E+0003  -2.84671215820313E+0003  -2.84646435546875E+0003  -2.84619970703125E+0003  -2.84590502929688E+0003  -2.84558325195313E+0003  -2.84523095703125E+0003  -2.84483447265625E+0003  -2.84441918945313E+0003  -2.84399096679688E+0003  -2.84355541992188E+0003  -2.84312670898438E+0003  -2.84270288085938E+0003  -2.84226098632813E+0003  -2.84177783203125E+0003  -2.84123852539063E+0003  -2.84064697265625E+0003  -2.84004077148438E+0003  -2.83944189453125E+0003  -2.83887084960938E+0003  -2.83833544921875E+0003  -2.83783325195313E+0003  -2.83736791992188E+0003  -2.83693920898438E+0003  -2.83655371093750E+0003  -2.83621679687500E+0003  -2.83594018554688E+0003  -2.83572949218750E+0003  -2.83557983398438E+0003  -2.83547778320313E+0003  -2.83540234375000E+0003  -2.83533911132813E+0003  -2.83524560546875E+0003  -2.83506567382813E+0003  -2.83474340820313E+0003  -2.83423413085938E+0003  -2.83356933593750E+0003  -2.83281372070313E+0003  -2.83191113281250E+0003  -2.83098461914063E+0003  -2.83010424804688E+0003  -2.82927148437500E+0003  -2.82848950195313E+0003  -2.82776220703125E+0003  -2.82711889648438E+0003  -2.82649731445313E+0003  -2.82592993164063E+0003  -2.82541992187500E+0003  -2.82498022460938E+0003  -2.82462060546875E+0003  -2.82436791992188E+0003  -2.82421557617188E+0003  -2.82414916992188E+0003  -2.82414379882813E+0003  -2.82416625976563E+0003  -2.82418872070313E+0003  -2.82419653320313E+0003  -2.82419458007813E+0003  -2.82421728515625E+0003  -2.82426806640625E+0003  -2.82429541015625E+0003  -2.82422534179688E+0003  -2.82395874023438E+0003  -2.82344042968750E+0003  -2.82268579101563E+0003  -2.82210913085938E+0003  -2.82255517578125E+0003  -2.82390429687500E+0003  -2.82416381835938E+0003  -2.82402099609375E+0003  -2.82329467773438E+0003  -2.82206054687500E+0003  -2.82060278320313E+0003  -2.81916479492188E+0003  -2.81784790039063E+0003  -2.81658740234375E+0003  -2.81583935546875E+0003  -2.81550854492188E+0003  -2.81546264648438E+0003  -2.81558935546875E+0003  -2.81567407226563E+0003  -2.81562963867188E+0003  -2.81554833984375E+0003  -2.81541723632813E+0003  -2.81525781250000E+0003  -2.81508813476563E+0003  -2.81491918945313E+0003  -2.81474926757813E+0003  -2.81457299804688E+0003  -2.81438232421875E+0003  -2.81416748046875E+0003  -2.81385766601563E+0003  -2.81352709960938E+0003  -2.81317700195313E+0003  -2.81281225585938E+0003  -2.81244628906250E+0003  -2.81209472656250E+0003  -2.81177270507813E+0003  -2.81148559570313E+0003  -2.81121533203125E+0003  -2.81094091796875E+0003  -2.81050683593750E+0003  -2.81001684570313E+0003  -2.80954565429688E+0003  -2.80912133789063E+0003  -2.80879199218750E+0003  -2.80855078125000E+0003  -2.80842529296875E+0003  -2.80837792968750E+0003  -2.80835180664063E+0003  -2.80830859375000E+0003  -2.80821435546875E+0003  -2.80803564453125E+0003  -2.80773925781250E+0003  -2.80734448242188E+0003  -2.80690600585938E+0003  -2.80648364257813E+0003  -2.80614257812500E+0003  -2.80589013671875E+0003  -2.80571801757813E+0003  -2.80561376953125E+0003  -2.80556420898438E+0003  -2.80554833984375E+0003  -2.80554541015625E+0003  -2.80553027343750E+0003  -2.80548486328125E+0003  -2.80538769531250E+0003  -2.80522705078125E+0003  -2.80498437500000E+0003  -2.80467968750000E+0003  -2.80435327148438E+0003  -2.80404785156250E+0003  -2.80382177734375E+0003  -2.80371069335938E+0003  -2.80370556640625E+0003  -2.80377929687500E+0003  -2.80391186523438E+0003  -2.80407373046875E+0003  -2.80424926757813E+0003  -2.80442114257813E+0003  -2.80457202148438E+0003  -2.80471118164063E+0003  -2.80490551757813E+0003  -2.80525000000000E+0003  -2.80581152343750E+0003  -2.80659228515625E+0003  -2.80753125000000E+0003  -2.80855908203125E+0003  -2.80961523437500E+0003  -2.81063867187500E+0003  -2.81160302734375E+0003  -2.81248364257813E+0003  -2.81325878906250E+0003  -2.81393774414063E+0003  -2.81456591796875E+0003  -2.81510791015625E+0003  -2.81541992187500E+0003  -2.81549169921875E+0003  -2.81539941406250E+0003  -2.81516772460938E+0003  -2.81477441406250E+0003  -2.81423803710938E+0003  -2.81360449218750E+0003  -2.81292456054688E+0003  -2.81224926757813E+0003  -2.81163598632813E+0003  -2.81114135742188E+0003  -2.81082495117188E+0003  -2.81073315429688E+0003  -2.81086376953125E+0003  -2.81117626953125E+0003  -2.81163500976563E+0003  -2.81220166015625E+0003  -2.81284277343750E+0003  -2.81352563476563E+0003  -2.81421044921875E+0003  -2.81487255859375E+0003  -2.81549755859375E+0003  -2.81605761718750E+0003  -2.81640112304688E+0003  -2.81666088867188E+0003  -2.81687304687500E+0003  -2.81708959960938E+0003  -2.81734985351563E+0003  -2.81768774414063E+0003  -2.81809765625000E+0003  -2.81856860351563E+0003  -2.81908349609375E+0003  -2.81963110351563E+0003  -2.82019531250000E+0003  -2.82077661132813E+0003  -2.82137377929688E+0003  -2.82186376953125E+0003  -2.82234423828125E+0003  -2.82279101562500E+0003  -2.82317333984375E+0003  -2.82348315429688E+0003  -2.82372485351563E+0003  -2.82391015625000E+0003  -2.82405053710938E+0003  -2.82415502929688E+0003  -2.82422924804688E+0003  -2.82428247070313E+0003  -2.82432543945313E+0003  -2.82436230468750E+0003  -2.82440258789063E+0003  -2.82445532226563E+0003  -2.82452709960938E+0003  -2.82461914062500E+0003  -2.82472753906250E+0003  -2.82484863281250E+0003  -2.82498022460938E+0003  -2.82511621093750E+0003  -2.82525122070313E+0003  -2.82538427734375E+0003  -2.82551049804688E+0003  -2.82563085937500E+0003  -2.82574316406250E+0003  -2.82585058593750E+0003  -2.82595239257813E+0003  -2.82605029296875E+0003  -2.82614453125000E+0003  -2.82623608398438E+0003
  -2.84752905273438E+0003  -2.84749487304688E+0003  -2.84743359375000E+0003  -2.84734301757813E+0003  -2.84722753906250E+0003  -2.84709521484375E+0003  -2.84695629882813E+0003  -2.84682177734375E+0003  -2.84668164062500E+0003  -2.84652001953125E+0003  -2.84633300781250E+0003  -2.84612060546875E+0003  -2.84588256835938E+0003  -2.84562377929688E+0003  -2.84535961914063E+0003  -2.84505517578125E+0003  -2.84471850585938E+0003  -2.84435522460938E+0003  -2.84395947265625E+0003  -2.84353955078125E+0003  -2.84310083007813E+0003  -2.84265185546875E+0003  -2.84220166015625E+0003  -2.84174755859375E+0003  -2.84127661132813E+0003  -2.84077856445313E+0003  -2.84023828125000E+0003  -2.83965771484375E+0003  -2.83906274414063E+0003  -2.83847363281250E+0003  -2.83790722656250E+0003  -2.83737060546875E+0003  -2.83686694335938E+0003  -2.83639379882813E+0003  -2.83595483398438E+0003  -2.83555517578125E+0003  -2.83520141601563E+0003  -2.83490185546875E+0003  -2.83466040039063E+0003  -2.83447729492188E+0003  -2.83433203125000E+0003  -2.83421191406250E+0003  -2.83409985351563E+0003  -2.83395825195313E+0003  -2.83373632812500E+0003  -2.83338452148438E+0003  -2.83286621093750E+0003  -2.83220996093750E+0003  -2.83147729492188E+0003  -2.83058325195313E+0003  -2.82969165039063E+0003  -2.82884619140625E+0003  -2.82804956054688E+0003  -2.82730346679688E+0003  -2.82663598632813E+0003  -2.82600122070313E+0003  -2.82540942382813E+0003  -2.82486718750000E+0003  -2.82437548828125E+0003  -2.82393994140625E+0003  -2.82356909179688E+0003  -2.82326904296875E+0003  -2.82304321289063E+0003  -2.82288012695313E+0003  -2.82276416015625E+0003  -2.82267163085938E+0003  -2.82259619140625E+0003  -2.82256762695313E+0003  -2.82261035156250E+0003  -2.82273120117188E+0003  -2.82291894531250E+0003  -2.82313720703125E+0003  -2.82334179687500E+0003  -2.82348266601563E+0003  -2.82353637695313E+0003  -2.82352026367188E+0003  -2.82362084960938E+0003  -2.82419360351563E+0003  -2.82474121093750E+0003  -2.82477880859375E+0003  -2.82441113281250E+0003  -2.82351049804688E+0003  -2.82216064453125E+0003  -2.82061962890625E+0003  -2.81912109375000E+0003  -2.81774755859375E+0003  -2.81657031250000E+0003  -2.81584130859375E+0003  -2.81547192382813E+0003  -2.81535620117188E+0003  -2.81540063476563E+0003  -2.81544262695313E+0003  -2.81537158203125E+0003  -2.81528125000000E+0003  -2.81516601562500E+0003  -2.81503247070313E+0003  -2.81489111328125E+0003  -2.81474804687500E+0003  -2.81460351562500E+0003  -2.81444311523438E+0003  -2.81426782226563E+0003  -2.81405908203125E+0003  -2.81376171875000E+0003  -2.81343750000000E+0003  -2.81308740234375E+0003  -2.81271582031250E+0003  -2.81233374023438E+0003  -2.81195581054688E+0003  -2.81159497070313E+0003  -2.81125683593750E+0003  -2.81092797851563E+0003  -2.81059301757813E+0003  -2.81011303710938E+0003  -2.80957421875000E+0003  -2.80906738281250E+0003  -2.80861547851563E+0003  -2.80825585937500E+0003  -2.80799462890625E+0003  -2.80784375000000E+0003  -2.80778051757813E+0003  -2.80774804687500E+0003  -2.80770947265625E+0003  -2.80763061523438E+0003  -2.80747998046875E+0003  -2.80722021484375E+0003  -2.80687329101563E+0003  -2.80648828125000E+0003  -2.80613159179688E+0003  -2.80579785156250E+0003  -2.80556274414063E+0003  -2.80540161132813E+0003  -2.80530761718750E+0003  -2.80525854492188E+0003  -2.80523876953125E+0003  -2.80522680664063E+0003  -2.80520532226563E+0003  -2.80515039062500E+0003  -2.80504956054688E+0003  -2.80486694335938E+0003  -2.80460693359375E+0003  -2.80427221679688E+0003  -2.80390087890625E+0003  -2.80355468750000E+0003  -2.80329101562500E+0003  -2.80314672851563E+0003  -2.80311669921875E+0003  -2.80317797851563E+0003  -2.80330517578125E+0003  -2.80346459960938E+0003  -2.80364160156250E+0003  -2.80381250000000E+0003  -2.80395385742188E+0003  -2.80407690429688E+0003  -2.80425805664063E+0003  -2.80460083007813E+0003  -2.80518774414063E+0003  -2.80602343750000E+0003  -2.80703906250000E+0003  -2.80815551757813E+0003  -2.80930200195313E+0003  -2.81040283203125E+0003  -2.81143041992188E+0003  -2.81235253906250E+0003  -2.81314233398438E+0003  -2.81379052734375E+0003  -2.81451074218750E+0003  -2.81523852539063E+0003  -2.81555493164063E+0003  -2.81556420898438E+0003  -2.81546801757813E+0003  -2.81526586914063E+0003  -2.81493872070313E+0003  -2.81449023437500E+0003  -2.81396508789063E+0003  -2.81340039062500E+0003  -2.81284228515625E+0003  -2.81233593750000E+0003  -2.81192529296875E+0003  -2.81165844726563E+0003  -2.81157226562500E+0003  -2.81166357421875E+0003  -2.81190063476563E+0003  -2.81225561523438E+0003  -2.81270092773438E+0003  -2.81320458984375E+0003  -2.81373730468750E+0003  -2.81427148437500E+0003  -2.81478247070313E+0003  -2.81526440429688E+0003  -2.81561108398438E+0003  -2.81582324218750E+0003  -2.81598388671875E+0003  -2.81613134765625E+0003  -2.81630810546875E+0003  -2.81655957031250E+0003  -2.81691552734375E+0003  -2.81736938476563E+0003  -2.81790747070313E+0003  -2.81850073242188E+0003  -2.81912719726563E+0003  -2.81976196289063E+0003  -2.82041284179688E+0003  -2.82107983398438E+0003  -2.82169580078125E+0003  -2.82221044921875E+0003  -2.82268164062500E+0003  -2.82306860351563E+0003  -2.82336035156250E+0003  -2.82356982421875E+0003  -2.82371289062500E+0003  -2.82380932617188E+0003  -2.82386816406250E+0003  -2.82390063476563E+0003  -2.82391162109375E+0003  -2.82391381835938E+0003  -2.82391284179688E+0003  -2.82391870117188E+0003  -2.82393994140625E+0003  -2.82398583984375E+0003  -2.82405810546875E+0003  -2.82415136718750E+0003  -2.82425952148438E+0003  -2.82438208007813E+0003  -2.82451074218750E+0003  -2.82464331054688E+0003  -2.82477246093750E+0003  -2.82489794921875E+0003  -2.82501611328125E+0003  -2.82512866210938E+0003  -2.82523632812500E+0003  -2.82533935546875E+0003  -2.82543945312500E+0003  -2.82553393554688E+0003  -2.82562841796875E+0003
  -2.84679321289063E+0003  -2.84674462890625E+0003  -2.84666723632813E+0003  -2.84656298828125E+0003  -2.84643115234375E+0003  -2.84628027343750E+0003  -2.84612792968750E+0003  -2.84599169921875E+0003  -2.84585668945313E+0003  -2.84569287109375E+0003  -2.84549707031250E+0003  -2.84527807617188E+0003  -2.84503320312500E+0003  -2.84476269531250E+0003  -2.84447973632813E+0003  -2.84416406250000E+0003  -2.84381567382813E+0003  -2.84343994140625E+0003  -2.84303540039063E+0003  -2.84260546875000E+0003  -2.84215332031250E+0003  -2.84169140625000E+0003  -2.84122045898438E+0003  -2.84074267578125E+0003  -2.84025048828125E+0003  -2.83973754882813E+0003  -2.83919604492188E+0003  -2.83862475585938E+0003  -2.83803930664063E+0003  -2.83746093750000E+0003  -2.83690234375000E+0003  -2.83636816406250E+0003  -2.83586157226563E+0003  -2.83538183593750E+0003  -2.83493432617188E+0003  -2.83451977539063E+0003  -2.83414624023438E+0003  -2.83381909179688E+0003  -2.83354492187500E+0003  -2.83331762695313E+0003  -2.83312597656250E+0003  -2.83295166015625E+0003  -2.83277978515625E+0003  -2.83257934570313E+0003  -2.83230346679688E+0003  -2.83191113281250E+0003  -2.83137084960938E+0003  -2.83071215820313E+0003  -2.82999267578125E+0003  -2.82911816406250E+0003  -2.82826831054688E+0003  -2.82746826171875E+0003  -2.82672119140625E+0003  -2.82602734375000E+0003  -2.82541577148438E+0003  -2.82482495117188E+0003  -2.82427929687500E+0003  -2.82377661132813E+0003  -2.82331567382813E+0003  -2.82289526367188E+0003  -2.82251562500000E+0003  -2.82217651367188E+0003  -2.82187695312500E+0003  -2.82161645507813E+0003  -2.82138793945313E+0003  -2.82116967773438E+0003  -2.82097045898438E+0003  -2.82088305664063E+0003  -2.82097363281250E+0003  -2.82120068359375E+0003  -2.82153076171875E+0003  -2.82194848632813E+0003  -2.82243945312500E+0003  -2.82299511718750E+0003  -2.82359838867188E+0003  -2.82422045898438E+0003  -2.82488403320313E+0003  -2.82533251953125E+0003  -2.82561083984375E+0003  -2.82553808593750E+0003  -2.82499462890625E+0003  -2.82392309570313E+0003  -2.82243847656250E+0003  -2.82077978515625E+0003  -2.81919335937500E+0003  -2.81785156250000E+0003  -2.81670605468750E+0003  -2.81596752929688E+0003  -2.81554199218750E+0003  -2.81533251953125E+0003  -2.81526391601563E+0003  -2.81520361328125E+0003  -2.81509912109375E+0003  -2.81500903320313E+0003  -2.81492163085938E+0003  -2.81483593750000E+0003  -2.81474511718750E+0003  -2.81465209960938E+0003  -2.81454492187500E+0003  -2.81442089843750E+0003  -2.81427270507813E+0003  -2.81408349609375E+0003  -2.81381054687500E+0003  -2.81350341796875E+0003  -2.81316235351563E+0003  -2.81278955078125E+0003  -2.81239477539063E+0003  -2.81198803710938E+0003  -2.81157934570313E+0003  -2.81117407226563E+0003  -2.81076611328125E+0003  -2.81034790039063E+0003  -2.80981298828125E+0003  -2.80921679687500E+0003  -2.80866650390625E+0003  -2.80817919921875E+0003  -2.80778662109375E+0003  -2.80750952148438E+0003  -2.80735791015625E+0003  -2.80728393554688E+0003  -2.80725415039063E+0003  -2.80722851562500E+0003  -2.80717163085938E+0003  -2.80704956054688E+0003  -2.80683276367188E+0003  -2.80653027343750E+0003  -2.80618774414063E+0003  -2.80586083984375E+0003  -2.80556811523438E+0003  -2.80534667968750E+0003  -2.80518041992188E+0003  -2.80507397460938E+0003  -2.80500463867188E+0003  -2.80495947265625E+0003  -2.80491992187500E+0003  -2.80487011718750E+0003  -2.80478979492188E+0003  -2.80466333007813E+0003  -2.80447998046875E+0003  -2.80421630859375E+0003  -2.80387719726563E+0003  -2.80350073242188E+0003  -2.80314379882813E+0003  -2.80286450195313E+0003  -2.80270996093750E+0003  -2.80268579101563E+0003  -2.80278515625000E+0003  -2.80290258789063E+0003  -2.80304321289063E+0003  -2.80322192382813E+0003  -2.80339453125000E+0003  -2.80353515625000E+0003  -2.80365014648438E+0003  -2.80382470703125E+0003  -2.80415771484375E+0003  -2.80474902343750E+0003  -2.80561718750000E+0003  -2.80668896484375E+0003  -2.80787500000000E+0003  -2.80908129882813E+0003  -2.81023364257813E+0003  -2.81129833984375E+0003  -2.81224121093750E+0003  -2.81301757812500E+0003  -2.81357983398438E+0003  -2.81434765625000E+0003  -2.81528417968750E+0003  -2.81562158203125E+0003  -2.81557763671875E+0003  -2.81549316406250E+0003  -2.81533056640625E+0003  -2.81506787109375E+0003  -2.81470263671875E+0003  -2.81427172851563E+0003  -2.81380590820313E+0003  -2.81334667968750E+0003  -2.81292529296875E+0003  -2.81257934570313E+0003  -2.81235034179688E+0003  -2.81226586914063E+0003  -2.81232177734375E+0003  -2.81249731445313E+0003  -2.81276757812500E+0003  -2.81310791015625E+0003  -2.81349633789063E+0003  -2.81390429687500E+0003  -2.81430639648438E+0003  -2.81468481445313E+0003  -2.81503906250000E+0003  -2.81519628906250E+0003  -2.81528173828125E+0003  -2.81533886718750E+0003  -2.81540600585938E+0003  -2.81552441406250E+0003  -2.81574560546875E+0003  -2.81609912109375E+0003  -2.81658032226563E+0003  -2.81716821289063E+0003  -2.81783740234375E+0003  -2.81853564453125E+0003  -2.81923632812500E+0003  -2.81994921875000E+0003  -2.82067993164063E+0003  -2.82141015625000E+0003  -2.82196679687500E+0003  -2.82246582031250E+0003  -2.82286279296875E+0003  -2.82314135742188E+0003  -2.82331982421875E+0003  -2.82342773437500E+0003  -2.82348315429688E+0003  -2.82350341796875E+0003  -2.82349877929688E+0003  -2.82347485351563E+0003  -2.82344287109375E+0003  -2.82341040039063E+0003  -2.82339038085938E+0003  -2.82338647460938E+0003  -2.82341308593750E+0003  -2.82346923828125E+0003  -2.82355102539063E+0003  -2.82365234375000E+0003  -2.82376757812500E+0003  -2.82389160156250E+0003  -2.82402075195313E+0003  -2.82415063476563E+0003  -2.82427514648438E+0003  -2.82439477539063E+0003  -2.82450732421875E+0003  -2.82461889648438E+0003  -2.82472241210938E+0003  -2.82482568359375E+0003  -2.82492333984375E+0003  -2.82502270507813E+0003
  -2.84602612304688E+0003  -2.84599072265625E+0003  -2.84589916992188E+0003  -2.84577929687500E+0003  -2.84563452148438E+0003  -2.84547167968750E+0003  -2.84530371093750E+0003  -2.84515917968750E+0003  -2.84501586914063E+0003  -2.84484375000000E+0003  -2.84463793945313E+0003  -2.84441015625000E+0003  -2.84415502929688E+0003  -2.84387548828125E+0003  -2.84357202148438E+0003  -2.84323876953125E+0003  -2.84287597656250E+0003  -2.84248510742188E+0003  -2.84206738281250E+0003  -2.84162280273438E+0003  -2.84116088867188E+0003  -2.84068261718750E+0003  -2.84019433593750E+0003  -2.83969653320313E+0003  -2.83918847656250E+0003  -2.83866406250000E+0003  -2.83811816406250E+0003  -2.83755078125000E+0003  -2.83697924804688E+0003  -2.83641040039063E+0003  -2.83586010742188E+0003  -2.83532763671875E+0003  -2.83481713867188E+0003  -2.83433398437500E+0003  -2.83387451171875E+0003  -2.83344482421875E+0003  -2.83305029296875E+0003  -2.83269458007813E+0003  -2.83238525390625E+0003  -2.83211474609375E+0003  -2.83186987304688E+0003  -2.83163720703125E+0003  -2.83140478515625E+0003  -2.83113964843750E+0003  -2.83080371093750E+0003  -2.83035766601563E+0003  -2.82977709960938E+0003  -2.82909106445313E+0003  -2.82836474609375E+0003  -2.82750732421875E+0003  -2.82669848632813E+0003  -2.82595166015625E+0003  -2.82526904296875E+0003  -2.82464624023438E+0003  -2.82407812500000E+0003  -2.82358398437500E+0003  -2.82310400390625E+0003  -2.82266064453125E+0003  -2.82224804687500E+0003  -2.82185888671875E+0003  -2.82148657226563E+0003  -2.82112426757813E+0003  -2.82077001953125E+0003  -2.82043750000000E+0003  -2.82013110351563E+0003  -2.81981860351563E+0003  -2.81949194335938E+0003  -2.81930883789063E+0003  -2.81943090820313E+0003  -2.81972802734375E+0003  -2.82014453125000E+0003  -2.82070263671875E+0003  -2.82141186523438E+0003  -2.82229760742188E+0003  -2.82334277343750E+0003  -2.82430810546875E+0003  -2.82520434570313E+0003  -2.82599755859375E+0003  -2.82649804687500E+0003  -2.82642919921875E+0003  -2.82570190429688E+0003  -2.82441943359375E+0003  -2.82275927734375E+0003  -2.82095654296875E+0003  -2.81926171875000E+0003  -2.81790332031250E+0003  -2.81680200195313E+0003  -2.81603466796875E+0003  -2.81554907226563E+0003  -2.81524414062500E+0003  -2.81506323242188E+0003  -2.81490209960938E+0003  -2.81477661132813E+0003  -2.81470849609375E+0003  -2.81468066406250E+0003  -2.81467138671875E+0003  -2.81466333007813E+0003  -2.81464062500000E+0003  -2.81459497070313E+0003  -2.81452343750000E+0003  -2.81441674804688E+0003  -2.81425830078125E+0003  -2.81402026367188E+0003  -2.81373852539063E+0003  -2.81341259765625E+0003  -2.81304345703125E+0003  -2.81263598632813E+0003  -2.81219555664063E+0003  -2.81172827148438E+0003  -2.81123828125000E+0003  -2.81072875976563E+0003  -2.81020263671875E+0003  -2.80959887695313E+0003  -2.80893212890625E+0003  -2.80832519531250E+0003  -2.80779321289063E+0003  -2.80737451171875E+0003  -2.80709667968750E+0003  -2.80693896484375E+0003  -2.80686157226563E+0003  -2.80684667968750E+0003  -2.80684448242188E+0003  -2.80682250976563E+0003  -2.80674169921875E+0003  -2.80657250976563E+0003  -2.80631860351563E+0003  -2.80601953125000E+0003  -2.80571826171875E+0003  -2.80545605468750E+0003  -2.80523266601563E+0003  -2.80505664062500E+0003  -2.80491772460938E+0003  -2.80480737304688E+0003  -2.80472045898438E+0003  -2.80463549804688E+0003  -2.80454638671875E+0003  -2.80443286132813E+0003  -2.80428515625000E+0003  -2.80409301757813E+0003  -2.80384082031250E+0003  -2.80352075195313E+0003  -2.80317187500000E+0003  -2.80284741210938E+0003  -2.80259375000000E+0003  -2.80245996093750E+0003  -2.80245947265625E+0003  -2.80256445312500E+0003  -2.80269140625000E+0003  -2.80283715820313E+0003  -2.80302490234375E+0003  -2.80321069335938E+0003  -2.80335986328125E+0003  -2.80347875976563E+0003  -2.80366430664063E+0003  -2.80400488281250E+0003  -2.80458984375000E+0003  -2.80547119140625E+0003  -2.80656323242188E+0003  -2.80777148437500E+0003  -2.80898730468750E+0003  -2.81014892578125E+0003  -2.81121801757813E+0003  -2.81216113281250E+0003  -2.81293481445313E+0003  -2.81352319335938E+0003  -2.81420019531250E+0003  -2.81500903320313E+0003  -2.81541601562500E+0003  -2.81546875000000E+0003  -2.81543066406250E+0003  -2.81531933593750E+0003  -2.81511401367188E+0003  -2.81482666015625E+0003  -2.81447802734375E+0003  -2.81410131835938E+0003  -2.81372167968750E+0003  -2.81337329101563E+0003  -2.81308422851563E+0003  -2.81288574218750E+0003  -2.81280297851563E+0003  -2.81283227539063E+0003  -2.81295898437500E+0003  -2.81315942382813E+0003  -2.81341625976563E+0003  -2.81370800781250E+0003  -2.81401635742188E+0003  -2.81430639648438E+0003  -2.81455834960938E+0003  -2.81476879882813E+0003  -2.81479736328125E+0003  -2.81476953125000E+0003  -2.81472656250000E+0003  -2.81471069335938E+0003  -2.81476562500000E+0003  -2.81494335937500E+0003  -2.81526953125000E+0003  -2.81575561523438E+0003  -2.81638134765625E+0003  -2.81710400390625E+0003  -2.81786450195313E+0003  -2.81861914062500E+0003  -2.81937939453125E+0003  -2.82015942382813E+0003  -2.82094213867188E+0003  -2.82156860351563E+0003  -2.82209570312500E+0003  -2.82250634765625E+0003  -2.82277783203125E+0003  -2.82293750000000E+0003  -2.82301513671875E+0003  -2.82304150390625E+0003  -2.82303320312500E+0003  -2.82300317382813E+0003  -2.82295556640625E+0003  -2.82290014648438E+0003  -2.82284667968750E+0003  -2.82280541992188E+0003  -2.82278833007813E+0003  -2.82280102539063E+0003  -2.82284765625000E+0003  -2.82292089843750E+0003  -2.82301635742188E+0003  -2.82312988281250E+0003  -2.82325317382813E+0003  -2.82338378906250E+0003  -2.82351464843750E+0003  -2.82364013671875E+0003  -2.82376342773438E+0003  -2.82388159179688E+0003  -2.82399291992188E+0003  -2.82410253906250E+0003  -2.82420898437500E+0003  -2.82431323242188E+0003  -2.82441577148438E+0003
  -2.84521191406250E+0003  -2.84520141601563E+0003  -2.84513232421875E+0003  -2.84500073242188E+0003  -2.84484594726563E+0003  -2.84467456054688E+0003  -2.84449877929688E+0003  -2.84433398437500E+0003  -2.84416650390625E+0003  -2.84397509765625E+0003  -2.84375976562500E+0003  -2.84351855468750E+0003  -2.84325097656250E+0003  -2.84295507812500E+0003  -2.84263330078125E+0003  -2.84228173828125E+0003  -2.84190161132813E+0003  -2.84149438476563E+0003  -2.84106005859375E+0003  -2.84060156250000E+0003  -2.84012426757813E+0003  -2.83963085937500E+0003  -2.83912744140625E+0003  -2.83861450195313E+0003  -2.83809204101563E+0003  -2.83755834960938E+0003  -2.83701000976563E+0003  -2.83644946289063E+0003  -2.83588769531250E+0003  -2.83521264648438E+0003  -2.83456372070313E+0003  -2.83401660156250E+0003  -2.83355566406250E+0003  -2.83316259765625E+0003  -2.83278051757813E+0003  -2.83233764648438E+0003  -2.83192236328125E+0003  -2.83153808593750E+0003  -2.83119238281250E+0003  -2.83087670898438E+0003  -2.83058105468750E+0003  -2.83029150390625E+0003  -2.82999780273438E+0003  -2.82966674804688E+0003  -2.82926562500000E+0003  -2.82875830078125E+0003  -2.82811132812500E+0003  -2.82737817382813E+0003  -2.82662182617188E+0003  -2.82576464843750E+0003  -2.82499243164063E+0003  -2.82430541992188E+0003  -2.82370190429688E+0003  -2.82316821289063E+0003  -2.82269213867188E+0003  -2.82228540039063E+0003  -2.82189306640625E+0003  -2.82152929687500E+0003  -2.82118457031250E+0003  -2.82084643554688E+0003  -2.82050268554688E+0003  -2.82014086914063E+0003  -2.81976196289063E+0003  -2.81945458984375E+0003  -2.81919799804688E+0003  -2.81890307617188E+0003  -2.81853173828125E+0003  -2.81816967773438E+0003  -2.81811132812500E+0003  -2.81837377929688E+0003  -2.81878222656250E+0003  -2.81938061523438E+0003  -2.82019433593750E+0003  -2.82127075195313E+0003  -2.82260473632813E+0003  -2.82383935546875E+0003  -2.82511889648438E+0003  -2.82636914062500E+0003  -2.82726708984375E+0003  -2.82728759765625E+0003  -2.82636157226563E+0003  -2.82483251953125E+0003  -2.82298095703125E+0003  -2.82103759765625E+0003  -2.81923535156250E+0003  -2.81779907226563E+0003  -2.81673803710938E+0003  -2.81593334960938E+0003  -2.81539135742188E+0003  -2.81500512695313E+0003  -2.81473291015625E+0003  -2.81451489257813E+0003  -2.81439501953125E+0003  -2.81438085937500E+0003  -2.81444555664063E+0003  -2.81455639648438E+0003  -2.81466406250000E+0003  -2.81473803710938E+0003  -2.81477050781250E+0003  -2.81475756835938E+0003  -2.81470361328125E+0003  -2.81458837890625E+0003  -2.81439233398438E+0003  -2.81414208984375E+0003  -2.81383569335938E+0003  -2.81347216796875E+0003  -2.81305126953125E+0003  -2.81257250976563E+0003  -2.81203540039063E+0003  -2.81144360351563E+0003  -2.81081079101563E+0003  -2.81015161132813E+0003  -2.80946997070313E+0003  -2.80870996093750E+0003  -2.80803417968750E+0003  -2.80745214843750E+0003  -2.80700463867188E+0003  -2.80671264648438E+0003  -2.80655688476563E+0003  -2.80649462890625E+0003  -2.80650488281250E+0003  -2.80654248046875E+0003  -2.80656958007813E+0003  -2.80654589843750E+0003  -2.80643872070313E+0003  -2.80624609375000E+0003  -2.80599658203125E+0003  -2.80572680664063E+0003  -2.80546630859375E+0003  -2.80523266601563E+0003  -2.80502050781250E+0003  -2.80483398437500E+0003  -2.80467089843750E+0003  -2.80452490234375E+0003  -2.80438793945313E+0003  -2.80425073242188E+0003  -2.80410253906250E+0003  -2.80393676757813E+0003  -2.80374023437500E+0003  -2.80350390625000E+0003  -2.80322534179688E+0003  -2.80293676757813E+0003  -2.80267749023438E+0003  -2.80248730468750E+0003  -2.80240283203125E+0003  -2.80241381835938E+0003  -2.80250708007813E+0003  -2.80266040039063E+0003  -2.80285083007813E+0003  -2.80306323242188E+0003  -2.80326562500000E+0003  -2.80343969726563E+0003  -2.80359423828125E+0003  -2.80380883789063E+0003  -2.80416406250000E+0003  -2.80475390625000E+0003  -2.80562109375000E+0003  -2.80668164062500E+0003  -2.80784814453125E+0003  -2.80902587890625E+0003  -2.81015063476563E+0003  -2.81119018554688E+0003  -2.81211352539063E+0003  -2.81289111328125E+0003  -2.81353979492188E+0003  -2.81415405273438E+0003  -2.81472656250000E+0003  -2.81509521484375E+0003  -2.81524096679688E+0003  -2.81526342773438E+0003  -2.81520483398438E+0003  -2.81505688476563E+0003  -2.81483544921875E+0003  -2.81456176757813E+0003  -2.81425683593750E+0003  -2.81395141601563E+0003  -2.81366625976563E+0003  -2.81342651367188E+0003  -2.81325756835938E+0003  -2.81318310546875E+0003  -2.81319433593750E+0003  -2.81328417968750E+0003  -2.81343066406250E+0003  -2.81361865234375E+0003  -2.81383276367188E+0003  -2.81405444335938E+0003  -2.81424414062500E+0003  -2.81439575195313E+0003  -2.81448681640625E+0003  -2.81441210937500E+0003  -2.81427954101563E+0003  -2.81414770507813E+0003  -2.81404638671875E+0003  -2.81402856445313E+0003  -2.81415551757813E+0003  -2.81444946289063E+0003  -2.81491552734375E+0003  -2.81556005859375E+0003  -2.81631909179688E+0003  -2.81712011718750E+0003  -2.81790673828125E+0003  -2.81869775390625E+0003  -2.81950903320313E+0003  -2.82032348632813E+0003  -2.82099243164063E+0003  -2.82154565429688E+0003  -2.82196777343750E+0003  -2.82224145507813E+0003  -2.82239257812500E+0003  -2.82245727539063E+0003  -2.82246850585938E+0003  -2.82244799804688E+0003  -2.82240136718750E+0003  -2.82234252929688E+0003  -2.82227563476563E+0003  -2.82221166992188E+0003  -2.82216186523438E+0003  -2.82213623046875E+0003  -2.82214453125000E+0003  -2.82218750000000E+0003  -2.82225976562500E+0003  -2.82235522460938E+0003  -2.82247045898438E+0003  -2.82259497070313E+0003  -2.82272900390625E+0003  -2.82286279296875E+0003  -2.82299414062500E+0003  -2.82312109375000E+0003  -2.82324316406250E+0003  -2.82336230468750E+0003  -2.82347680664063E+0003  -2.82359033203125E+0003  -2.82370019531250E+0003  -2.82380883789063E+0003
  -2.84439453125000E+0003  -2.84436572265625E+0003  -2.84431201171875E+0003  -2.84422460937500E+0003  -2.84406005859375E+0003  -2.84387744140625E+0003  -2.84369262695313E+0003  -2.84350683593750E+0003  -2.84331176757813E+0003  -2.84310034179688E+0003  -2.84286645507813E+0003  -2.84260815429688E+0003  -2.84232202148438E+0003  -2.84200732421875E+0003  -2.84166650390625E+0003  -2.84129443359375E+0003  -2.84089257812500E+0003  -2.84046606445313E+0003  -2.84001416015625E+0003  -2.83953906250000E+0003  -2.83904736328125E+0003  -2.83853930664063E+0003  -2.83802221679688E+0003  -2.83749780273438E+0003  -2.83696386718750E+0003  -2.83642333984375E+0003  -2.83587744140625E+0003  -2.83517260742188E+0003  -2.83437792968750E+0003  -2.83364526367188E+0003  -2.83301708984375E+0003  -2.83250659179688E+0003  -2.83209204101563E+0003  -2.83175073242188E+0003  -2.83145971679688E+0003  -2.83120141601563E+0003  -2.83077368164063E+0003  -2.83036352539063E+0003  -2.82998315429688E+0003  -2.82962548828125E+0003  -2.82928100585938E+0003  -2.82893774414063E+0003  -2.82858251953125E+0003  -2.82818847656250E+0003  -2.82772119140625E+0003  -2.82714086914063E+0003  -2.82642431640625E+0003  -2.82562109375000E+0003  -2.82480957031250E+0003  -2.82395117187500E+0003  -2.82321240234375E+0003  -2.82258984375000E+0003  -2.82207470703125E+0003  -2.82164331054688E+0003  -2.82127368164063E+0003  -2.82095166015625E+0003  -2.82067724609375E+0003  -2.82040869140625E+0003  -2.82014819335938E+0003  -2.81987866210938E+0003  -2.81958227539063E+0003  -2.81924243164063E+0003  -2.81892749023438E+0003  -2.81867431640625E+0003  -2.81839477539063E+0003  -2.81808740234375E+0003  -2.81770214843750E+0003  -2.81725854492188E+0003  -2.81698852539063E+0003  -2.81710278320313E+0003  -2.81742578125000E+0003  -2.81798120117188E+0003  -2.81880053710938E+0003  -2.81993627929688E+0003  -2.82139794921875E+0003  -2.82291235351563E+0003  -2.82448046875000E+0003  -2.82613085937500E+0003  -2.82742504882813E+0003  -2.82759326171875E+0003  -2.82656640625000E+0003  -2.82489355468750E+0003  -2.82293798828125E+0003  -2.82091333007813E+0003  -2.81904980468750E+0003  -2.81756860351563E+0003  -2.81649023437500E+0003  -2.81568188476563E+0003  -2.81509521484375E+0003  -2.81464428710938E+0003  -2.81430566406250E+0003  -2.81407348632813E+0003  -2.81398632812500E+0003  -2.81406811523438E+0003  -2.81427294921875E+0003  -2.81453222656250E+0003  -2.81478125000000E+0003  -2.81496557617188E+0003  -2.81508227539063E+0003  -2.81513330078125E+0003  -2.81512597656250E+0003  -2.81505615234375E+0003  -2.81490185546875E+0003  -2.81468383789063E+0003  -2.81439916992188E+0003  -2.81404394531250E+0003  -2.81361035156250E+0003  -2.81309082031250E+0003  -2.81247705078125E+0003  -2.81177099609375E+0003  -2.81099780273438E+0003  -2.81018432617188E+0003  -2.80935839843750E+0003  -2.80855444335938E+0003  -2.80778442382813E+0003  -2.80713476562500E+0003  -2.80664233398438E+0003  -2.80633862304688E+0003  -2.80619067382813E+0003  -2.80615576171875E+0003  -2.80620800781250E+0003  -2.80630395507813E+0003  -2.80640356445313E+0003  -2.80645532226563E+0003  -2.80642236328125E+0003  -2.80629663085938E+0003  -2.80609863281250E+0003  -2.80585864257813E+0003  -2.80559985351563E+0003  -2.80533715820313E+0003  -2.80507446289063E+0003  -2.80482250976563E+0003  -2.80459008789063E+0003  -2.80437500000000E+0003  -2.80417675781250E+0003  -2.80398486328125E+0003  -2.80380029296875E+0003  -2.80361523437500E+0003  -2.80342333984375E+0003  -2.80321606445313E+0003  -2.80299340820313E+0003  -2.80278125000000E+0003  -2.80260253906250E+0003  -2.80249975585938E+0003  -2.80248168945313E+0003  -2.80254370117188E+0003  -2.80267187500000E+0003  -2.80284375000000E+0003  -2.80305615234375E+0003  -2.80328588867188E+0003  -2.80351367187500E+0003  -2.80372192382813E+0003  -2.80392285156250E+0003  -2.80417773437500E+0003  -2.80456152343750E+0003  -2.80514697265625E+0003  -2.80597753906250E+0003  -2.80697485351563E+0003  -2.80806079101563E+0003  -2.80915747070313E+0003  -2.81021044921875E+0003  -2.81118847656250E+0003  -2.81206884765625E+0003  -2.81282470703125E+0003  -2.81345922851563E+0003  -2.81400268554688E+0003  -2.81445922851563E+0003  -2.81477465820313E+0003  -2.81494140625000E+0003  -2.81495800781250E+0003  -2.81494482421875E+0003  -2.81488110351563E+0003  -2.81474365234375E+0003  -2.81453271484375E+0003  -2.81429248046875E+0003  -2.81404931640625E+0003  -2.81382128906250E+0003  -2.81362475585938E+0003  -2.81348632812500E+0003  -2.81342089843750E+0003  -2.81342529296875E+0003  -2.81348706054688E+0003  -2.81359472656250E+0003  -2.81373120117188E+0003  -2.81387939453125E+0003  -2.81402026367188E+0003  -2.81413037109375E+0003  -2.81419970703125E+0003  -2.81420068359375E+0003  -2.81403271484375E+0003  -2.81381323242188E+0003  -2.81359521484375E+0003  -2.81341308593750E+0003  -2.81331909179688E+0003  -2.81338793945313E+0003  -2.81363769531250E+0003  -2.81408471679688E+0003  -2.81471948242188E+0003  -2.81548583984375E+0003  -2.81629638671875E+0003  -2.81710131835938E+0003  -2.81790380859375E+0003  -2.81873046875000E+0003  -2.81956469726563E+0003  -2.82024462890625E+0003  -2.82081665039063E+0003  -2.82125415039063E+0003  -2.82153417968750E+0003  -2.82169067382813E+0003  -2.82175732421875E+0003  -2.82176855468750E+0003  -2.82174926757813E+0003  -2.82170556640625E+0003  -2.82164453125000E+0003  -2.82158081054688E+0003  -2.82151416015625E+0003  -2.82146557617188E+0003  -2.82144042968750E+0003  -2.82145092773438E+0003  -2.82149633789063E+0003  -2.82157275390625E+0003  -2.82167285156250E+0003  -2.82179003906250E+0003  -2.82192163085938E+0003  -2.82206005859375E+0003  -2.82220092773438E+0003  -2.82233691406250E+0003  -2.82247119140625E+0003  -2.82260156250000E+0003  -2.82272802734375E+0003  -2.82284912109375E+0003  -2.82297094726563E+0003  -2.82308813476563E+0003  -2.82320507812500E+0003
  -2.84357348632813E+0003  -2.84352539062500E+0003  -2.84345385742188E+0003  -2.84335864257813E+0003  -2.84324291992188E+0003  -2.84307763671875E+0003  -2.84287670898438E+0003  -2.84266894531250E+0003  -2.84244995117188E+0003  -2.84221704101563E+0003  -2.84196166992188E+0003  -2.84168090820313E+0003  -2.84137377929688E+0003  -2.84103833007813E+0003  -2.84067260742188E+0003  -2.84027758789063E+0003  -2.83985498046875E+0003  -2.83940405273438E+0003  -2.83893164062500E+0003  -2.83843872070313E+0003  -2.83793090820313E+0003  -2.83740917968750E+0003  -2.83687744140625E+0003  -2.83634106445313E+0003  -2.83580053710938E+0003  -2.83523364257813E+0003  -2.83442431640625E+0003  -2.83359838867188E+0003  -2.83280029296875E+0003  -2.83207666015625E+0003  -2.83147192382813E+0003  -2.83099877929688E+0003  -2.83063134765625E+0003  -2.83034106445313E+0003  -2.83010083007813E+0003  -2.82988769531250E+0003  -2.82962451171875E+0003  -2.82918823242188E+0003  -2.82877612304688E+0003  -2.82838305664063E+0003  -2.82799438476563E+0003  -2.82760375976563E+0003  -2.82719213867188E+0003  -2.82674023437500E+0003  -2.82620556640625E+0003  -2.82555273437500E+0003  -2.82475585937500E+0003  -2.82386987304688E+0003  -2.82299682617188E+0003  -2.82213452148438E+0003  -2.82142871093750E+0003  -2.82087207031250E+0003  -2.82044970703125E+0003  -2.82012597656250E+0003  -2.81986938476563E+0003  -2.81966064453125E+0003  -2.81948413085938E+0003  -2.81932739257813E+0003  -2.81916357421875E+0003  -2.81897680664063E+0003  -2.81874462890625E+0003  -2.81844458007813E+0003  -2.81821826171875E+0003  -2.81794799804688E+0003  -2.81762573242188E+0003  -2.81725244140625E+0003  -2.81680078125000E+0003  -2.81627563476563E+0003  -2.81588891601563E+0003  -2.81585375976563E+0003  -2.81604980468750E+0003  -2.81650512695313E+0003  -2.81725073242188E+0003  -2.81831762695313E+0003  -2.81972241210938E+0003  -2.82143505859375E+0003  -2.82310375976563E+0003  -2.82495874023438E+0003  -2.82651635742188E+0003  -2.82688330078125E+0003  -2.82595849609375E+0003  -2.82435961914063E+0003  -2.82246411132813E+0003  -2.82048632812500E+0003  -2.81865673828125E+0003  -2.81718945312500E+0003  -2.81611059570313E+0003  -2.81531127929688E+0003  -2.81469848632813E+0003  -2.81420214843750E+0003  -2.81382080078125E+0003  -2.81360253906250E+0003  -2.81358618164063E+0003  -2.81380322265625E+0003  -2.81419165039063E+0003  -2.81464038085938E+0003  -2.81505371093750E+0003  -2.81535815429688E+0003  -2.81554760742188E+0003  -2.81564477539063E+0003  -2.81567065429688E+0003  -2.81563867187500E+0003  -2.81552099609375E+0003  -2.81533178710938E+0003  -2.81506835937500E+0003  -2.81472314453125E+0003  -2.81428002929688E+0003  -2.81372070312500E+0003  -2.81302783203125E+0003  -2.81220019531250E+0003  -2.81127368164063E+0003  -2.81028881835938E+0003  -2.80928662109375E+0003  -2.80831469726563E+0003  -2.80743139648438E+0003  -2.80669628906250E+0003  -2.80616870117188E+0003  -2.80586621093750E+0003  -2.80574975585938E+0003  -2.80577661132813E+0003  -2.80590380859375E+0003  -2.80608569335938E+0003  -2.80627539062500E+0003  -2.80642553710938E+0003  -2.80649023437500E+0003  -2.80645629882813E+0003  -2.80631958007813E+0003  -2.80610620117188E+0003  -2.80583789062500E+0003  -2.80553222656250E+0003  -2.80520849609375E+0003  -2.80487915039063E+0003  -2.80456787109375E+0003  -2.80427392578125E+0003  -2.80400268554688E+0003  -2.80375341796875E+0003  -2.80352612304688E+0003  -2.80332348632813E+0003  -2.80313647460938E+0003  -2.80296557617188E+0003  -2.80281152343750E+0003  -2.80268627929688E+0003  -2.80260400390625E+0003  -2.80258496093750E+0003  -2.80264306640625E+0003  -2.80276757812500E+0003  -2.80294067382813E+0003  -2.80314916992188E+0003  -2.80338330078125E+0003  -2.80363916015625E+0003  -2.80389672851563E+0003  -2.80414526367188E+0003  -2.80439526367188E+0003  -2.80469433593750E+0003  -2.80510131835938E+0003  -2.80568139648438E+0003  -2.80645605468750E+0003  -2.80736450195313E+0003  -2.80834790039063E+0003  -2.80934228515625E+0003  -2.81029760742188E+0003  -2.81119189453125E+0003  -2.81200000000000E+0003  -2.81270190429688E+0003  -2.81329370117188E+0003  -2.81378027343750E+0003  -2.81416992187500E+0003  -2.81445263671875E+0003  -2.81462133789063E+0003  -2.81463354492188E+0003  -2.81462036132813E+0003  -2.81457153320313E+0003  -2.81448876953125E+0003  -2.81438476562500E+0003  -2.81422778320313E+0003  -2.81403808593750E+0003  -2.81385693359375E+0003  -2.81370166015625E+0003  -2.81358935546875E+0003  -2.81353759765625E+0003  -2.81353955078125E+0003  -2.81358740234375E+0003  -2.81366650390625E+0003  -2.81376269531250E+0003  -2.81386401367188E+0003  -2.81394384765625E+0003  -2.81398730468750E+0003  -2.81398046875000E+0003  -2.81391333007813E+0003  -2.81366821289063E+0003  -2.81336791992188E+0003  -2.81307006835938E+0003  -2.81281542968750E+0003  -2.81264990234375E+0003  -2.81264868164063E+0003  -2.81285522460938E+0003  -2.81326367187500E+0003  -2.81386206054688E+0003  -2.81459985351563E+0003  -2.81539599609375E+0003  -2.81619555664063E+0003  -2.81700366210938E+0003  -2.81783349609375E+0003  -2.81866503906250E+0003  -2.81933276367188E+0003  -2.81991601562500E+0003  -2.82036840820313E+0003  -2.82066552734375E+0003  -2.82084008789063E+0003  -2.82092431640625E+0003  -2.82095190429688E+0003  -2.82094677734375E+0003  -2.82091601562500E+0003  -2.82086938476563E+0003  -2.82081616210938E+0003  -2.82076196289063E+0003  -2.82072216796875E+0003  -2.82070507812500E+0003  -2.82072509765625E+0003  -2.82077905273438E+0003  -2.82086157226563E+0003  -2.82096899414063E+0003  -2.82109594726563E+0003  -2.82123437500000E+0003  -2.82138134765625E+0003  -2.82152880859375E+0003  -2.82167480468750E+0003  -2.82181738281250E+0003  -2.82195605468750E+0003  -2.82208911132813E+0003  -2.82222167968750E+0003  -2.82235083007813E+0003  -2.82247851562500E+0003  -2.82260229492188E+0003
  -2.84274829101563E+0003  -2.84268066406250E+0003  -2.84258886718750E+0003  -2.84247485351563E+0003  -2.84234033203125E+0003  -2.84218847656250E+0003  -2.84202221679688E+0003  -2.84182080078125E+0003  -2.84158056640625E+0003  -2.84132299804688E+0003  -2.84104370117188E+0003  -2.84073925781250E+0003  -2.84040698242188E+0003  -2.84004858398438E+0003  -2.83965600585938E+0003  -2.83923486328125E+0003  -2.83878491210938E+0003  -2.83831127929688E+0003  -2.83781567382813E+0003  -2.83730200195313E+0003  -2.83677490234375E+0003  -2.83623754882813E+0003  -2.83569458007813E+0003  -2.83514941406250E+0003  -2.83445996093750E+0003  -2.83367846679688E+0003  -2.83286450195313E+0003  -2.83204028320313E+0003  -2.83125097656250E+0003  -2.83054492187500E+0003  -2.82996899414063E+0003  -2.82953442382813E+0003  -2.82921166992188E+0003  -2.82896875000000E+0003  -2.82877368164063E+0003  -2.82860009765625E+0003  -2.82842749023438E+0003  -2.82804272460938E+0003  -2.82760644531250E+0003  -2.82717041015625E+0003  -2.82673754882813E+0003  -2.82629980468750E+0003  -2.82584082031250E+0003  -2.82533422851563E+0003  -2.82473852539063E+0003  -2.82401635742188E+0003  -2.82313867187500E+0003  -2.82217578125000E+0003  -2.82124902343750E+0003  -2.82038500976563E+0003  -2.81970629882813E+0003  -2.81921704101563E+0003  -2.81888745117188E+0003  -2.81867114257813E+0003  -2.81852636718750E+0003  -2.81843041992188E+0003  -2.81836523437500E+0003  -2.81831323242188E+0003  -2.81825488281250E+0003  -2.81816308593750E+0003  -2.81800903320313E+0003  -2.81778100585938E+0003  -2.81759545898438E+0003  -2.81729833984375E+0003  -2.81690136718750E+0003  -2.81640380859375E+0003  -2.81581762695313E+0003  -2.81519604492188E+0003  -2.81474340820313E+0003  -2.81456909179688E+0003  -2.81462890625000E+0003  -2.81495825195313E+0003  -2.81556469726563E+0003  -2.81641528320313E+0003  -2.81752270507813E+0003  -2.81895825195313E+0003  -2.82076928710938E+0003  -2.82260009765625E+0003  -2.82428247070313E+0003  -2.82491772460938E+0003  -2.82434399414063E+0003  -2.82306445312500E+0003  -2.82142871093750E+0003  -2.81966455078125E+0003  -2.81799902343750E+0003  -2.81664038085938E+0003  -2.81562573242188E+0003  -2.81484765625000E+0003  -2.81423632812500E+0003  -2.81371582031250E+0003  -2.81330810546875E+0003  -2.81310668945313E+0003  -2.81319091796875E+0003  -2.81360571289063E+0003  -2.81424145507813E+0003  -2.81492260742188E+0003  -2.81551708984375E+0003  -2.81593212890625E+0003  -2.81617797851563E+0003  -2.81629321289063E+0003  -2.81632373046875E+0003  -2.81629687500000E+0003  -2.81621289062500E+0003  -2.81605249023438E+0003  -2.81580761718750E+0003  -2.81547460937500E+0003  -2.81502612304688E+0003  -2.81443188476563E+0003  -2.81366186523438E+0003  -2.81270996093750E+0003  -2.81162255859375E+0003  -2.81045312500000E+0003  -2.80925610351563E+0003  -2.80809277343750E+0003  -2.80703930664063E+0003  -2.80617187500000E+0003  -2.80556689453125E+0003  -2.80524804687500E+0003  -2.80516772460938E+0003  -2.80527246093750E+0003  -2.80550830078125E+0003  -2.80581884765625E+0003  -2.80614282226563E+0003  -2.80641943359375E+0003  -2.80658984375000E+0003  -2.80663354492188E+0003  -2.80656372070313E+0003  -2.80639501953125E+0003  -2.80614208984375E+0003  -2.80581567382813E+0003  -2.80541235351563E+0003  -2.80499340820313E+0003  -2.80459082031250E+0003  -2.80421655273438E+0003  -2.80387304687500E+0003  -2.80356396484375E+0003  -2.80329785156250E+0003  -2.80307177734375E+0003  -2.80288623046875E+0003  -2.80274682617188E+0003  -2.80265673828125E+0003  -2.80262084960938E+0003  -2.80263745117188E+0003  -2.80271093750000E+0003  -2.80284350585938E+0003  -2.80302905273438E+0003  -2.80325463867188E+0003  -2.80350952148438E+0003  -2.80377856445313E+0003  -2.80406689453125E+0003  -2.80435961914063E+0003  -2.80464819335938E+0003  -2.80494213867188E+0003  -2.80527758789063E+0003  -2.80570385742188E+0003  -2.80626098632813E+0003  -2.80696777343750E+0003  -2.80778100585938E+0003  -2.80865161132813E+0003  -2.80953344726563E+0003  -2.81038354492188E+0003  -2.81118188476563E+0003  -2.81190966796875E+0003  -2.81254296875000E+0003  -2.81307421875000E+0003  -2.81351220703125E+0003  -2.81386010742188E+0003  -2.81411938476563E+0003  -2.81429516601563E+0003  -2.81428808593750E+0003  -2.81426513671875E+0003  -2.81422119140625E+0003  -2.81415869140625E+0003  -2.81408618164063E+0003  -2.81401196289063E+0003  -2.81393701171875E+0003  -2.81379589843750E+0003  -2.81367407226563E+0003  -2.81358984375000E+0003  -2.81355151367188E+0003  -2.81355883789063E+0003  -2.81359887695313E+0003  -2.81365991210938E+0003  -2.81373193359375E+0003  -2.81379418945313E+0003  -2.81382934570313E+0003  -2.81381640625000E+0003  -2.81374536132813E+0003  -2.81363159179688E+0003  -2.81331762695313E+0003  -2.81294433593750E+0003  -2.81256469726563E+0003  -2.81222460937500E+0003  -2.81199121093750E+0003  -2.81192382812500E+0003  -2.81206738281250E+0003  -2.81241699218750E+0003  -2.81295385742188E+0003  -2.81363793945313E+0003  -2.81439868164063E+0003  -2.81518432617188E+0003  -2.81599389648438E+0003  -2.81682055664063E+0003  -2.81761059570313E+0003  -2.81827099609375E+0003  -2.81885620117188E+0003  -2.81931787109375E+0003  -2.81963989257813E+0003  -2.81984594726563E+0003  -2.81996362304688E+0003  -2.82002709960938E+0003  -2.82005224609375E+0003  -2.82004833984375E+0003  -2.82002563476563E+0003  -2.81999389648438E+0003  -2.81995996093750E+0003  -2.81993798828125E+0003  -2.81993896484375E+0003  -2.81997167968750E+0003  -2.82003735351563E+0003  -2.82013378906250E+0003  -2.82025146484375E+0003  -2.82038793945313E+0003  -2.82053735351563E+0003  -2.82069287109375E+0003  -2.82085107421875E+0003  -2.82100732421875E+0003  -2.82115747070313E+0003  -2.82130883789063E+0003  -2.82145214843750E+0003  -2.82159448242188E+0003  -2.82173437500000E+0003  -2.82186889648438E+0003  -2.82200439453125E+0003
  -2.84191943359375E+0003  -2.84183007812500E+0003  -2.84171777343750E+0003  -2.84158300781250E+0003  -2.84142724609375E+0003  -2.84125292968750E+0003  -2.84106274414063E+0003  -2.84085791015625E+0003  -2.84063549804688E+0003  -2.84039282226563E+0003  -2.84011181640625E+0003  -2.83978125000000E+0003  -2.83942504882813E+0003  -2.83903710937500E+0003  -2.83861889648438E+0003  -2.83816870117188E+0003  -2.83768969726563E+0003  -2.83718823242188E+0003  -2.83666625976563E+0003  -2.83612841796875E+0003  -2.83557885742188E+0003  -2.83502612304688E+0003  -2.83436401367188E+0003  -2.83364868164063E+0003  -2.83289941406250E+0003  -2.83212109375000E+0003  -2.83131860351563E+0003  -2.83051318359375E+0003  -2.82975000000000E+0003  -2.82907543945313E+0003  -2.82853637695313E+0003  -2.82814233398438E+0003  -2.82786157226563E+0003  -2.82765942382813E+0003  -2.82750146484375E+0003  -2.82735986328125E+0003  -2.82721044921875E+0003  -2.82692309570313E+0003  -2.82647216796875E+0003  -2.82601391601563E+0003  -2.82553955078125E+0003  -2.82505224609375E+0003  -2.82455102539063E+0003  -2.82399487304688E+0003  -2.82334912109375E+0003  -2.82256762695313E+0003  -2.82162548828125E+0003  -2.82060278320313E+0003  -2.81962573242188E+0003  -2.81876098632813E+0003  -2.81811181640625E+0003  -2.81768383789063E+0003  -2.81743750000000E+0003  -2.81731787109375E+0003  -2.81727636718750E+0003  -2.81728613281250E+0003  -2.81732788085938E+0003  -2.81738378906250E+0003  -2.81743286132813E+0003  -2.81744213867188E+0003  -2.81737451171875E+0003  -2.81722338867188E+0003  -2.81705712890625E+0003  -2.81672778320313E+0003  -2.81624487304688E+0003  -2.81561523437500E+0003  -2.81487109375000E+0003  -2.81409350585938E+0003  -2.81357714843750E+0003  -2.81327612304688E+0003  -2.81321411132813E+0003  -2.81341235351563E+0003  -2.81383544921875E+0003  -2.81437255859375E+0003  -2.81502246093750E+0003  -2.81591137695313E+0003  -2.81725048828125E+0003  -2.81923266601563E+0003  -2.82108251953125E+0003  -2.82199096679688E+0003  -2.82187792968750E+0003  -2.82107641601563E+0003  -2.81985961914063E+0003  -2.81845776367188E+0003  -2.81708154296875E+0003  -2.81593139648438E+0003  -2.81502978515625E+0003  -2.81431298828125E+0003  -2.81373779296875E+0003  -2.81321606445313E+0003  -2.81281591796875E+0003  -2.81266821289063E+0003  -2.81288012695313E+0003  -2.81351245117188E+0003  -2.81441210937500E+0003  -2.81534985351563E+0003  -2.81614477539063E+0003  -2.81665844726563E+0003  -2.81693041992188E+0003  -2.81703515625000E+0003  -2.81703955078125E+0003  -2.81699267578125E+0003  -2.81690039062500E+0003  -2.81674755859375E+0003  -2.81652880859375E+0003  -2.81622753906250E+0003  -2.81579467773438E+0003  -2.81517211914063E+0003  -2.81433203125000E+0003  -2.81326098632813E+0003  -2.81201611328125E+0003  -2.81066186523438E+0003  -2.80926440429688E+0003  -2.80789990234375E+0003  -2.80666406250000E+0003  -2.80565405273438E+0003  -2.80496630859375E+0003  -2.80463256835938E+0003  -2.80459521484375E+0003  -2.80478906250000E+0003  -2.80514892578125E+0003  -2.80560424804688E+0003  -2.80607812500000E+0003  -2.80649462890625E+0003  -2.80677880859375E+0003  -2.80690283203125E+0003  -2.80687866210938E+0003  -2.80671972656250E+0003  -2.80644116210938E+0003  -2.80606811523438E+0003  -2.80563500976563E+0003  -2.80515234375000E+0003  -2.80465380859375E+0003  -2.80419580078125E+0003  -2.80378125000000E+0003  -2.80341772460938E+0003  -2.80310791015625E+0003  -2.80285961914063E+0003  -2.80268041992188E+0003  -2.80257080078125E+0003  -2.80253320312500E+0003  -2.80256958007813E+0003  -2.80267700195313E+0003  -2.80283740234375E+0003  -2.80304687500000E+0003  -2.80329516601563E+0003  -2.80357617187500E+0003  -2.80388281250000E+0003  -2.80420117187500E+0003  -2.80452416992188E+0003  -2.80485546875000E+0003  -2.80518188476563E+0003  -2.80550854492188E+0003  -2.80586718750000E+0003  -2.80629541015625E+0003  -2.80682080078125E+0003  -2.80745849609375E+0003  -2.80817651367188E+0003  -2.80893603515625E+0003  -2.80970703125000E+0003  -2.81045385742188E+0003  -2.81115283203125E+0003  -2.81179321289063E+0003  -2.81235424804688E+0003  -2.81282788085938E+0003  -2.81321899414063E+0003  -2.81353295898438E+0003  -2.81377172851563E+0003  -2.81394213867188E+0003  -2.81391601562500E+0003  -2.81388208007813E+0003  -2.81383959960938E+0003  -2.81379101562500E+0003  -2.81374072265625E+0003  -2.81369409179688E+0003  -2.81365600585938E+0003  -2.81363012695313E+0003  -2.81356323242188E+0003  -2.81350219726563E+0003  -2.81347998046875E+0003  -2.81349682617188E+0003  -2.81353637695313E+0003  -2.81359082031250E+0003  -2.81364355468750E+0003  -2.81368188476563E+0003  -2.81368090820313E+0003  -2.81362963867188E+0003  -2.81350610351563E+0003  -2.81332617187500E+0003  -2.81299218750000E+0003  -2.81254541015625E+0003  -2.81207299804688E+0003  -2.81164135742188E+0003  -2.81131079101563E+0003  -2.81115429687500E+0003  -2.81121435546875E+0003  -2.81148510742188E+0003  -2.81194677734375E+0003  -2.81256616210938E+0003  -2.81329199218750E+0003  -2.81407543945313E+0003  -2.81488745117188E+0003  -2.81570849609375E+0003  -2.81643359375000E+0003  -2.81708349609375E+0003  -2.81765942382813E+0003  -2.81812890625000E+0003  -2.81847753906250E+0003  -2.81872680664063E+0003  -2.81889697265625E+0003  -2.81900830078125E+0003  -2.81907568359375E+0003  -2.81911157226563E+0003  -2.81912475585938E+0003  -2.81912402343750E+0003  -2.81911840820313E+0003  -2.81912060546875E+0003  -2.81914428710938E+0003  -2.81919677734375E+0003  -2.81928100585938E+0003  -2.81939233398438E+0003  -2.81952587890625E+0003  -2.81967260742188E+0003  -2.81983496093750E+0003  -2.82000024414063E+0003  -2.82017041015625E+0003  -2.82033691406250E+0003  -2.82049902343750E+0003  -2.82065991210938E+0003  -2.82081689453125E+0003  -2.82096972656250E+0003  -2.82111938476563E+0003  -2.82126757812500E+0003  -2.82141162109375E+0003
  -2.84108764648438E+0003  -2.84097558593750E+0003  -2.84084106445313E+0003  -2.84068359375000E+0003  -2.84050512695313E+0003  -2.84030712890625E+0003  -2.84009130859375E+0003  -2.83985864257813E+0003  -2.83960668945313E+0003  -2.83933178710938E+0003  -2.83903076171875E+0003  -2.83870019531250E+0003  -2.83833740234375E+0003  -2.83793994140625E+0003  -2.83750512695313E+0003  -2.83703173828125E+0003  -2.83652172851563E+0003  -2.83597680664063E+0003  -2.83539916992188E+0003  -2.83479077148438E+0003  -2.83415234375000E+0003  -2.83348486328125E+0003  -2.83278930664063E+0003  -2.83206713867188E+0003  -2.83132275390625E+0003  -2.83056127929688E+0003  -2.82978662109375E+0003  -2.82901904296875E+0003  -2.82830029296875E+0003  -2.82767358398438E+0003  -2.82718212890625E+0003  -2.82683300781250E+0003  -2.82659326171875E+0003  -2.82642773437500E+0003  -2.82630078125000E+0003  -2.82618286132813E+0003  -2.82604956054688E+0003  -2.82583764648438E+0003  -2.82537744140625E+0003  -2.82490429687500E+0003  -2.82440747070313E+0003  -2.82387866210938E+0003  -2.82334228515625E+0003  -2.82275170898438E+0003  -2.82206518554688E+0003  -2.82124365234375E+0003  -2.82025512695313E+0003  -2.81919018554688E+0003  -2.81818798828125E+0003  -2.81730664062500E+0003  -2.81668652343750E+0003  -2.81631372070313E+0003  -2.81614013671875E+0003  -2.81610449218750E+0003  -2.81615185546875E+0003  -2.81625415039063E+0003  -2.81639038085938E+0003  -2.81654296875000E+0003  -2.81668945312500E+0003  -2.81679199218750E+0003  -2.81680834960938E+0003  -2.81671142578125E+0003  -2.81656372070313E+0003  -2.81620556640625E+0003  -2.81564306640625E+0003  -2.81488940429688E+0003  -2.81399218750000E+0003  -2.81312670898438E+0003  -2.81252514648438E+0003  -2.81213500976563E+0003  -2.81199072265625E+0003  -2.81206469726563E+0003  -2.81228076171875E+0003  -2.81256396484375E+0003  -2.81288598632813E+0003  -2.81334960937500E+0003  -2.81423437500000E+0003  -2.81586376953125E+0003  -2.81777490234375E+0003  -2.81900756835938E+0003  -2.81921337890625E+0003  -2.81881860351563E+0003  -2.81802661132813E+0003  -2.81702661132813E+0003  -2.81600000000000E+0003  -2.81507128906250E+0003  -2.81431860351563E+0003  -2.81372143554688E+0003  -2.81321337890625E+0003  -2.81274829101563E+0003  -2.81241333007813E+0003  -2.81235961914063E+0003  -2.81271337890625E+0003  -2.81354858398438E+0003  -2.81468481445313E+0003  -2.81585107421875E+0003  -2.81682177734375E+0003  -2.81741333007813E+0003  -2.81769213867188E+0003  -2.81776123046875E+0003  -2.81771777343750E+0003  -2.81763623046875E+0003  -2.81752221679688E+0003  -2.81736230468750E+0003  -2.81714379882813E+0003  -2.81684375000000E+0003  -2.81642871093750E+0003  -2.81582910156250E+0003  -2.81495874023438E+0003  -2.81378784179688E+0003  -2.81240747070313E+0003  -2.81089306640625E+0003  -2.80931884765625E+0003  -2.80777416992188E+0003  -2.80637353515625E+0003  -2.80523388671875E+0003  -2.80447192382813E+0003  -2.80412719726563E+0003  -2.80413330078125E+0003  -2.80441503906250E+0003  -2.80489477539063E+0003  -2.80548803710938E+0003  -2.80610375976563E+0003  -2.80665063476563E+0003  -2.80703930664063E+0003  -2.80723461914063E+0003  -2.80724804687500E+0003  -2.80709252929688E+0003  -2.80678320312500E+0003  -2.80635156250000E+0003  -2.80584228515625E+0003  -2.80529931640625E+0003  -2.80474365234375E+0003  -2.80420947265625E+0003  -2.80372998046875E+0003  -2.80331396484375E+0003  -2.80296850585938E+0003  -2.80270239257813E+0003  -2.80253125000000E+0003  -2.80243750000000E+0003  -2.80244970703125E+0003  -2.80255102539063E+0003  -2.80272460937500E+0003  -2.80296142578125E+0003  -2.80324023437500E+0003  -2.80355126953125E+0003  -2.80388671875000E+0003  -2.80424462890625E+0003  -2.80461474609375E+0003  -2.80498242187500E+0003  -2.80535180664063E+0003  -2.80571118164063E+0003  -2.80606372070313E+0003  -2.80643847656250E+0003  -2.80685644531250E+0003  -2.80734301757813E+0003  -2.80791259765625E+0003  -2.80853906250000E+0003  -2.80919750976563E+0003  -2.80986010742188E+0003  -2.81050366210938E+0003  -2.81111035156250E+0003  -2.81166333007813E+0003  -2.81214965820313E+0003  -2.81256738281250E+0003  -2.81291503906250E+0003  -2.81319506835938E+0003  -2.81341552734375E+0003  -2.81357250976563E+0003  -2.81353027343750E+0003  -2.81348657226563E+0003  -2.81344238281250E+0003  -2.81340014648438E+0003  -2.81336279296875E+0003  -2.81333374023438E+0003  -2.81331494140625E+0003  -2.81330859375000E+0003  -2.81331787109375E+0003  -2.81333715820313E+0003  -2.81333349609375E+0003  -2.81336499023438E+0003  -2.81341430664063E+0003  -2.81347021484375E+0003  -2.81352026367188E+0003  -2.81354785156250E+0003  -2.81352856445313E+0003  -2.81344628906250E+0003  -2.81328295898438E+0003  -2.81304736328125E+0003  -2.81270996093750E+0003  -2.81218872070313E+0003  -2.81162060546875E+0003  -2.81107202148438E+0003  -2.81062255859375E+0003  -2.81034765625000E+0003  -2.81030151367188E+0003  -2.81047290039063E+0003  -2.81084936523438E+0003  -2.81140893554688E+0003  -2.81211059570313E+0003  -2.81289794921875E+0003  -2.81371875000000E+0003  -2.81451342773438E+0003  -2.81518969726563E+0003  -2.81581665039063E+0003  -2.81637890625000E+0003  -2.81685327148438E+0003  -2.81723291015625E+0003  -2.81752783203125E+0003  -2.81775390625000E+0003  -2.81792016601563E+0003  -2.81804150390625E+0003  -2.81812182617188E+0003  -2.81817504882813E+0003  -2.81821215820313E+0003  -2.81824169921875E+0003  -2.81827685546875E+0003  -2.81832788085938E+0003  -2.81840698242188E+0003  -2.81851196289063E+0003  -2.81864135742188E+0003  -2.81878979492188E+0003  -2.81895361328125E+0003  -2.81912768554688E+0003  -2.81930859375000E+0003  -2.81948950195313E+0003  -2.81966723632813E+0003  -2.81984326171875E+0003  -2.82001611328125E+0003  -2.82018505859375E+0003  -2.82034936523438E+0003  -2.82050976562500E+0003  -2.82066943359375E+0003  -2.82082592773438E+0003
  -2.84025244140625E+0003  -2.84011816406250E+0003  -2.83996044921875E+0003  -2.83977954101563E+0003  -2.83957592773438E+0003  -2.83935302734375E+0003  -2.83911035156250E+0003  -2.83884985351563E+0003  -2.83856762695313E+0003  -2.83826098632813E+0003  -2.83792578125000E+0003  -2.83755834960938E+0003  -2.83715600585938E+0003  -2.83671582031250E+0003  -2.83623437500000E+0003  -2.83571044921875E+0003  -2.83514770507813E+0003  -2.83455004882813E+0003  -2.83392211914063E+0003  -2.83326806640625E+0003  -2.83259106445313E+0003  -2.83189526367188E+0003  -2.83118359375000E+0003  -2.83046020507813E+0003  -2.82973022460938E+0003  -2.82899731445313E+0003  -2.82826733398438E+0003  -2.82755737304688E+0003  -2.82690332031250E+0003  -2.82634252929688E+0003  -2.82591137695313E+0003  -2.82561425781250E+0003  -2.82541772460938E+0003  -2.82528662109375E+0003  -2.82518603515625E+0003  -2.82508569335938E+0003  -2.82496191406250E+0003  -2.82479003906250E+0003  -2.82433374023438E+0003  -2.82384741210938E+0003  -2.82334228515625E+0003  -2.82281054687500E+0003  -2.82224218750000E+0003  -2.82162475585938E+0003  -2.82092114257813E+0003  -2.82008081054688E+0003  -2.81907690429688E+0003  -2.81800341796875E+0003  -2.81697119140625E+0003  -2.81606933593750E+0003  -2.81547631835938E+0003  -2.81514892578125E+0003  -2.81503198242188E+0003  -2.81506176757813E+0003  -2.81517846679688E+0003  -2.81535327148438E+0003  -2.81556420898438E+0003  -2.81579223632813E+0003  -2.81601416015625E+0003  -2.81618920898438E+0003  -2.81627148437500E+0003  -2.81621289062500E+0003  -2.81606713867188E+0003  -2.81569091796875E+0003  -2.81507348632813E+0003  -2.81423193359375E+0003  -2.81322460937500E+0003  -2.81235034179688E+0003  -2.81166455078125E+0003  -2.81130297851563E+0003  -2.81136914062500E+0003  -2.81130688476563E+0003  -2.81103955078125E+0003  -2.81120361328125E+0003  -2.81146093750000E+0003  -2.81183593750000E+0003  -2.81248559570313E+0003  -2.81368798828125E+0003  -2.81515917968750E+0003  -2.81622387695313E+0003  -2.81664721679688E+0003  -2.81655883789063E+0003  -2.81610961914063E+0003  -2.81545678710938E+0003  -2.81474218750000E+0003  -2.81409082031250E+0003  -2.81354174804688E+0003  -2.81307885742188E+0003  -2.81267993164063E+0003  -2.81232739257813E+0003  -2.81211523437500E+0003  -2.81219116210938E+0003  -2.81268359375000E+0003  -2.81367309570313E+0003  -2.81497924804688E+0003  -2.81632104492188E+0003  -2.81740893554688E+0003  -2.81805541992188E+0003  -2.81832348632813E+0003  -2.81834887695313E+0003  -2.81825170898438E+0003  -2.81813476562500E+0003  -2.81799926757813E+0003  -2.81782348632813E+0003  -2.81759912109375E+0003  -2.81730175781250E+0003  -2.81689331054688E+0003  -2.81628710937500E+0003  -2.81541333007813E+0003  -2.81422094726563E+0003  -2.81274877929688E+0003  -2.81112426757813E+0003  -2.80942749023438E+0003  -2.80775659179688E+0003  -2.80623950195313E+0003  -2.80500854492188E+0003  -2.80419555664063E+0003  -2.80384741210938E+0003  -2.80389184570313E+0003  -2.80424487304688E+0003  -2.80481884765625E+0003  -2.80551855468750E+0003  -2.80624267578125E+0003  -2.80688720703125E+0003  -2.80735229492188E+0003  -2.80759716796875E+0003  -2.80763305664063E+0003  -2.80747265625000E+0003  -2.80713134765625E+0003  -2.80664624023438E+0003  -2.80606958007813E+0003  -2.80545434570313E+0003  -2.80484326171875E+0003  -2.80425024414063E+0003  -2.80372045898438E+0003  -2.80326611328125E+0003  -2.80289160156250E+0003  -2.80261523437500E+0003  -2.80242456054688E+0003  -2.80234033203125E+0003  -2.80237792968750E+0003  -2.80252807617188E+0003  -2.80277490234375E+0003  -2.80308129882813E+0003  -2.80341699218750E+0003  -2.80378100585938E+0003  -2.80416870117188E+0003  -2.80457177734375E+0003  -2.80499145507813E+0003  -2.80540771484375E+0003  -2.80582958984375E+0003  -2.80621997070313E+0003  -2.80658886718750E+0003  -2.80696020507813E+0003  -2.80736572265625E+0003  -2.80781713867188E+0003  -2.80832031250000E+0003  -2.80886328125000E+0003  -2.80942602539063E+0003  -2.80999365234375E+0003  -2.81053906250000E+0003  -2.81105590820313E+0003  -2.81152905273438E+0003  -2.81195263671875E+0003  -2.81231616210938E+0003  -2.81261791992188E+0003  -2.81286499023438E+0003  -2.81306469726563E+0003  -2.81320019531250E+0003  -2.81314599609375E+0003  -2.81309375000000E+0003  -2.81304443359375E+0003  -2.81301928710938E+0003  -2.81296801757813E+0003  -2.81294531250000E+0003  -2.81293481445313E+0003  -2.81293750000000E+0003  -2.81295678710938E+0003  -2.81299707031250E+0003  -2.81305981445313E+0003  -2.81313940429688E+0003  -2.81322485351563E+0003  -2.81330590820313E+0003  -2.81337158203125E+0003  -2.81340698242188E+0003  -2.81338403320313E+0003  -2.81328417968750E+0003  -2.81309472656250E+0003  -2.81281494140625E+0003  -2.81245092773438E+0003  -2.81189672851563E+0003  -2.81122412109375E+0003  -2.81054882812500E+0003  -2.80995629882813E+0003  -2.80953881835938E+0003  -2.80934838867188E+0003  -2.80940283203125E+0003  -2.80969311523438E+0003  -2.81020166015625E+0003  -2.81089428710938E+0003  -2.81169262695313E+0003  -2.81252685546875E+0003  -2.81325659179688E+0003  -2.81392260742188E+0003  -2.81452905273438E+0003  -2.81506933593750E+0003  -2.81554199218750E+0003  -2.81594702148438E+0003  -2.81628710937500E+0003  -2.81656713867188E+0003  -2.81678906250000E+0003  -2.81695971679688E+0003  -2.81709106445313E+0003  -2.81719165039063E+0003  -2.81727075195313E+0003  -2.81734130859375E+0003  -2.81741333007813E+0003  -2.81749780273438E+0003  -2.81760449218750E+0003  -2.81773461914063E+0003  -2.81788525390625E+0003  -2.81805273437500E+0003  -2.81823339843750E+0003  -2.81842163085938E+0003  -2.81861523437500E+0003  -2.81881005859375E+0003  -2.81900292968750E+0003  -2.81919165039063E+0003  -2.81937622070313E+0003  -2.81955786132813E+0003  -2.81973461914063E+0003  -2.81991015625000E+0003  -2.82008081054688E+0003  -2.82024731445313E+0003
  -2.83941528320313E+0003  -2.83925756835938E+0003  -2.83907543945313E+0003  -2.83887036132813E+0003  -2.83864282226563E+0003  -2.83839355468750E+0003  -2.83812426757813E+0003  -2.83783496093750E+0003  -2.83752270507813E+0003  -2.83718261718750E+0003  -2.83681298828125E+0003  -2.83640869140625E+0003  -2.83596582031250E+0003  -2.83548120117188E+0003  -2.83495092773438E+0003  -2.83437402343750E+0003  -2.83375537109375E+0003  -2.83310205078125E+0003  -2.83242016601563E+0003  -2.83171704101563E+0003  -2.83099951171875E+0003  -2.83027416992188E+0003  -2.82954882812500E+0003  -2.82882885742188E+0003  -2.82812060546875E+0003  -2.82742919921875E+0003  -2.82675976562500E+0003  -2.82612744140625E+0003  -2.82555957031250E+0003  -2.82508422851563E+0003  -2.82472924804688E+0003  -2.82449340820313E+0003  -2.82434497070313E+0003  -2.82424902343750E+0003  -2.82417163085938E+0003  -2.82408398437500E+0003  -2.82396337890625E+0003  -2.82378735351563E+0003  -2.82337475585938E+0003  -2.82288281250000E+0003  -2.82237060546875E+0003  -2.82183862304688E+0003  -2.82127099609375E+0003  -2.82065820312500E+0003  -2.81995581054688E+0003  -2.81912670898438E+0003  -2.81814331054688E+0003  -2.81706152343750E+0003  -2.81598413085938E+0003  -2.81511450195313E+0003  -2.81453540039063E+0003  -2.81423657226563E+0003  -2.81415332031250E+0003  -2.81422070312500E+0003  -2.81438061523438E+0003  -2.81460156250000E+0003  -2.81485986328125E+0003  -2.81513354492188E+0003  -2.81539624023438E+0003  -2.81560742187500E+0003  -2.81572216796875E+0003  -2.81569213867188E+0003  -2.81551391601563E+0003  -2.81513378906250E+0003  -2.81450170898438E+0003  -2.81363476562500E+0003  -2.81264746093750E+0003  -2.81173901367188E+0003  -2.81097583007813E+0003  -2.81056811523438E+0003  -2.81042968750000E+0003  -2.81001782226563E+0003  -2.80982397460938E+0003  -2.81021948242188E+0003  -2.81058618164063E+0003  -2.81102221679688E+0003  -2.81157202148438E+0003  -2.81240014648438E+0003  -2.81338232421875E+0003  -2.81412133789063E+0003  -2.81446484375000E+0003  -2.81448754882813E+0003  -2.81427636718750E+0003  -2.81392114257813E+0003  -2.81350341796875E+0003  -2.81309252929688E+0003  -2.81272265625000E+0003  -2.81240283203125E+0003  -2.81213574218750E+0003  -2.81192822265625E+0003  -2.81186938476563E+0003  -2.81208715820313E+0003  -2.81270117187500E+0003  -2.81378930664063E+0003  -2.81516552734375E+0003  -2.81658251953125E+0003  -2.81775097656250E+0003  -2.81842749023438E+0003  -2.81868115234375E+0003  -2.81867041015625E+0003  -2.81853930664063E+0003  -2.81839648437500E+0003  -2.81824169921875E+0003  -2.81805493164063E+0003  -2.81781835937500E+0003  -2.81751196289063E+0003  -2.81709106445313E+0003  -2.81647778320313E+0003  -2.81559619140625E+0003  -2.81440454101563E+0003  -2.81299145507813E+0003  -2.81133300781250E+0003  -2.80959814453125E+0003  -2.80788696289063E+0003  -2.80633325195313E+0003  -2.80507495117188E+0003  -2.80425097656250E+0003  -2.80391113281250E+0003  -2.80398071289063E+0003  -2.80437304687500E+0003  -2.80499389648438E+0003  -2.80574438476563E+0003  -2.80650341796875E+0003  -2.80716162109375E+0003  -2.80767431640625E+0003  -2.80795922851563E+0003  -2.80799560546875E+0003  -2.80782055664063E+0003  -2.80744946289063E+0003  -2.80692236328125E+0003  -2.80629638671875E+0003  -2.80562866210938E+0003  -2.80494091796875E+0003  -2.80431372070313E+0003  -2.80375610351563E+0003  -2.80327587890625E+0003  -2.80288354492188E+0003  -2.80256860351563E+0003  -2.80235815429688E+0003  -2.80227148437500E+0003  -2.80231835937500E+0003  -2.80248583984375E+0003  -2.80275268554688E+0003  -2.80309838867188E+0003  -2.80350488281250E+0003  -2.80396557617188E+0003  -2.80440356445313E+0003  -2.80484887695313E+0003  -2.80530346679688E+0003  -2.80578002929688E+0003  -2.80624609375000E+0003  -2.80665209960938E+0003  -2.80703588867188E+0003  -2.80741259765625E+0003  -2.80780810546875E+0003  -2.80822631835938E+0003  -2.80867382812500E+0003  -2.80914257812500E+0003  -2.80962597656250E+0003  -2.81010400390625E+0003  -2.81056884765625E+0003  -2.81101220703125E+0003  -2.81143920898438E+0003  -2.81178320312500E+0003  -2.81209033203125E+0003  -2.81234643554688E+0003  -2.81256103515625E+0003  -2.81274218750000E+0003  -2.81283886718750E+0003  -2.81277734375000E+0003  -2.81271826171875E+0003  -2.81268041992188E+0003  -2.81262915039063E+0003  -2.81258911132813E+0003  -2.81256152343750E+0003  -2.81252832031250E+0003  -2.81252832031250E+0003  -2.81254931640625E+0003  -2.81259814453125E+0003  -2.81268090820313E+0003  -2.81278808593750E+0003  -2.81290502929688E+0003  -2.81301586914063E+0003  -2.81310546875000E+0003  -2.81315698242188E+0003  -2.81315307617188E+0003  -2.81307617187500E+0003  -2.81291040039063E+0003  -2.81264697265625E+0003  -2.81221826171875E+0003  -2.81166967773438E+0003  -2.81090722656250E+0003  -2.81009521484375E+0003  -2.80934619140625E+0003  -2.80874707031250E+0003  -2.80837524414063E+0003  -2.80828198242188E+0003  -2.80848901367188E+0003  -2.80897143554688E+0003  -2.80967260742188E+0003  -2.81049072265625E+0003  -2.81127441406250E+0003  -2.81202124023438E+0003  -2.81268383789063E+0003  -2.81326611328125E+0003  -2.81378417968750E+0003  -2.81425048828125E+0003  -2.81467089843750E+0003  -2.81504589843750E+0003  -2.81536743164063E+0003  -2.81563793945313E+0003  -2.81585766601563E+0003  -2.81603686523438E+0003  -2.81618164062500E+0003  -2.81631005859375E+0003  -2.81642358398438E+0003  -2.81653735351563E+0003  -2.81665844726563E+0003  -2.81679663085938E+0003  -2.81695556640625E+0003  -2.81713085937500E+0003  -2.81731860351563E+0003  -2.81751562500000E+0003  -2.81772143554688E+0003  -2.81792749023438E+0003  -2.81813696289063E+0003  -2.81834350585938E+0003  -2.81854443359375E+0003  -2.81874267578125E+0003  -2.81893847656250E+0003  -2.81912817382813E+0003  -2.81931518554688E+0003  -2.81949804687500E+0003  -2.81967773437500E+0003
  -2.83857714843750E+0003  -2.83839550781250E+0003  -2.83818920898438E+0003  -2.83795922851563E+0003  -2.83770629882813E+0003  -2.83743090820313E+0003  -2.83713427734375E+0003  -2.83681640625000E+0003  -2.83647436523438E+0003  -2.83610302734375E+0003  -2.83569897460938E+0003  -2.83525708007813E+0003  -2.83477343750000E+0003  -2.83424340820313E+0003  -2.83366308593750E+0003  -2.83303100585938E+0003  -2.83235449218750E+0003  -2.83164282226563E+0003  -2.83090478515625E+0003  -2.83014965820313E+0003  -2.82938867187500E+0003  -2.82863305664063E+0003  -2.82789331054688E+0003  -2.82717944335938E+0003  -2.82649877929688E+0003  -2.82585791015625E+0003  -2.82526391601563E+0003  -2.82472778320313E+0003  -2.82426586914063E+0003  -2.82389501953125E+0003  -2.82363208007813E+0003  -2.82347045898438E+0003  -2.82337768554688E+0003  -2.82332055664063E+0003  -2.82326538085938E+0003  -2.82318579101563E+0003  -2.82306030273438E+0003  -2.82287231445313E+0003  -2.82252563476563E+0003  -2.82203344726563E+0003  -2.82151757812500E+0003  -2.82098779296875E+0003  -2.82043310546875E+0003  -2.81983764648438E+0003  -2.81916113281250E+0003  -2.81837158203125E+0003  -2.81739013671875E+0003  -2.81629248046875E+0003  -2.81527001953125E+0003  -2.81442358398438E+0003  -2.81386596679688E+0003  -2.81357958984375E+0003  -2.81350634765625E+0003  -2.81358569335938E+0003  -2.81376318359375E+0003  -2.81400488281250E+0003  -2.81428320312500E+0003  -2.81457055664063E+0003  -2.81483764648438E+0003  -2.81504663085938E+0003  -2.81515673828125E+0003  -2.81512524414063E+0003  -2.81491601562500E+0003  -2.81453271484375E+0003  -2.81392797851563E+0003  -2.81312719726563E+0003  -2.81221826171875E+0003  -2.81130590820313E+0003  -2.81048510742188E+0003  -2.80982495117188E+0003  -2.80905957031250E+0003  -2.80850927734375E+0003  -2.80898901367188E+0003  -2.80963842773438E+0003  -2.81012573242188E+0003  -2.81061279296875E+0003  -2.81110546875000E+0003  -2.81166577148438E+0003  -2.81224096679688E+0003  -2.81266406250000E+0003  -2.81287231445313E+0003  -2.81290039062500E+0003  -2.81279223632813E+0003  -2.81259545898438E+0003  -2.81235229492188E+0003  -2.81210693359375E+0003  -2.81187915039063E+0003  -2.81169677734375E+0003  -2.81157031250000E+0003  -2.81152099609375E+0003  -2.81162280273438E+0003  -2.81197851562500E+0003  -2.81265722656250E+0003  -2.81375659179688E+0003  -2.81514013671875E+0003  -2.81657055664063E+0003  -2.81775341796875E+0003  -2.81843481445313E+0003  -2.81868774414063E+0003  -2.81867700195313E+0003  -2.81854418945313E+0003  -2.81839575195313E+0003  -2.81823266601563E+0003  -2.81803295898438E+0003  -2.81778320312500E+0003  -2.81746508789063E+0003  -2.81702514648438E+0003  -2.81638940429688E+0003  -2.81550854492188E+0003  -2.81435546875000E+0003  -2.81297973632813E+0003  -2.81146850585938E+0003  -2.80981909179688E+0003  -2.80816284179688E+0003  -2.80666186523438E+0003  -2.80545068359375E+0003  -2.80466284179688E+0003  -2.80434667968750E+0003  -2.80442944335938E+0003  -2.80480590820313E+0003  -2.80530493164063E+0003  -2.80594384765625E+0003  -2.80663134765625E+0003  -2.80727172851563E+0003  -2.80777026367188E+0003  -2.80807617187500E+0003  -2.80817065429688E+0003  -2.80805004882813E+0003  -2.80768554687500E+0003  -2.80712475585938E+0003  -2.80644384765625E+0003  -2.80572387695313E+0003  -2.80503076171875E+0003  -2.80439868164063E+0003  -2.80383276367188E+0003  -2.80335009765625E+0003  -2.80295214843750E+0003  -2.80261523437500E+0003  -2.80239184570313E+0003  -2.80229687500000E+0003  -2.80234057617188E+0003  -2.80250830078125E+0003  -2.80277709960938E+0003  -2.80312426757813E+0003  -2.80352978515625E+0003  -2.80398632812500E+0003  -2.80448974609375E+0003  -2.80503588867188E+0003  -2.80555224609375E+0003  -2.80605566406250E+0003  -2.80654858398438E+0003  -2.80697656250000E+0003  -2.80738720703125E+0003  -2.80778393554688E+0003  -2.80817602539063E+0003  -2.80856982421875E+0003  -2.80897216796875E+0003  -2.80938037109375E+0003  -2.80979199218750E+0003  -2.81019409179688E+0003  -2.81058203125000E+0003  -2.81098046875000E+0003  -2.81133984375000E+0003  -2.81162377929688E+0003  -2.81187426757813E+0003  -2.81209643554688E+0003  -2.81228027343750E+0003  -2.81244165039063E+0003  -2.81249072265625E+0003  -2.81242651367188E+0003  -2.81238256835938E+0003  -2.81231787109375E+0003  -2.81225463867188E+0003  -2.81220214843750E+0003  -2.81216137695313E+0003  -2.81213061523438E+0003  -2.81209887695313E+0003  -2.81211254882813E+0003  -2.81216625976563E+0003  -2.81227026367188E+0003  -2.81241259765625E+0003  -2.81257128906250E+0003  -2.81272485351563E+0003  -2.81285131835938E+0003  -2.81293164062500E+0003  -2.81294628906250E+0003  -2.81287646484375E+0003  -2.81270214843750E+0003  -2.81241210937500E+0003  -2.81199609375000E+0003  -2.81143066406250E+0003  -2.81064428710938E+0003  -2.80975170898438E+0003  -2.80884741210938E+0003  -2.80805859375000E+0003  -2.80747192382813E+0003  -2.80720800781250E+0003  -2.80733447265625E+0003  -2.80779980468750E+0003  -2.80847338867188E+0003  -2.80926684570313E+0003  -2.81008862304688E+0003  -2.81084765625000E+0003  -2.81149609375000E+0003  -2.81205590820313E+0003  -2.81255053710938E+0003  -2.81300292968750E+0003  -2.81342895507813E+0003  -2.81382153320313E+0003  -2.81417602539063E+0003  -2.81448291015625E+0003  -2.81474462890625E+0003  -2.81496948242188E+0003  -2.81516381835938E+0003  -2.81533837890625E+0003  -2.81549780273438E+0003  -2.81565478515625E+0003  -2.81581591796875E+0003  -2.81599047851563E+0003  -2.81617797851563E+0003  -2.81637915039063E+0003  -2.81658959960938E+0003  -2.81680517578125E+0003  -2.81702636718750E+0003  -2.81724780273438E+0003  -2.81747167968750E+0003  -2.81769067382813E+0003  -2.81790698242188E+0003  -2.81811938476563E+0003  -2.81832666015625E+0003  -2.81853173828125E+0003  -2.81873144531250E+0003  -2.81892602539063E+0003  -2.81911645507813E+0003
  -2.83774047851563E+0003  -2.83753515625000E+0003  -2.83730444335938E+0003  -2.83704980468750E+0003  -2.83677099609375E+0003  -2.83646997070313E+0003  -2.83614624023438E+0003  -2.83580053710938E+0003  -2.83542919921875E+0003  -2.83502661132813E+0003  -2.83458886718750E+0003  -2.83411035156250E+0003  -2.83358642578125E+0003  -2.83301196289063E+0003  -2.83238256835938E+0003  -2.83169604492188E+0003  -2.83096191406250E+0003  -2.83019140625000E+0003  -2.82939550781250E+0003  -2.82858666992188E+0003  -2.82777978515625E+0003  -2.82699121093750E+0003  -2.82623583984375E+0003  -2.82552734375000E+0003  -2.82487573242188E+0003  -2.82429003906250E+0003  -2.82377978515625E+0003  -2.82335253906250E+0003  -2.82301220703125E+0003  -2.82276318359375E+0003  -2.82260839843750E+0003  -2.82253491210938E+0003  -2.82250903320313E+0003  -2.82249755859375E+0003  -2.82246215820313E+0003  -2.82238549804688E+0003  -2.82225219726563E+0003  -2.82204809570313E+0003  -2.82176147460938E+0003  -2.82128271484375E+0003  -2.82077124023438E+0003  -2.82024487304688E+0003  -2.81970947265625E+0003  -2.81914331054688E+0003  -2.81851245117188E+0003  -2.81770605468750E+0003  -2.81673754882813E+0003  -2.81572265625000E+0003  -2.81474829101563E+0003  -2.81394384765625E+0003  -2.81340600585938E+0003  -2.81312426757813E+0003  -2.81304956054688E+0003  -2.81312792968750E+0003  -2.81330786132813E+0003  -2.81355297851563E+0003  -2.81383129882813E+0003  -2.81410937500000E+0003  -2.81435498046875E+0003  -2.81453564453125E+0003  -2.81461914062500E+0003  -2.81457226562500E+0003  -2.81436791992188E+0003  -2.81399682617188E+0003  -2.81345605468750E+0003  -2.81275341796875E+0003  -2.81192822265625E+0003  -2.81107934570313E+0003  -2.81028735351563E+0003  -2.80956909179688E+0003  -2.80891381835938E+0003  -2.80867187500000E+0003  -2.80905273437500E+0003  -2.80954321289063E+0003  -2.81001318359375E+0003  -2.81046704101563E+0003  -2.81087353515625E+0003  -2.81122045898438E+0003  -2.81148828125000E+0003  -2.81164990234375E+0003  -2.81170214843750E+0003  -2.81166528320313E+0003  -2.81156103515625E+0003  -2.81141552734375E+0003  -2.81125952148438E+0003  -2.81111840820313E+0003  -2.81101293945313E+0003  -2.81095068359375E+0003  -2.81096582031250E+0003  -2.81107275390625E+0003  -2.81132836914063E+0003  -2.81175683593750E+0003  -2.81248608398438E+0003  -2.81357446289063E+0003  -2.81490209960938E+0003  -2.81626464843750E+0003  -2.81740039062500E+0003  -2.81807885742188E+0003  -2.81836572265625E+0003  -2.81840039062500E+0003  -2.81830908203125E+0003  -2.81818432617188E+0003  -2.81802832031250E+0003  -2.81781762695313E+0003  -2.81755371093750E+0003  -2.81722119140625E+0003  -2.81677001953125E+0003  -2.81613012695313E+0003  -2.81525317382813E+0003  -2.81413623046875E+0003  -2.81282836914063E+0003  -2.81140161132813E+0003  -2.80992553710938E+0003  -2.80848535156250E+0003  -2.80715600585938E+0003  -2.80605517578125E+0003  -2.80534106445313E+0003  -2.80497656250000E+0003  -2.80493896484375E+0003  -2.80517456054688E+0003  -2.80561132812500E+0003  -2.80618115234375E+0003  -2.80679296875000E+0003  -2.80736401367188E+0003  -2.80780664062500E+0003  -2.80807202148438E+0003  -2.80814624023438E+0003  -2.80801293945313E+0003  -2.80766040039063E+0003  -2.80712451171875E+0003  -2.80647656250000E+0003  -2.80578662109375E+0003  -2.80511767578125E+0003  -2.80450341796875E+0003  -2.80395068359375E+0003  -2.80347509765625E+0003  -2.80308178710938E+0003  -2.80274829101563E+0003  -2.80251147460938E+0003  -2.80240283203125E+0003  -2.80243286132813E+0003  -2.80258691406250E+0003  -2.80284277343750E+0003  -2.80317749023438E+0003  -2.80357153320313E+0003  -2.80401831054688E+0003  -2.80451342773438E+0003  -2.80505297851563E+0003  -2.80563330078125E+0003  -2.80625000000000E+0003  -2.80675195312500E+0003  -2.80723071289063E+0003  -2.80767578125000E+0003  -2.80809008789063E+0003  -2.80847998046875E+0003  -2.80885742187500E+0003  -2.80922607421875E+0003  -2.80958300781250E+0003  -2.80993457031250E+0003  -2.81026684570313E+0003  -2.81058056640625E+0003  -2.81091284179688E+0003  -2.81120605468750E+0003  -2.81144042968750E+0003  -2.81165161132813E+0003  -2.81183471679688E+0003  -2.81199389648438E+0003  -2.81213647460938E+0003  -2.81214428710938E+0003  -2.81207958984375E+0003  -2.81203564453125E+0003  -2.81196728515625E+0003  -2.81189648437500E+0003  -2.81183251953125E+0003  -2.81177612304688E+0003  -2.81172534179688E+0003  -2.81169042968750E+0003  -2.81168188476563E+0003  -2.81172875976563E+0003  -2.81185327148438E+0003  -2.81203271484375E+0003  -2.81223681640625E+0003  -2.81243676757813E+0003  -2.81260449218750E+0003  -2.81272070312500E+0003  -2.81275878906250E+0003  -2.81270117187500E+0003  -2.81252807617188E+0003  -2.81222338867188E+0003  -2.81177319335938E+0003  -2.81116162109375E+0003  -2.81039770507813E+0003  -2.80947534179688E+0003  -2.80850634765625E+0003  -2.80758496093750E+0003  -2.80680688476563E+0003  -2.80635986328125E+0003  -2.80636938476563E+0003  -2.80675903320313E+0003  -2.80741503906250E+0003  -2.80820898437500E+0003  -2.80902001953125E+0003  -2.80975683593750E+0003  -2.81037158203125E+0003  -2.81089477539063E+0003  -2.81135815429688E+0003  -2.81179418945313E+0003  -2.81221826171875E+0003  -2.81262158203125E+0003  -2.81299780273438E+0003  -2.81333520507813E+0003  -2.81363378906250E+0003  -2.81390307617188E+0003  -2.81414062500000E+0003  -2.81436401367188E+0003  -2.81457080078125E+0003  -2.81477465820313E+0003  -2.81497900390625E+0003  -2.81518969726563E+0003  -2.81541064453125E+0003  -2.81563647460938E+0003  -2.81586914062500E+0003  -2.81610498046875E+0003  -2.81634228515625E+0003  -2.81657958984375E+0003  -2.81681542968750E+0003  -2.81704980468750E+0003  -2.81728173828125E+0003  -2.81750683593750E+0003  -2.81772827148438E+0003  -2.81794628906250E+0003  -2.81815844726563E+0003  -2.81836547851563E+0003  -2.81856860351563E+0003
  -2.83690698242188E+0003  -2.83667846679688E+0003  -2.83642431640625E+0003  -2.83614501953125E+0003  -2.83584155273438E+0003  -2.83551464843750E+0003  -2.83516479492188E+0003  -2.83479223632813E+0003  -2.83439257812500E+0003  -2.83396044921875E+0003  -2.83349072265625E+0003  -2.83297729492188E+0003  -2.83241601562500E+0003  -2.83179882812500E+0003  -2.83112182617188E+0003  -2.83038330078125E+0003  -2.82959375000000E+0003  -2.82876611328125E+0003  -2.82791308593750E+0003  -2.82704931640625E+0003  -2.82619482421875E+0003  -2.82536987304688E+0003  -2.82459472656250E+0003  -2.82388720703125E+0003  -2.82326147460938E+0003  -2.82273071289063E+0003  -2.82230810546875E+0003  -2.82199731445313E+0003  -2.82178979492188E+0003  -2.82167626953125E+0003  -2.82164575195313E+0003  -2.82167651367188E+0003  -2.82173266601563E+0003  -2.82177734375000E+0003  -2.82176220703125E+0003  -2.82168847656250E+0003  -2.82154101562500E+0003  -2.82131396484375E+0003  -2.82100195312500E+0003  -2.82061206054688E+0003  -2.82011206054688E+0003  -2.81959838867188E+0003  -2.81908447265625E+0003  -2.81853320312500E+0003  -2.81786889648438E+0003  -2.81709985351563E+0003  -2.81621582031250E+0003  -2.81526708984375E+0003  -2.81436230468750E+0003  -2.81360620117188E+0003  -2.81309106445313E+0003  -2.81281542968750E+0003  -2.81274072265625E+0003  -2.81281713867188E+0003  -2.81299487304688E+0003  -2.81323486328125E+0003  -2.81350146484375E+0003  -2.81375659179688E+0003  -2.81396508789063E+0003  -2.81410424804688E+0003  -2.81415258789063E+0003  -2.81408862304688E+0003  -2.81389550781250E+0003  -2.81356787109375E+0003  -2.81310253906250E+0003  -2.81250024414063E+0003  -2.81179077148438E+0003  -2.81105834960938E+0003  -2.81038305664063E+0003  -2.80982324218750E+0003  -2.80944506835938E+0003  -2.80934130859375E+0003  -2.80951586914063E+0003  -2.80982421875000E+0003  -2.81016455078125E+0003  -2.81048535156250E+0003  -2.81074169921875E+0003  -2.81089501953125E+0003  -2.81093750000000E+0003  -2.81089184570313E+0003  -2.81078344726563E+0003  -2.81063647460938E+0003  -2.81047314453125E+0003  -2.81031762695313E+0003  -2.81019140625000E+0003  -2.81011425781250E+0003  -2.81010107421875E+0003  -2.81015747070313E+0003  -2.81030346679688E+0003  -2.81055346679688E+0003  -2.81090234375000E+0003  -2.81140820312500E+0003  -2.81216650390625E+0003  -2.81321508789063E+0003  -2.81444750976563E+0003  -2.81569091796875E+0003  -2.81674096679688E+0003  -2.81742456054688E+0003  -2.81777856445313E+0003  -2.81790551757813E+0003  -2.81789575195313E+0003  -2.81781884765625E+0003  -2.81768041992188E+0003  -2.81747534179688E+0003  -2.81719750976563E+0003  -2.81684423828125E+0003  -2.81637329101563E+0003  -2.81572729492188E+0003  -2.81487207031250E+0003  -2.81380908203125E+0003  -2.81258862304688E+0003  -2.81127294921875E+0003  -2.80993261718750E+0003  -2.80864038085938E+0003  -2.80747338867188E+0003  -2.80651684570313E+0003  -2.80586401367188E+0003  -2.80553295898438E+0003  -2.80548388671875E+0003  -2.80566528320313E+0003  -2.80602050781250E+0003  -2.80648364257813E+0003  -2.80698681640625E+0003  -2.80745092773438E+0003  -2.80780639648438E+0003  -2.80800781250000E+0003  -2.80804321289063E+0003  -2.80789794921875E+0003  -2.80756127929688E+0003  -2.80706494140625E+0003  -2.80646655273438E+0003  -2.80582812500000E+0003  -2.80520507812500E+0003  -2.80462475585938E+0003  -2.80409887695313E+0003  -2.80363916015625E+0003  -2.80325927734375E+0003  -2.80295190429688E+0003  -2.80270166015625E+0003  -2.80257519531250E+0003  -2.80258251953125E+0003  -2.80271166992188E+0003  -2.80294213867188E+0003  -2.80325390625000E+0003  -2.80362915039063E+0003  -2.80406176757813E+0003  -2.80454833984375E+0003  -2.80508520507813E+0003  -2.80566870117188E+0003  -2.80629467773438E+0003  -2.80692480468750E+0003  -2.80743432617188E+0003  -2.80790527343750E+0003  -2.80833984375000E+0003  -2.80873779296875E+0003  -2.80910717773438E+0003  -2.80944775390625E+0003  -2.80976342773438E+0003  -2.81005737304688E+0003  -2.81032739257813E+0003  -2.81058154296875E+0003  -2.81082348632813E+0003  -2.81104931640625E+0003  -2.81123950195313E+0003  -2.81140893554688E+0003  -2.81155590820313E+0003  -2.81168676757813E+0003  -2.81181347656250E+0003  -2.81179150390625E+0003  -2.81173095703125E+0003  -2.81169213867188E+0003  -2.81162866210938E+0003  -2.81155932617188E+0003  -2.81148950195313E+0003  -2.81141967773438E+0003  -2.81134814453125E+0003  -2.81129101562500E+0003  -2.81127514648438E+0003  -2.81132861328125E+0003  -2.81146923828125E+0003  -2.81168115234375E+0003  -2.81192529296875E+0003  -2.81216528320313E+0003  -2.81236718750000E+0003  -2.81250756835938E+0003  -2.81256738281250E+0003  -2.81252465820313E+0003  -2.81235815429688E+0003  -2.81205541992188E+0003  -2.81160449218750E+0003  -2.81099511718750E+0003  -2.81022949218750E+0003  -2.80937109375000E+0003  -2.80847094726563E+0003  -2.80747656250000E+0003  -2.80657299804688E+0003  -2.80598950195313E+0003  -2.80588403320313E+0003  -2.80616992187500E+0003  -2.80671948242188E+0003  -2.80740771484375E+0003  -2.80811621093750E+0003  -2.80876098632813E+0003  -2.80930590820313E+0003  -2.80977539062500E+0003  -2.81020166015625E+0003  -2.81061474609375E+0003  -2.81102954101563E+0003  -2.81144140625000E+0003  -2.81183349609375E+0003  -2.81219873046875E+0003  -2.81253369140625E+0003  -2.81284106445313E+0003  -2.81312744140625E+0003  -2.81339819335938E+0003  -2.81365625000000E+0003  -2.81390649414063E+0003  -2.81415454101563E+0003  -2.81440307617188E+0003  -2.81465502929688E+0003  -2.81490942382813E+0003  -2.81516333007813E+0003  -2.81541723632813E+0003  -2.81567211914063E+0003  -2.81592553710938E+0003  -2.81617724609375E+0003  -2.81642456054688E+0003  -2.81666845703125E+0003  -2.81690820312500E+0003  -2.81714355468750E+0003  -2.81737207031250E+0003  -2.81759838867188E+0003  -2.81781762695313E+0003  -2.81803002929688E+0003
  -2.83607958984375E+0003  -2.83582861328125E+0003  -2.83555151367188E+0003  -2.83524853515625E+0003  -2.83492114257813E+0003  -2.83456982421875E+0003  -2.83419677734375E+0003  -2.83379882812500E+0003  -2.83337280273438E+0003  -2.83291284179688E+0003  -2.83241308593750E+0003  -2.83186718750000E+0003  -2.83126928710938E+0003  -2.83061328125000E+0003  -2.82989331054688E+0003  -2.82910766601563E+0003  -2.82826757812500E+0003  -2.82738647460938E+0003  -2.82647851562500E+0003  -2.82556005859375E+0003  -2.82465551757813E+0003  -2.82379028320313E+0003  -2.82298950195313E+0003  -2.82228344726563E+0003  -2.82172436523438E+0003  -2.82125976562500E+0003  -2.82090112304688E+0003  -2.82065820312500E+0003  -2.82059008789063E+0003  -2.82062231445313E+0003  -2.82073144531250E+0003  -2.82088476562500E+0003  -2.82104028320313E+0003  -2.82115454101563E+0003  -2.82116528320313E+0003  -2.82109326171875E+0003  -2.82092504882813E+0003  -2.82066625976563E+0003  -2.82032153320313E+0003  -2.81990576171875E+0003  -2.81943847656250E+0003  -2.81893896484375E+0003  -2.81842504882813E+0003  -2.81788183593750E+0003  -2.81728100585938E+0003  -2.81658105468750E+0003  -2.81576342773438E+0003  -2.81488623046875E+0003  -2.81404418945313E+0003  -2.81333886718750E+0003  -2.81285815429688E+0003  -2.81260156250000E+0003  -2.81254003906250E+0003  -2.81262500000000E+0003  -2.81280493164063E+0003  -2.81303930664063E+0003  -2.81329052734375E+0003  -2.81351733398438E+0003  -2.81368432617188E+0003  -2.81377905273438E+0003  -2.81379296875000E+0003  -2.81371801757813E+0003  -2.81354638671875E+0003  -2.81327270507813E+0003  -2.81289111328125E+0003  -2.81239624023438E+0003  -2.81180932617188E+0003  -2.81120703125000E+0003  -2.81066943359375E+0003  -2.81027172851563E+0003  -2.81005834960938E+0003  -2.81002514648438E+0003  -2.81013549804688E+0003  -2.81031176757813E+0003  -2.81049145507813E+0003  -2.81063134765625E+0003  -2.81069311523438E+0003  -2.81064013671875E+0003  -2.81047363281250E+0003  -2.81023217773438E+0003  -2.80995458984375E+0003  -2.80967553710938E+0003  -2.80943017578125E+0003  -2.80923706054688E+0003  -2.80911499023438E+0003  -2.80908178710938E+0003  -2.80914575195313E+0003  -2.80930957031250E+0003  -2.80956713867188E+0003  -2.80993823242188E+0003  -2.81034106445313E+0003  -2.81090136718750E+0003  -2.81166796875000E+0003  -2.81266284179688E+0003  -2.81379248046875E+0003  -2.81492456054688E+0003  -2.81590185546875E+0003  -2.81660327148438E+0003  -2.81704321289063E+0003  -2.81728002929688E+0003  -2.81737280273438E+0003  -2.81736328125000E+0003  -2.81725878906250E+0003  -2.81706323242188E+0003  -2.81677490234375E+0003  -2.81640161132813E+0003  -2.81590380859375E+0003  -2.81525000000000E+0003  -2.81441064453125E+0003  -2.81340405273438E+0003  -2.81227490234375E+0003  -2.81108520507813E+0003  -2.80989746093750E+0003  -2.80878173828125E+0003  -2.80779077148438E+0003  -2.80699291992188E+0003  -2.80644531250000E+0003  -2.80616333007813E+0003  -2.80611157226563E+0003  -2.80623974609375E+0003  -2.80650488281250E+0003  -2.80684863281250E+0003  -2.80721801757813E+0003  -2.80755297851563E+0003  -2.80779736328125E+0003  -2.80791967773438E+0003  -2.80790161132813E+0003  -2.80773950195313E+0003  -2.80742041015625E+0003  -2.80697094726563E+0003  -2.80643627929688E+0003  -2.80586376953125E+0003  -2.80529760742188E+0003  -2.80476562500000E+0003  -2.80427343750000E+0003  -2.80384106445313E+0003  -2.80347436523438E+0003  -2.80319140625000E+0003  -2.80294604492188E+0003  -2.80279833984375E+0003  -2.80277734375000E+0003  -2.80287329101563E+0003  -2.80306933593750E+0003  -2.80334985351563E+0003  -2.80370043945313E+0003  -2.80411645507813E+0003  -2.80459497070313E+0003  -2.80513330078125E+0003  -2.80572778320313E+0003  -2.80637011718750E+0003  -2.80704296875000E+0003  -2.80758251953125E+0003  -2.80808618164063E+0003  -2.80854711914063E+0003  -2.80896362304688E+0003  -2.80932934570313E+0003  -2.80964868164063E+0003  -2.80992504882813E+0003  -2.81017065429688E+0003  -2.81038452148438E+0003  -2.81057421875000E+0003  -2.81073999023438E+0003  -2.81088964843750E+0003  -2.81103051757813E+0003  -2.81114672851563E+0003  -2.81124926757813E+0003  -2.81135205078125E+0003  -2.81146386718750E+0003  -2.81143359375000E+0003  -2.81138476562500E+0003  -2.81136035156250E+0003  -2.81131103515625E+0003  -2.81125146484375E+0003  -2.81118383789063E+0003  -2.81110644531250E+0003  -2.81101782226563E+0003  -2.81093920898438E+0003  -2.81090551757813E+0003  -2.81095410156250E+0003  -2.81111181640625E+0003  -2.81135546875000E+0003  -2.81163427734375E+0003  -2.81190405273438E+0003  -2.81212817382813E+0003  -2.81232177734375E+0003  -2.81239843750000E+0003  -2.81236865234375E+0003  -2.81221362304688E+0003  -2.81192993164063E+0003  -2.81147680664063E+0003  -2.81094506835938E+0003  -2.81029760742188E+0003  -2.80956665039063E+0003  -2.80878125000000E+0003  -2.80796484375000E+0003  -2.80716162109375E+0003  -2.80649047851563E+0003  -2.80620312500000E+0003  -2.80624243164063E+0003  -2.80652832031250E+0003  -2.80695336914063E+0003  -2.80742333984375E+0003  -2.80788183593750E+0003  -2.80829833984375E+0003  -2.80868750000000E+0003  -2.80906958007813E+0003  -2.80946069335938E+0003  -2.80986767578125E+0003  -2.81028271484375E+0003  -2.81068994140625E+0003  -2.81108154296875E+0003  -2.81145092773438E+0003  -2.81180004882813E+0003  -2.81213330078125E+0003  -2.81245166015625E+0003  -2.81275927734375E+0003  -2.81305615234375E+0003  -2.81334838867188E+0003  -2.81363500976563E+0003  -2.81391845703125E+0003  -2.81419995117188E+0003  -2.81447705078125E+0003  -2.81475097656250E+0003  -2.81502148437500E+0003  -2.81528735351563E+0003  -2.81555297851563E+0003  -2.81581445312500E+0003  -2.81607128906250E+0003  -2.81632446289063E+0003  -2.81657373046875E+0003  -2.81681567382813E+0003  -2.81705249023438E+0003  -2.81728295898438E+0003  -2.81750634765625E+0003
  -2.83526196289063E+0003  -2.83498974609375E+0003  -2.83469067382813E+0003  -2.83436572265625E+0003  -2.83401611328125E+0003  -2.83364160156250E+0003  -2.83324389648438E+0003  -2.83282226562500E+0003  -2.83237182617188E+0003  -2.83188647460938E+0003  -2.83135937500000E+0003  -2.83078466796875E+0003  -2.83015576171875E+0003  -2.82946630859375E+0003  -2.82870947265625E+0003  -2.82788330078125E+0003  -2.82700000000000E+0003  -2.82607299804688E+0003  -2.82511596679688E+0003  -2.82414721679688E+0003  -2.82319555664063E+0003  -2.82233544921875E+0003  -2.82158911132813E+0003  -2.82092285156250E+0003  -2.82035546875000E+0003  -2.81990551757813E+0003  -2.81959008789063E+0003  -2.81940527343750E+0003  -2.81943139648438E+0003  -2.81960791015625E+0003  -2.81985864257813E+0003  -2.82014111328125E+0003  -2.82040356445313E+0003  -2.82059375000000E+0003  -2.82063281250000E+0003  -2.82055908203125E+0003  -2.82036450195313E+0003  -2.82006713867188E+0003  -2.81968432617188E+0003  -2.81923828125000E+0003  -2.81875463867188E+0003  -2.81825805664063E+0003  -2.81777246093750E+0003  -2.81727734375000E+0003  -2.81673437500000E+0003  -2.81610229492188E+0003  -2.81535083007813E+0003  -2.81453637695313E+0003  -2.81375341796875E+0003  -2.81310205078125E+0003  -2.81267089843750E+0003  -2.81245214843750E+0003  -2.81242163085938E+0003  -2.81252807617188E+0003  -2.81271752929688E+0003  -2.81294921875000E+0003  -2.81318457031250E+0003  -2.81338159179688E+0003  -2.81350732421875E+0003  -2.81356005859375E+0003  -2.81354394531250E+0003  -2.81346435546875E+0003  -2.81332226562500E+0003  -2.81310961914063E+0003  -2.81281494140625E+0003  -2.81242480468750E+0003  -2.81195312500000E+0003  -2.81147045898438E+0003  -2.81105444335938E+0003  -2.81078247070313E+0003  -2.81068359375000E+0003  -2.81070898437500E+0003  -2.81079711914063E+0003  -2.81087866210938E+0003  -2.81090380859375E+0003  -2.81084912109375E+0003  -2.81069262695313E+0003  -2.81041479492188E+0003  -2.81003051757813E+0003  -2.80958959960938E+0003  -2.80913574218750E+0003  -2.80872656250000E+0003  -2.80839477539063E+0003  -2.80815820312500E+0003  -2.80803320312500E+0003  -2.80803564453125E+0003  -2.80816625976563E+0003  -2.80841723632813E+0003  -2.80877441406250E+0003  -2.80922290039063E+0003  -2.80966894531250E+0003  -2.81025805664063E+0003  -2.81101831054688E+0003  -2.81195434570313E+0003  -2.81300024414063E+0003  -2.81404370117188E+0003  -2.81498095703125E+0003  -2.81571801757813E+0003  -2.81625122070313E+0003  -2.81660595703125E+0003  -2.81680590820313E+0003  -2.81687866210938E+0003  -2.81682324218750E+0003  -2.81664575195313E+0003  -2.81635400390625E+0003  -2.81595581054688E+0003  -2.81542651367188E+0003  -2.81475292968750E+0003  -2.81392211914063E+0003  -2.81295874023438E+0003  -2.81190771484375E+0003  -2.81083520507813E+0003  -2.80980859375000E+0003  -2.80887841796875E+0003  -2.80808520507813E+0003  -2.80745898437500E+0003  -2.80703735351563E+0003  -2.80682104492188E+0003  -2.80677709960938E+0003  -2.80686352539063E+0003  -2.80703881835938E+0003  -2.80726025390625E+0003  -2.80748754882813E+0003  -2.80768090820313E+0003  -2.80780371093750E+0003  -2.80783300781250E+0003  -2.80775854492188E+0003  -2.80757470703125E+0003  -2.80727368164063E+0003  -2.80687329101563E+0003  -2.80640527343750E+0003  -2.80590185546875E+0003  -2.80540136718750E+0003  -2.80492138671875E+0003  -2.80447167968750E+0003  -2.80406469726563E+0003  -2.80371923828125E+0003  -2.80344213867188E+0003  -2.80322705078125E+0003  -2.80305615234375E+0003  -2.80300195312500E+0003  -2.80305883789063E+0003  -2.80321484375000E+0003  -2.80345874023438E+0003  -2.80378100585938E+0003  -2.80417822265625E+0003  -2.80464916992188E+0003  -2.80519238281250E+0003  -2.80580419921875E+0003  -2.80647143554688E+0003  -2.80712036132813E+0003  -2.80769335937500E+0003  -2.80823388671875E+0003  -2.80872729492188E+0003  -2.80916577148438E+0003  -2.80953881835938E+0003  -2.80983911132813E+0003  -2.81008691406250E+0003  -2.81028271484375E+0003  -2.81044042968750E+0003  -2.81056860351563E+0003  -2.81067041015625E+0003  -2.81074829101563E+0003  -2.81081640625000E+0003  -2.81087426757813E+0003  -2.81093115234375E+0003  -2.81099902343750E+0003  -2.81109643554688E+0003  -2.81108666992188E+0003  -2.81105786132813E+0003  -2.81105639648438E+0003  -2.81103002929688E+0003  -2.81098852539063E+0003  -2.81093188476563E+0003  -2.81085693359375E+0003  -2.81076049804688E+0003  -2.81066845703125E+0003  -2.81062280273438E+0003  -2.81066967773438E+0003  -2.81084521484375E+0003  -2.81111596679688E+0003  -2.81141943359375E+0003  -2.81172192382813E+0003  -2.81196142578125E+0003  -2.81211889648438E+0003  -2.81218701171875E+0003  -2.81215112304688E+0003  -2.81200146484375E+0003  -2.81175048828125E+0003  -2.81141699218750E+0003  -2.81100878906250E+0003  -2.81054687500000E+0003  -2.81006225585938E+0003  -2.80952050781250E+0003  -2.80889697265625E+0003  -2.80820629882813E+0003  -2.80758056640625E+0003  -2.80714086914063E+0003  -2.80687158203125E+0003  -2.80674853515625E+0003  -2.80677026367188E+0003  -2.80689160156250E+0003  -2.80708496093750E+0003  -2.80732763671875E+0003  -2.80761499023438E+0003  -2.80794580078125E+0003  -2.80831665039063E+0003  -2.80871948242188E+0003  -2.80914477539063E+0003  -2.80957324218750E+0003  -2.80999414062500E+0003  -2.81039990234375E+0003  -2.81079150390625E+0003  -2.81117089843750E+0003  -2.81153637695313E+0003  -2.81189111328125E+0003  -2.81223583984375E+0003  -2.81256909179688E+0003  -2.81289306640625E+0003  -2.81320800781250E+0003  -2.81351269531250E+0003  -2.81381250000000E+0003  -2.81410400390625E+0003  -2.81439013671875E+0003  -2.81467236328125E+0003  -2.81494995117188E+0003  -2.81522143554688E+0003  -2.81549291992188E+0003  -2.81575805664063E+0003  -2.81601806640625E+0003  -2.81627368164063E+0003  -2.81652246093750E+0003  -2.81676318359375E+0003  -2.81699731445313E+0003
  -2.83445214843750E+0003  -2.83416015625000E+0003  -2.83384106445313E+0003  -2.83349584960938E+0003  -2.83312524414063E+0003  -2.83272998046875E+0003  -2.83231079101563E+0003  -2.83186791992188E+0003  -2.83139575195313E+0003  -2.83088793945313E+0003  -2.83033764648438E+0003  -2.82973901367188E+0003  -2.82908422851563E+0003  -2.82836743164063E+0003  -2.82758178710938E+0003  -2.82672509765625E+0003  -2.82580981445313E+0003  -2.82484765625000E+0003  -2.82385375976563E+0003  -2.82284692382813E+0003  -2.82196777343750E+0003  -2.82113110351563E+0003  -2.82035791015625E+0003  -2.81967260742188E+0003  -2.81910034179688E+0003  -2.81866528320313E+0003  -2.81839038085938E+0003  -2.81827148437500E+0003  -2.81835815429688E+0003  -2.81865625000000E+0003  -2.81902709960938E+0003  -2.81941918945313E+0003  -2.81977343750000E+0003  -2.82002832031250E+0003  -2.82010546875000E+0003  -2.82000732421875E+0003  -2.81978271484375E+0003  -2.81944458007813E+0003  -2.81902416992188E+0003  -2.81855126953125E+0003  -2.81805444335938E+0003  -2.81756420898438E+0003  -2.81710815429688E+0003  -2.81666625976563E+0003  -2.81619067382813E+0003  -2.81562915039063E+0003  -2.81493994140625E+0003  -2.81418310546875E+0003  -2.81346386718750E+0003  -2.81288842773438E+0003  -2.81251635742188E+0003  -2.81235668945313E+0003  -2.81237207031250E+0003  -2.81250854492188E+0003  -2.81271215820313E+0003  -2.81294165039063E+0003  -2.81315942382813E+0003  -2.81332495117188E+0003  -2.81340893554688E+0003  -2.81342016601563E+0003  -2.81337597656250E+0003  -2.81329345703125E+0003  -2.81318164062500E+0003  -2.81302905273438E+0003  -2.81281835937500E+0003  -2.81252514648438E+0003  -2.81215527343750E+0003  -2.81177490234375E+0003  -2.81145947265625E+0003  -2.81128637695313E+0003  -2.81127490234375E+0003  -2.81135107421875E+0003  -2.81143164062500E+0003  -2.81143408203125E+0003  -2.81131079101563E+0003  -2.81106030273438E+0003  -2.81068334960938E+0003  -2.81018212890625E+0003  -2.80958691406250E+0003  -2.80895336914063E+0003  -2.80833666992188E+0003  -2.80780468750000E+0003  -2.80739160156250E+0003  -2.80711328125000E+0003  -2.80698437500000E+0003  -2.80701782226563E+0003  -2.80720727539063E+0003  -2.80753442382813E+0003  -2.80797558593750E+0003  -2.80845800781250E+0003  -2.80894506835938E+0003  -2.80954833984375E+0003  -2.81029003906250E+0003  -2.81117431640625E+0003  -2.81214916992188E+0003  -2.81313623046875E+0003  -2.81405957031250E+0003  -2.81484594726563E+0003  -2.81548022460938E+0003  -2.81595971679688E+0003  -2.81628002929688E+0003  -2.81643701171875E+0003  -2.81643383789063E+0003  -2.81628076171875E+0003  -2.81599023437500E+0003  -2.81556103515625E+0003  -2.81499707031250E+0003  -2.81429370117188E+0003  -2.81345605468750E+0003  -2.81251416015625E+0003  -2.81152880859375E+0003  -2.81056201171875E+0003  -2.80968432617188E+0003  -2.80894140625000E+0003  -2.80834399414063E+0003  -2.80789868164063E+0003  -2.80761059570313E+0003  -2.80747094726563E+0003  -2.80744531250000E+0003  -2.80750146484375E+0003  -2.80760058593750E+0003  -2.80770751953125E+0003  -2.80779443359375E+0003  -2.80784472656250E+0003  -2.80784326171875E+0003  -2.80778051757813E+0003  -2.80764721679688E+0003  -2.80743896484375E+0003  -2.80715209960938E+0003  -2.80679516601563E+0003  -2.80639135742188E+0003  -2.80595996093750E+0003  -2.80552075195313E+0003  -2.80508959960938E+0003  -2.80467871093750E+0003  -2.80430078125000E+0003  -2.80397216796875E+0003  -2.80370263671875E+0003  -2.80350463867188E+0003  -2.80332983398438E+0003  -2.80323999023438E+0003  -2.80325415039063E+0003  -2.80336645507813E+0003  -2.80357055664063E+0003  -2.80386181640625E+0003  -2.80423925781250E+0003  -2.80470312500000E+0003  -2.80525390625000E+0003  -2.80588745117188E+0003  -2.80655981445313E+0003  -2.80717333984375E+0003  -2.80778149414063E+0003  -2.80836425781250E+0003  -2.80889648437500E+0003  -2.80936572265625E+0003  -2.80974487304688E+0003  -2.81003344726563E+0003  -2.81024438476563E+0003  -2.81039428710938E+0003  -2.81050024414063E+0003  -2.81057421875000E+0003  -2.81061938476563E+0003  -2.81063989257813E+0003  -2.81064208984375E+0003  -2.81063085937500E+0003  -2.81063159179688E+0003  -2.81066455078125E+0003  -2.81074658203125E+0003  -2.81078442382813E+0003  -2.81077905273438E+0003  -2.81078881835938E+0003  -2.81080761718750E+0003  -2.81079174804688E+0003  -2.81075659179688E+0003  -2.81069750976563E+0003  -2.81061059570313E+0003  -2.81052392578125E+0003  -2.81048461914063E+0003  -2.81054370117188E+0003  -2.81074243164063E+0003  -2.81103906250000E+0003  -2.81137377929688E+0003  -2.81166894531250E+0003  -2.81188623046875E+0003  -2.81201171875000E+0003  -2.81204223632813E+0003  -2.81197485351563E+0003  -2.81181103515625E+0003  -2.81158178710938E+0003  -2.81132788085938E+0003  -2.81108715820313E+0003  -2.81088037109375E+0003  -2.81067626953125E+0003  -2.81041577148438E+0003  -2.81001879882813E+0003  -2.80945068359375E+0003  -2.80876928710938E+0003  -2.80806640625000E+0003  -2.80744726562500E+0003  -2.80698242187500E+0003  -2.80665356445313E+0003  -2.80638671875000E+0003  -2.80628466796875E+0003  -2.80633837890625E+0003  -2.80652685546875E+0003  -2.80681860351563E+0003  -2.80718017578125E+0003  -2.80759082031250E+0003  -2.80803271484375E+0003  -2.80848999023438E+0003  -2.80894580078125E+0003  -2.80939086914063E+0003  -2.80982373046875E+0003  -2.81024951171875E+0003  -2.81066113281250E+0003  -2.81106201171875E+0003  -2.81145117187500E+0003  -2.81182373046875E+0003  -2.81218310546875E+0003  -2.81252587890625E+0003  -2.81285449218750E+0003  -2.81317309570313E+0003  -2.81348315429688E+0003  -2.81378442382813E+0003  -2.81407861328125E+0003  -2.81436791992188E+0003  -2.81465356445313E+0003  -2.81493334960938E+0003  -2.81521191406250E+0003  -2.81548266601563E+0003  -2.81574877929688E+0003  -2.81600805664063E+0003  -2.81626049804688E+0003  -2.81650341796875E+0003
  -2.83365454101563E+0003  -2.83334423828125E+0003  -2.83300683593750E+0003  -2.83264331054688E+0003  -2.83225390625000E+0003  -2.83184033203125E+0003  -2.83140283203125E+0003  -2.83094140625000E+0003  -2.83045043945313E+0003  -2.82992407226563E+0003  -2.82935498046875E+0003  -2.82873730468750E+0003  -2.82806372070313E+0003  -2.82732812500000E+0003  -2.82652343750000E+0003  -2.82564941406250E+0003  -2.82471435546875E+0003  -2.82373266601563E+0003  -2.82271875000000E+0003  -2.82180908203125E+0003  -2.82092138671875E+0003  -2.82007226562500E+0003  -2.81928857421875E+0003  -2.81859887695313E+0003  -2.81803125000000E+0003  -2.81761010742188E+0003  -2.81736938476563E+0003  -2.81729809570313E+0003  -2.81741699218750E+0003  -2.81779150390625E+0003  -2.81823583984375E+0003  -2.81869311523438E+0003  -2.81909960937500E+0003  -2.81938793945313E+0003  -2.81949096679688E+0003  -2.81935424804688E+0003  -2.81909863281250E+0003  -2.81872436523438E+0003  -2.81827392578125E+0003  -2.81778247070313E+0003  -2.81728051757813E+0003  -2.81680249023438E+0003  -2.81638159179688E+0003  -2.81599536132813E+0003  -2.81559008789063E+0003  -2.81510205078125E+0003  -2.81447631835938E+0003  -2.81380566406250E+0003  -2.81315625000000E+0003  -2.81265356445313E+0003  -2.81237084960938E+0003  -2.81229248046875E+0003  -2.81236987304688E+0003  -2.81254785156250E+0003  -2.81277148437500E+0003  -2.81299926757813E+0003  -2.81319482421875E+0003  -2.81332324218750E+0003  -2.81336303710938E+0003  -2.81333300781250E+0003  -2.81325952148438E+0003  -2.81317089843750E+0003  -2.81308203125000E+0003  -2.81297900390625E+0003  -2.81283837890625E+0003  -2.81262548828125E+0003  -2.81233789062500E+0003  -2.81203808593750E+0003  -2.81180053710938E+0003  -2.81170385742188E+0003  -2.81175952148438E+0003  -2.81187500000000E+0003  -2.81194775390625E+0003  -2.81187768554688E+0003  -2.81161767578125E+0003  -2.81118603515625E+0003  -2.81060620117188E+0003  -2.80990332031250E+0003  -2.80912158203125E+0003  -2.80831982421875E+0003  -2.80756469726563E+0003  -2.80692846679688E+0003  -2.80644775390625E+0003  -2.80613671875000E+0003  -2.80600732421875E+0003  -2.80607104492188E+0003  -2.80631396484375E+0003  -2.80670800781250E+0003  -2.80722167968750E+0003  -2.80772216796875E+0003  -2.80823120117188E+0003  -2.80884448242188E+0003  -2.80957006835938E+0003  -2.81041308593750E+0003  -2.81133837890625E+0003  -2.81229150390625E+0003  -2.81322045898438E+0003  -2.81406958007813E+0003  -2.81481494140625E+0003  -2.81541870117188E+0003  -2.81585546875000E+0003  -2.81610229492188E+0003  -2.81615576171875E+0003  -2.81603515625000E+0003  -2.81573974609375E+0003  -2.81528100585938E+0003  -2.81466845703125E+0003  -2.81392626953125E+0003  -2.81306542968750E+0003  -2.81212670898438E+0003  -2.81117871093750E+0003  -2.81029248046875E+0003  -2.80954370117188E+0003  -2.80896972656250E+0003  -2.80856005859375E+0003  -2.80828955078125E+0003  -2.80813574218750E+0003  -2.80807519531250E+0003  -2.80808105468750E+0003  -2.80812768554688E+0003  -2.80816845703125E+0003  -2.80817675781250E+0003  -2.80813623046875E+0003  -2.80804858398438E+0003  -2.80793115234375E+0003  -2.80778515625000E+0003  -2.80759936523438E+0003  -2.80736694335938E+0003  -2.80709082031250E+0003  -2.80677148437500E+0003  -2.80642041015625E+0003  -2.80604296875000E+0003  -2.80565673828125E+0003  -2.80526733398438E+0003  -2.80488745117188E+0003  -2.80453540039063E+0003  -2.80421875000000E+0003  -2.80395288085938E+0003  -2.80374755859375E+0003  -2.80360107421875E+0003  -2.80347460937500E+0003  -2.80344506835938E+0003  -2.80351220703125E+0003  -2.80367529296875E+0003  -2.80393432617188E+0003  -2.80429101562500E+0003  -2.80474804687500E+0003  -2.80530786132813E+0003  -2.80596655273438E+0003  -2.80657836914063E+0003  -2.80721948242188E+0003  -2.80786767578125E+0003  -2.80849438476563E+0003  -2.80907153320313E+0003  -2.80957006835938E+0003  -2.80996191406250E+0003  -2.81023852539063E+0003  -2.81041357421875E+0003  -2.81051660156250E+0003  -2.81057177734375E+0003  -2.81059350585938E+0003  -2.81059008789063E+0003  -2.81055957031250E+0003  -2.81050878906250E+0003  -2.81044799804688E+0003  -2.81040478515625E+0003  -2.81040380859375E+0003  -2.81047070312500E+0003  -2.81056201171875E+0003  -2.81057861328125E+0003  -2.81061718750000E+0003  -2.81066625976563E+0003  -2.81068286132813E+0003  -2.81068041992188E+0003  -2.81065307617188E+0003  -2.81059765625000E+0003  -2.81054272460938E+0003  -2.81053637695313E+0003  -2.81062988281250E+0003  -2.81086596679688E+0003  -2.81119970703125E+0003  -2.81150927734375E+0003  -2.81177368164063E+0003  -2.81194702148438E+0003  -2.81202514648438E+0003  -2.81201513671875E+0003  -2.81189379882813E+0003  -2.81168212890625E+0003  -2.81144409179688E+0003  -2.81123681640625E+0003  -2.81111376953125E+0003  -2.81110668945313E+0003  -2.81115283203125E+0003  -2.81115136718750E+0003  -2.81096044921875E+0003  -2.81047485351563E+0003  -2.80971655273438E+0003  -2.80876586914063E+0003  -2.80779614257813E+0003  -2.80694628906250E+0003  -2.80624707031250E+0003  -2.80573413085938E+0003  -2.80538818359375E+0003  -2.80528173828125E+0003  -2.80539379882813E+0003  -2.80566650390625E+0003  -2.80603955078125E+0003  -2.80647583007813E+0003  -2.80695239257813E+0003  -2.80744628906250E+0003  -2.80794433593750E+0003  -2.80843334960938E+0003  -2.80891259765625E+0003  -2.80937792968750E+0003  -2.80983520507813E+0003  -2.81028027343750E+0003  -2.81070849609375E+0003  -2.81111962890625E+0003  -2.81150830078125E+0003  -2.81187890625000E+0003  -2.81223071289063E+0003  -2.81256787109375E+0003  -2.81289233398438E+0003  -2.81320581054688E+0003  -2.81351196289063E+0003  -2.81381103515625E+0003  -2.81410595703125E+0003  -2.81439868164063E+0003  -2.81468505859375E+0003  -2.81496777343750E+0003  -2.81524438476563E+0003  -2.81551293945313E+0003  -2.81577539062500E+0003  -2.81602758789063E+0003
  -2.83287060546875E+0003  -2.83254418945313E+0003  -2.83219091796875E+0003  -2.83181152343750E+0003  -2.83140625000000E+0003  -2.83097680664063E+0003  -2.83052368164063E+0003  -2.83004663085938E+0003  -2.82954077148438E+0003  -2.82899975585938E+0003  -2.82841748046875E+0003  -2.82778735351563E+0003  -2.82710278320313E+0003  -2.82635766601563E+0003  -2.82554809570313E+0003  -2.82466699218750E+0003  -2.82372900390625E+0003  -2.82274780273438E+0003  -2.82180908203125E+0003  -2.82091650390625E+0003  -2.82003930664063E+0003  -2.81920190429688E+0003  -2.81843432617188E+0003  -2.81776391601563E+0003  -2.81721679687500E+0003  -2.81681372070313E+0003  -2.81659082031250E+0003  -2.81653662109375E+0003  -2.81665112304688E+0003  -2.81703637695313E+0003  -2.81748413085938E+0003  -2.81793750000000E+0003  -2.81833325195313E+0003  -2.81860424804688E+0003  -2.81868334960938E+0003  -2.81851782226563E+0003  -2.81823388671875E+0003  -2.81783569335938E+0003  -2.81737084960938E+0003  -2.81687597656250E+0003  -2.81638183593750E+0003  -2.81592431640625E+0003  -2.81553833007813E+0003  -2.81520214843750E+0003  -2.81486376953125E+0003  -2.81444458007813E+0003  -2.81392504882813E+0003  -2.81331127929688E+0003  -2.81276147460938E+0003  -2.81236914062500E+0003  -2.81219848632813E+0003  -2.81222412109375E+0003  -2.81238671875000E+0003  -2.81262500000000E+0003  -2.81288012695313E+0003  -2.81310791015625E+0003  -2.81327221679688E+0003  -2.81335351562500E+0003  -2.81334448242188E+0003  -2.81327099609375E+0003  -2.81316577148438E+0003  -2.81306323242188E+0003  -2.81298339843750E+0003  -2.81290893554688E+0003  -2.81281079101563E+0003  -2.81264965820313E+0003  -2.81241821289063E+0003  -2.81217602539063E+0003  -2.81199438476563E+0003  -2.81194848632813E+0003  -2.81204492187500E+0003  -2.81217968750000E+0003  -2.81223803710938E+0003  -2.81210375976563E+0003  -2.81172851562500E+0003  -2.81114843750000E+0003  -2.81040502929688E+0003  -2.80954248046875E+0003  -2.80861621093750E+0003  -2.80769140625000E+0003  -2.80683349609375E+0003  -2.80612255859375E+0003  -2.80558935546875E+0003  -2.80526049804688E+0003  -2.80513989257813E+0003  -2.80523583984375E+0003  -2.80552929687500E+0003  -2.80598437500000E+0003  -2.80656225585938E+0003  -2.80706469726563E+0003  -2.80759594726563E+0003  -2.80821533203125E+0003  -2.80893237304688E+0003  -2.80975781250000E+0003  -2.81066137695313E+0003  -2.81160864257813E+0003  -2.81255834960938E+0003  -2.81348510742188E+0003  -2.81433520507813E+0003  -2.81505834960938E+0003  -2.81560424804688E+0003  -2.81593603515625E+0003  -2.81605224609375E+0003  -2.81596069335938E+0003  -2.81565942382813E+0003  -2.81516308593750E+0003  -2.81449951171875E+0003  -2.81370263671875E+0003  -2.81280224609375E+0003  -2.81184155273438E+0003  -2.81089843750000E+0003  -2.81006054687500E+0003  -2.80940771484375E+0003  -2.80897778320313E+0003  -2.80873046875000E+0003  -2.80861694335938E+0003  -2.80858422851563E+0003  -2.80860131835938E+0003  -2.80865136718750E+0003  -2.80870947265625E+0003  -2.80873559570313E+0003  -2.80867016601563E+0003  -2.80850830078125E+0003  -2.80829077148438E+0003  -2.80807885742188E+0003  -2.80787011718750E+0003  -2.80764697265625E+0003  -2.80739550781250E+0003  -2.80712329101563E+0003  -2.80682495117188E+0003  -2.80650561523438E+0003  -2.80616625976563E+0003  -2.80581274414063E+0003  -2.80545043945313E+0003  -2.80509326171875E+0003  -2.80475463867188E+0003  -2.80444726562500E+0003  -2.80418090820313E+0003  -2.80396484375000E+0003  -2.80381396484375E+0003  -2.80368969726563E+0003  -2.80361767578125E+0003  -2.80364086914063E+0003  -2.80376342773438E+0003  -2.80399023437500E+0003  -2.80432592773438E+0003  -2.80477612304688E+0003  -2.80534570312500E+0003  -2.80596801757813E+0003  -2.80660424804688E+0003  -2.80728247070313E+0003  -2.80797070312500E+0003  -2.80864477539063E+0003  -2.80926757812500E+0003  -2.80979956054688E+0003  -2.81020092773438E+0003  -2.81045556640625E+0003  -2.81059570312500E+0003  -2.81065136718750E+0003  -2.81065625000000E+0003  -2.81063256835938E+0003  -2.81058691406250E+0003  -2.81051660156250E+0003  -2.81042602539063E+0003  -2.81033276367188E+0003  -2.81025854492188E+0003  -2.81023339843750E+0003  -2.81029077148438E+0003  -2.81042431640625E+0003  -2.81048535156250E+0003  -2.81054760742188E+0003  -2.81061328125000E+0003  -2.81068164062500E+0003  -2.81072338867188E+0003  -2.81074560546875E+0003  -2.81074536132813E+0003  -2.81074951171875E+0003  -2.81080541992188E+0003  -2.81096337890625E+0003  -2.81120825195313E+0003  -2.81151684570313E+0003  -2.81182690429688E+0003  -2.81206420898438E+0003  -2.81217187500000E+0003  -2.81215942382813E+0003  -2.81205102539063E+0003  -2.81186865234375E+0003  -2.81163940429688E+0003  -2.81135131835938E+0003  -2.81112890625000E+0003  -2.81104223632813E+0003  -2.81112866210938E+0003  -2.81132421875000E+0003  -2.81146630859375E+0003  -2.81138061523438E+0003  -2.81089843750000E+0003  -2.81004541015625E+0003  -2.80889916992188E+0003  -2.80766381835938E+0003  -2.80652221679688E+0003  -2.80553198242188E+0003  -2.80476196289063E+0003  -2.80430249023438E+0003  -2.80411132812500E+0003  -2.80419238281250E+0003  -2.80447851562500E+0003  -2.80489160156250E+0003  -2.80537573242188E+0003  -2.80590454101563E+0003  -2.80645336914063E+0003  -2.80700366210938E+0003  -2.80754028320313E+0003  -2.80806152343750E+0003  -2.80857153320313E+0003  -2.80906811523438E+0003  -2.80955249023438E+0003  -2.81001611328125E+0003  -2.81045898437500E+0003  -2.81087768554688E+0003  -2.81127124023438E+0003  -2.81164086914063E+0003  -2.81199511718750E+0003  -2.81233129882813E+0003  -2.81265795898438E+0003  -2.81297290039063E+0003  -2.81328271484375E+0003  -2.81358569335938E+0003  -2.81388696289063E+0003  -2.81418481445313E+0003  -2.81447631835938E+0003  -2.81476171875000E+0003  -2.81503857421875E+0003  -2.81530981445313E+0003  -2.81556909179688E+0003
  -2.83210205078125E+0003  -2.83176123046875E+0003  -2.83139404296875E+0003  -2.83100097656250E+0003  -2.83058276367188E+0003  -2.83014013671875E+0003  -2.82967456054688E+0003  -2.82918505859375E+0003  -2.82866772460938E+0003  -2.82811645507813E+0003  -2.82752587890625E+0003  -2.82688964843750E+0003  -2.82620190429688E+0003  -2.82545727539063E+0003  -2.82465112304688E+0003  -2.82377832031250E+0003  -2.82285375976563E+0003  -2.82189257812500E+0003  -2.82102197265625E+0003  -2.82015551757813E+0003  -2.81931274414063E+0003  -2.81851391601563E+0003  -2.81778735351563E+0003  -2.81715820312500E+0003  -2.81664599609375E+0003  -2.81626684570313E+0003  -2.81604956054688E+0003  -2.81598217773438E+0003  -2.81605688476563E+0003  -2.81639135742188E+0003  -2.81677539062500E+0003  -2.81715649414063E+0003  -2.81747827148438E+0003  -2.81768041992188E+0003  -2.81770361328125E+0003  -2.81750463867188E+0003  -2.81719213867188E+0003  -2.81678320312500E+0003  -2.81631909179688E+0003  -2.81583569335938E+0003  -2.81536132812500E+0003  -2.81492993164063E+0003  -2.81457397460938E+0003  -2.81428247070313E+0003  -2.81398632812500E+0003  -2.81366821289063E+0003  -2.81320581054688E+0003  -2.81270019531250E+0003  -2.81227221679688E+0003  -2.81200781250000E+0003  -2.81196313476563E+0003  -2.81210473632813E+0003  -2.81236694335938E+0003  -2.81267944335938E+0003  -2.81297558593750E+0003  -2.81320678710938E+0003  -2.81333862304688E+0003  -2.81337084960938E+0003  -2.81331738281250E+0003  -2.81320678710938E+0003  -2.81307348632813E+0003  -2.81295556640625E+0003  -2.81287377929688E+0003  -2.81280761718750E+0003  -2.81272583007813E+0003  -2.81258935546875E+0003  -2.81239013671875E+0003  -2.81218359375000E+0003  -2.81203442382813E+0003  -2.81201123046875E+0003  -2.81211499023438E+0003  -2.81223950195313E+0003  -2.81226562500000E+0003  -2.81207006835938E+0003  -2.81160449218750E+0003  -2.81091601562500E+0003  -2.81005834960938E+0003  -2.80908715820313E+0003  -2.80806542968750E+0003  -2.80706396484375E+0003  -2.80615576171875E+0003  -2.80538769531250E+0003  -2.80484204101563E+0003  -2.80450000000000E+0003  -2.80439770507813E+0003  -2.80452905273438E+0003  -2.80487036132813E+0003  -2.80537939453125E+0003  -2.80601489257813E+0003  -2.80650732421875E+0003  -2.80705712890625E+0003  -2.80768701171875E+0003  -2.80840869140625E+0003  -2.80923632812500E+0003  -2.81013647460938E+0003  -2.81109179687500E+0003  -2.81208032226563E+0003  -2.81308178710938E+0003  -2.81402929687500E+0003  -2.81486059570313E+0003  -2.81550585937500E+0003  -2.81591357421875E+0003  -2.81609057617188E+0003  -2.81602441406250E+0003  -2.81572070312500E+0003  -2.81519506835938E+0003  -2.81448364257813E+0003  -2.81363208007813E+0003  -2.81268652343750E+0003  -2.81169482421875E+0003  -2.81074926757813E+0003  -2.80992773437500E+0003  -2.80933911132813E+0003  -2.80902026367188E+0003  -2.80889965820313E+0003  -2.80891381835938E+0003  -2.80898168945313E+0003  -2.80906445312500E+0003  -2.80915478515625E+0003  -2.80922412109375E+0003  -2.80928125000000E+0003  -2.80918554687500E+0003  -2.80888037109375E+0003  -2.80855444335938E+0003  -2.80828076171875E+0003  -2.80803906250000E+0003  -2.80779223632813E+0003  -2.80752685546875E+0003  -2.80724902343750E+0003  -2.80695800781250E+0003  -2.80665429687500E+0003  -2.80633081054688E+0003  -2.80599169921875E+0003  -2.80564160156250E+0003  -2.80529174804688E+0003  -2.80495874023438E+0003  -2.80465063476563E+0003  -2.80437988281250E+0003  -2.80415405273438E+0003  -2.80398461914063E+0003  -2.80387841796875E+0003  -2.80377221679688E+0003  -2.80375439453125E+0003  -2.80383911132813E+0003  -2.80403393554688E+0003  -2.80434838867188E+0003  -2.80479125976563E+0003  -2.80536889648438E+0003  -2.80596459960938E+0003  -2.80662841796875E+0003  -2.80734228515625E+0003  -2.80807714843750E+0003  -2.80879956054688E+0003  -2.80946557617188E+0003  -2.81002514648438E+0003  -2.81043701171875E+0003  -2.81067333984375E+0003  -2.81077905273438E+0003  -2.81078930664063E+0003  -2.81075000000000E+0003  -2.81068652343750E+0003  -2.81060351562500E+0003  -2.81050561523438E+0003  -2.81039257812500E+0003  -2.81027783203125E+0003  -2.81018872070313E+0003  -2.81015405273438E+0003  -2.81020288085938E+0003  -2.81033129882813E+0003  -2.81049633789063E+0003  -2.81057421875000E+0003  -2.81066918945313E+0003  -2.81076733398438E+0003  -2.81087231445313E+0003  -2.81095751953125E+0003  -2.81102905273438E+0003  -2.81111328125000E+0003  -2.81125488281250E+0003  -2.81142504882813E+0003  -2.81168994140625E+0003  -2.81202563476563E+0003  -2.81233593750000E+0003  -2.81253295898438E+0003  -2.81254833984375E+0003  -2.81241259765625E+0003  -2.81217016601563E+0003  -2.81186450195313E+0003  -2.81154223632813E+0003  -2.81125146484375E+0003  -2.81097094726563E+0003  -2.81084057617188E+0003  -2.81092285156250E+0003  -2.81110229492188E+0003  -2.81124194335938E+0003  -2.81113916015625E+0003  -2.81063134765625E+0003  -2.80967675781250E+0003  -2.80840869140625E+0003  -2.80701684570313E+0003  -2.80569213867188E+0003  -2.80451708984375E+0003  -2.80358837890625E+0003  -2.80302221679688E+0003  -2.80285278320313E+0003  -2.80294946289063E+0003  -2.80328295898438E+0003  -2.80376074218750E+0003  -2.80431323242188E+0003  -2.80490795898438E+0003  -2.80552172851563E+0003  -2.80613061523438E+0003  -2.80671533203125E+0003  -2.80728417968750E+0003  -2.80783203125000E+0003  -2.80836572265625E+0003  -2.80888281250000E+0003  -2.80937719726563E+0003  -2.80985034179688E+0003  -2.81029150390625E+0003  -2.81070288085938E+0003  -2.81109106445313E+0003  -2.81145703125000E+0003  -2.81180566406250E+0003  -2.81213989257813E+0003  -2.81246386718750E+0003  -2.81278076171875E+0003  -2.81309228515625E+0003  -2.81340356445313E+0003  -2.81370629882813E+0003  -2.81400610351563E+0003  -2.81430029296875E+0003  -2.81458422851563E+0003  -2.81486254882813E+0003  -2.81512939453125E+0003
  -2.83134716796875E+0003  -2.83099487304688E+0003  -2.83061572265625E+0003  -2.83021142578125E+0003  -2.82978222656250E+0003  -2.82932958984375E+0003  -2.82885375976563E+0003  -2.82835498046875E+0003  -2.82782958984375E+0003  -2.82727197265625E+0003  -2.82667724609375E+0003  -2.82604052734375E+0003  -2.82535620117188E+0003  -2.82462109375000E+0003  -2.82382568359375E+0003  -2.82297241210938E+0003  -2.82207397460938E+0003  -2.82114672851563E+0003  -2.82032470703125E+0003  -2.81950195312500E+0003  -2.81870556640625E+0003  -2.81796020507813E+0003  -2.81729003906250E+0003  -2.81671289062500E+0003  -2.81624389648438E+0003  -2.81589501953125E+0003  -2.81567773437500E+0003  -2.81558129882813E+0003  -2.81559497070313E+0003  -2.81584008789063E+0003  -2.81611499023438E+0003  -2.81637670898438E+0003  -2.81657934570313E+0003  -2.81667553710938E+0003  -2.81661865234375E+0003  -2.81640502929688E+0003  -2.81603979492188E+0003  -2.81562695312500E+0003  -2.81517382812500E+0003  -2.81471069335938E+0003  -2.81426220703125E+0003  -2.81385693359375E+0003  -2.81353198242188E+0003  -2.81324975585938E+0003  -2.81299804687500E+0003  -2.81272485351563E+0003  -2.81235815429688E+0003  -2.81197680664063E+0003  -2.81168188476563E+0003  -2.81154882812500E+0003  -2.81162768554688E+0003  -2.81188085937500E+0003  -2.81223754882813E+0003  -2.81262158203125E+0003  -2.81295971679688E+0003  -2.81320043945313E+0003  -2.81331225585938E+0003  -2.81331445312500E+0003  -2.81323754882813E+0003  -2.81311230468750E+0003  -2.81296923828125E+0003  -2.81284570312500E+0003  -2.81276171875000E+0003  -2.81269531250000E+0003  -2.81261572265625E+0003  -2.81248803710938E+0003  -2.81230493164063E+0003  -2.81211474609375E+0003  -2.81197460937500E+0003  -2.81194116210938E+0003  -2.81201220703125E+0003  -2.81208642578125E+0003  -2.81205053710938E+0003  -2.81178686523438E+0003  -2.81125097656250E+0003  -2.81049365234375E+0003  -2.80957177734375E+0003  -2.80854418945313E+0003  -2.80747607421875E+0003  -2.80643920898438E+0003  -2.80550756835938E+0003  -2.80475439453125E+0003  -2.80419091796875E+0003  -2.80385620117188E+0003  -2.80378002929688E+0003  -2.80394775390625E+0003  -2.80433349609375E+0003  -2.80489086914063E+0003  -2.80554809570313E+0003  -2.80604736328125E+0003  -2.80661303710938E+0003  -2.80725341796875E+0003  -2.80798754882813E+0003  -2.80882519531250E+0003  -2.80973120117188E+0003  -2.81069824218750E+0003  -2.81172216796875E+0003  -2.81278320312500E+0003  -2.81381103515625E+0003  -2.81473120117188E+0003  -2.81546411132813E+0003  -2.81594116210938E+0003  -2.81616259765625E+0003  -2.81612988281250E+0003  -2.81583813476563E+0003  -2.81530175781250E+0003  -2.81456909179688E+0003  -2.81369018554688E+0003  -2.81271899414063E+0003  -2.81171826171875E+0003  -2.81077221679688E+0003  -2.80997851562500E+0003  -2.80942773437500E+0003  -2.80918603515625E+0003  -2.80915966796875E+0003  -2.80925927734375E+0003  -2.80939453125000E+0003  -2.80951489257813E+0003  -2.80961352539063E+0003  -2.80966552734375E+0003  -2.80963745117188E+0003  -2.80941821289063E+0003  -2.80906933593750E+0003  -2.80878710937500E+0003  -2.80853271484375E+0003  -2.80827734375000E+0003  -2.80801660156250E+0003  -2.80773803710938E+0003  -2.80745043945313E+0003  -2.80715551757813E+0003  -2.80684863281250E+0003  -2.80652758789063E+0003  -2.80618896484375E+0003  -2.80583837890625E+0003  -2.80548901367188E+0003  -2.80515136718750E+0003  -2.80483740234375E+0003  -2.80455859375000E+0003  -2.80432031250000E+0003  -2.80413232421875E+0003  -2.80399975585938E+0003  -2.80392041015625E+0003  -2.80386621093750E+0003  -2.80391577148438E+0003  -2.80408081054688E+0003  -2.80437377929688E+0003  -2.80480664062500E+0003  -2.80535131835938E+0003  -2.80595239257813E+0003  -2.80664062500000E+0003  -2.80738134765625E+0003  -2.80815454101563E+0003  -2.80891577148438E+0003  -2.80961865234375E+0003  -2.81020483398438E+0003  -2.81062109375000E+0003  -2.81084692382813E+0003  -2.81092260742188E+0003  -2.81090087890625E+0003  -2.81082739257813E+0003  -2.81073779296875E+0003  -2.81063281250000E+0003  -2.81051733398438E+0003  -2.81039355468750E+0003  -2.81027343750000E+0003  -2.81017968750000E+0003  -2.81014038085938E+0003  -2.81018188476563E+0003  -2.81030517578125E+0003  -2.81048852539063E+0003  -2.81067089843750E+0003  -2.81078979492188E+0003  -2.81092919921875E+0003  -2.81108032226563E+0003  -2.81123974609375E+0003  -2.81138940429688E+0003  -2.81156054687500E+0003  -2.81174609375000E+0003  -2.81194360351563E+0003  -2.81225244140625E+0003  -2.81261352539063E+0003  -2.81291967773438E+0003  -2.81306250000000E+0003  -2.81295874023438E+0003  -2.81266577148438E+0003  -2.81225683593750E+0003  -2.81180249023438E+0003  -2.81137304687500E+0003  -2.81100659179688E+0003  -2.81071899414063E+0003  -2.81050000000000E+0003  -2.81048657226563E+0003  -2.81057812500000E+0003  -2.81060888671875E+0003  -2.81039477539063E+0003  -2.80978808593750E+0003  -2.80876831054688E+0003  -2.80745971679688E+0003  -2.80601831054688E+0003  -2.80460620117188E+0003  -2.80333569335938E+0003  -2.80232397460938E+0003  -2.80171289062500E+0003  -2.80155834960938E+0003  -2.80173413085938E+0003  -2.80214013671875E+0003  -2.80269458007813E+0003  -2.80332250976563E+0003  -2.80399072265625E+0003  -2.80467138671875E+0003  -2.80533642578125E+0003  -2.80597119140625E+0003  -2.80657836914063E+0003  -2.80716235351563E+0003  -2.80772753906250E+0003  -2.80827368164063E+0003  -2.80879467773438E+0003  -2.80928759765625E+0003  -2.80974804687500E+0003  -2.81017602539063E+0003  -2.81057812500000E+0003  -2.81095434570313E+0003  -2.81131225585938E+0003  -2.81165258789063E+0003  -2.81198315429688E+0003  -2.81230639648438E+0003  -2.81262524414063E+0003  -2.81294165039063E+0003  -2.81325195312500E+0003  -2.81355834960938E+0003  -2.81385815429688E+0003  -2.81414990234375E+0003  -2.81443432617188E+0003  -2.81470703125000E+0003
  -2.83060717773438E+0003  -2.83024414062500E+0003  -2.82985546875000E+0003  -2.82944189453125E+0003  -2.82900439453125E+0003  -2.82854345703125E+0003  -2.82806030273438E+0003  -2.82755468750000E+0003  -2.82702392578125E+0003  -2.82646337890625E+0003  -2.82586865234375E+0003  -2.82523535156250E+0003  -2.82455932617188E+0003  -2.82383764648438E+0003  -2.82306274414063E+0003  -2.82223681640625E+0003  -2.82137329101563E+0003  -2.82048925781250E+0003  -2.81969458007813E+0003  -2.81892382812500E+0003  -2.81818432617188E+0003  -2.81749780273438E+0003  -2.81688720703125E+0003  -2.81636962890625E+0003  -2.81594677734375E+0003  -2.81562670898438E+0003  -2.81540917968750E+0003  -2.81528125000000E+0003  -2.81522656250000E+0003  -2.81536450195313E+0003  -2.81550927734375E+0003  -2.81562500000000E+0003  -2.81568164062500E+0003  -2.81564916992188E+0003  -2.81549731445313E+0003  -2.81522705078125E+0003  -2.81484448242188E+0003  -2.81443090820313E+0003  -2.81399194335938E+0003  -2.81355151367188E+0003  -2.81312963867188E+0003  -2.81274755859375E+0003  -2.81243115234375E+0003  -2.81215698242188E+0003  -2.81193896484375E+0003  -2.81169091796875E+0003  -2.81141455078125E+0003  -2.81115429687500E+0003  -2.81098535156250E+0003  -2.81097045898438E+0003  -2.81115258789063E+0003  -2.81149291992188E+0003  -2.81192065429688E+0003  -2.81235815429688E+0003  -2.81273095703125E+0003  -2.81299047851563E+0003  -2.81311010742188E+0003  -2.81312084960938E+0003  -2.81306152343750E+0003  -2.81295898437500E+0003  -2.81283911132813E+0003  -2.81273217773438E+0003  -2.81265600585938E+0003  -2.81259033203125E+0003  -2.81250927734375E+0003  -2.81238378906250E+0003  -2.81220849609375E+0003  -2.81202148437500E+0003  -2.81186694335938E+0003  -2.81178906250000E+0003  -2.81178125000000E+0003  -2.81175830078125E+0003  -2.81162353515625E+0003  -2.81127758789063E+0003  -2.81068579101563E+0003  -2.80989453125000E+0003  -2.80895532226563E+0003  -2.80792138671875E+0003  -2.80685473632813E+0003  -2.80582690429688E+0003  -2.80491015625000E+0003  -2.80417602539063E+0003  -2.80366259765625E+0003  -2.80336181640625E+0003  -2.80328466796875E+0003  -2.80348852539063E+0003  -2.80391381835938E+0003  -2.80451123046875E+0003  -2.80517236328125E+0003  -2.80568334960938E+0003  -2.80625659179688E+0003  -2.80690258789063E+0003  -2.80765332031250E+0003  -2.80849560546875E+0003  -2.80939794921875E+0003  -2.81037524414063E+0003  -2.81142211914063E+0003  -2.81251782226563E+0003  -2.81359204101563E+0003  -2.81457104492188E+0003  -2.81537524414063E+0003  -2.81591235351563E+0003  -2.81616259765625E+0003  -2.81617358398438E+0003  -2.81592089843750E+0003  -2.81541503906250E+0003  -2.81470751953125E+0003  -2.81385620117188E+0003  -2.81290722656250E+0003  -2.81193481445313E+0003  -2.81102563476563E+0003  -2.81027148437500E+0003  -2.80977270507813E+0003  -2.80957275390625E+0003  -2.80959326171875E+0003  -2.80972998046875E+0003  -2.80989062500000E+0003  -2.81001025390625E+0003  -2.81008349609375E+0003  -2.81007983398438E+0003  -2.80994897460938E+0003  -2.80963208007813E+0003  -2.80929541015625E+0003  -2.80907031250000E+0003  -2.80883935546875E+0003  -2.80857836914063E+0003  -2.80830224609375E+0003  -2.80800830078125E+0003  -2.80770629882813E+0003  -2.80739794921875E+0003  -2.80707861328125E+0003  -2.80674609375000E+0003  -2.80640136718750E+0003  -2.80604223632813E+0003  -2.80568383789063E+0003  -2.80533984375000E+0003  -2.80501489257813E+0003  -2.80472412109375E+0003  -2.80447143554688E+0003  -2.80426440429688E+0003  -2.80411157226563E+0003  -2.80402221679688E+0003  -2.80398925781250E+0003  -2.80400952148438E+0003  -2.80414770507813E+0003  -2.80441943359375E+0003  -2.80483569335938E+0003  -2.80532031250000E+0003  -2.80592553710938E+0003  -2.80662231445313E+0003  -2.80738085937500E+0003  -2.80817480468750E+0003  -2.80896118164063E+0003  -2.80968383789063E+0003  -2.81028955078125E+0003  -2.81071411132813E+0003  -2.81093457031250E+0003  -2.81099609375000E+0003  -2.81095922851563E+0003  -2.81087353515625E+0003  -2.81077270507813E+0003  -2.81065966796875E+0003  -2.81054077148438E+0003  -2.81041528320313E+0003  -2.81029785156250E+0003  -2.81020458984375E+0003  -2.81016674804688E+0003  -2.81020483398438E+0003  -2.81031689453125E+0003  -2.81049560546875E+0003  -2.81072387695313E+0003  -2.81094653320313E+0003  -2.81112084960938E+0003  -2.81132275390625E+0003  -2.81154101562500E+0003  -2.81176684570313E+0003  -2.81202197265625E+0003  -2.81221777343750E+0003  -2.81246240234375E+0003  -2.81280957031250E+0003  -2.81319726562500E+0003  -2.81350805664063E+0003  -2.81359863281250E+0003  -2.81335083007813E+0003  -2.81285668945313E+0003  -2.81223413085938E+0003  -2.81159643554688E+0003  -2.81105102539063E+0003  -2.81061596679688E+0003  -2.81028344726563E+0003  -2.81001123046875E+0003  -2.80988110351563E+0003  -2.80983081054688E+0003  -2.80971679687500E+0003  -2.80935278320313E+0003  -2.80861010742188E+0003  -2.80756762695313E+0003  -2.80627490234375E+0003  -2.80485424804688E+0003  -2.80342968750000E+0003  -2.80213012695313E+0003  -2.80109204101563E+0003  -2.80047900390625E+0003  -2.80035717773438E+0003  -2.80061889648438E+0003  -2.80110986328125E+0003  -2.80173876953125E+0003  -2.80243872070313E+0003  -2.80317358398438E+0003  -2.80391455078125E+0003  -2.80463037109375E+0003  -2.80530761718750E+0003  -2.80595068359375E+0003  -2.80656469726563E+0003  -2.80715502929688E+0003  -2.80772290039063E+0003  -2.80826318359375E+0003  -2.80877319335938E+0003  -2.80924926757813E+0003  -2.80968896484375E+0003  -2.81009912109375E+0003  -2.81048559570313E+0003  -2.81084741210938E+0003  -2.81119604492188E+0003  -2.81153051757813E+0003  -2.81185815429688E+0003  -2.81218334960938E+0003  -2.81250512695313E+0003  -2.81282128906250E+0003  -2.81313208007813E+0003  -2.81343847656250E+0003  -2.81373657226563E+0003  -2.81402368164063E+0003  -2.81430322265625E+0003
  -2.82988110351563E+0003  -2.82950952148438E+0003  -2.82911279296875E+0003  -2.82869189453125E+0003  -2.82824780273438E+0003  -2.82778076171875E+0003  -2.82729272460938E+0003  -2.82678271484375E+0003  -2.82624877929688E+0003  -2.82568798828125E+0003  -2.82509619140625E+0003  -2.82446997070313E+0003  -2.82380639648438E+0003  -2.82310229492188E+0003  -2.82235253906250E+0003  -2.82155908203125E+0003  -2.82073608398438E+0003  -2.81989990234375E+0003  -2.81911230468750E+0003  -2.81839501953125E+0003  -2.81770947265625E+0003  -2.81708105468750E+0003  -2.81652783203125E+0003  -2.81606372070313E+0003  -2.81568627929688E+0003  -2.81539306640625E+0003  -2.81518066406250E+0003  -2.81503002929688E+0003  -2.81491308593750E+0003  -2.81494726562500E+0003  -2.81496093750000E+0003  -2.81492504882813E+0003  -2.81482788085938E+0003  -2.81465795898438E+0003  -2.81440429687500E+0003  -2.81407299804688E+0003  -2.81368676757813E+0003  -2.81325463867188E+0003  -2.81282739257813E+0003  -2.81240673828125E+0003  -2.81200683593750E+0003  -2.81164233398438E+0003  -2.81132690429688E+0003  -2.81105590820313E+0003  -2.81083300781250E+0003  -2.81062451171875E+0003  -2.81041674804688E+0003  -2.81025195312500E+0003  -2.81018164062500E+0003  -2.81025341796875E+0003  -2.81050195312500E+0003  -2.81088842773438E+0003  -2.81134765625000E+0003  -2.81180761718750E+0003  -2.81220068359375E+0003  -2.81249072265625E+0003  -2.81266015625000E+0003  -2.81273608398438E+0003  -2.81275073242188E+0003  -2.81272290039063E+0003  -2.81266918945313E+0003  -2.81261157226563E+0003  -2.81256201171875E+0003  -2.81250683593750E+0003  -2.81242773437500E+0003  -2.81230615234375E+0003  -2.81213745117188E+0003  -2.81194580078125E+0003  -2.81177246093750E+0003  -2.81164306640625E+0003  -2.81152514648438E+0003  -2.81136010742188E+0003  -2.81108300781250E+0003  -2.81062622070313E+0003  -2.80997021484375E+0003  -2.80915454101563E+0003  -2.80822436523438E+0003  -2.80722900390625E+0003  -2.80620996093750E+0003  -2.80523388671875E+0003  -2.80436889648438E+0003  -2.80368237304688E+0003  -2.80321093750000E+0003  -2.80296533203125E+0003  -2.80290917968750E+0003  -2.80314794921875E+0003  -2.80360668945313E+0003  -2.80423535156250E+0003  -2.80489355468750E+0003  -2.80540332031250E+0003  -2.80597900390625E+0003  -2.80662939453125E+0003  -2.80736083984375E+0003  -2.80820068359375E+0003  -2.80910009765625E+0003  -2.81008056640625E+0003  -2.81112695312500E+0003  -2.81221948242188E+0003  -2.81329589843750E+0003  -2.81428564453125E+0003  -2.81511132812500E+0003  -2.81569360351563E+0003  -2.81599902343750E+0003  -2.81607080078125E+0003  -2.81589257812500E+0003  -2.81547851562500E+0003  -2.81486474609375E+0003  -2.81411181640625E+0003  -2.81326489257813E+0003  -2.81238500976563E+0003  -2.81155615234375E+0003  -2.81087670898438E+0003  -2.81043530273438E+0003  -2.81026391601563E+0003  -2.81028369140625E+0003  -2.81040209960938E+0003  -2.81052954101563E+0003  -2.81060815429688E+0003  -2.81062646484375E+0003  -2.81055932617188E+0003  -2.81037377929688E+0003  -2.81007031250000E+0003  -2.80975561523438E+0003  -2.80948461914063E+0003  -2.80921582031250E+0003  -2.80893017578125E+0003  -2.80862988281250E+0003  -2.80831591796875E+0003  -2.80799316406250E+0003  -2.80766845703125E+0003  -2.80733105468750E+0003  -2.80698632812500E+0003  -2.80662231445313E+0003  -2.80625146484375E+0003  -2.80588378906250E+0003  -2.80552636718750E+0003  -2.80518994140625E+0003  -2.80488549804688E+0003  -2.80461718750000E+0003  -2.80439233398438E+0003  -2.80422021484375E+0003  -2.80410986328125E+0003  -2.80406640625000E+0003  -2.80410864257813E+0003  -2.80424145507813E+0003  -2.80446533203125E+0003  -2.80481201171875E+0003  -2.80528198242188E+0003  -2.80587475585938E+0003  -2.80656298828125E+0003  -2.80732006835938E+0003  -2.80811035156250E+0003  -2.80889672851563E+0003  -2.80962841796875E+0003  -2.81023950195313E+0003  -2.81067773437500E+0003  -2.81089648437500E+0003  -2.81097143554688E+0003  -2.81094287109375E+0003  -2.81086621093750E+0003  -2.81077490234375E+0003  -2.81066992187500E+0003  -2.81055883789063E+0003  -2.81044409179688E+0003  -2.81033325195313E+0003  -2.81025024414063E+0003  -2.81021264648438E+0003  -2.81024218750000E+0003  -2.81034204101563E+0003  -2.81051049804688E+0003  -2.81073852539063E+0003  -2.81102294921875E+0003  -2.81131005859375E+0003  -2.81155151367188E+0003  -2.81182226562500E+0003  -2.81210913085938E+0003  -2.81240185546875E+0003  -2.81263183593750E+0003  -2.81291088867188E+0003  -2.81328491210938E+0003  -2.81369995117188E+0003  -2.81404125976563E+0003  -2.81410034179688E+0003  -2.81368579101563E+0003  -2.81293652343750E+0003  -2.81203784179688E+0003  -2.81117285156250E+0003  -2.81050708007813E+0003  -2.81002465820313E+0003  -2.80966137695313E+0003  -2.80937011718750E+0003  -2.80914794921875E+0003  -2.80897412109375E+0003  -2.80871484375000E+0003  -2.80823266601563E+0003  -2.80743432617188E+0003  -2.80636499023438E+0003  -2.80509912109375E+0003  -2.80371728515625E+0003  -2.80232250976563E+0003  -2.80104125976563E+0003  -2.80001782226563E+0003  -2.79943017578125E+0003  -2.79935058593750E+0003  -2.79966455078125E+0003  -2.80024438476563E+0003  -2.80094506835938E+0003  -2.80169702148438E+0003  -2.80248168945313E+0003  -2.80327001953125E+0003  -2.80402441406250E+0003  -2.80473437500000E+0003  -2.80540356445313E+0003  -2.80603930664063E+0003  -2.80664794921875E+0003  -2.80723168945313E+0003  -2.80778540039063E+0003  -2.80830590820313E+0003  -2.80879028320313E+0003  -2.80923876953125E+0003  -2.80965478515625E+0003  -2.81004516601563E+0003  -2.81041381835938E+0003  -2.81076708984375E+0003  -2.81110571289063E+0003  -2.81143725585938E+0003  -2.81176464843750E+0003  -2.81209204101563E+0003  -2.81241259765625E+0003  -2.81272778320313E+0003  -2.81303735351563E+0003  -2.81333886718750E+0003  -2.81363281250000E+0003  -2.81391503906250E+0003
  -2.82916870117188E+0003  -2.82879028320313E+0003  -2.82838720703125E+0003  -2.82796093750000E+0003  -2.82751196289063E+0003  -2.82704101562500E+0003  -2.82654931640625E+0003  -2.82603710937500E+0003  -2.82550244140625E+0003  -2.82494335937500E+0003  -2.82435668945313E+0003  -2.82373999023438E+0003  -2.82309106445313E+0003  -2.82240698242188E+0003  -2.82168603515625E+0003  -2.82092797851563E+0003  -2.82014746093750E+0003  -2.81935937500000E+0003  -2.81857910156250E+0003  -2.81788989257813E+0003  -2.81725781250000E+0003  -2.81668139648438E+0003  -2.81617675781250E+0003  -2.81575927734375E+0003  -2.81541967773438E+0003  -2.81515185546875E+0003  -2.81494848632813E+0003  -2.81478588867188E+0003  -2.81462060546875E+0003  -2.81455957031250E+0003  -2.81445043945313E+0003  -2.81426977539063E+0003  -2.81402294921875E+0003  -2.81371826171875E+0003  -2.81336376953125E+0003  -2.81297167968750E+0003  -2.81255566406250E+0003  -2.81212695312500E+0003  -2.81170751953125E+0003  -2.81130126953125E+0003  -2.81091723632813E+0003  -2.81056347656250E+0003  -2.81024755859375E+0003  -2.80997192382813E+0003  -2.80973437500000E+0003  -2.80955151367188E+0003  -2.80938989257813E+0003  -2.80929003906250E+0003  -2.80928662109375E+0003  -2.80941430664063E+0003  -2.80969702148438E+0003  -2.81009692382813E+0003  -2.81055639648438E+0003  -2.81101831054688E+0003  -2.81142871093750E+0003  -2.81176513671875E+0003  -2.81201953125000E+0003  -2.81220458984375E+0003  -2.81233496093750E+0003  -2.81241601562500E+0003  -2.81245410156250E+0003  -2.81246289062500E+0003  -2.81245263671875E+0003  -2.81241772460938E+0003  -2.81234912109375E+0003  -2.81224804687500E+0003  -2.81212255859375E+0003  -2.81195581054688E+0003  -2.81175048828125E+0003  -2.81151098632813E+0003  -2.81123022460938E+0003  -2.81088281250000E+0003  -2.81043994140625E+0003  -2.80987109375000E+0003  -2.80917187500000E+0003  -2.80836840820313E+0003  -2.80749023437500E+0003  -2.80656640625000E+0003  -2.80563232421875E+0003  -2.80472998046875E+0003  -2.80390161132813E+0003  -2.80327954101563E+0003  -2.80286669921875E+0003  -2.80266845703125E+0003  -2.80265502929688E+0003  -2.80292480468750E+0003  -2.80340991210938E+0003  -2.80405957031250E+0003  -2.80469824218750E+0003  -2.80520239257813E+0003  -2.80576977539063E+0003  -2.80641601562500E+0003  -2.80714038085938E+0003  -2.80795166015625E+0003  -2.80884375000000E+0003  -2.80980322265625E+0003  -2.81082568359375E+0003  -2.81188427734375E+0003  -2.81292651367188E+0003  -2.81388354492188E+0003  -2.81469970703125E+0003  -2.81530371093750E+0003  -2.81567968750000E+0003  -2.81583911132813E+0003  -2.81577099609375E+0003  -2.81549389648438E+0003  -2.81503906250000E+0003  -2.81444921875000E+0003  -2.81376586914063E+0003  -2.81304418945313E+0003  -2.81235180664063E+0003  -2.81177636718750E+0003  -2.81139111328125E+0003  -2.81122290039063E+0003  -2.81120727539063E+0003  -2.81126416015625E+0003  -2.81131640625000E+0003  -2.81131665039063E+0003  -2.81125781250000E+0003  -2.81112792968750E+0003  -2.81090820312500E+0003  -2.81061279296875E+0003  -2.81029077148438E+0003  -2.80996704101563E+0003  -2.80964575195313E+0003  -2.80932128906250E+0003  -2.80898974609375E+0003  -2.80865087890625E+0003  -2.80830981445313E+0003  -2.80795947265625E+0003  -2.80760327148438E+0003  -2.80723706054688E+0003  -2.80685742187500E+0003  -2.80646728515625E+0003  -2.80608593750000E+0003  -2.80571557617188E+0003  -2.80536425781250E+0003  -2.80504345703125E+0003  -2.80475830078125E+0003  -2.80451684570313E+0003  -2.80432641601563E+0003  -2.80419531250000E+0003  -2.80413085937500E+0003  -2.80414697265625E+0003  -2.80425097656250E+0003  -2.80445800781250E+0003  -2.80477636718750E+0003  -2.80521899414063E+0003  -2.80578344726563E+0003  -2.80644653320313E+0003  -2.80717724609375E+0003  -2.80794848632813E+0003  -2.80871606445313E+0003  -2.80943896484375E+0003  -2.81005078125000E+0003  -2.81049560546875E+0003  -2.81074511718750E+0003  -2.81084790039063E+0003  -2.81085620117188E+0003  -2.81081372070313E+0003  -2.81074804687500E+0003  -2.81066650390625E+0003  -2.81057373046875E+0003  -2.81047412109375E+0003  -2.81037548828125E+0003  -2.81029907226563E+0003  -2.81025903320313E+0003  -2.81028076171875E+0003  -2.81036840820313E+0003  -2.81052246093750E+0003  -2.81074414062500E+0003  -2.81103344726563E+0003  -2.81137792968750E+0003  -2.81174096679688E+0003  -2.81204687500000E+0003  -2.81237768554688E+0003  -2.81269042968750E+0003  -2.81294921875000E+0003  -2.81324487304688E+0003  -2.81362548828125E+0003  -2.81404516601563E+0003  -2.81439477539063E+0003  -2.81440161132813E+0003  -2.81380590820313E+0003  -2.81279223632813E+0003  -2.81161376953125E+0003  -2.81052783203125E+0003  -2.80975952148438E+0003  -2.80925830078125E+0003  -2.80889770507813E+0003  -2.80860546875000E+0003  -2.80832958984375E+0003  -2.80808056640625E+0003  -2.80774145507813E+0003  -2.80719091796875E+0003  -2.80635473632813E+0003  -2.80528344726563E+0003  -2.80404663085938E+0003  -2.80271386718750E+0003  -2.80137768554688E+0003  -2.80015356445313E+0003  -2.79918164062500E+0003  -2.79863964843750E+0003  -2.79860034179688E+0003  -2.79894799804688E+0003  -2.79955761718750E+0003  -2.80031323242188E+0003  -2.80111840820313E+0003  -2.80193164062500E+0003  -2.80274584960938E+0003  -2.80352612304688E+0003  -2.80425390625000E+0003  -2.80494042968750E+0003  -2.80558837890625E+0003  -2.80620507812500E+0003  -2.80679785156250E+0003  -2.80735815429688E+0003  -2.80788330078125E+0003  -2.80837304687500E+0003  -2.80882397460938E+0003  -2.80924438476563E+0003  -2.80963745117188E+0003  -2.81000903320313E+0003  -2.81036230468750E+0003  -2.81070483398438E+0003  -2.81104077148438E+0003  -2.81137133789063E+0003  -2.81170019531250E+0003  -2.81202416992188E+0003  -2.81234277343750E+0003  -2.81265600585938E+0003  -2.81296118164063E+0003  -2.81326000976563E+0003  -2.81354541015625E+0003
  -2.82846972656250E+0003  -2.82808569335938E+0003  -2.82767822265625E+0003  -2.82724780273438E+0003  -2.82679541015625E+0003  -2.82632250976563E+0003  -2.82582934570313E+0003  -2.82531616210938E+0003  -2.82478271484375E+0003  -2.82422680664063E+0003  -2.82364697265625E+0003  -2.82304101562500E+0003  -2.82240771484375E+0003  -2.82174584960938E+0003  -2.82105346679688E+0003  -2.82033129882813E+0003  -2.81959277343750E+0003  -2.81885083007813E+0003  -2.81811938476563E+0003  -2.81741406250000E+0003  -2.81680761718750E+0003  -2.81627465820313E+0003  -2.81581250000000E+0003  -2.81543139648438E+0003  -2.81512133789063E+0003  -2.81487475585938E+0003  -2.81468017578125E+0003  -2.81451171875000E+0003  -2.81431958007813E+0003  -2.81416455078125E+0003  -2.81394653320313E+0003  -2.81363330078125E+0003  -2.81324951171875E+0003  -2.81282202148438E+0003  -2.81237548828125E+0003  -2.81192724609375E+0003  -2.81148364257813E+0003  -2.81105078125000E+0003  -2.81063427734375E+0003  -2.81023852539063E+0003  -2.80986645507813E+0003  -2.80952026367188E+0003  -2.80920092773438E+0003  -2.80891333007813E+0003  -2.80866845703125E+0003  -2.80848583984375E+0003  -2.80835375976563E+0003  -2.80829760742188E+0003  -2.80833984375000E+0003  -2.80850097656250E+0003  -2.80879467773438E+0003  -2.80919238281250E+0003  -2.80964941406250E+0003  -2.81011694335938E+0003  -2.81056079101563E+0003  -2.81096484375000E+0003  -2.81132202148438E+0003  -2.81162988281250E+0003  -2.81188549804688E+0003  -2.81207519531250E+0003  -2.81219262695313E+0003  -2.81225634765625E+0003  -2.81228271484375E+0003  -2.81229418945313E+0003  -2.81228320312500E+0003  -2.81222583007813E+0003  -2.81211328125000E+0003  -2.81192993164063E+0003  -2.81166162109375E+0003  -2.81129858398438E+0003  -2.81084106445313E+0003  -2.81030151367188E+0003  -2.80969091796875E+0003  -2.80901660156250E+0003  -2.80828735351563E+0003  -2.80751440429688E+0003  -2.80670971679688E+0003  -2.80588525390625E+0003  -2.80506274414063E+0003  -2.80427368164063E+0003  -2.80354980468750E+0003  -2.80297412109375E+0003  -2.80263671875000E+0003  -2.80249365234375E+0003  -2.80254223632813E+0003  -2.80282080078125E+0003  -2.80332275390625E+0003  -2.80398071289063E+0003  -2.80456494140625E+0003  -2.80505224609375E+0003  -2.80561108398438E+0003  -2.80624389648438E+0003  -2.80696142578125E+0003  -2.80776074218750E+0003  -2.80863476562500E+0003  -2.80956811523438E+0003  -2.81054907226563E+0003  -2.81155322265625E+0003  -2.81253784179688E+0003  -2.81345068359375E+0003  -2.81423852539063E+0003  -2.81485595703125E+0003  -2.81529516601563E+0003  -2.81554907226563E+0003  -2.81561914062500E+0003  -2.81551220703125E+0003  -2.81525048828125E+0003  -2.81486450195313E+0003  -2.81438281250000E+0003  -2.81384692382813E+0003  -2.81331176757813E+0003  -2.81285058593750E+0003  -2.81252075195313E+0003  -2.81234838867188E+0003  -2.81228198242188E+0003  -2.81225537109375E+0003  -2.81221606445313E+0003  -2.81212548828125E+0003  -2.81197656250000E+0003  -2.81176977539063E+0003  -2.81149926757813E+0003  -2.81117846679688E+0003  -2.81082836914063E+0003  -2.81046557617188E+0003  -2.81010278320313E+0003  -2.80974047851563E+0003  -2.80937792968750E+0003  -2.80901391601563E+0003  -2.80864404296875E+0003  -2.80827099609375E+0003  -2.80789086914063E+0003  -2.80749902343750E+0003  -2.80710083007813E+0003  -2.80669384765625E+0003  -2.80629174804688E+0003  -2.80590502929688E+0003  -2.80553759765625E+0003  -2.80519995117188E+0003  -2.80489672851563E+0003  -2.80463574218750E+0003  -2.80442431640625E+0003  -2.80427001953125E+0003  -2.80418310546875E+0003  -2.80417187500000E+0003  -2.80424731445313E+0003  -2.80441796875000E+0003  -2.80470166015625E+0003  -2.80510205078125E+0003  -2.80562792968750E+0003  -2.80625000000000E+0003  -2.80694555664063E+0003  -2.80768212890625E+0003  -2.80842797851563E+0003  -2.80913720703125E+0003  -2.80974560546875E+0003  -2.81021191406250E+0003  -2.81050585937500E+0003  -2.81066040039063E+0003  -2.81072460937500E+0003  -2.81073022460938E+0003  -2.81070605468750E+0003  -2.81065722656250E+0003  -2.81059057617188E+0003  -2.81050708007813E+0003  -2.81041992187500E+0003  -2.81034497070313E+0003  -2.81030200195313E+0003  -2.81030908203125E+0003  -2.81037841796875E+0003  -2.81051538085938E+0003  -2.81072387695313E+0003  -2.81100952148438E+0003  -2.81136694335938E+0003  -2.81177514648438E+0003  -2.81219433593750E+0003  -2.81254907226563E+0003  -2.81287573242188E+0003  -2.81314599609375E+0003  -2.81343872070313E+0003  -2.81379516601563E+0003  -2.81416210937500E+0003  -2.81442163085938E+0003  -2.81429199218750E+0003  -2.81351074218750E+0003  -2.81229296875000E+0003  -2.81092333984375E+0003  -2.80969799804688E+0003  -2.80887670898438E+0003  -2.80838549804688E+0003  -2.80805810546875E+0003  -2.80776879882813E+0003  -2.80748388671875E+0003  -2.80720019531250E+0003  -2.80681835937500E+0003  -2.80623730468750E+0003  -2.80539624023438E+0003  -2.80434765625000E+0003  -2.80315625000000E+0003  -2.80189428710938E+0003  -2.80064477539063E+0003  -2.79951562500000E+0003  -2.79863330078125E+0003  -2.79815502929688E+0003  -2.79814331054688E+0003  -2.79849682617188E+0003  -2.79910205078125E+0003  -2.79985449218750E+0003  -2.80068139648438E+0003  -2.80153100585938E+0003  -2.80235302734375E+0003  -2.80313720703125E+0003  -2.80387109375000E+0003  -2.80456054687500E+0003  -2.80521166992188E+0003  -2.80583032226563E+0003  -2.80642163085938E+0003  -2.80698266601563E+0003  -2.80750756835938E+0003  -2.80799438476563E+0003  -2.80844531250000E+0003  -2.80886547851563E+0003  -2.80926000976563E+0003  -2.80963110351563E+0003  -2.80998706054688E+0003  -2.81032958984375E+0003  -2.81066601562500E+0003  -2.81100073242188E+0003  -2.81133007812500E+0003  -2.81165649414063E+0003  -2.81197802734375E+0003  -2.81229345703125E+0003  -2.81260180664063E+0003  -2.81290209960938E+0003  -2.81319140625000E+0003
  -2.82778417968750E+0003  -2.82739575195313E+0003  -2.82698486328125E+0003  -2.82655224609375E+0003  -2.82609814453125E+0003  -2.82562402343750E+0003  -2.82513061523438E+0003  -2.82461865234375E+0003  -2.82408740234375E+0003  -2.82353588867188E+0003  -2.82296337890625E+0003  -2.82236914062500E+0003  -2.82175170898438E+0003  -2.82111059570313E+0003  -2.82044506835938E+0003  -2.81975708007813E+0003  -2.81905688476563E+0003  -2.81835644531250E+0003  -2.81766796875000E+0003  -2.81700488281250E+0003  -2.81638427734375E+0003  -2.81584350585938E+0003  -2.81541162109375E+0003  -2.81505688476563E+0003  -2.81476635742188E+0003  -2.81453295898438E+0003  -2.81434448242188E+0003  -2.81417089843750E+0003  -2.81395825195313E+0003  -2.81372583007813E+0003  -2.81341601562500E+0003  -2.81299169921875E+0003  -2.81249194335938E+0003  -2.81196044921875E+0003  -2.81143920898438E+0003  -2.81094482421875E+0003  -2.81047875976563E+0003  -2.81003979492188E+0003  -2.80962622070313E+0003  -2.80923657226563E+0003  -2.80886889648438E+0003  -2.80852197265625E+0003  -2.80819506835938E+0003  -2.80789501953125E+0003  -2.80763647460938E+0003  -2.80744580078125E+0003  -2.80733056640625E+0003  -2.80730419921875E+0003  -2.80737744140625E+0003  -2.80756054687500E+0003  -2.80785937500000E+0003  -2.80825366210938E+0003  -2.80871948242188E+0003  -2.80921142578125E+0003  -2.80971362304688E+0003  -2.81020703125000E+0003  -2.81067602539063E+0003  -2.81110375976563E+0003  -2.81146972656250E+0003  -2.81173876953125E+0003  -2.81189257812500E+0003  -2.81197265625000E+0003  -2.81203881835938E+0003  -2.81210205078125E+0003  -2.81212646484375E+0003  -2.81210034179688E+0003  -2.81200415039063E+0003  -2.81180297851563E+0003  -2.81146704101563E+0003  -2.81097900390625E+0003  -2.81034936523438E+0003  -2.80963037109375E+0003  -2.80887109375000E+0003  -2.80811059570313E+0003  -2.80736914062500E+0003  -2.80664208984375E+0003  -2.80592407226563E+0003  -2.80521020507813E+0003  -2.80450830078125E+0003  -2.80383935546875E+0003  -2.80322509765625E+0003  -2.80277172851563E+0003  -2.80252221679688E+0003  -2.80244140625000E+0003  -2.80251757812500E+0003  -2.80283471679688E+0003  -2.80334326171875E+0003  -2.80399609375000E+0003  -2.80447509765625E+0003  -2.80493774414063E+0003  -2.80547900390625E+0003  -2.80610180664063E+0003  -2.80680444335938E+0003  -2.80759375000000E+0003  -2.80845458984375E+0003  -2.80936010742188E+0003  -2.81030078125000E+0003  -2.81124560546875E+0003  -2.81216723632813E+0003  -2.81302539062500E+0003  -2.81378808593750E+0003  -2.81442089843750E+0003  -2.81491967773438E+0003  -2.81527832031250E+0003  -2.81549926757813E+0003  -2.81557690429688E+0003  -2.81553027343750E+0003  -2.81536254882813E+0003  -2.81508911132813E+0003  -2.81473339843750E+0003  -2.81434863281250E+0003  -2.81398876953125E+0003  -2.81371069335938E+0003  -2.81353466796875E+0003  -2.81342285156250E+0003  -2.81332421875000E+0003  -2.81319555664063E+0003  -2.81301098632813E+0003  -2.81277368164063E+0003  -2.81248706054688E+0003  -2.81215161132813E+0003  -2.81178100585938E+0003  -2.81138989257813E+0003  -2.81098632812500E+0003  -2.81058593750000E+0003  -2.81018969726563E+0003  -2.80979345703125E+0003  -2.80939794921875E+0003  -2.80900195312500E+0003  -2.80859790039063E+0003  -2.80818920898438E+0003  -2.80777465820313E+0003  -2.80735253906250E+0003  -2.80692578125000E+0003  -2.80650390625000E+0003  -2.80609741210938E+0003  -2.80571240234375E+0003  -2.80535327148438E+0003  -2.80503051757813E+0003  -2.80474877929688E+0003  -2.80451196289063E+0003  -2.80433251953125E+0003  -2.80421533203125E+0003  -2.80416870117188E+0003  -2.80420239257813E+0003  -2.80433081054688E+0003  -2.80455981445313E+0003  -2.80490820312500E+0003  -2.80538232421875E+0003  -2.80595434570313E+0003  -2.80660498046875E+0003  -2.80730810546875E+0003  -2.80803466796875E+0003  -2.80873583984375E+0003  -2.80936108398438E+0003  -2.80986083984375E+0003  -2.81021069335938E+0003  -2.81043847656250E+0003  -2.81057031250000E+0003  -2.81063940429688E+0003  -2.81066406250000E+0003  -2.81065136718750E+0003  -2.81060937500000E+0003  -2.81054248046875E+0003  -2.81046044921875E+0003  -2.81038378906250E+0003  -2.81033251953125E+0003  -2.81032177734375E+0003  -2.81036791992188E+0003  -2.81048046875000E+0003  -2.81066748046875E+0003  -2.81093896484375E+0003  -2.81128881835938E+0003  -2.81169726562500E+0003  -2.81215039062500E+0003  -2.81259936523438E+0003  -2.81293359375000E+0003  -2.81319653320313E+0003  -2.81346362304688E+0003  -2.81376513671875E+0003  -2.81402783203125E+0003  -2.81411889648438E+0003  -2.81379541015625E+0003  -2.81284545898438E+0003  -2.81148339843750E+0003  -2.80998828125000E+0003  -2.80868237304688E+0003  -2.80785571289063E+0003  -2.80741796875000E+0003  -2.80717138671875E+0003  -2.80690161132813E+0003  -2.80666333007813E+0003  -2.80638818359375E+0003  -2.80600341796875E+0003  -2.80542724609375E+0003  -2.80461157226563E+0003  -2.80360937500000E+0003  -2.80248486328125E+0003  -2.80131152343750E+0003  -2.80016870117188E+0003  -2.79915527343750E+0003  -2.79838134765625E+0003  -2.79797192382813E+0003  -2.79797558593750E+0003  -2.79830981445313E+0003  -2.79888208007813E+0003  -2.79960424804688E+0003  -2.80040991210938E+0003  -2.80126293945313E+0003  -2.80209472656250E+0003  -2.80286694335938E+0003  -2.80358886718750E+0003  -2.80426953125000E+0003  -2.80490893554688E+0003  -2.80552148437500E+0003  -2.80610449218750E+0003  -2.80665527343750E+0003  -2.80717382812500E+0003  -2.80765429687500E+0003  -2.80810034179688E+0003  -2.80851660156250E+0003  -2.80890917968750E+0003  -2.80928002929688E+0003  -2.80963476562500E+0003  -2.80997949218750E+0003  -2.81031665039063E+0003  -2.81065087890625E+0003  -2.81098144531250E+0003  -2.81131054687500E+0003  -2.81163305664063E+0003  -2.81195019531250E+0003  -2.81226025390625E+0003  -2.81256274414063E+0003  -2.81285253906250E+0003
  -2.82711157226563E+0003  -2.82672021484375E+0003  -2.82630712890625E+0003  -2.82587304687500E+0003  -2.82541870117188E+0003  -2.82494506835938E+0003  -2.82445288085938E+0003  -2.82394262695313E+0003  -2.82341430664063E+0003  -2.82286816406250E+0003  -2.82230297851563E+0003  -2.82171948242188E+0003  -2.82111669921875E+0003  -2.82049462890625E+0003  -2.81985302734375E+0003  -2.81919409179688E+0003  -2.81852636718750E+0003  -2.81786035156250E+0003  -2.81720605468750E+0003  -2.81657543945313E+0003  -2.81598291015625E+0003  -2.81544458007813E+0003  -2.81497509765625E+0003  -2.81461254882813E+0003  -2.81433154296875E+0003  -2.81410131835938E+0003  -2.81391113281250E+0003  -2.81373022460938E+0003  -2.81349951171875E+0003  -2.81320922851563E+0003  -2.81282934570313E+0003  -2.81232055664063E+0003  -2.81173632812500E+0003  -2.81113134765625E+0003  -2.81055419921875E+0003  -2.81002807617188E+0003  -2.80954760742188E+0003  -2.80910522460938E+0003  -2.80869360351563E+0003  -2.80830639648438E+0003  -2.80793847656250E+0003  -2.80758544921875E+0003  -2.80724487304688E+0003  -2.80693041992188E+0003  -2.80665502929688E+0003  -2.80645263671875E+0003  -2.80634497070313E+0003  -2.80633813476563E+0003  -2.80643432617188E+0003  -2.80663720703125E+0003  -2.80694702148438E+0003  -2.80735253906250E+0003  -2.80784790039063E+0003  -2.80838867187500E+0003  -2.80897460937500E+0003  -2.80957690429688E+0003  -2.81016381835938E+0003  -2.81070068359375E+0003  -2.81114648437500E+0003  -2.81144506835938E+0003  -2.81157202148438E+0003  -2.81161157226563E+0003  -2.81168627929688E+0003  -2.81176879882813E+0003  -2.81182617187500E+0003  -2.81183227539063E+0003  -2.81175097656250E+0003  -2.81152929687500E+0003  -2.81112622070313E+0003  -2.81052392578125E+0003  -2.80974682617188E+0003  -2.80888305664063E+0003  -2.80801318359375E+0003  -2.80719946289063E+0003  -2.80646777343750E+0003  -2.80579931640625E+0003  -2.80517358398438E+0003  -2.80457006835938E+0003  -2.80398437500000E+0003  -2.80342919921875E+0003  -2.80295825195313E+0003  -2.80267602539063E+0003  -2.80252368164063E+0003  -2.80251147460938E+0003  -2.80263305664063E+0003  -2.80296630859375E+0003  -2.80347094726563E+0003  -2.80405102539063E+0003  -2.80440283203125E+0003  -2.80484204101563E+0003  -2.80536206054688E+0003  -2.80596484375000E+0003  -2.80665893554688E+0003  -2.80744067382813E+0003  -2.80829394531250E+0003  -2.80918969726563E+0003  -2.81009570312500E+0003  -2.81098803710938E+0003  -2.81184838867188E+0003  -2.81266015625000E+0003  -2.81339941406250E+0003  -2.81405541992188E+0003  -2.81462182617188E+0003  -2.81509326171875E+0003  -2.81546630859375E+0003  -2.81573876953125E+0003  -2.81589843750000E+0003  -2.81593994140625E+0003  -2.81585424804688E+0003  -2.81564941406250E+0003  -2.81537646484375E+0003  -2.81509326171875E+0003  -2.81485595703125E+0003  -2.81468823242188E+0003  -2.81455517578125E+0003  -2.81441284179688E+0003  -2.81422216796875E+0003  -2.81396215820313E+0003  -2.81364453125000E+0003  -2.81327587890625E+0003  -2.81287133789063E+0003  -2.81243920898438E+0003  -2.81199218750000E+0003  -2.81154248046875E+0003  -2.81109814453125E+0003  -2.81066333007813E+0003  -2.81023193359375E+0003  -2.80980297851563E+0003  -2.80937353515625E+0003  -2.80893872070313E+0003  -2.80850073242188E+0003  -2.80805859375000E+0003  -2.80761108398438E+0003  -2.80716186523438E+0003  -2.80671972656250E+0003  -2.80629443359375E+0003  -2.80588745117188E+0003  -2.80550683593750E+0003  -2.80516137695313E+0003  -2.80485302734375E+0003  -2.80458862304688E+0003  -2.80437304687500E+0003  -2.80421850585938E+0003  -2.80412719726563E+0003  -2.80410668945313E+0003  -2.80417260742188E+0003  -2.80433813476563E+0003  -2.80462182617188E+0003  -2.80502661132813E+0003  -2.80554199218750E+0003  -2.80615039062500E+0003  -2.80682519531250E+0003  -2.80754492187500E+0003  -2.80826098632813E+0003  -2.80892138671875E+0003  -2.80947729492188E+0003  -2.80990283203125E+0003  -2.81020996093750E+0003  -2.81041943359375E+0003  -2.81055444335938E+0003  -2.81063085937500E+0003  -2.81065429687500E+0003  -2.81063598632813E+0003  -2.81057885742188E+0003  -2.81049804687500E+0003  -2.81040991210938E+0003  -2.81033935546875E+0003  -2.81030664062500E+0003  -2.81032421875000E+0003  -2.81040649414063E+0003  -2.81056567382813E+0003  -2.81080981445313E+0003  -2.81113623046875E+0003  -2.81152099609375E+0003  -2.81194995117188E+0003  -2.81240112304688E+0003  -2.81283715820313E+0003  -2.81306494140625E+0003  -2.81327368164063E+0003  -2.81347827148438E+0003  -2.81359375000000E+0003  -2.81348193359375E+0003  -2.81295629882813E+0003  -2.81186499023438E+0003  -2.81039184570313E+0003  -2.80878076171875E+0003  -2.80740625000000E+0003  -2.80661987304688E+0003  -2.80630810546875E+0003  -2.80611938476563E+0003  -2.80604101562500E+0003  -2.80591894531250E+0003  -2.80570117187500E+0003  -2.80535644531250E+0003  -2.80482104492188E+0003  -2.80405957031250E+0003  -2.80312670898438E+0003  -2.80208715820313E+0003  -2.80101391601563E+0003  -2.79998339843750E+0003  -2.79908398437500E+0003  -2.79840966796875E+0003  -2.79805761718750E+0003  -2.79806591796875E+0003  -2.79836914062500E+0003  -2.79889306640625E+0003  -2.79956518554688E+0003  -2.80032714843750E+0003  -2.80114111328125E+0003  -2.80196948242188E+0003  -2.80271752929688E+0003  -2.80341259765625E+0003  -2.80406762695313E+0003  -2.80468798828125E+0003  -2.80527954101563E+0003  -2.80584326171875E+0003  -2.80637963867188E+0003  -2.80688159179688E+0003  -2.80735205078125E+0003  -2.80778833007813E+0003  -2.80819946289063E+0003  -2.80858691406250E+0003  -2.80895458984375E+0003  -2.80930859375000E+0003  -2.80965112304688E+0003  -2.80998779296875E+0003  -2.81032104492188E+0003  -2.81065405273438E+0003  -2.81098193359375E+0003  -2.81130590820313E+0003  -2.81162500000000E+0003  -2.81193505859375E+0003  -2.81223828125000E+0003  -2.81252954101563E+0003
  -2.82645166015625E+0003  -2.82605834960938E+0003  -2.82564428710938E+0003  -2.82520996093750E+0003  -2.82475634765625E+0003  -2.82428393554688E+0003  -2.82379370117188E+0003  -2.82328662109375E+0003  -2.82276245117188E+0003  -2.82222167968750E+0003  -2.82166406250000E+0003  -2.82109057617188E+0003  -2.82050073242188E+0003  -2.81989501953125E+0003  -2.81927368164063E+0003  -2.81863867187500E+0003  -2.81799731445313E+0003  -2.81735839843750E+0003  -2.81672998046875E+0003  -2.81612207031250E+0003  -2.81554785156250E+0003  -2.81502099609375E+0003  -2.81455444335938E+0003  -2.81415625000000E+0003  -2.81382128906250E+0003  -2.81357910156250E+0003  -2.81337841796875E+0003  -2.81318359375000E+0003  -2.81293505859375E+0003  -2.81260546875000E+0003  -2.81217333984375E+0003  -2.81160864257813E+0003  -2.81096972656250E+0003  -2.81031787109375E+0003  -2.80970678710938E+0003  -2.80916308593750E+0003  -2.80867553710938E+0003  -2.80823266601563E+0003  -2.80782153320313E+0003  -2.80743359375000E+0003  -2.80706152343750E+0003  -2.80669946289063E+0003  -2.80634423828125E+0003  -2.80601245117188E+0003  -2.80572363281250E+0003  -2.80551171875000E+0003  -2.80540576171875E+0003  -2.80541259765625E+0003  -2.80552856445313E+0003  -2.80575170898438E+0003  -2.80608105468750E+0003  -2.80653466796875E+0003  -2.80705224609375E+0003  -2.80765844726563E+0003  -2.80834252929688E+0003  -2.80906201171875E+0003  -2.80976708984375E+0003  -2.81040332031250E+0003  -2.81091162109375E+0003  -2.81121899414063E+0003  -2.81130004882813E+0003  -2.81127490234375E+0003  -2.81130273437500E+0003  -2.81136401367188E+0003  -2.81141137695313E+0003  -2.81140917968750E+0003  -2.81131176757813E+0003  -2.81105566406250E+0003  -2.81059228515625E+0003  -2.80990551757813E+0003  -2.80903002929688E+0003  -2.80807690429688E+0003  -2.80714770507813E+0003  -2.80631909179688E+0003  -2.80562011718750E+0003  -2.80502099609375E+0003  -2.80448828125000E+0003  -2.80398925781250E+0003  -2.80351049804688E+0003  -2.80308300781250E+0003  -2.80284130859375E+0003  -2.80268896484375E+0003  -2.80263964843750E+0003  -2.80268261718750E+0003  -2.80287182617188E+0003  -2.80321948242188E+0003  -2.80371215820313E+0003  -2.80403808593750E+0003  -2.80435693359375E+0003  -2.80476049804688E+0003  -2.80524487304688E+0003  -2.80581811523438E+0003  -2.80649365234375E+0003  -2.80727294921875E+0003  -2.80813256835938E+0003  -2.80903222656250E+0003  -2.80993090820313E+0003  -2.81078540039063E+0003  -2.81159082031250E+0003  -2.81235229492188E+0003  -2.81307397460938E+0003  -2.81375830078125E+0003  -2.81439770507813E+0003  -2.81498046875000E+0003  -2.81550439453125E+0003  -2.81595654296875E+0003  -2.81631420898438E+0003  -2.81654565429688E+0003  -2.81661523437500E+0003  -2.81652612304688E+0003  -2.81633740234375E+0003  -2.81610473632813E+0003  -2.81590161132813E+0003  -2.81575439453125E+0003  -2.81562475585938E+0003  -2.81546948242188E+0003  -2.81524438476563E+0003  -2.81493164062500E+0003  -2.81454760742188E+0003  -2.81410888671875E+0003  -2.81363183593750E+0003  -2.81313427734375E+0003  -2.81262744140625E+0003  -2.81212182617188E+0003  -2.81162963867188E+0003  -2.81115112304688E+0003  -2.81068408203125E+0003  -2.81022045898438E+0003  -2.80975561523438E+0003  -2.80928979492188E+0003  -2.80882006835938E+0003  -2.80834814453125E+0003  -2.80787402343750E+0003  -2.80740283203125E+0003  -2.80693847656250E+0003  -2.80649169921875E+0003  -2.80606396484375E+0003  -2.80565893554688E+0003  -2.80528637695313E+0003  -2.80494873046875E+0003  -2.80465185546875E+0003  -2.80440063476563E+0003  -2.80419873046875E+0003  -2.80405395507813E+0003  -2.80396801757813E+0003  -2.80396142578125E+0003  -2.80405175781250E+0003  -2.80425878906250E+0003  -2.80459545898438E+0003  -2.80504711914063E+0003  -2.80561035156250E+0003  -2.80626635742188E+0003  -2.80699389648438E+0003  -2.80773999023438E+0003  -2.80845385742188E+0003  -2.80907934570313E+0003  -2.80958422851563E+0003  -2.80997680664063E+0003  -2.81026757812500E+0003  -2.81047363281250E+0003  -2.81060229492188E+0003  -2.81066284179688E+0003  -2.81066259765625E+0003  -2.81061181640625E+0003  -2.81052172851563E+0003  -2.81041992187500E+0003  -2.81032397460938E+0003  -2.81026318359375E+0003  -2.81024975585938E+0003  -2.81029785156250E+0003  -2.81041943359375E+0003  -2.81062695312500E+0003  -2.81091357421875E+0003  -2.81125805664063E+0003  -2.81163842773438E+0003  -2.81203735351563E+0003  -2.81243676757813E+0003  -2.81271801757813E+0003  -2.81289575195313E+0003  -2.81297387695313E+0003  -2.81292187500000E+0003  -2.81261279296875E+0003  -2.81191333007813E+0003  -2.81072680664063E+0003  -2.80919287109375E+0003  -2.80750878906250E+0003  -2.80610351562500E+0003  -2.80536743164063E+0003  -2.80507470703125E+0003  -2.80513891601563E+0003  -2.80528735351563E+0003  -2.80530493164063E+0003  -2.80516845703125E+0003  -2.80488720703125E+0003  -2.80441601562500E+0003  -2.80372949218750E+0003  -2.80288232421875E+0003  -2.80194311523438E+0003  -2.80097656250000E+0003  -2.80005786132813E+0003  -2.79926391601563E+0003  -2.79867260742188E+0003  -2.79836376953125E+0003  -2.79836767578125E+0003  -2.79863232421875E+0003  -2.79909838867188E+0003  -2.79970678710938E+0003  -2.80040771484375E+0003  -2.80116430664063E+0003  -2.80193994140625E+0003  -2.80267700195313E+0003  -2.80332739257813E+0003  -2.80394580078125E+0003  -2.80453344726563E+0003  -2.80509765625000E+0003  -2.80563574218750E+0003  -2.80614697265625E+0003  -2.80663061523438E+0003  -2.80708398437500E+0003  -2.80750830078125E+0003  -2.80790893554688E+0003  -2.80828955078125E+0003  -2.80865258789063E+0003  -2.80900268554688E+0003  -2.80934399414063E+0003  -2.80967944335938E+0003  -2.81001245117188E+0003  -2.81034350585938E+0003  -2.81067285156250E+0003  -2.81099658203125E+0003  -2.81131665039063E+0003  -2.81162670898438E+0003  -2.81192968750000E+0003  -2.81222216796875E+0003
  -2.82580395507813E+0003  -2.82540966796875E+0003  -2.82499536132813E+0003  -2.82456176757813E+0003  -2.82410986328125E+0003  -2.82363964843750E+0003  -2.82315258789063E+0003  -2.82264892578125E+0003  -2.82212963867188E+0003  -2.82159448242188E+0003  -2.82104467773438E+0003  -2.82048046875000E+0003  -2.81990209960938E+0003  -2.81931054687500E+0003  -2.81870629882813E+0003  -2.81809057617188E+0003  -2.81747045898438E+0003  -2.81685205078125E+0003  -2.81624243164063E+0003  -2.81564965820313E+0003  -2.81508520507813E+0003  -2.81456103515625E+0003  -2.81408862304688E+0003  -2.81367431640625E+0003  -2.81331567382813E+0003  -2.81300903320313E+0003  -2.81275634765625E+0003  -2.81253906250000E+0003  -2.81226855468750E+0003  -2.81191601562500E+0003  -2.81144555664063E+0003  -2.81084643554688E+0003  -2.81017724609375E+0003  -2.80950244140625E+0003  -2.80887792968750E+0003  -2.80832763671875E+0003  -2.80783886718750E+0003  -2.80739599609375E+0003  -2.80698413085938E+0003  -2.80659252929688E+0003  -2.80621362304688E+0003  -2.80584204101563E+0003  -2.80547460937500E+0003  -2.80513037109375E+0003  -2.80483203125000E+0003  -2.80461669921875E+0003  -2.80451635742188E+0003  -2.80453588867188E+0003  -2.80467089843750E+0003  -2.80491625976563E+0003  -2.80527246093750E+0003  -2.80575781250000E+0003  -2.80632031250000E+0003  -2.80699438476563E+0003  -2.80777294921875E+0003  -2.80860278320313E+0003  -2.80941748046875E+0003  -2.81014843750000E+0003  -2.81072412109375E+0003  -2.81106689453125E+0003  -2.81114746093750E+0003  -2.81108642578125E+0003  -2.81101611328125E+0003  -2.81098315429688E+0003  -2.81093041992188E+0003  -2.81083398437500E+0003  -2.81065649414063E+0003  -2.81033715820313E+0003  -2.80982714843750E+0003  -2.80910473632813E+0003  -2.80820190429688E+0003  -2.80723217773438E+0003  -2.80630297851563E+0003  -2.80550097656250E+0003  -2.80485766601563E+0003  -2.80433569335938E+0003  -2.80389379882813E+0003  -2.80349096679688E+0003  -2.80310766601563E+0003  -2.80292456054688E+0003  -2.80283398437500E+0003  -2.80281225585938E+0003  -2.80285888671875E+0003  -2.80299584960938E+0003  -2.80323632812500E+0003  -2.80360083007813E+0003  -2.80387280273438E+0003  -2.80406958007813E+0003  -2.80434692382813E+0003  -2.80469458007813E+0003  -2.80512207031250E+0003  -2.80564624023438E+0003  -2.80628735351563E+0003  -2.80705688476563E+0003  -2.80793237304688E+0003  -2.80886669921875E+0003  -2.80978686523438E+0003  -2.81062011718750E+0003  -2.81137792968750E+0003  -2.81209082031250E+0003  -2.81278979492188E+0003  -2.81349926757813E+0003  -2.81420581054688E+0003  -2.81489697265625E+0003  -2.81555957031250E+0003  -2.81617700195313E+0003  -2.81670971679688E+0003  -2.81710058593750E+0003  -2.81730371093750E+0003  -2.81730615234375E+0003  -2.81717260742188E+0003  -2.81698315429688E+0003  -2.81681420898438E+0003  -2.81669799804688E+0003  -2.81659204101563E+0003  -2.81644677734375E+0003  -2.81621044921875E+0003  -2.81586376953125E+0003  -2.81542700195313E+0003  -2.81492871093750E+0003  -2.81439038085938E+0003  -2.81383081054688E+0003  -2.81326538085938E+0003  -2.81270629882813E+0003  -2.81216284179688E+0003  -2.81164160156250E+0003  -2.81113500976563E+0003  -2.81063500976563E+0003  -2.81013891601563E+0003  -2.80963818359375E+0003  -2.80913769531250E+0003  -2.80863720703125E+0003  -2.80813745117188E+0003  -2.80764453125000E+0003  -2.80715917968750E+0003  -2.80668920898438E+0003  -2.80623803710938E+0003  -2.80581225585938E+0003  -2.80541137695313E+0003  -2.80504516601563E+0003  -2.80471264648438E+0003  -2.80441918945313E+0003  -2.80416650390625E+0003  -2.80396337890625E+0003  -2.80381030273438E+0003  -2.80372705078125E+0003  -2.80373730468750E+0003  -2.80386669921875E+0003  -2.80412915039063E+0003  -2.80452514648438E+0003  -2.80504418945313E+0003  -2.80568432617188E+0003  -2.80642236328125E+0003  -2.80720556640625E+0003  -2.80797900390625E+0003  -2.80867456054688E+0003  -2.80926245117188E+0003  -2.80973779296875E+0003  -2.81010986328125E+0003  -2.81038012695313E+0003  -2.81055761718750E+0003  -2.81065332031250E+0003  -2.81067187500000E+0003  -2.81062402343750E+0003  -2.81052685546875E+0003  -2.81040649414063E+0003  -2.81028515625000E+0003  -2.81019458007813E+0003  -2.81014575195313E+0003  -2.81015942382813E+0003  -2.81024072265625E+0003  -2.81040112304688E+0003  -2.81064038085938E+0003  -2.81092993164063E+0003  -2.81124707031250E+0003  -2.81157250976563E+0003  -2.81188696289063E+0003  -2.81213012695313E+0003  -2.81223242187500E+0003  -2.81224047851563E+0003  -2.81208129882813E+0003  -2.81165893554688E+0003  -2.81088159179688E+0003  -2.80967553710938E+0003  -2.80816674804688E+0003  -2.80651782226563E+0003  -2.80511401367188E+0003  -2.80432958984375E+0003  -2.80421875000000E+0003  -2.80446289062500E+0003  -2.80476025390625E+0003  -2.80487597656250E+0003  -2.80480566406250E+0003  -2.80458422851563E+0003  -2.80418066406250E+0003  -2.80357641601563E+0003  -2.80282470703125E+0003  -2.80198999023438E+0003  -2.80113696289063E+0003  -2.80032934570313E+0003  -2.79963085937500E+0003  -2.79911010742188E+0003  -2.79883251953125E+0003  -2.79882421875000E+0003  -2.79904443359375E+0003  -2.79944628906250E+0003  -2.79998291015625E+0003  -2.80061206054688E+0003  -2.80129931640625E+0003  -2.80201025390625E+0003  -2.80271118164063E+0003  -2.80331518554688E+0003  -2.80388696289063E+0003  -2.80443579101563E+0003  -2.80496362304688E+0003  -2.80546972656250E+0003  -2.80595410156250E+0003  -2.80641210937500E+0003  -2.80684570312500E+0003  -2.80725537109375E+0003  -2.80764379882813E+0003  -2.80801611328125E+0003  -2.80837402343750E+0003  -2.80871875000000E+0003  -2.80905810546875E+0003  -2.80939184570313E+0003  -2.80972338867188E+0003  -2.81005419921875E+0003  -2.81038208007813E+0003  -2.81070556640625E+0003  -2.81102343750000E+0003  -2.81133496093750E+0003  -2.81163671875000E+0003  -2.81193212890625E+0003
  -2.82516821289063E+0003  -2.82477368164063E+0003  -2.82436010742188E+0003  -2.82392822265625E+0003  -2.82347827148438E+0003  -2.82301171875000E+0003  -2.82252832031250E+0003  -2.82202905273438E+0003  -2.82151464843750E+0003  -2.82098583984375E+0003  -2.82044311523438E+0003  -2.81988769531250E+0003  -2.81931982421875E+0003  -2.81874023437500E+0003  -2.81814965820313E+0003  -2.81754980468750E+0003  -2.81694628906250E+0003  -2.81634301757813E+0003  -2.81574633789063E+0003  -2.81516308593750E+0003  -2.81460205078125E+0003  -2.81407348632813E+0003  -2.81358764648438E+0003  -2.81314990234375E+0003  -2.81275927734375E+0003  -2.81241357421875E+0003  -2.81211035156250E+0003  -2.81182861328125E+0003  -2.81152221679688E+0003  -2.81114257812500E+0003  -2.81064331054688E+0003  -2.81002514648438E+0003  -2.80934692382813E+0003  -2.80866894531250E+0003  -2.80804687500000E+0003  -2.80749926757813E+0003  -2.80701293945313E+0003  -2.80657055664063E+0003  -2.80615551757813E+0003  -2.80575781250000E+0003  -2.80537109375000E+0003  -2.80499145507813E+0003  -2.80461767578125E+0003  -2.80426977539063E+0003  -2.80397094726563E+0003  -2.80376245117188E+0003  -2.80367578125000E+0003  -2.80371533203125E+0003  -2.80387304687500E+0003  -2.80414477539063E+0003  -2.80455639648438E+0003  -2.80503955078125E+0003  -2.80564062500000E+0003  -2.80636938476563E+0003  -2.80722265625000E+0003  -2.80813916015625E+0003  -2.80904248046875E+0003  -2.80985644531250E+0003  -2.81050366210938E+0003  -2.81090185546875E+0003  -2.81101269531250E+0003  -2.81093432617188E+0003  -2.81076367187500E+0003  -2.81056884765625E+0003  -2.81036474609375E+0003  -2.81012036132813E+0003  -2.80981982421875E+0003  -2.80941723632813E+0003  -2.80887084960938E+0003  -2.80815405273438E+0003  -2.80728955078125E+0003  -2.80637524414063E+0003  -2.80550854492188E+0003  -2.80477685546875E+0003  -2.80421069335938E+0003  -2.80377148437500E+0003  -2.80341503906250E+0003  -2.80309790039063E+0003  -2.80288305664063E+0003  -2.80289013671875E+0003  -2.80294677734375E+0003  -2.80305541992188E+0003  -2.80321508789063E+0003  -2.80343823242188E+0003  -2.80373657226563E+0003  -2.80391381835938E+0003  -2.80400146484375E+0003  -2.80416040039063E+0003  -2.80438134765625E+0003  -2.80464916992188E+0003  -2.80498803710938E+0003  -2.80542626953125E+0003  -2.80600585937500E+0003  -2.80675683593750E+0003  -2.80765429687500E+0003  -2.80864770507813E+0003  -2.80962060546875E+0003  -2.81044824218750E+0003  -2.81116357421875E+0003  -2.81182983398438E+0003  -2.81250732421875E+0003  -2.81323999023438E+0003  -2.81401440429688E+0003  -2.81479833984375E+0003  -2.81558032226563E+0003  -2.81633496093750E+0003  -2.81700659179688E+0003  -2.81753125000000E+0003  -2.81784326171875E+0003  -2.81792285156250E+0003  -2.81784301757813E+0003  -2.81769311523438E+0003  -2.81756127929688E+0003  -2.81748608398438E+0003  -2.81741650390625E+0003  -2.81729467773438E+0003  -2.81706323242188E+0003  -2.81670092773438E+0003  -2.81623144531250E+0003  -2.81568774414063E+0003  -2.81510034179688E+0003  -2.81448876953125E+0003  -2.81387158203125E+0003  -2.81326318359375E+0003  -2.81267944335938E+0003  -2.81211694335938E+0003  -2.81157519531250E+0003  -2.81104321289063E+0003  -2.81051074218750E+0003  -2.80997778320313E+0003  -2.80944799804688E+0003  -2.80891870117188E+0003  -2.80839453125000E+0003  -2.80788012695313E+0003  -2.80737402343750E+0003  -2.80688452148438E+0003  -2.80641259765625E+0003  -2.80595971679688E+0003  -2.80553564453125E+0003  -2.80513720703125E+0003  -2.80477124023438E+0003  -2.80443750000000E+0003  -2.80413793945313E+0003  -2.80387719726563E+0003  -2.80365527343750E+0003  -2.80350024414063E+0003  -2.80343505859375E+0003  -2.80348852539063E+0003  -2.80368408203125E+0003  -2.80402148437500E+0003  -2.80450366210938E+0003  -2.80512792968750E+0003  -2.80587866210938E+0003  -2.80669824218750E+0003  -2.80751928710938E+0003  -2.80828149414063E+0003  -2.80894067382813E+0003  -2.80948828125000E+0003  -2.80993139648438E+0003  -2.81026123046875E+0003  -2.81048535156250E+0003  -2.81061328125000E+0003  -2.81065087890625E+0003  -2.81060644531250E+0003  -2.81050292968750E+0003  -2.81036694335938E+0003  -2.81022192382813E+0003  -2.81010034179688E+0003  -2.81002172851563E+0003  -2.80999584960938E+0003  -2.81003540039063E+0003  -2.81014819335938E+0003  -2.81033081054688E+0003  -2.81055688476563E+0003  -2.81080566406250E+0003  -2.81105395507813E+0003  -2.81127636718750E+0003  -2.81144775390625E+0003  -2.81148754882813E+0003  -2.81136743164063E+0003  -2.81107690429688E+0003  -2.81055444335938E+0003  -2.80974121093750E+0003  -2.80860986328125E+0003  -2.80725415039063E+0003  -2.80578198242188E+0003  -2.80447143554688E+0003  -2.80388525390625E+0003  -2.80389746093750E+0003  -2.80423046875000E+0003  -2.80455981445313E+0003  -2.80468212890625E+0003  -2.80462866210938E+0003  -2.80443554687500E+0003  -2.80408178710938E+0003  -2.80355493164063E+0003  -2.80290161132813E+0003  -2.80217529296875E+0003  -2.80143212890625E+0003  -2.80072680664063E+0003  -2.80011572265625E+0003  -2.79965527343750E+0003  -2.79939941406250E+0003  -2.79937377929688E+0003  -2.79954760742188E+0003  -2.79988427734375E+0003  -2.80034667968750E+0003  -2.80090014648438E+0003  -2.80151318359375E+0003  -2.80215356445313E+0003  -2.80279101562500E+0003  -2.80335864257813E+0003  -2.80388110351563E+0003  -2.80438476562500E+0003  -2.80487036132813E+0003  -2.80534008789063E+0003  -2.80579174804688E+0003  -2.80622192382813E+0003  -2.80663525390625E+0003  -2.80702709960938E+0003  -2.80740429687500E+0003  -2.80776440429688E+0003  -2.80811547851563E+0003  -2.80845605468750E+0003  -2.80879125976563E+0003  -2.80912255859375E+0003  -2.80945312500000E+0003  -2.80978173828125E+0003  -2.81010913085938E+0003  -2.81043090820313E+0003  -2.81074658203125E+0003  -2.81105639648438E+0003  -2.81136132812500E+0003  -2.81165380859375E+0003
  -2.82454443359375E+0003  -2.82415039062500E+0003  -2.82373779296875E+0003  -2.82330810546875E+0003  -2.82286108398438E+0003  -2.82239819335938E+0003  -2.82191943359375E+0003  -2.82142529296875E+0003  -2.82091625976563E+0003  -2.82039379882813E+0003  -2.81985815429688E+0003  -2.81931079101563E+0003  -2.81875219726563E+0003  -2.81818261718750E+0003  -2.81760400390625E+0003  -2.81701684570313E+0003  -2.81642504882813E+0003  -2.81583325195313E+0003  -2.81524536132813E+0003  -2.81466650390625E+0003  -2.81410400390625E+0003  -2.81356665039063E+0003  -2.81306225585938E+0003  -2.81259521484375E+0003  -2.81216601562500E+0003  -2.81177294921875E+0003  -2.81141528320313E+0003  -2.81107568359375E+0003  -2.81071508789063E+0003  -2.81029199218750E+0003  -2.80976684570313E+0003  -2.80914257812500E+0003  -2.80847070312500E+0003  -2.80780541992188E+0003  -2.80719824218750E+0003  -2.80665942382813E+0003  -2.80617773437500E+0003  -2.80573510742188E+0003  -2.80531518554688E+0003  -2.80490893554688E+0003  -2.80451416015625E+0003  -2.80412963867188E+0003  -2.80375659179688E+0003  -2.80341333007813E+0003  -2.80312817382813E+0003  -2.80294140625000E+0003  -2.80288232421875E+0003  -2.80295288085938E+0003  -2.80315527343750E+0003  -2.80347778320313E+0003  -2.80387451171875E+0003  -2.80437744140625E+0003  -2.80500122070313E+0003  -2.80575952148438E+0003  -2.80665283203125E+0003  -2.80761767578125E+0003  -2.80857495117188E+0003  -2.80944799804688E+0003  -2.81015747070313E+0003  -2.81060693359375E+0003  -2.81073608398438E+0003  -2.81063403320313E+0003  -2.81038891601563E+0003  -2.81004199218750E+0003  -2.80967333984375E+0003  -2.80928930664063E+0003  -2.80886547851563E+0003  -2.80837817382813E+0003  -2.80780224609375E+0003  -2.80711767578125E+0003  -2.80634033203125E+0003  -2.80554199218750E+0003  -2.80479785156250E+0003  -2.80417919921875E+0003  -2.80371020507813E+0003  -2.80335595703125E+0003  -2.80307641601563E+0003  -2.80283154296875E+0003  -2.80284375000000E+0003  -2.80299243164063E+0003  -2.80318823242188E+0003  -2.80342602539063E+0003  -2.80370263671875E+0003  -2.80401806640625E+0003  -2.80413110351563E+0003  -2.80414111328125E+0003  -2.80421215820313E+0003  -2.80432861328125E+0003  -2.80447045898438E+0003  -2.80462719726563E+0003  -2.80483471679688E+0003  -2.80514697265625E+0003  -2.80563061523438E+0003  -2.80633789062500E+0003  -2.80725561523438E+0003  -2.80832812500000E+0003  -2.80937915039063E+0003  -2.81019555664063E+0003  -2.81089038085938E+0003  -2.81153320312500E+0003  -2.81219360351563E+0003  -2.81295068359375E+0003  -2.81377929687500E+0003  -2.81463916015625E+0003  -2.81551074218750E+0003  -2.81636889648438E+0003  -2.81714453125000E+0003  -2.81776977539063E+0003  -2.81817456054688E+0003  -2.81832568359375E+0003  -2.81829833984375E+0003  -2.81819726562500E+0003  -2.81811401367188E+0003  -2.81808666992188E+0003  -2.81806298828125E+0003  -2.81797631835938E+0003  -2.81775659179688E+0003  -2.81738842773438E+0003  -2.81690527343750E+0003  -2.81633618164063E+0003  -2.81571484375000E+0003  -2.81507128906250E+0003  -2.81441943359375E+0003  -2.81377661132813E+0003  -2.81315722656250E+0003  -2.81256396484375E+0003  -2.81199023437500E+0003  -2.81142700195313E+0003  -2.81086621093750E+0003  -2.81030444335938E+0003  -2.80974560546875E+0003  -2.80919165039063E+0003  -2.80864477539063E+0003  -2.80810766601563E+0003  -2.80758496093750E+0003  -2.80707568359375E+0003  -2.80658374023438E+0003  -2.80610888671875E+0003  -2.80565893554688E+0003  -2.80523486328125E+0003  -2.80483544921875E+0003  -2.80446435546875E+0003  -2.80412231445313E+0003  -2.80380737304688E+0003  -2.80352807617188E+0003  -2.80330810546875E+0003  -2.80317944335938E+0003  -2.80316918945313E+0003  -2.80330468750000E+0003  -2.80359423828125E+0003  -2.80404003906250E+0003  -2.80464721679688E+0003  -2.80540234375000E+0003  -2.80624218750000E+0003  -2.80710375976563E+0003  -2.80791113281250E+0003  -2.80862207031250E+0003  -2.80922778320313E+0003  -2.80972192382813E+0003  -2.81010083007813E+0003  -2.81036523437500E+0003  -2.81053027343750E+0003  -2.81059130859375E+0003  -2.81055126953125E+0003  -2.81044140625000E+0003  -2.81029467773438E+0003  -2.81013549804688E+0003  -2.80998974609375E+0003  -2.80988256835938E+0003  -2.80982006835938E+0003  -2.80981835937500E+0003  -2.80987890625000E+0003  -2.81000170898438E+0003  -2.81016210937500E+0003  -2.81033886718750E+0003  -2.81051171875000E+0003  -2.81065332031250E+0003  -2.81073413085938E+0003  -2.81072680664063E+0003  -2.81058325195313E+0003  -2.81023852539063E+0003  -2.80969897460938E+0003  -2.80894360351563E+0003  -2.80796093750000E+0003  -2.80681201171875E+0003  -2.80553906250000E+0003  -2.80453759765625E+0003  -2.80407324218750E+0003  -2.80404833984375E+0003  -2.80427685546875E+0003  -2.80455493164063E+0003  -2.80472900390625E+0003  -2.80464038085938E+0003  -2.80442285156250E+0003  -2.80408544921875E+0003  -2.80362133789063E+0003  -2.80306152343750E+0003  -2.80244409179688E+0003  -2.80180737304688E+0003  -2.80119287109375E+0003  -2.80065161132813E+0003  -2.80023461914063E+0003  -2.79999291992188E+0003  -2.79995043945313E+0003  -2.80008227539063E+0003  -2.80035961914063E+0003  -2.80075292968750E+0003  -2.80123388671875E+0003  -2.80177368164063E+0003  -2.80234399414063E+0003  -2.80291625976563E+0003  -2.80343798828125E+0003  -2.80390722656250E+0003  -2.80436254882813E+0003  -2.80480590820313E+0003  -2.80523803710938E+0003  -2.80565600585938E+0003  -2.80605932617188E+0003  -2.80644750976563E+0003  -2.80682202148438E+0003  -2.80718359375000E+0003  -2.80753466796875E+0003  -2.80787744140625E+0003  -2.80821264648438E+0003  -2.80854394531250E+0003  -2.80887377929688E+0003  -2.80920092773438E+0003  -2.80952709960938E+0003  -2.80985131835938E+0003  -2.81017089843750E+0003  -2.81048583984375E+0003  -2.81079711914063E+0003  -2.81109643554688E+0003  -2.81138940429688E+0003
  -2.82393164062500E+0003  -2.82353808593750E+0003  -2.82312792968750E+0003  -2.82270068359375E+0003  -2.82225732421875E+0003  -2.82179882812500E+0003  -2.82132470703125E+0003  -2.82083593750000E+0003  -2.82033300781250E+0003  -2.81981689453125E+0003  -2.81928881835938E+0003  -2.81874902343750E+0003  -2.81819824218750E+0003  -2.81763769531250E+0003  -2.81706787109375E+0003  -2.81649047851563E+0003  -2.81590820312500E+0003  -2.81532397460938E+0003  -2.81474072265625E+0003  -2.81416333007813E+0003  -2.81359643554688E+0003  -2.81304736328125E+0003  -2.81252099609375E+0003  -2.81202246093750E+0003  -2.81155102539063E+0003  -2.81110668945313E+0003  -2.81068896484375E+0003  -2.81028540039063E+0003  -2.80986450195313E+0003  -2.80939526367188E+0003  -2.80884594726563E+0003  -2.80822143554688E+0003  -2.80756420898438E+0003  -2.80692016601563E+0003  -2.80633276367188E+0003  -2.80581250000000E+0003  -2.80533837890625E+0003  -2.80489575195313E+0003  -2.80446801757813E+0003  -2.80404907226563E+0003  -2.80364208984375E+0003  -2.80325024414063E+0003  -2.80287890625000E+0003  -2.80254345703125E+0003  -2.80228247070313E+0003  -2.80212866210938E+0003  -2.80211181640625E+0003  -2.80225512695313E+0003  -2.80249414062500E+0003  -2.80282861328125E+0003  -2.80324780273438E+0003  -2.80376318359375E+0003  -2.80439233398438E+0003  -2.80515380859375E+0003  -2.80605126953125E+0003  -2.80702319335938E+0003  -2.80799145507813E+0003  -2.80888134765625E+0003  -2.80961474609375E+0003  -2.81008764648438E+0003  -2.81023022460938E+0003  -2.81011743164063E+0003  -2.80982763671875E+0003  -2.80940576171875E+0003  -2.80889111328125E+0003  -2.80837084960938E+0003  -2.80785717773438E+0003  -2.80731323242188E+0003  -2.80673510742188E+0003  -2.80611279296875E+0003  -2.80545727539063E+0003  -2.80481372070313E+0003  -2.80422924804688E+0003  -2.80374902343750E+0003  -2.80338598632813E+0003  -2.80311254882813E+0003  -2.80289672851563E+0003  -2.80275122070313E+0003  -2.80296240234375E+0003  -2.80323168945313E+0003  -2.80354980468750E+0003  -2.80390673828125E+0003  -2.80429394531250E+0003  -2.80446069335938E+0003  -2.80443383789063E+0003  -2.80445141601563E+0003  -2.80450341796875E+0003  -2.80456689453125E+0003  -2.80461840820313E+0003  -2.80464404296875E+0003  -2.80469165039063E+0003  -2.80484106445313E+0003  -2.80519140625000E+0003  -2.80582788085938E+0003  -2.80673486328125E+0003  -2.80785278320313E+0003  -2.80896264648438E+0003  -2.80978637695313E+0003  -2.81049951171875E+0003  -2.81115942382813E+0003  -2.81183496093750E+0003  -2.81262109375000E+0003  -2.81349487304688E+0003  -2.81440258789063E+0003  -2.81532983398438E+0003  -2.81625073242188E+0003  -2.81709497070313E+0003  -2.81778613281250E+0003  -2.81824829101563E+0003  -2.81846215820313E+0003  -2.81849877929688E+0003  -2.81845361328125E+0003  -2.81842895507813E+0003  -2.81845898437500E+0003  -2.81848730468750E+0003  -2.81843945312500E+0003  -2.81824902343750E+0003  -2.81788818359375E+0003  -2.81740820312500E+0003  -2.81683520507813E+0003  -2.81620654296875E+0003  -2.81554833984375E+0003  -2.81488256835938E+0003  -2.81422119140625E+0003  -2.81357958984375E+0003  -2.81296557617188E+0003  -2.81236791992188E+0003  -2.81177954101563E+0003  -2.81119409179688E+0003  -2.81060668945313E+0003  -2.81002416992188E+0003  -2.80944750976563E+0003  -2.80888134765625E+0003  -2.80832617187500E+0003  -2.80778393554688E+0003  -2.80725683593750E+0003  -2.80674975585938E+0003  -2.80625878906250E+0003  -2.80578662109375E+0003  -2.80533837890625E+0003  -2.80491040039063E+0003  -2.80450659179688E+0003  -2.80412622070313E+0003  -2.80377099609375E+0003  -2.80344580078125E+0003  -2.80317553710938E+0003  -2.80299731445313E+0003  -2.80294189453125E+0003  -2.80303588867188E+0003  -2.80327734375000E+0003  -2.80368481445313E+0003  -2.80427416992188E+0003  -2.80502124023438E+0003  -2.80586938476563E+0003  -2.80674316406250E+0003  -2.80757324218750E+0003  -2.80831396484375E+0003  -2.80895605468750E+0003  -2.80948657226563E+0003  -2.80990014648438E+0003  -2.81019555664063E+0003  -2.81040649414063E+0003  -2.81049072265625E+0003  -2.81045776367188E+0003  -2.81034204101563E+0003  -2.81018945312500E+0003  -2.81001977539063E+0003  -2.80985961914063E+0003  -2.80972753906250E+0003  -2.80963403320313E+0003  -2.80958886718750E+0003  -2.80960327148438E+0003  -2.80966723632813E+0003  -2.80976440429688E+0003  -2.80987524414063E+0003  -2.80997753906250E+0003  -2.81004931640625E+0003  -2.81006298828125E+0003  -2.80999291992188E+0003  -2.80981469726563E+0003  -2.80950585937500E+0003  -2.80904345703125E+0003  -2.80841113281250E+0003  -2.80759741210938E+0003  -2.80670312500000E+0003  -2.80585766601563E+0003  -2.80518994140625E+0003  -2.80480004882813E+0003  -2.80464843750000E+0003  -2.80465869140625E+0003  -2.80473022460938E+0003  -2.80477685546875E+0003  -2.80477368164063E+0003  -2.80449560546875E+0003  -2.80414965820313E+0003  -2.80373315429688E+0003  -2.80325952148438E+0003  -2.80274609375000E+0003  -2.80220996093750E+0003  -2.80167675781250E+0003  -2.80119360351563E+0003  -2.80081054687500E+0003  -2.80057641601563E+0003  -2.80051562500000E+0003  -2.80060913085938E+0003  -2.80083325195313E+0003  -2.80116528320313E+0003  -2.80158081054688E+0003  -2.80205322265625E+0003  -2.80255761718750E+0003  -2.80306738281250E+0003  -2.80353833007813E+0003  -2.80395117187500E+0003  -2.80436108398438E+0003  -2.80476098632813E+0003  -2.80515478515625E+0003  -2.80553979492188E+0003  -2.80591650390625E+0003  -2.80628100585938E+0003  -2.80663500976563E+0003  -2.80698437500000E+0003  -2.80732348632813E+0003  -2.80765771484375E+0003  -2.80798754882813E+0003  -2.80831591796875E+0003  -2.80863989257813E+0003  -2.80896386718750E+0003  -2.80928784179688E+0003  -2.80960815429688E+0003  -2.80992773437500E+0003  -2.81024072265625E+0003  -2.81054931640625E+0003  -2.81084814453125E+0003  -2.81113720703125E+0003
  -2.82332983398438E+0003  -2.82293725585938E+0003  -2.82252905273438E+0003  -2.82210522460938E+0003  -2.82166577148438E+0003  -2.82121166992188E+0003  -2.82074291992188E+0003  -2.82025976562500E+0003  -2.81976318359375E+0003  -2.81925366210938E+0003  -2.81873242187500E+0003  -2.81819970703125E+0003  -2.81765673828125E+0003  -2.81710351562500E+0003  -2.81654150390625E+0003  -2.81597167968750E+0003  -2.81539575195313E+0003  -2.81481665039063E+0003  -2.81423583984375E+0003  -2.81365698242188E+0003  -2.81308374023438E+0003  -2.81252148437500E+0003  -2.81197314453125E+0003  -2.81144238281250E+0003  -2.81092968750000E+0003  -2.81043457031250E+0003  -2.80995800781250E+0003  -2.80948999023438E+0003  -2.80900903320313E+0003  -2.80849291992188E+0003  -2.80791943359375E+0003  -2.80729394531250E+0003  -2.80665161132813E+0003  -2.80603051757813E+0003  -2.80546679687500E+0003  -2.80496582031250E+0003  -2.80450732421875E+0003  -2.80406860351563E+0003  -2.80363037109375E+0003  -2.80319165039063E+0003  -2.80276245117188E+0003  -2.80235083007813E+0003  -2.80196875000000E+0003  -2.80164282226563E+0003  -2.80140649414063E+0003  -2.80129345703125E+0003  -2.80134887695313E+0003  -2.80153466796875E+0003  -2.80183422851563E+0003  -2.80221655273438E+0003  -2.80266210937500E+0003  -2.80318383789063E+0003  -2.80380419921875E+0003  -2.80454614257813E+0003  -2.80541674804688E+0003  -2.80635668945313E+0003  -2.80728930664063E+0003  -2.80813989257813E+0003  -2.80883349609375E+0003  -2.80928808593750E+0003  -2.80945068359375E+0003  -2.80936181640625E+0003  -2.80907421875000E+0003  -2.80863256835938E+0003  -2.80808203125000E+0003  -2.80746630859375E+0003  -2.80685766601563E+0003  -2.80631835937500E+0003  -2.80579199218750E+0003  -2.80527075195313E+0003  -2.80475927734375E+0003  -2.80428393554688E+0003  -2.80386816406250E+0003  -2.80352905273438E+0003  -2.80326684570313E+0003  -2.80306127929688E+0003  -2.80289184570313E+0003  -2.80294946289063E+0003  -2.80324291992188E+0003  -2.80360229492188E+0003  -2.80401611328125E+0003  -2.80447143554688E+0003  -2.80484326171875E+0003  -2.80481298828125E+0003  -2.80480712890625E+0003  -2.80482641601563E+0003  -2.80485620117188E+0003  -2.80486645507813E+0003  -2.80482885742188E+0003  -2.80471264648438E+0003  -2.80458666992188E+0003  -2.80455615234375E+0003  -2.80474365234375E+0003  -2.80526684570313E+0003  -2.80611132812500E+0003  -2.80719775390625E+0003  -2.80830712890625E+0003  -2.80920678710938E+0003  -2.80997509765625E+0003  -2.81069116210938E+0003  -2.81142675781250E+0003  -2.81225927734375E+0003  -2.81315600585938E+0003  -2.81408032226563E+0003  -2.81502392578125E+0003  -2.81596459960938E+0003  -2.81683666992188E+0003  -2.81756567382813E+0003  -2.81804443359375E+0003  -2.81829541015625E+0003  -2.81839770507813E+0003  -2.81842602539063E+0003  -2.81846630859375E+0003  -2.81855737304688E+0003  -2.81863671875000E+0003  -2.81863745117188E+0003  -2.81849145507813E+0003  -2.81818481445313E+0003  -2.81773461914063E+0003  -2.81717651367188E+0003  -2.81655029296875E+0003  -2.81589868164063E+0003  -2.81523828125000E+0003  -2.81457788085938E+0003  -2.81393457031250E+0003  -2.81330908203125E+0003  -2.81269628906250E+0003  -2.81209155273438E+0003  -2.81148730468750E+0003  -2.81087890625000E+0003  -2.81027490234375E+0003  -2.80968115234375E+0003  -2.80909643554688E+0003  -2.80852758789063E+0003  -2.80797265625000E+0003  -2.80743310546875E+0003  -2.80691088867188E+0003  -2.80640625000000E+0003  -2.80591845703125E+0003  -2.80544897460938E+0003  -2.80500146484375E+0003  -2.80457250976563E+0003  -2.80416650390625E+0003  -2.80378076171875E+0003  -2.80342504882813E+0003  -2.80312646484375E+0003  -2.80291601562500E+0003  -2.80284594726563E+0003  -2.80291796875000E+0003  -2.80313012695313E+0003  -2.80348535156250E+0003  -2.80403588867188E+0003  -2.80476049804688E+0003  -2.80558886718750E+0003  -2.80645336914063E+0003  -2.80728344726563E+0003  -2.80803027343750E+0003  -2.80867871093750E+0003  -2.80922656250000E+0003  -2.80965893554688E+0003  -2.80998315429688E+0003  -2.81021728515625E+0003  -2.81032690429688E+0003  -2.81031250000000E+0003  -2.81019775390625E+0003  -2.81004541015625E+0003  -2.80987597656250E+0003  -2.80970458984375E+0003  -2.80955761718750E+0003  -2.80943750000000E+0003  -2.80935864257813E+0003  -2.80932885742188E+0003  -2.80934228515625E+0003  -2.80938085937500E+0003  -2.80943115234375E+0003  -2.80947216796875E+0003  -2.80948608398438E+0003  -2.80944946289063E+0003  -2.80934375000000E+0003  -2.80915161132813E+0003  -2.80885791015625E+0003  -2.80846191406250E+0003  -2.80796655273438E+0003  -2.80739160156250E+0003  -2.80682641601563E+0003  -2.80637304687500E+0003  -2.80600244140625E+0003  -2.80564843750000E+0003  -2.80534643554688E+0003  -2.80512207031250E+0003  -2.80497680664063E+0003  -2.80488696289063E+0003  -2.80481005859375E+0003  -2.80459179687500E+0003  -2.80422851562500E+0003  -2.80384985351563E+0003  -2.80345288085938E+0003  -2.80303344726563E+0003  -2.80259741210938E+0003  -2.80215283203125E+0003  -2.80169604492188E+0003  -2.80134350585938E+0003  -2.80111767578125E+0003  -2.80104321289063E+0003  -2.80110522460938E+0003  -2.80128466796875E+0003  -2.80156298828125E+0003  -2.80191894531250E+0003  -2.80232958984375E+0003  -2.80277172851563E+0003  -2.80322290039063E+0003  -2.80363598632813E+0003  -2.80400000000000E+0003  -2.80436474609375E+0003  -2.80472436523438E+0003  -2.80508203125000E+0003  -2.80543701171875E+0003  -2.80578686523438E+0003  -2.80612988281250E+0003  -2.80646826171875E+0003  -2.80680053710938E+0003  -2.80712841796875E+0003  -2.80745507812500E+0003  -2.80777880859375E+0003  -2.80810156250000E+0003  -2.80842407226563E+0003  -2.80874487304688E+0003  -2.80906494140625E+0003  -2.80938354492188E+0003  -2.80969921875000E+0003  -2.81000854492188E+0003  -2.81031518554688E+0003  -2.81061303710938E+0003  -2.81090234375000E+0003
  -2.82273803710938E+0003  -2.82234716796875E+0003  -2.82194165039063E+0003  -2.82152075195313E+0003  -2.82108569335938E+0003  -2.82063623046875E+0003  -2.82017260742188E+0003  -2.81969555664063E+0003  -2.81920532226563E+0003  -2.81870263671875E+0003  -2.81818798828125E+0003  -2.81766235351563E+0003  -2.81712573242188E+0003  -2.81657934570313E+0003  -2.81602343750000E+0003  -2.81545922851563E+0003  -2.81488818359375E+0003  -2.81431152343750E+0003  -2.81373193359375E+0003  -2.81315039062500E+0003  -2.81257031250000E+0003  -2.81199462890625E+0003  -2.81142626953125E+0003  -2.81086669921875E+0003  -2.81031713867188E+0003  -2.80977734375000E+0003  -2.80924804687500E+0003  -2.80872265625000E+0003  -2.80818750000000E+0003  -2.80762622070313E+0003  -2.80702587890625E+0003  -2.80639233398438E+0003  -2.80575756835938E+0003  -2.80515405273438E+0003  -2.80461352539063E+0003  -2.80413598632813E+0003  -2.80369458007813E+0003  -2.80326147460938E+0003  -2.80280981445313E+0003  -2.80234008789063E+0003  -2.80187255859375E+0003  -2.80142626953125E+0003  -2.80102270507813E+0003  -2.80069311523438E+0003  -2.80047875976563E+0003  -2.80041284179688E+0003  -2.80052514648438E+0003  -2.80079467773438E+0003  -2.80117724609375E+0003  -2.80162451171875E+0003  -2.80210351562500E+0003  -2.80262817382813E+0003  -2.80322705078125E+0003  -2.80392944335938E+0003  -2.80474755859375E+0003  -2.80562426757813E+0003  -2.80648388671875E+0003  -2.80725146484375E+0003  -2.80785864257813E+0003  -2.80825952148438E+0003  -2.80842700195313E+0003  -2.80837402343750E+0003  -2.80812670898438E+0003  -2.80772656250000E+0003  -2.80721801757813E+0003  -2.80664575195313E+0003  -2.80605200195313E+0003  -2.80547729492188E+0003  -2.80506933593750E+0003  -2.80469091796875E+0003  -2.80433837890625E+0003  -2.80402734375000E+0003  -2.80376635742188E+0003  -2.80355053710938E+0003  -2.80337158203125E+0003  -2.80321630859375E+0003  -2.80309667968750E+0003  -2.80335107421875E+0003  -2.80368896484375E+0003  -2.80409985351563E+0003  -2.80457250976563E+0003  -2.80509448242188E+0003  -2.80523071289063E+0003  -2.80522436523438E+0003  -2.80524096679688E+0003  -2.80526074218750E+0003  -2.80525708007813E+0003  -2.80521679687500E+0003  -2.80509863281250E+0003  -2.80485473632813E+0003  -2.80455834960938E+0003  -2.80433715820313E+0003  -2.80434472656250E+0003  -2.80472729492188E+0003  -2.80547607421875E+0003  -2.80651684570313E+0003  -2.80763183593750E+0003  -2.80858911132813E+0003  -2.80941381835938E+0003  -2.81020678710938E+0003  -2.81101391601563E+0003  -2.81187329101563E+0003  -2.81276440429688E+0003  -2.81366748046875E+0003  -2.81457397460938E+0003  -2.81548632812500E+0003  -2.81633056640625E+0003  -2.81703833007813E+0003  -2.81754052734375E+0003  -2.81782983398438E+0003  -2.81799902343750E+0003  -2.81810107421875E+0003  -2.81821240234375E+0003  -2.81835888671875E+0003  -2.81848999023438E+0003  -2.81853588867188E+0003  -2.81845898437500E+0003  -2.81821093750000E+0003  -2.81781396484375E+0003  -2.81730908203125E+0003  -2.81673144531250E+0003  -2.81610815429688E+0003  -2.81546972656250E+0003  -2.81483203125000E+0003  -2.81420092773438E+0003  -2.81357836914063E+0003  -2.81296508789063E+0003  -2.81235034179688E+0003  -2.81173315429688E+0003  -2.81111279296875E+0003  -2.81049560546875E+0003  -2.80988647460938E+0003  -2.80929248046875E+0003  -2.80871215820313E+0003  -2.80814648437500E+0003  -2.80759790039063E+0003  -2.80706567382813E+0003  -2.80655078125000E+0003  -2.80605297851563E+0003  -2.80557250976563E+0003  -2.80511303710938E+0003  -2.80466894531250E+0003  -2.80424804687500E+0003  -2.80384936523438E+0003  -2.80348461914063E+0003  -2.80316967773438E+0003  -2.80295849609375E+0003  -2.80287573242188E+0003  -2.80293017578125E+0003  -2.80312255859375E+0003  -2.80345336914063E+0003  -2.80395654296875E+0003  -2.80464233398438E+0003  -2.80543066406250E+0003  -2.80625390625000E+0003  -2.80705004882813E+0003  -2.80777197265625E+0003  -2.80840698242188E+0003  -2.80894799804688E+0003  -2.80938378906250E+0003  -2.80971606445313E+0003  -2.80995898437500E+0003  -2.81008300781250E+0003  -2.81009057617188E+0003  -2.81000146484375E+0003  -2.80985961914063E+0003  -2.80969824218750E+0003  -2.80952880859375E+0003  -2.80937133789063E+0003  -2.80923657226563E+0003  -2.80913256835938E+0003  -2.80906738281250E+0003  -2.80903979492188E+0003  -2.80903173828125E+0003  -2.80903173828125E+0003  -2.80902197265625E+0003  -2.80898925781250E+0003  -2.80891699218750E+0003  -2.80878784179688E+0003  -2.80859082031250E+0003  -2.80832202148438E+0003  -2.80799438476563E+0003  -2.80762158203125E+0003  -2.80723242187500E+0003  -2.80691503906250E+0003  -2.80674291992188E+0003  -2.80656518554688E+0003  -2.80623071289063E+0003  -2.80582177734375E+0003  -2.80544140625000E+0003  -2.80514404296875E+0003  -2.80494970703125E+0003  -2.80481274414063E+0003  -2.80464843750000E+0003  -2.80427563476563E+0003  -2.80393090820313E+0003  -2.80359814453125E+0003  -2.80325732421875E+0003  -2.80290820312500E+0003  -2.80253076171875E+0003  -2.80211791992188E+0003  -2.80179394531250E+0003  -2.80158178710938E+0003  -2.80150195312500E+0003  -2.80154223632813E+0003  -2.80168701171875E+0003  -2.80192065429688E+0003  -2.80222558593750E+0003  -2.80258129882813E+0003  -2.80296850585938E+0003  -2.80336621093750E+0003  -2.80371826171875E+0003  -2.80404125976563E+0003  -2.80436254882813E+0003  -2.80468994140625E+0003  -2.80501440429688E+0003  -2.80534252929688E+0003  -2.80566821289063E+0003  -2.80599194335938E+0003  -2.80631250000000E+0003  -2.80663183593750E+0003  -2.80695239257813E+0003  -2.80727075195313E+0003  -2.80758837890625E+0003  -2.80790502929688E+0003  -2.80822290039063E+0003  -2.80854028320313E+0003  -2.80885644531250E+0003  -2.80917333984375E+0003  -2.80948413085938E+0003  -2.80979223632813E+0003  -2.81009497070313E+0003  -2.81039086914063E+0003  -2.81067846679688E+0003
  -2.82215649414063E+0003  -2.82176708984375E+0003  -2.82136401367188E+0003  -2.82094677734375E+0003  -2.82051586914063E+0003  -2.82007104492188E+0003  -2.81961328125000E+0003  -2.81914233398438E+0003  -2.81865844726563E+0003  -2.81816235351563E+0003  -2.81765429687500E+0003  -2.81713525390625E+0003  -2.81660522460938E+0003  -2.81606445312500E+0003  -2.81551416015625E+0003  -2.81495385742188E+0003  -2.81438598632813E+0003  -2.81381103515625E+0003  -2.81323095703125E+0003  -2.81264624023438E+0003  -2.81205957031250E+0003  -2.81147290039063E+0003  -2.81088769531250E+0003  -2.81030566406250E+0003  -2.80972680664063E+0003  -2.80915258789063E+0003  -2.80858203125000E+0003  -2.80801220703125E+0003  -2.80743212890625E+0003  -2.80683154296875E+0003  -2.80620043945313E+0003  -2.80557153320313E+0003  -2.80502050781250E+0003  -2.80445410156250E+0003  -2.80387622070313E+0003  -2.80334204101563E+0003  -2.80292529296875E+0003  -2.80250048828125E+0003  -2.80203149414063E+0003  -2.80152001953125E+0003  -2.80099804687500E+0003  -2.80049707031250E+0003  -2.80004980468750E+0003  -2.79969750976563E+0003  -2.79948681640625E+0003  -2.79947875976563E+0003  -2.79966650390625E+0003  -2.80003564453125E+0003  -2.80051904296875E+0003  -2.80104858398438E+0003  -2.80156933593750E+0003  -2.80209497070313E+0003  -2.80266162109375E+0003  -2.80330761718750E+0003  -2.80405249023438E+0003  -2.80484326171875E+0003  -2.80560595703125E+0003  -2.80626586914063E+0003  -2.80676196289063E+0003  -2.80707958984375E+0003  -2.80721704101563E+0003  -2.80718554687500E+0003  -2.80700390625000E+0003  -2.80670507812500E+0003  -2.80632519531250E+0003  -2.80590161132813E+0003  -2.80546997070313E+0003  -2.80506323242188E+0003  -2.80469531250000E+0003  -2.80444189453125E+0003  -2.80425634765625E+0003  -2.80409277343750E+0003  -2.80395434570313E+0003  -2.80382885742188E+0003  -2.80370629882813E+0003  -2.80357983398438E+0003  -2.80370141601563E+0003  -2.80395727539063E+0003  -2.80429785156250E+0003  -2.80471582031250E+0003  -2.80520361328125E+0003  -2.80568334960938E+0003  -2.80567651367188E+0003  -2.80568579101563E+0003  -2.80572119140625E+0003  -2.80573876953125E+0003  -2.80568774414063E+0003  -2.80557543945313E+0003  -2.80542260742188E+0003  -2.80508886718750E+0003  -2.80463989257813E+0003  -2.80423120117188E+0003  -2.80405297851563E+0003  -2.80429833984375E+0003  -2.80495190429688E+0003  -2.80598071289063E+0003  -2.80716967773438E+0003  -2.80816528320313E+0003  -2.80899414062500E+0003  -2.80981298828125E+0003  -2.81064111328125E+0003  -2.81148315429688E+0003  -2.81232690429688E+0003  -2.81315893554688E+0003  -2.81397924804688E+0003  -2.81480834960938E+0003  -2.81557470703125E+0003  -2.81622900390625E+0003  -2.81672314453125E+0003  -2.81704272460938E+0003  -2.81727832031250E+0003  -2.81745971679688E+0003  -2.81764648437500E+0003  -2.81785620117188E+0003  -2.81804174804688E+0003  -2.81814282226563E+0003  -2.81812280273438E+0003  -2.81794946289063E+0003  -2.81763159179688E+0003  -2.81720654296875E+0003  -2.81670556640625E+0003  -2.81615478515625E+0003  -2.81556518554688E+0003  -2.81496801757813E+0003  -2.81436816406250E+0003  -2.81376831054688E+0003  -2.81316113281250E+0003  -2.81254956054688E+0003  -2.81192919921875E+0003  -2.81130346679688E+0003  -2.81067724609375E+0003  -2.81006127929688E+0003  -2.80945849609375E+0003  -2.80887280273438E+0003  -2.80830346679688E+0003  -2.80774975585938E+0003  -2.80721484375000E+0003  -2.80669628906250E+0003  -2.80619433593750E+0003  -2.80571240234375E+0003  -2.80524707031250E+0003  -2.80480395507813E+0003  -2.80438208007813E+0003  -2.80398852539063E+0003  -2.80363134765625E+0003  -2.80333154296875E+0003  -2.80312182617188E+0003  -2.80303735351563E+0003  -2.80308569335938E+0003  -2.80326440429688E+0003  -2.80358154296875E+0003  -2.80405126953125E+0003  -2.80467822265625E+0003  -2.80539575195313E+0003  -2.80614746093750E+0003  -2.80688037109375E+0003  -2.80755102539063E+0003  -2.80814721679688E+0003  -2.80865991210938E+0003  -2.80908081054688E+0003  -2.80940209960938E+0003  -2.80964111328125E+0003  -2.80977685546875E+0003  -2.80980517578125E+0003  -2.80974780273438E+0003  -2.80963085937500E+0003  -2.80948657226563E+0003  -2.80932690429688E+0003  -2.80917285156250E+0003  -2.80903051757813E+0003  -2.80891259765625E+0003  -2.80882739257813E+0003  -2.80876879882813E+0003  -2.80872729492188E+0003  -2.80869091796875E+0003  -2.80864184570313E+0003  -2.80857421875000E+0003  -2.80847241210938E+0003  -2.80832299804688E+0003  -2.80811645507813E+0003  -2.80786157226563E+0003  -2.80756640625000E+0003  -2.80725805664063E+0003  -2.80696850585938E+0003  -2.80676293945313E+0003  -2.80668579101563E+0003  -2.80657836914063E+0003  -2.80627490234375E+0003  -2.80585815429688E+0003  -2.80544775390625E+0003  -2.80511352539063E+0003  -2.80488525390625E+0003  -2.80472485351563E+0003  -2.80459375000000E+0003  -2.80425610351563E+0003  -2.80394555664063E+0003  -2.80366381835938E+0003  -2.80338330078125E+0003  -2.80307788085938E+0003  -2.80274169921875E+0003  -2.80241186523438E+0003  -2.80213183593750E+0003  -2.80194311523438E+0003  -2.80186791992188E+0003  -2.80189721679688E+0003  -2.80201831054688E+0003  -2.80221752929688E+0003  -2.80248046875000E+0003  -2.80279028320313E+0003  -2.80313012695313E+0003  -2.80348242187500E+0003  -2.80377075195313E+0003  -2.80405737304688E+0003  -2.80434790039063E+0003  -2.80464331054688E+0003  -2.80494482421875E+0003  -2.80524829101563E+0003  -2.80555346679688E+0003  -2.80586206054688E+0003  -2.80616992187500E+0003  -2.80647827148438E+0003  -2.80678881835938E+0003  -2.80710034179688E+0003  -2.80741210937500E+0003  -2.80772436523438E+0003  -2.80803759765625E+0003  -2.80835058593750E+0003  -2.80866479492188E+0003  -2.80897558593750E+0003  -2.80928393554688E+0003  -2.80958959960938E+0003  -2.80988769531250E+0003  -2.81018066406250E+0003  -2.81046630859375E+0003
  -2.82158520507813E+0003  -2.82119824218750E+0003  -2.82079711914063E+0003  -2.82038354492188E+0003  -2.81995678710938E+0003  -2.81951733398438E+0003  -2.81906469726563E+0003  -2.81859985351563E+0003  -2.81812231445313E+0003  -2.81763305664063E+0003  -2.81713183593750E+0003  -2.81661914062500E+0003  -2.81609497070313E+0003  -2.81556005859375E+0003  -2.81501391601563E+0003  -2.81445751953125E+0003  -2.81389160156250E+0003  -2.81331738281250E+0003  -2.81273608398438E+0003  -2.81214843750000E+0003  -2.81155615234375E+0003  -2.81096020507813E+0003  -2.81036230468750E+0003  -2.80976342773438E+0003  -2.80916381835938E+0003  -2.80856469726563E+0003  -2.80796557617188E+0003  -2.80736425781250E+0003  -2.80675122070313E+0003  -2.80611938476563E+0003  -2.80545971679688E+0003  -2.80488745117188E+0003  -2.80439111328125E+0003  -2.80388085937500E+0003  -2.80335327148438E+0003  -2.80280541992188E+0003  -2.80223388671875E+0003  -2.80182250976563E+0003  -2.80133813476563E+0003  -2.80078369140625E+0003  -2.80020288085938E+0003  -2.79964013671875E+0003  -2.79913940429688E+0003  -2.79877929687500E+0003  -2.79856518554688E+0003  -2.79857250976563E+0003  -2.79884204101563E+0003  -2.79932226562500E+0003  -2.79991918945313E+0003  -2.80053833007813E+0003  -2.80110180664063E+0003  -2.80162402343750E+0003  -2.80215063476563E+0003  -2.80272827148438E+0003  -2.80338696289063E+0003  -2.80407739257813E+0003  -2.80472900390625E+0003  -2.80526757812500E+0003  -2.80563818359375E+0003  -2.80585156250000E+0003  -2.80593237304688E+0003  -2.80590917968750E+0003  -2.80580859375000E+0003  -2.80565429687500E+0003  -2.80546972656250E+0003  -2.80527587890625E+0003  -2.80509155273438E+0003  -2.80493115234375E+0003  -2.80479418945313E+0003  -2.80465307617188E+0003  -2.80450170898438E+0003  -2.80443847656250E+0003  -2.80438818359375E+0003  -2.80431958007813E+0003  -2.80425830078125E+0003  -2.80434179687500E+0003  -2.80449365234375E+0003  -2.80472265625000E+0003  -2.80503271484375E+0003  -2.80542138671875E+0003  -2.80588696289063E+0003  -2.80617602539063E+0003  -2.80616503906250E+0003  -2.80617773437500E+0003  -2.80622021484375E+0003  -2.80625170898438E+0003  -2.80614477539063E+0003  -2.80596655273438E+0003  -2.80583154296875E+0003  -2.80543505859375E+0003  -2.80484985351563E+0003  -2.80428588867188E+0003  -2.80395214843750E+0003  -2.80407031250000E+0003  -2.80458203125000E+0003  -2.80555981445313E+0003  -2.80680444335938E+0003  -2.80784960937500E+0003  -2.80869531250000E+0003  -2.80951953125000E+0003  -2.81033300781250E+0003  -2.81112011718750E+0003  -2.81187280273438E+0003  -2.81259033203125E+0003  -2.81328515625000E+0003  -2.81397167968750E+0003  -2.81462060546875E+0003  -2.81518750000000E+0003  -2.81564770507813E+0003  -2.81598779296875E+0003  -2.81628222656250E+0003  -2.81654370117188E+0003  -2.81680834960938E+0003  -2.81708398437500E+0003  -2.81733032226563E+0003  -2.81749731445313E+0003  -2.81753808593750E+0003  -2.81745190429688E+0003  -2.81723364257813E+0003  -2.81691015625000E+0003  -2.81650488281250E+0003  -2.81604443359375E+0003  -2.81553857421875E+0003  -2.81499462890625E+0003  -2.81444458007813E+0003  -2.81387524414063E+0003  -2.81328857421875E+0003  -2.81268725585938E+0003  -2.81207080078125E+0003  -2.81144897460938E+0003  -2.81082153320313E+0003  -2.81020239257813E+0003  -2.80960034179688E+0003  -2.80901196289063E+0003  -2.80844116210938E+0003  -2.80788940429688E+0003  -2.80735620117188E+0003  -2.80683764648438E+0003  -2.80634057617188E+0003  -2.80586206054688E+0003  -2.80540454101563E+0003  -2.80496728515625E+0003  -2.80456030273438E+0003  -2.80418530273438E+0003  -2.80385083007813E+0003  -2.80357983398438E+0003  -2.80339111328125E+0003  -2.80331591796875E+0003  -2.80336816406250E+0003  -2.80354321289063E+0003  -2.80384204101563E+0003  -2.80427709960938E+0003  -2.80483081054688E+0003  -2.80545922851563E+0003  -2.80612377929688E+0003  -2.80676855468750E+0003  -2.80736547851563E+0003  -2.80790332031250E+0003  -2.80837109375000E+0003  -2.80876147460938E+0003  -2.80906884765625E+0003  -2.80929321289063E+0003  -2.80943237304688E+0003  -2.80948315429688E+0003  -2.80945654296875E+0003  -2.80937353515625E+0003  -2.80924975585938E+0003  -2.80910815429688E+0003  -2.80896386718750E+0003  -2.80882666015625E+0003  -2.80870361328125E+0003  -2.80860742187500E+0003  -2.80853369140625E+0003  -2.80847216796875E+0003  -2.80840966796875E+0003  -2.80833666992188E+0003  -2.80824267578125E+0003  -2.80811767578125E+0003  -2.80794750976563E+0003  -2.80772729492188E+0003  -2.80746240234375E+0003  -2.80717456054688E+0003  -2.80688061523438E+0003  -2.80661157226563E+0003  -2.80641015625000E+0003  -2.80629833984375E+0003  -2.80616601562500E+0003  -2.80590063476563E+0003  -2.80555151367188E+0003  -2.80520751953125E+0003  -2.80491967773438E+0003  -2.80471484375000E+0003  -2.80456469726563E+0003  -2.80444555664063E+0003  -2.80418286132813E+0003  -2.80390649414063E+0003  -2.80366308593750E+0003  -2.80342578125000E+0003  -2.80316943359375E+0003  -2.80288623046875E+0003  -2.80260791015625E+0003  -2.80237109375000E+0003  -2.80221215820313E+0003  -2.80215039062500E+0003  -2.80217700195313E+0003  -2.80228271484375E+0003  -2.80245605468750E+0003  -2.80268579101563E+0003  -2.80295776367188E+0003  -2.80325708007813E+0003  -2.80354516601563E+0003  -2.80379296875000E+0003  -2.80405053710938E+0003  -2.80431787109375E+0003  -2.80458959960938E+0003  -2.80487133789063E+0003  -2.80515649414063E+0003  -2.80544848632813E+0003  -2.80574267578125E+0003  -2.80603979492188E+0003  -2.80633862304688E+0003  -2.80664135742188E+0003  -2.80694555664063E+0003  -2.80725195312500E+0003  -2.80755834960938E+0003  -2.80786621093750E+0003  -2.80817602539063E+0003  -2.80848437500000E+0003  -2.80879223632813E+0003  -2.80909790039063E+0003  -2.80939770507813E+0003  -2.80969384765625E+0003  -2.80998388671875E+0003  -2.81026782226563E+0003
  -2.82102514648438E+0003  -2.82063964843750E+0003  -2.82024218750000E+0003  -2.81983178710938E+0003  -2.81940917968750E+0003  -2.81897460937500E+0003  -2.81852783203125E+0003  -2.81806909179688E+0003  -2.81759863281250E+0003  -2.81711572265625E+0003  -2.81662158203125E+0003  -2.81611499023438E+0003  -2.81559692382813E+0003  -2.81506665039063E+0003  -2.81452465820313E+0003  -2.81397119140625E+0003  -2.81340722656250E+0003  -2.81283325195313E+0003  -2.81225073242188E+0003  -2.81166040039063E+0003  -2.81106323242188E+0003  -2.81046093750000E+0003  -2.80985400390625E+0003  -2.80924389648438E+0003  -2.80863085937500E+0003  -2.80801562500000E+0003  -2.80739941406250E+0003  -2.80677856445313E+0003  -2.80614624023438E+0003  -2.80549414062500E+0003  -2.80481494140625E+0003  -2.80425244140625E+0003  -2.80380273437500E+0003  -2.80334204101563E+0003  -2.80285668945313E+0003  -2.80234326171875E+0003  -2.80179150390625E+0003  -2.80126855468750E+0003  -2.80078149414063E+0003  -2.80019018554688E+0003  -2.79956347656250E+0003  -2.79895043945313E+0003  -2.79842480468750E+0003  -2.79802075195313E+0003  -2.79780493164063E+0003  -2.79784521484375E+0003  -2.79818847656250E+0003  -2.79876757812500E+0003  -2.79946362304688E+0003  -2.80015893554688E+0003  -2.80075634765625E+0003  -2.80126904296875E+0003  -2.80175024414063E+0003  -2.80225512695313E+0003  -2.80282104492188E+0003  -2.80340576171875E+0003  -2.80394165039063E+0003  -2.80435424804688E+0003  -2.80459204101563E+0003  -2.80469067382813E+0003  -2.80470288085938E+0003  -2.80468066406250E+0003  -2.80466674804688E+0003  -2.80467871093750E+0003  -2.80472583007813E+0003  -2.80480859375000E+0003  -2.80492041015625E+0003  -2.80504809570313E+0003  -2.80516699218750E+0003  -2.80523852539063E+0003  -2.80524975585938E+0003  -2.80522949218750E+0003  -2.80520532226563E+0003  -2.80519799804688E+0003  -2.80522216796875E+0003  -2.80528808593750E+0003  -2.80540673828125E+0003  -2.80559082031250E+0003  -2.80584863281250E+0003  -2.80618359375000E+0003  -2.80659936523438E+0003  -2.80670971679688E+0003  -2.80668261718750E+0003  -2.80668066406250E+0003  -2.80672290039063E+0003  -2.80679833984375E+0003  -2.80680200195313E+0003  -2.80675610351563E+0003  -2.80648022460938E+0003  -2.80590063476563E+0003  -2.80519726562500E+0003  -2.80453735351563E+0003  -2.80408715820313E+0003  -2.80399414062500E+0003  -2.80429931640625E+0003  -2.80520166015625E+0003  -2.80642016601563E+0003  -2.80752050781250E+0003  -2.80846875000000E+0003  -2.80933349609375E+0003  -2.81011645507813E+0003  -2.81081591796875E+0003  -2.81144458007813E+0003  -2.81200659179688E+0003  -2.81253369140625E+0003  -2.81304565429688E+0003  -2.81354052734375E+0003  -2.81399218750000E+0003  -2.81439013671875E+0003  -2.81473388671875E+0003  -2.81507641601563E+0003  -2.81541381835938E+0003  -2.81576147460938E+0003  -2.81611352539063E+0003  -2.81643286132813E+0003  -2.81667480468750E+0003  -2.81680004882813E+0003  -2.81679833984375E+0003  -2.81668554687500E+0003  -2.81646679687500E+0003  -2.81617309570313E+0003  -2.81581689453125E+0003  -2.81540063476563E+0003  -2.81493139648438E+0003  -2.81443627929688E+0003  -2.81390771484375E+0003  -2.81334960937500E+0003  -2.81276733398438E+0003  -2.81216601562500E+0003  -2.81154736328125E+0003  -2.81092919921875E+0003  -2.81031420898438E+0003  -2.80971435546875E+0003  -2.80912915039063E+0003  -2.80856396484375E+0003  -2.80801684570313E+0003  -2.80748754882813E+0003  -2.80697827148438E+0003  -2.80648803710938E+0003  -2.80602075195313E+0003  -2.80557617187500E+0003  -2.80515502929688E+0003  -2.80476904296875E+0003  -2.80442163085938E+0003  -2.80412255859375E+0003  -2.80388403320313E+0003  -2.80372998046875E+0003  -2.80367529296875E+0003  -2.80373559570313E+0003  -2.80390771484375E+0003  -2.80418945312500E+0003  -2.80457324218750E+0003  -2.80505004882813E+0003  -2.80558642578125E+0003  -2.80614746093750E+0003  -2.80669799804688E+0003  -2.80721166992188E+0003  -2.80768261718750E+0003  -2.80809667968750E+0003  -2.80844897460938E+0003  -2.80873510742188E+0003  -2.80895019531250E+0003  -2.80909106445313E+0003  -2.80915673828125E+0003  -2.80915356445313E+0003  -2.80909399414063E+0003  -2.80899658203125E+0003  -2.80887841796875E+0003  -2.80875097656250E+0003  -2.80862475585938E+0003  -2.80850756835938E+0003  -2.80841040039063E+0003  -2.80832861328125E+0003  -2.80825634765625E+0003  -2.80818017578125E+0003  -2.80809350585938E+0003  -2.80798144531250E+0003  -2.80783764648438E+0003  -2.80764941406250E+0003  -2.80741259765625E+0003  -2.80713378906250E+0003  -2.80682739257813E+0003  -2.80651660156250E+0003  -2.80622363281250E+0003  -2.80597167968750E+0003  -2.80577978515625E+0003  -2.80559326171875E+0003  -2.80535815429688E+0003  -2.80509252929688E+0003  -2.80484814453125E+0003  -2.80464257812500E+0003  -2.80448681640625E+0003  -2.80436889648438E+0003  -2.80427099609375E+0003  -2.80408300781250E+0003  -2.80384033203125E+0003  -2.80362573242188E+0003  -2.80341894531250E+0003  -2.80319995117188E+0003  -2.80296289062500E+0003  -2.80273291015625E+0003  -2.80253930664063E+0003  -2.80241186523438E+0003  -2.80236621093750E+0003  -2.80239526367188E+0003  -2.80249121093750E+0003  -2.80264550781250E+0003  -2.80284838867188E+0003  -2.80308862304688E+0003  -2.80335180664063E+0003  -2.80356640625000E+0003  -2.80379150390625E+0003  -2.80402758789063E+0003  -2.80427490234375E+0003  -2.80453125000000E+0003  -2.80479663085938E+0003  -2.80506884765625E+0003  -2.80534814453125E+0003  -2.80563281250000E+0003  -2.80591870117188E+0003  -2.80621044921875E+0003  -2.80650585937500E+0003  -2.80680322265625E+0003  -2.80710351562500E+0003  -2.80740673828125E+0003  -2.80770849609375E+0003  -2.80801293945313E+0003  -2.80831835937500E+0003  -2.80862182617188E+0003  -2.80892236328125E+0003  -2.80922070312500E+0003  -2.80951416015625E+0003  -2.80980102539063E+0003  -2.81007958984375E+0003
  -2.82047583007813E+0003  -2.82009277343750E+0003  -2.81969799804688E+0003  -2.81929174804688E+0003  -2.81887377929688E+0003  -2.81844433593750E+0003  -2.81800341796875E+0003  -2.81755126953125E+0003  -2.81708715820313E+0003  -2.81661181640625E+0003  -2.81612426757813E+0003  -2.81562426757813E+0003  -2.81511181640625E+0003  -2.81458691406250E+0003  -2.81404907226563E+0003  -2.81349804687500E+0003  -2.81293505859375E+0003  -2.81236157226563E+0003  -2.81177807617188E+0003  -2.81118554687500E+0003  -2.81058544921875E+0003  -2.80997851562500E+0003  -2.80936621093750E+0003  -2.80874975585938E+0003  -2.80812963867188E+0003  -2.80750708007813E+0003  -2.80688330078125E+0003  -2.80625537109375E+0003  -2.80561694335938E+0003  -2.80495996093750E+0003  -2.80427783203125E+0003  -2.80364306640625E+0003  -2.80323828125000E+0003  -2.80282470703125E+0003  -2.80237182617188E+0003  -2.80188623046875E+0003  -2.80136401367188E+0003  -2.80087500000000E+0003  -2.80039038085938E+0003  -2.79979882812500E+0003  -2.79915673828125E+0003  -2.79852465820313E+0003  -2.79796337890625E+0003  -2.79757421875000E+0003  -2.79736718750000E+0003  -2.79743652343750E+0003  -2.79783251953125E+0003  -2.79847705078125E+0003  -2.79923583984375E+0003  -2.79997631835938E+0003  -2.80058837890625E+0003  -2.80108447265625E+0003  -2.80152075195313E+0003  -2.80195703125000E+0003  -2.80243530273438E+0003  -2.80291821289063E+0003  -2.80334204101563E+0003  -2.80363281250000E+0003  -2.80374267578125E+0003  -2.80372900390625E+0003  -2.80366918945313E+0003  -2.80363964843750E+0003  -2.80370166015625E+0003  -2.80387548828125E+0003  -2.80416406250000E+0003  -2.80453808593750E+0003  -2.80496166992188E+0003  -2.80538769531250E+0003  -2.80576562500000E+0003  -2.80603906250000E+0003  -2.80618798828125E+0003  -2.80624755859375E+0003  -2.80625732421875E+0003  -2.80625317382813E+0003  -2.80626196289063E+0003  -2.80629711914063E+0003  -2.80637304687500E+0003  -2.80650341796875E+0003  -2.80669970703125E+0003  -2.80696850585938E+0003  -2.80731713867188E+0003  -2.80726416015625E+0003  -2.80720532226563E+0003  -2.80718090820313E+0003  -2.80719873046875E+0003  -2.80728369140625E+0003  -2.80738525390625E+0003  -2.80738867187500E+0003  -2.80701464843750E+0003  -2.80636669921875E+0003  -2.80563476562500E+0003  -2.80497607421875E+0003  -2.80450463867188E+0003  -2.80429687500000E+0003  -2.80448803710938E+0003  -2.80528637695313E+0003  -2.80641357421875E+0003  -2.80749072265625E+0003  -2.80846435546875E+0003  -2.80931811523438E+0003  -2.81003320312500E+0003  -2.81061425781250E+0003  -2.81107812500000E+0003  -2.81145556640625E+0003  -2.81178686523438E+0003  -2.81209912109375E+0003  -2.81240722656250E+0003  -2.81271728515625E+0003  -2.81303125000000E+0003  -2.81335839843750E+0003  -2.81373071289063E+0003  -2.81413330078125E+0003  -2.81456372070313E+0003  -2.81500585937500E+0003  -2.81541625976563E+0003  -2.81575488281250E+0003  -2.81598291015625E+0003  -2.81607788085938E+0003  -2.81605688476563E+0003  -2.81594531250000E+0003  -2.81576074218750E+0003  -2.81550976562500E+0003  -2.81518530273438E+0003  -2.81479321289063E+0003  -2.81435766601563E+0003  -2.81387670898438E+0003  -2.81335107421875E+0003  -2.81279174804688E+0003  -2.81220971679688E+0003  -2.81160742187500E+0003  -2.81099951171875E+0003  -2.81039550781250E+0003  -2.80980444335938E+0003  -2.80922729492188E+0003  -2.80866918945313E+0003  -2.80813037109375E+0003  -2.80760888671875E+0003  -2.80711035156250E+0003  -2.80663623046875E+0003  -2.80618115234375E+0003  -2.80575415039063E+0003  -2.80535668945313E+0003  -2.80499487304688E+0003  -2.80467993164063E+0003  -2.80441479492188E+0003  -2.80421508789063E+0003  -2.80409155273438E+0003  -2.80406201171875E+0003  -2.80413183593750E+0003  -2.80429736328125E+0003  -2.80455053710938E+0003  -2.80488500976563E+0003  -2.80528588867188E+0003  -2.80573291015625E+0003  -2.80619702148438E+0003  -2.80665673828125E+0003  -2.80708813476563E+0003  -2.80749023437500E+0003  -2.80784814453125E+0003  -2.80816064453125E+0003  -2.80842016601563E+0003  -2.80862036132813E+0003  -2.80876074218750E+0003  -2.80883642578125E+0003  -2.80885058593750E+0003  -2.80881420898438E+0003  -2.80874267578125E+0003  -2.80864697265625E+0003  -2.80853808593750E+0003  -2.80842700195313E+0003  -2.80832226562500E+0003  -2.80823120117188E+0003  -2.80815283203125E+0003  -2.80807934570313E+0003  -2.80799902343750E+0003  -2.80790454101563E+0003  -2.80778466796875E+0003  -2.80762841796875E+0003  -2.80742724609375E+0003  -2.80717358398438E+0003  -2.80687377929688E+0003  -2.80654296875000E+0003  -2.80619848632813E+0003  -2.80585937500000E+0003  -2.80554272460938E+0003  -2.80526440429688E+0003  -2.80502343750000E+0003  -2.80480883789063E+0003  -2.80462597656250E+0003  -2.80447436523438E+0003  -2.80435205078125E+0003  -2.80425463867188E+0003  -2.80417114257813E+0003  -2.80409912109375E+0003  -2.80398315429688E+0003  -2.80377221679688E+0003  -2.80358129882813E+0003  -2.80339648437500E+0003  -2.80320556640625E+0003  -2.80300610351563E+0003  -2.80281762695313E+0003  -2.80266284179688E+0003  -2.80256445312500E+0003  -2.80253417968750E+0003  -2.80256689453125E+0003  -2.80265625000000E+0003  -2.80279516601563E+0003  -2.80297631835938E+0003  -2.80318823242188E+0003  -2.80336596679688E+0003  -2.80356152343750E+0003  -2.80377050781250E+0003  -2.80399316406250E+0003  -2.80422827148438E+0003  -2.80447143554688E+0003  -2.80472485351563E+0003  -2.80498657226563E+0003  -2.80525463867188E+0003  -2.80553027343750E+0003  -2.80581005859375E+0003  -2.80609350585938E+0003  -2.80638305664063E+0003  -2.80667626953125E+0003  -2.80696997070313E+0003  -2.80726757812500E+0003  -2.80756591796875E+0003  -2.80786645507813E+0003  -2.80816625976563E+0003  -2.80846459960938E+0003  -2.80876147460938E+0003  -2.80905468750000E+0003  -2.80934350585938E+0003  -2.80962719726563E+0003  -2.80990429687500E+0003
  -2.81993847656250E+0003  -2.81955761718750E+0003  -2.81916601562500E+0003  -2.81876367187500E+0003  -2.81835058593750E+0003  -2.81792651367188E+0003  -2.81749218750000E+0003  -2.81704663085938E+0003  -2.81658984375000E+0003  -2.81612133789063E+0003  -2.81564086914063E+0003  -2.81514770507813E+0003  -2.81464135742188E+0003  -2.81412133789063E+0003  -2.81358740234375E+0003  -2.81303930664063E+0003  -2.81247827148438E+0003  -2.81190502929688E+0003  -2.81132128906250E+0003  -2.81072753906250E+0003  -2.81012597656250E+0003  -2.80951782226563E+0003  -2.80890356445313E+0003  -2.80828515625000E+0003  -2.80766381835938E+0003  -2.80704150390625E+0003  -2.80641870117188E+0003  -2.80579516601563E+0003  -2.80516430664063E+0003  -2.80451953125000E+0003  -2.80385571289063E+0003  -2.80318945312500E+0003  -2.80265991210938E+0003  -2.80227172851563E+0003  -2.80185742187500E+0003  -2.80141918945313E+0003  -2.80099877929688E+0003  -2.80066455078125E+0003  -2.80021435546875E+0003  -2.79965258789063E+0003  -2.79903955078125E+0003  -2.79843627929688E+0003  -2.79790405273438E+0003  -2.79751220703125E+0003  -2.79736303710938E+0003  -2.79746337890625E+0003  -2.79788281250000E+0003  -2.79854492187500E+0003  -2.79930761718750E+0003  -2.80005200195313E+0003  -2.80065063476563E+0003  -2.80112011718750E+0003  -2.80151464843750E+0003  -2.80189282226563E+0003  -2.80229589843750E+0003  -2.80268872070313E+0003  -2.80301147460938E+0003  -2.80319213867188E+0003  -2.80319018554688E+0003  -2.80307934570313E+0003  -2.80295507812500E+0003  -2.80291308593750E+0003  -2.80303173828125E+0003  -2.80334643554688E+0003  -2.80385864257813E+0003  -2.80450927734375E+0003  -2.80522631835938E+0003  -2.80593261718750E+0003  -2.80655004882813E+0003  -2.80699731445313E+0003  -2.80724584960938E+0003  -2.80734619140625E+0003  -2.80735498046875E+0003  -2.80732910156250E+0003  -2.80730688476563E+0003  -2.80730395507813E+0003  -2.80733374023438E+0003  -2.80741064453125E+0003  -2.80754516601563E+0003  -2.80774536132813E+0003  -2.80796020507813E+0003  -2.80782104492188E+0003  -2.80771948242188E+0003  -2.80765161132813E+0003  -2.80762622070313E+0003  -2.80765429687500E+0003  -2.80768090820313E+0003  -2.80759082031250E+0003  -2.80727880859375E+0003  -2.80674731445313E+0003  -2.80612207031250E+0003  -2.80557080078125E+0003  -2.80520166015625E+0003  -2.80509838867188E+0003  -2.80535131835938E+0003  -2.80604663085938E+0003  -2.80698291015625E+0003  -2.80792504882813E+0003  -2.80879907226563E+0003  -2.80954296875000E+0003  -2.81012646484375E+0003  -2.81053930664063E+0003  -2.81080859375000E+0003  -2.81097753906250E+0003  -2.81108886718750E+0003  -2.81118505859375E+0003  -2.81129199218750E+0003  -2.81144433593750E+0003  -2.81165234375000E+0003  -2.81193920898438E+0003  -2.81231689453125E+0003  -2.81277319335938E+0003  -2.81328588867188E+0003  -2.81382690429688E+0003  -2.81435131835938E+0003  -2.81480957031250E+0003  -2.81514941406250E+0003  -2.81535131835938E+0003  -2.81542724609375E+0003  -2.81539941406250E+0003  -2.81530444335938E+0003  -2.81515454101563E+0003  -2.81490625000000E+0003  -2.81459375000000E+0003  -2.81421850585938E+0003  -2.81377978515625E+0003  -2.81329492187500E+0003  -2.81276708984375E+0003  -2.81220727539063E+0003  -2.81162939453125E+0003  -2.81103808593750E+0003  -2.81044921875000E+0003  -2.80986938476563E+0003  -2.80930615234375E+0003  -2.80875781250000E+0003  -2.80822998046875E+0003  -2.80772216796875E+0003  -2.80723706054688E+0003  -2.80677709960938E+0003  -2.80634179687500E+0003  -2.80593432617188E+0003  -2.80556469726563E+0003  -2.80523022460938E+0003  -2.80494433593750E+0003  -2.80471191406250E+0003  -2.80454150390625E+0003  -2.80444262695313E+0003  -2.80442675781250E+0003  -2.80449731445313E+0003  -2.80465209960938E+0003  -2.80487573242188E+0003  -2.80516137695313E+0003  -2.80549877929688E+0003  -2.80586718750000E+0003  -2.80625219726563E+0003  -2.80663110351563E+0003  -2.80699316406250E+0003  -2.80733178710938E+0003  -2.80763964843750E+0003  -2.80791113281250E+0003  -2.80814013671875E+0003  -2.80832373046875E+0003  -2.80845629882813E+0003  -2.80853491210938E+0003  -2.80856103515625E+0003  -2.80854370117188E+0003  -2.80849340820313E+0003  -2.80841796875000E+0003  -2.80833203125000E+0003  -2.80824096679688E+0003  -2.80815087890625E+0003  -2.80807373046875E+0003  -2.80800219726563E+0003  -2.80793457031250E+0003  -2.80785693359375E+0003  -2.80776464843750E+0003  -2.80764282226563E+0003  -2.80748437500000E+0003  -2.80727612304688E+0003  -2.80700952148438E+0003  -2.80669067382813E+0003  -2.80633325195313E+0003  -2.80595556640625E+0003  -2.80556762695313E+0003  -2.80519360351563E+0003  -2.80485253906250E+0003  -2.80457373046875E+0003  -2.80437939453125E+0003  -2.80425390625000E+0003  -2.80416796875000E+0003  -2.80411010742188E+0003  -2.80405590820313E+0003  -2.80400805664063E+0003  -2.80395776367188E+0003  -2.80389672851563E+0003  -2.80372485351563E+0003  -2.80355297851563E+0003  -2.80338574218750E+0003  -2.80321655273438E+0003  -2.80304589843750E+0003  -2.80288940429688E+0003  -2.80276489257813E+0003  -2.80268872070313E+0003  -2.80267016601563E+0003  -2.80270532226563E+0003  -2.80278833007813E+0003  -2.80291430664063E+0003  -2.80305102539063E+0003  -2.80319165039063E+0003  -2.80335717773438E+0003  -2.80354150390625E+0003  -2.80373950195313E+0003  -2.80395092773438E+0003  -2.80417407226563E+0003  -2.80440942382813E+0003  -2.80465429687500E+0003  -2.80490771484375E+0003  -2.80517163085938E+0003  -2.80543652343750E+0003  -2.80571240234375E+0003  -2.80599047851563E+0003  -2.80627319335938E+0003  -2.80655883789063E+0003  -2.80684985351563E+0003  -2.80714086914063E+0003  -2.80743505859375E+0003  -2.80773095703125E+0003  -2.80802514648438E+0003  -2.80831909179688E+0003  -2.80861206054688E+0003  -2.80890136718750E+0003  -2.80918603515625E+0003  -2.80946484375000E+0003  -2.80974023437500E+0003
  -2.81941357421875E+0003  -2.81903515625000E+0003  -2.81864697265625E+0003  -2.81824853515625E+0003  -2.81784033203125E+0003  -2.81742211914063E+0003  -2.81699389648438E+0003  -2.81655541992188E+0003  -2.81610620117188E+0003  -2.81564550781250E+0003  -2.81517236328125E+0003  -2.81468676757813E+0003  -2.81418652343750E+0003  -2.81367211914063E+0003  -2.81314257812500E+0003  -2.81259765625000E+0003  -2.81203833007813E+0003  -2.81146655273438E+0003  -2.81088330078125E+0003  -2.81029052734375E+0003  -2.80968994140625E+0003  -2.80908276367188E+0003  -2.80847094726563E+0003  -2.80785595703125E+0003  -2.80723999023438E+0003  -2.80662475585938E+0003  -2.80601245117188E+0003  -2.80540209960938E+0003  -2.80478955078125E+0003  -2.80417065429688E+0003  -2.80354150390625E+0003  -2.80291772460938E+0003  -2.80233618164063E+0003  -2.80183618164063E+0003  -2.80145385742188E+0003  -2.80117089843750E+0003  -2.80091918945313E+0003  -2.80062768554688E+0003  -2.80023193359375E+0003  -2.79973657226563E+0003  -2.79919970703125E+0003  -2.79867822265625E+0003  -2.79822900390625E+0003  -2.79791308593750E+0003  -2.79779418945313E+0003  -2.79792944335938E+0003  -2.79835839843750E+0003  -2.79900415039063E+0003  -2.79973999023438E+0003  -2.80043603515625E+0003  -2.80098779296875E+0003  -2.80141113281250E+0003  -2.80175683593750E+0003  -2.80207788085938E+0003  -2.80241186523438E+0003  -2.80272387695313E+0003  -2.80295703125000E+0003  -2.80304614257813E+0003  -2.80295849609375E+0003  -2.80277880859375E+0003  -2.80261718750000E+0003  -2.80258251953125E+0003  -2.80276586914063E+0003  -2.80320874023438E+0003  -2.80391088867188E+0003  -2.80479077148438E+0003  -2.80575244140625E+0003  -2.80669165039063E+0003  -2.80750268554688E+0003  -2.80807934570313E+0003  -2.80838305664063E+0003  -2.80848364257813E+0003  -2.80845996093750E+0003  -2.80839038085938E+0003  -2.80832397460938E+0003  -2.80827661132813E+0003  -2.80825952148438E+0003  -2.80828491210938E+0003  -2.80836181640625E+0003  -2.80849633789063E+0003  -2.80856103515625E+0003  -2.80837670898438E+0003  -2.80822729492188E+0003  -2.80810839843750E+0003  -2.80802172851563E+0003  -2.80797167968750E+0003  -2.80791430664063E+0003  -2.80778442382813E+0003  -2.80753027343750E+0003  -2.80713256835938E+0003  -2.80667236328125E+0003  -2.80628955078125E+0003  -2.80608837890625E+0003  -2.80616162109375E+0003  -2.80652734375000E+0003  -2.80716821289063E+0003  -2.80794213867188E+0003  -2.80871264648438E+0003  -2.80941015625000E+0003  -2.80998193359375E+0003  -2.81038061523438E+0003  -2.81059228515625E+0003  -2.81064697265625E+0003  -2.81059082031250E+0003  -2.81047436523438E+0003  -2.81035009765625E+0003  -2.81025244140625E+0003  -2.81023730468750E+0003  -2.81032934570313E+0003  -2.81055761718750E+0003  -2.81092163085938E+0003  -2.81141577148438E+0003  -2.81200122070313E+0003  -2.81264672851563E+0003  -2.81329174804688E+0003  -2.81387548828125E+0003  -2.81433398437500E+0003  -2.81463916015625E+0003  -2.81480883789063E+0003  -2.81486450195313E+0003  -2.81485815429688E+0003  -2.81477465820313E+0003  -2.81458789062500E+0003  -2.81434106445313E+0003  -2.81402001953125E+0003  -2.81363305664063E+0003  -2.81318627929688E+0003  -2.81269238281250E+0003  -2.81216406250000E+0003  -2.81160961914063E+0003  -2.81104296875000E+0003  -2.81047363281250E+0003  -2.80991333007813E+0003  -2.80936474609375E+0003  -2.80883129882813E+0003  -2.80831713867188E+0003  -2.80782470703125E+0003  -2.80735424804688E+0003  -2.80691259765625E+0003  -2.80649682617188E+0003  -2.80611450195313E+0003  -2.80576928710938E+0003  -2.80546459960938E+0003  -2.80520556640625E+0003  -2.80499902343750E+0003  -2.80485131835938E+0003  -2.80476831054688E+0003  -2.80475878906250E+0003  -2.80482641601563E+0003  -2.80496044921875E+0003  -2.80515429687500E+0003  -2.80539770507813E+0003  -2.80567797851563E+0003  -2.80598510742188E+0003  -2.80630078125000E+0003  -2.80661645507813E+0003  -2.80691870117188E+0003  -2.80720312500000E+0003  -2.80746337890625E+0003  -2.80769628906250E+0003  -2.80789501953125E+0003  -2.80806103515625E+0003  -2.80818334960938E+0003  -2.80825830078125E+0003  -2.80829272460938E+0003  -2.80828808593750E+0003  -2.80825585937500E+0003  -2.80820434570313E+0003  -2.80813793945313E+0003  -2.80806689453125E+0003  -2.80799560546875E+0003  -2.80793286132813E+0003  -2.80787500000000E+0003  -2.80781860351563E+0003  -2.80775219726563E+0003  -2.80766650390625E+0003  -2.80755322265625E+0003  -2.80739697265625E+0003  -2.80718847656250E+0003  -2.80691821289063E+0003  -2.80658935546875E+0003  -2.80621557617188E+0003  -2.80580688476563E+0003  -2.80537915039063E+0003  -2.80495532226563E+0003  -2.80456567382813E+0003  -2.80426025390625E+0003  -2.80407812500000E+0003  -2.80398852539063E+0003  -2.80394921875000E+0003  -2.80393090820313E+0003  -2.80391284179688E+0003  -2.80388940429688E+0003  -2.80385302734375E+0003  -2.80379980468750E+0003  -2.80370312500000E+0003  -2.80354760742188E+0003  -2.80339331054688E+0003  -2.80323974609375E+0003  -2.80309082031250E+0003  -2.80295849609375E+0003  -2.80285546875000E+0003  -2.80279541015625E+0003  -2.80278417968750E+0003  -2.80281909179688E+0003  -2.80285937500000E+0003  -2.80293383789063E+0003  -2.80304028320313E+0003  -2.80317578125000E+0003  -2.80333300781250E+0003  -2.80350732421875E+0003  -2.80369897460938E+0003  -2.80390454101563E+0003  -2.80412109375000E+0003  -2.80435034179688E+0003  -2.80459057617188E+0003  -2.80483764648438E+0003  -2.80509545898438E+0003  -2.80535766601563E+0003  -2.80562500000000E+0003  -2.80589868164063E+0003  -2.80617553710938E+0003  -2.80645727539063E+0003  -2.80673999023438E+0003  -2.80702832031250E+0003  -2.80731787109375E+0003  -2.80760571289063E+0003  -2.80789868164063E+0003  -2.80818701171875E+0003  -2.80847509765625E+0003  -2.80875878906250E+0003  -2.80903906250000E+0003  -2.80931616210938E+0003  -2.80958691406250E+0003
  -2.81890136718750E+0003  -2.81852539062500E+0003  -2.81814086914063E+0003  -2.81774707031250E+0003  -2.81734399414063E+0003  -2.81693164062500E+0003  -2.81651000976563E+0003  -2.81607885742188E+0003  -2.81563745117188E+0003  -2.81518481445313E+0003  -2.81471948242188E+0003  -2.81424145507813E+0003  -2.81374877929688E+0003  -2.81324047851563E+0003  -2.81271606445313E+0003  -2.81217456054688E+0003  -2.81161865234375E+0003  -2.81104882812500E+0003  -2.81046826171875E+0003  -2.80987817382813E+0003  -2.80928100585938E+0003  -2.80867919921875E+0003  -2.80807446289063E+0003  -2.80746948242188E+0003  -2.80686547851563E+0003  -2.80626513671875E+0003  -2.80566992187500E+0003  -2.80508056640625E+0003  -2.80449438476563E+0003  -2.80390942382813E+0003  -2.80332446289063E+0003  -2.80275292968750E+0003  -2.80222631835938E+0003  -2.80177661132813E+0003  -2.80143579101563E+0003  -2.80118676757813E+0003  -2.80097265625000E+0003  -2.80073388671875E+0003  -2.80041528320313E+0003  -2.80002368164063E+0003  -2.79960913085938E+0003  -2.79922363281250E+0003  -2.79891650390625E+0003  -2.79873413085938E+0003  -2.79871875000000E+0003  -2.79891040039063E+0003  -2.79933398437500E+0003  -2.79992431640625E+0003  -2.80057495117188E+0003  -2.80117553710938E+0003  -2.80164233398438E+0003  -2.80199023437500E+0003  -2.80226611328125E+0003  -2.80251806640625E+0003  -2.80277905273438E+0003  -2.80301489257813E+0003  -2.80317187500000E+0003  -2.80319238281250E+0003  -2.80305200195313E+0003  -2.80284521484375E+0003  -2.80269042968750E+0003  -2.80270703125000E+0003  -2.80298828125000E+0003  -2.80355981445313E+0003  -2.80440795898438E+0003  -2.80545068359375E+0003  -2.80658422851563E+0003  -2.80768286132813E+0003  -2.80861743164063E+0003  -2.80926049804688E+0003  -2.80956811523438E+0003  -2.80962890625000E+0003  -2.80954296875000E+0003  -2.80940917968750E+0003  -2.80928808593750E+0003  -2.80919091796875E+0003  -2.80912695312500E+0003  -2.80910473632813E+0003  -2.80913012695313E+0003  -2.80920092773438E+0003  -2.80915380859375E+0003  -2.80892895507813E+0003  -2.80873437500000E+0003  -2.80856689453125E+0003  -2.80842602539063E+0003  -2.80831372070313E+0003  -2.80820678710938E+0003  -2.80807006835938E+0003  -2.80787426757813E+0003  -2.80759594726563E+0003  -2.80730078125000E+0003  -2.80709497070313E+0003  -2.80706835937500E+0003  -2.80730102539063E+0003  -2.80776806640625E+0003  -2.80839624023438E+0003  -2.80907031250000E+0003  -2.80969287109375E+0003  -2.81021313476563E+0003  -2.81058276367188E+0003  -2.81077246093750E+0003  -2.81076489257813E+0003  -2.81059765625000E+0003  -2.81031835937500E+0003  -2.80997827148438E+0003  -2.80963647460938E+0003  -2.80934472656250E+0003  -2.80916357421875E+0003  -2.80913525390625E+0003  -2.80929687500000E+0003  -2.80963330078125E+0003  -2.81014550781250E+0003  -2.81079565429688E+0003  -2.81153369140625E+0003  -2.81229003906250E+0003  -2.81298950195313E+0003  -2.81355639648438E+0003  -2.81395654296875E+0003  -2.81420751953125E+0003  -2.81433911132813E+0003  -2.81438891601563E+0003  -2.81435449218750E+0003  -2.81423608398438E+0003  -2.81404272460938E+0003  -2.81377319335938E+0003  -2.81342895507813E+0003  -2.81302612304688E+0003  -2.81257080078125E+0003  -2.81207568359375E+0003  -2.81155395507813E+0003  -2.81101562500000E+0003  -2.81047094726563E+0003  -2.80993310546875E+0003  -2.80940332031250E+0003  -2.80888867187500E+0003  -2.80839160156250E+0003  -2.80791430664063E+0003  -2.80746240234375E+0003  -2.80703930664063E+0003  -2.80664453125000E+0003  -2.80628588867188E+0003  -2.80596459960938E+0003  -2.80568432617188E+0003  -2.80545190429688E+0003  -2.80526757812500E+0003  -2.80513818359375E+0003  -2.80506689453125E+0003  -2.80505737304688E+0003  -2.80511376953125E+0003  -2.80522875976563E+0003  -2.80539257812500E+0003  -2.80559521484375E+0003  -2.80582861328125E+0003  -2.80608081054688E+0003  -2.80634472656250E+0003  -2.80660498046875E+0003  -2.80685742187500E+0003  -2.80709472656250E+0003  -2.80731323242188E+0003  -2.80751074218750E+0003  -2.80768334960938E+0003  -2.80782666015625E+0003  -2.80793603515625E+0003  -2.80801025390625E+0003  -2.80804565429688E+0003  -2.80805590820313E+0003  -2.80803735351563E+0003  -2.80800292968750E+0003  -2.80795825195313E+0003  -2.80790673828125E+0003  -2.80785595703125E+0003  -2.80781079101563E+0003  -2.80777246093750E+0003  -2.80772998046875E+0003  -2.80767822265625E+0003  -2.80760620117188E+0003  -2.80750463867188E+0003  -2.80736010742188E+0003  -2.80716381835938E+0003  -2.80690087890625E+0003  -2.80657495117188E+0003  -2.80619970703125E+0003  -2.80577416992188E+0003  -2.80531567382813E+0003  -2.80484985351563E+0003  -2.80441699218750E+0003  -2.80408251953125E+0003  -2.80389892578125E+0003  -2.80383349609375E+0003  -2.80382373046875E+0003  -2.80383081054688E+0003  -2.80383178710938E+0003  -2.80382299804688E+0003  -2.80379272460938E+0003  -2.80373828125000E+0003  -2.80365551757813E+0003  -2.80354907226563E+0003  -2.80342114257813E+0003  -2.80327880859375E+0003  -2.80314501953125E+0003  -2.80301538085938E+0003  -2.80290576171875E+0003  -2.80283276367188E+0003  -2.80280053710938E+0003  -2.80280249023438E+0003  -2.80283935546875E+0003  -2.80291455078125E+0003  -2.80301684570313E+0003  -2.80314770507813E+0003  -2.80330126953125E+0003  -2.80347045898438E+0003  -2.80365722656250E+0003  -2.80385839843750E+0003  -2.80407226562500E+0003  -2.80429687500000E+0003  -2.80453417968750E+0003  -2.80477758789063E+0003  -2.80502954101563E+0003  -2.80528784179688E+0003  -2.80555102539063E+0003  -2.80581884765625E+0003  -2.80609082031250E+0003  -2.80636596679688E+0003  -2.80664794921875E+0003  -2.80692773437500E+0003  -2.80721020507813E+0003  -2.80749560546875E+0003  -2.80777978515625E+0003  -2.80806469726563E+0003  -2.80834863281250E+0003  -2.80862768554688E+0003  -2.80890576171875E+0003  -2.80917822265625E+0003  -2.80944384765625E+0003
  -2.81840185546875E+0003  -2.81802954101563E+0003  -2.81764868164063E+0003  -2.81725952148438E+0003  -2.81686206054688E+0003  -2.81645605468750E+0003  -2.81604125976563E+0003  -2.81561791992188E+0003  -2.81518457031250E+0003  -2.81474023437500E+0003  -2.81428369140625E+0003  -2.81381347656250E+0003  -2.81332861328125E+0003  -2.81282739257813E+0003  -2.81230908203125E+0003  -2.81177270507813E+0003  -2.81122070312500E+0003  -2.81065502929688E+0003  -2.81007836914063E+0003  -2.80949365234375E+0003  -2.80890380859375E+0003  -2.80831152343750E+0003  -2.80772021484375E+0003  -2.80713159179688E+0003  -2.80654760742188E+0003  -2.80596972656250E+0003  -2.80539843750000E+0003  -2.80483520507813E+0003  -2.80427978515625E+0003  -2.80373291015625E+0003  -2.80319384765625E+0003  -2.80267602539063E+0003  -2.80220458984375E+0003  -2.80180688476563E+0003  -2.80150781250000E+0003  -2.80129565429688E+0003  -2.80112646484375E+0003  -2.80095458984375E+0003  -2.80073828125000E+0003  -2.80048559570313E+0003  -2.80023974609375E+0003  -2.80004492187500E+0003  -2.79994311523438E+0003  -2.79995800781250E+0003  -2.80010107421875E+0003  -2.80038427734375E+0003  -2.80081005859375E+0003  -2.80132641601563E+0003  -2.80185620117188E+0003  -2.80231762695313E+0003  -2.80265576171875E+0003  -2.80288867187500E+0003  -2.80306127929688E+0003  -2.80321923828125E+0003  -2.80339404296875E+0003  -2.80355371093750E+0003  -2.80364892578125E+0003  -2.80362866210938E+0003  -2.80347656250000E+0003  -2.80329028320313E+0003  -2.80319238281250E+0003  -2.80330468750000E+0003  -2.80371459960938E+0003  -2.80441918945313E+0003  -2.80538378906250E+0003  -2.80653320312500E+0003  -2.80776611328125E+0003  -2.80893798828125E+0003  -2.80990380859375E+0003  -2.81053076171875E+0003  -2.81077856445313E+0003  -2.81075439453125E+0003  -2.81057641601563E+0003  -2.81036010742188E+0003  -2.81017285156250E+0003  -2.81002270507813E+0003  -2.80991308593750E+0003  -2.80984838867188E+0003  -2.80983007812500E+0003  -2.80984838867188E+0003  -2.80972583007813E+0003  -2.80947363281250E+0003  -2.80924389648438E+0003  -2.80903784179688E+0003  -2.80886206054688E+0003  -2.80871459960938E+0003  -2.80858642578125E+0003  -2.80845947265625E+0003  -2.80831567382813E+0003  -2.80814526367188E+0003  -2.80799780273438E+0003  -2.80795092773438E+0003  -2.80808740234375E+0003  -2.80845996093750E+0003  -2.80901904296875E+0003  -2.80966625976563E+0003  -2.81029125976563E+0003  -2.81079492187500E+0003  -2.81114160156250E+0003  -2.81131030273438E+0003  -2.81128417968750E+0003  -2.81105761718750E+0003  -2.81066796875000E+0003  -2.81017626953125E+0003  -2.80962426757813E+0003  -2.80909643554688E+0003  -2.80863403320313E+0003  -2.80830444335938E+0003  -2.80816015625000E+0003  -2.80823706054688E+0003  -2.80854150390625E+0003  -2.80905932617188E+0003  -2.80974902343750E+0003  -2.81055688476563E+0003  -2.81139868164063E+0003  -2.81219091796875E+0003  -2.81284277343750E+0003  -2.81331372070313E+0003  -2.81362915039063E+0003  -2.81381689453125E+0003  -2.81390942382813E+0003  -2.81392211914063E+0003  -2.81385449218750E+0003  -2.81370556640625E+0003  -2.81347949218750E+0003  -2.81318041992188E+0003  -2.81281689453125E+0003  -2.81240283203125E+0003  -2.81194848632813E+0003  -2.81146411132813E+0003  -2.81095849609375E+0003  -2.81044384765625E+0003  -2.80992968750000E+0003  -2.80942626953125E+0003  -2.80892944335938E+0003  -2.80845141601563E+0003  -2.80799365234375E+0003  -2.80755883789063E+0003  -2.80715332031250E+0003  -2.80677978515625E+0003  -2.80644067382813E+0003  -2.80614306640625E+0003  -2.80588647460938E+0003  -2.80567309570313E+0003  -2.80550756835938E+0003  -2.80539086914063E+0003  -2.80532714843750E+0003  -2.80531567382813E+0003  -2.80536010742188E+0003  -2.80545410156250E+0003  -2.80558813476563E+0003  -2.80575683593750E+0003  -2.80594970703125E+0003  -2.80615893554688E+0003  -2.80637548828125E+0003  -2.80659179687500E+0003  -2.80680151367188E+0003  -2.80699975585938E+0003  -2.80718457031250E+0003  -2.80735156250000E+0003  -2.80749804687500E+0003  -2.80762231445313E+0003  -2.80771972656250E+0003  -2.80778955078125E+0003  -2.80782910156250E+0003  -2.80784497070313E+0003  -2.80784057617188E+0003  -2.80782275390625E+0003  -2.80779614257813E+0003  -2.80776391601563E+0003  -2.80773339843750E+0003  -2.80770971679688E+0003  -2.80768652343750E+0003  -2.80766186523438E+0003  -2.80762622070313E+0003  -2.80757275390625E+0003  -2.80749365234375E+0003  -2.80737377929688E+0003  -2.80720190429688E+0003  -2.80696484375000E+0003  -2.80666235351563E+0003  -2.80630102539063E+0003  -2.80587939453125E+0003  -2.80540576171875E+0003  -2.80491381835938E+0003  -2.80444946289063E+0003  -2.80408959960938E+0003  -2.80389306640625E+0003  -2.80382055664063E+0003  -2.80381201171875E+0003  -2.80382446289063E+0003  -2.80382666015625E+0003  -2.80381347656250E+0003  -2.80377880859375E+0003  -2.80371801757813E+0003  -2.80362182617188E+0003  -2.80350439453125E+0003  -2.80337036132813E+0003  -2.80322802734375E+0003  -2.80308935546875E+0003  -2.80296289062500E+0003  -2.80286035156250E+0003  -2.80279418945313E+0003  -2.80276684570313E+0003  -2.80277319335938E+0003  -2.80281518554688E+0003  -2.80288720703125E+0003  -2.80299047851563E+0003  -2.80311865234375E+0003  -2.80326977539063E+0003  -2.80343725585938E+0003  -2.80362011718750E+0003  -2.80381982421875E+0003  -2.80402978515625E+0003  -2.80425244140625E+0003  -2.80448510742188E+0003  -2.80472583007813E+0003  -2.80497338867188E+0003  -2.80522729492188E+0003  -2.80548657226563E+0003  -2.80574975585938E+0003  -2.80601733398438E+0003  -2.80628784179688E+0003  -2.80656176757813E+0003  -2.80683789062500E+0003  -2.80711523437500E+0003  -2.80739550781250E+0003  -2.80767578125000E+0003  -2.80795532226563E+0003  -2.80823291015625E+0003  -2.80850952148438E+0003  -2.80878100585938E+0003  -2.80905004882813E+0003  -2.80931323242188E+0003
  -2.81791674804688E+0003  -2.81754760742188E+0003  -2.81717089843750E+0003  -2.81678686523438E+0003  -2.81639501953125E+0003  -2.81599536132813E+0003  -2.81558813476563E+0003  -2.81517309570313E+0003  -2.81474829101563E+0003  -2.81431298828125E+0003  -2.81386547851563E+0003  -2.81340454101563E+0003  -2.81292773437500E+0003  -2.81243481445313E+0003  -2.81192333984375E+0003  -2.81139306640625E+0003  -2.81084692382813E+0003  -2.81028735351563E+0003  -2.80971801757813E+0003  -2.80914135742188E+0003  -2.80855737304688E+0003  -2.80798022460938E+0003  -2.80740844726563E+0003  -2.80684497070313E+0003  -2.80628881835938E+0003  -2.80574072265625E+0003  -2.80520019531250E+0003  -2.80466748046875E+0003  -2.80414575195313E+0003  -2.80363574218750E+0003  -2.80314062500000E+0003  -2.80267260742188E+0003  -2.80225244140625E+0003  -2.80190307617188E+0003  -2.80164550781250E+0003  -2.80147338867188E+0003  -2.80135766601563E+0003  -2.80126831054688E+0003  -2.80117529296875E+0003  -2.80109497070313E+0003  -2.80105810546875E+0003  -2.80110375976563E+0003  -2.80126586914063E+0003  -2.80153930664063E+0003  -2.80189746093750E+0003  -2.80231323242188E+0003  -2.80275756835938E+0003  -2.80319335937500E+0003  -2.80357373046875E+0003  -2.80386230468750E+0003  -2.80403002929688E+0003  -2.80410498046875E+0003  -2.80413500976563E+0003  -2.80416845703125E+0003  -2.80423901367188E+0003  -2.80431958007813E+0003  -2.80436572265625E+0003  -2.80433349609375E+0003  -2.80421093750000E+0003  -2.80409252929688E+0003  -2.80409521484375E+0003  -2.80433740234375E+0003  -2.80489379882813E+0003  -2.80573120117188E+0003  -2.80679418945313E+0003  -2.80801074218750E+0003  -2.80927880859375E+0003  -2.81043652343750E+0003  -2.81133447265625E+0003  -2.81185522460938E+0003  -2.81197802734375E+0003  -2.81182592773438E+0003  -2.81153125000000E+0003  -2.81121875000000E+0003  -2.81095922851563E+0003  -2.81075439453125E+0003  -2.81060253906250E+0003  -2.81050146484375E+0003  -2.81043994140625E+0003  -2.81042724609375E+0003  -2.81027270507813E+0003  -2.81000561523438E+0003  -2.80975659179688E+0003  -2.80953295898438E+0003  -2.80933862304688E+0003  -2.80917626953125E+0003  -2.80904541015625E+0003  -2.80893920898438E+0003  -2.80884667968750E+0003  -2.80876586914063E+0003  -2.80873974609375E+0003  -2.80882739257813E+0003  -2.80909692382813E+0003  -2.80959399414063E+0003  -2.81024536132813E+0003  -2.81093627929688E+0003  -2.81153906250000E+0003  -2.81194702148438E+0003  -2.81213818359375E+0003  -2.81211596679688E+0003  -2.81187890625000E+0003  -2.81144213867188E+0003  -2.81085205078125E+0003  -2.81016918945313E+0003  -2.80945556640625E+0003  -2.80877001953125E+0003  -2.80816723632813E+0003  -2.80771069335938E+0003  -2.80747045898438E+0003  -2.80746923828125E+0003  -2.80771069335938E+0003  -2.80821557617188E+0003  -2.80891870117188E+0003  -2.80976635742188E+0003  -2.81065869140625E+0003  -2.81150610351563E+0003  -2.81220727539063E+0003  -2.81272314453125E+0003  -2.81307592773438E+0003  -2.81330029296875E+0003  -2.81342529296875E+0003  -2.81347192382813E+0003  -2.81343994140625E+0003  -2.81333154296875E+0003  -2.81314404296875E+0003  -2.81288818359375E+0003  -2.81256738281250E+0003  -2.81219653320313E+0003  -2.81178686523438E+0003  -2.81133984375000E+0003  -2.81087451171875E+0003  -2.81039331054688E+0003  -2.80990893554688E+0003  -2.80942919921875E+0003  -2.80895849609375E+0003  -2.80849926757813E+0003  -2.80805883789063E+0003  -2.80764184570313E+0003  -2.80725341796875E+0003  -2.80689648437500E+0003  -2.80657836914063E+0003  -2.80629907226563E+0003  -2.80606127929688E+0003  -2.80586743164063E+0003  -2.80571386718750E+0003  -2.80560693359375E+0003  -2.80554418945313E+0003  -2.80553076171875E+0003  -2.80556225585938E+0003  -2.80563745117188E+0003  -2.80574755859375E+0003  -2.80588427734375E+0003  -2.80604272460938E+0003  -2.80621508789063E+0003  -2.80639477539063E+0003  -2.80657348632813E+0003  -2.80674780273438E+0003  -2.80691357421875E+0003  -2.80706884765625E+0003  -2.80720947265625E+0003  -2.80733618164063E+0003  -2.80744482421875E+0003  -2.80753149414063E+0003  -2.80759838867188E+0003  -2.80764013671875E+0003  -2.80766137695313E+0003  -2.80767065429688E+0003  -2.80766625976563E+0003  -2.80765625000000E+0003  -2.80764233398438E+0003  -2.80763037109375E+0003  -2.80762377929688E+0003  -2.80761645507813E+0003  -2.80760766601563E+0003  -2.80759155273438E+0003  -2.80756420898438E+0003  -2.80751342773438E+0003  -2.80742626953125E+0003  -2.80729248046875E+0003  -2.80709838867188E+0003  -2.80684204101563E+0003  -2.80651782226563E+0003  -2.80612109375000E+0003  -2.80565649414063E+0003  -2.80515747070313E+0003  -2.80468041992188E+0003  -2.80430151367188E+0003  -2.80407348632813E+0003  -2.80396899414063E+0003  -2.80392504882813E+0003  -2.80391479492188E+0003  -2.80389746093750E+0003  -2.80386669921875E+0003  -2.80381689453125E+0003  -2.80373925781250E+0003  -2.80362817382813E+0003  -2.80349487304688E+0003  -2.80334887695313E+0003  -2.80320092773438E+0003  -2.80306030273438E+0003  -2.80293530273438E+0003  -2.80283447265625E+0003  -2.80277075195313E+0003  -2.80274462890625E+0003  -2.80275415039063E+0003  -2.80279516601563E+0003  -2.80286987304688E+0003  -2.80297094726563E+0003  -2.80309863281250E+0003  -2.80324755859375E+0003  -2.80341259765625E+0003  -2.80359497070313E+0003  -2.80379077148438E+0003  -2.80399877929688E+0003  -2.80421948242188E+0003  -2.80444824218750E+0003  -2.80468505859375E+0003  -2.80492993164063E+0003  -2.80517944335938E+0003  -2.80543383789063E+0003  -2.80569189453125E+0003  -2.80595556640625E+0003  -2.80622021484375E+0003  -2.80648803710938E+0003  -2.80675927734375E+0003  -2.80703198242188E+0003  -2.80730590820313E+0003  -2.80758129882813E+0003  -2.80785400390625E+0003  -2.80812817382813E+0003  -2.80840014648438E+0003  -2.80866772460938E+0003  -2.80893383789063E+0003  -2.80919189453125E+0003
  -2.81744555664063E+0003  -2.81708007812500E+0003  -2.81670800781250E+0003  -2.81632910156250E+0003  -2.81594335937500E+0003  -2.81555102539063E+0003  -2.81515161132813E+0003  -2.81474487304688E+0003  -2.81432983398438E+0003  -2.81390405273438E+0003  -2.81346630859375E+0003  -2.81301489257813E+0003  -2.81254809570313E+0003  -2.81206396484375E+0003  -2.81156079101563E+0003  -2.81103857421875E+0003  -2.81049975585938E+0003  -2.80994848632813E+0003  -2.80938281250000E+0003  -2.80881835937500E+0003  -2.80825439453125E+0003  -2.80769580078125E+0003  -2.80714868164063E+0003  -2.80661425781250E+0003  -2.80609179687500E+0003  -2.80557885742188E+0003  -2.80507202148438E+0003  -2.80457275390625E+0003  -2.80408471679688E+0003  -2.80361181640625E+0003  -2.80315869140625E+0003  -2.80273657226563E+0003  -2.80236450195313E+0003  -2.80200634765625E+0003  -2.80165429687500E+0003  -2.80138891601563E+0003  -2.80121972656250E+0003  -2.80116625976563E+0003  -2.80123876953125E+0003  -2.80144921875000E+0003  -2.80179565429688E+0003  -2.80228613281250E+0003  -2.80278808593750E+0003  -2.80335375976563E+0003  -2.80395849609375E+0003  -2.80453100585938E+0003  -2.80500634765625E+0003  -2.80535620117188E+0003  -2.80558154296875E+0003  -2.80567944335938E+0003  -2.80565356445313E+0003  -2.80554516601563E+0003  -2.80540869140625E+0003  -2.80529833984375E+0003  -2.80525463867188E+0003  -2.80525488281250E+0003  -2.80526098632813E+0003  -2.80523388671875E+0003  -2.80516381835938E+0003  -2.80513671875000E+0003  -2.80525854492188E+0003  -2.80563525390625E+0003  -2.80632763671875E+0003  -2.80727880859375E+0003  -2.80841308593750E+0003  -2.80965673828125E+0003  -2.81090869140625E+0003  -2.81201098632813E+0003  -2.81277075195313E+0003  -2.81312573242188E+0003  -2.81308593750000E+0003  -2.81278881835938E+0003  -2.81237500000000E+0003  -2.81196972656250E+0003  -2.81164160156250E+0003  -2.81138696289063E+0003  -2.81119824218750E+0003  -2.81106738281250E+0003  -2.81097143554688E+0003  -2.81094018554688E+0003  -2.81078125000000E+0003  -2.81051025390625E+0003  -2.81025830078125E+0003  -2.81003173828125E+0003  -2.80983740234375E+0003  -2.80967749023438E+0003  -2.80955590820313E+0003  -2.80947729492188E+0003  -2.80942993164063E+0003  -2.80942187500000E+0003  -2.80948730468750E+0003  -2.80968041992188E+0003  -2.81005712890625E+0003  -2.81065209960938E+0003  -2.81138012695313E+0003  -2.81211303710938E+0003  -2.81270678710938E+0003  -2.81303710937500E+0003  -2.81309692382813E+0003  -2.81290161132813E+0003  -2.81247851562500E+0003  -2.81186425781250E+0003  -2.81111889648438E+0003  -2.81029272460938E+0003  -2.80943847656250E+0003  -2.80862548828125E+0003  -2.80791162109375E+0003  -2.80735693359375E+0003  -2.80705834960938E+0003  -2.80699438476563E+0003  -2.80713916015625E+0003  -2.80762329101563E+0003  -2.80831982421875E+0003  -2.80916601562500E+0003  -2.81007226562500E+0003  -2.81093579101563E+0003  -2.81165771484375E+0003  -2.81218872070313E+0003  -2.81255688476563E+0003  -2.81279711914063E+0003  -2.81294433593750E+0003  -2.81301489257813E+0003  -2.81301147460938E+0003  -2.81293286132813E+0003  -2.81278320312500E+0003  -2.81256567382813E+0003  -2.81228955078125E+0003  -2.81196362304688E+0003  -2.81159497070313E+0003  -2.81119287109375E+0003  -2.81076586914063E+0003  -2.81032397460938E+0003  -2.80987084960938E+0003  -2.80941918945313E+0003  -2.80897192382813E+0003  -2.80853417968750E+0003  -2.80811425781250E+0003  -2.80771484375000E+0003  -2.80734228515625E+0003  -2.80700097656250E+0003  -2.80669897460938E+0003  -2.80643554687500E+0003  -2.80621484375000E+0003  -2.80603149414063E+0003  -2.80588964843750E+0003  -2.80578686523438E+0003  -2.80572436523438E+0003  -2.80570751953125E+0003  -2.80572900390625E+0003  -2.80578515625000E+0003  -2.80587207031250E+0003  -2.80598266601563E+0003  -2.80611157226563E+0003  -2.80625268554688E+0003  -2.80640209960938E+0003  -2.80655322265625E+0003  -2.80669604492188E+0003  -2.80683569335938E+0003  -2.80696557617188E+0003  -2.80708544921875E+0003  -2.80719531250000E+0003  -2.80729101562500E+0003  -2.80737011718750E+0003  -2.80743188476563E+0003  -2.80747631835938E+0003  -2.80750634765625E+0003  -2.80752343750000E+0003  -2.80753295898438E+0003  -2.80753613281250E+0003  -2.80754003906250E+0003  -2.80754370117188E+0003  -2.80754931640625E+0003  -2.80755761718750E+0003  -2.80756665039063E+0003  -2.80756958007813E+0003  -2.80756567382813E+0003  -2.80754638671875E+0003  -2.80749975585938E+0003  -2.80741210937500E+0003  -2.80727587890625E+0003  -2.80707763671875E+0003  -2.80680517578125E+0003  -2.80645092773438E+0003  -2.80600585937500E+0003  -2.80551538085938E+0003  -2.80503662109375E+0003  -2.80463940429688E+0003  -2.80437646484375E+0003  -2.80422192382813E+0003  -2.80413525390625E+0003  -2.80408007812500E+0003  -2.80402880859375E+0003  -2.80396923828125E+0003  -2.80389428710938E+0003  -2.80379199218750E+0003  -2.80366381835938E+0003  -2.80351416015625E+0003  -2.80335546875000E+0003  -2.80319921875000E+0003  -2.80305371093750E+0003  -2.80292700195313E+0003  -2.80282690429688E+0003  -2.80276342773438E+0003  -2.80273535156250E+0003  -2.80274536132813E+0003  -2.80278710937500E+0003  -2.80285839843750E+0003  -2.80295996093750E+0003  -2.80308544921875E+0003  -2.80323217773438E+0003  -2.80339599609375E+0003  -2.80357641601563E+0003  -2.80376928710938E+0003  -2.80397631835938E+0003  -2.80419482421875E+0003  -2.80442187500000E+0003  -2.80465600585938E+0003  -2.80489672851563E+0003  -2.80514233398438E+0003  -2.80539233398438E+0003  -2.80564550781250E+0003  -2.80590405273438E+0003  -2.80616406250000E+0003  -2.80642700195313E+0003  -2.80669213867188E+0003  -2.80695898437500E+0003  -2.80722802734375E+0003  -2.80749658203125E+0003  -2.80776806640625E+0003  -2.80803564453125E+0003  -2.80830151367188E+0003  -2.80856469726563E+0003  -2.80882519531250E+0003  -2.80908032226563E+0003
  -2.81698901367188E+0003  -2.81662768554688E+0003  -2.81626025390625E+0003  -2.81588720703125E+0003  -2.81550805664063E+0003  -2.81512329101563E+0003  -2.81473193359375E+0003  -2.81433447265625E+0003  -2.81392919921875E+0003  -2.81351367187500E+0003  -2.81308666992188E+0003  -2.81264624023438E+0003  -2.81219018554688E+0003  -2.81171655273438E+0003  -2.81122363281250E+0003  -2.81071118164063E+0003  -2.81018237304688E+0003  -2.80963671875000E+0003  -2.80908886718750E+0003  -2.80853906250000E+0003  -2.80799267578125E+0003  -2.80745654296875E+0003  -2.80693676757813E+0003  -2.80643579101563E+0003  -2.80595043945313E+0003  -2.80547509765625E+0003  -2.80500585937500E+0003  -2.80454272460938E+0003  -2.80409033203125E+0003  -2.80365502929688E+0003  -2.80320458984375E+0003  -2.80270336914063E+0003  -2.80222827148438E+0003  -2.80180346679688E+0003  -2.80145678710938E+0003  -2.80121313476563E+0003  -2.80110351562500E+0003  -2.80115722656250E+0003  -2.80140234375000E+0003  -2.80184350585938E+0003  -2.80247094726563E+0003  -2.80327416992188E+0003  -2.80424072265625E+0003  -2.80526220703125E+0003  -2.80611499023438E+0003  -2.80684570312500E+0003  -2.80735449218750E+0003  -2.80763183593750E+0003  -2.80770825195313E+0003  -2.80761718750000E+0003  -2.80739550781250E+0003  -2.80709936523438E+0003  -2.80679077148438E+0003  -2.80653295898438E+0003  -2.80637353515625E+0003  -2.80629565429688E+0003  -2.80626513671875E+0003  -2.80624682617188E+0003  -2.80623217773438E+0003  -2.80629370117188E+0003  -2.80652246093750E+0003  -2.80700854492188E+0003  -2.80779736328125E+0003  -2.80881542968750E+0003  -2.80997778320313E+0003  -2.81121997070313E+0003  -2.81242944335938E+0003  -2.81342163085938E+0003  -2.81402954101563E+0003  -2.81420410156250E+0003  -2.81400659179688E+0003  -2.81358325195313E+0003  -2.81307397460938E+0003  -2.81259790039063E+0003  -2.81221752929688E+0003  -2.81192456054688E+0003  -2.81170751953125E+0003  -2.81155468750000E+0003  -2.81143750000000E+0003  -2.81139111328125E+0003  -2.81124096679688E+0003  -2.81097900390625E+0003  -2.81073510742188E+0003  -2.81051684570313E+0003  -2.81033276367188E+0003  -2.81018774414063E+0003  -2.81008374023438E+0003  -2.81003247070313E+0003  -2.81002734375000E+0003  -2.81007421875000E+0003  -2.81020800781250E+0003  -2.81047290039063E+0003  -2.81091894531250E+0003  -2.81157470703125E+0003  -2.81235107421875E+0003  -2.81310791015625E+0003  -2.81368554687500E+0003  -2.81394824218750E+0003  -2.81389526367188E+0003  -2.81356933593750E+0003  -2.81301879882813E+0003  -2.81228393554688E+0003  -2.81141601562500E+0003  -2.81047509765625E+0003  -2.80951782226563E+0003  -2.80861328125000E+0003  -2.80782568359375E+0003  -2.80721411132813E+0003  -2.80686425781250E+0003  -2.80676416015625E+0003  -2.80688012695313E+0003  -2.80730078125000E+0003  -2.80794775390625E+0003  -2.80875952148438E+0003  -2.80964428710938E+0003  -2.81048657226563E+0003  -2.81119287109375E+0003  -2.81171386718750E+0003  -2.81208178710938E+0003  -2.81232495117188E+0003  -2.81248022460938E+0003  -2.81256518554688E+0003  -2.81258032226563E+0003  -2.81252929687500E+0003  -2.81241210937500E+0003  -2.81222998046875E+0003  -2.81199707031250E+0003  -2.81171435546875E+0003  -2.81138891601563E+0003  -2.81102929687500E+0003  -2.81064355468750E+0003  -2.81023876953125E+0003  -2.80982226562500E+0003  -2.80939892578125E+0003  -2.80897680664063E+0003  -2.80856152343750E+0003  -2.80816015625000E+0003  -2.80777807617188E+0003  -2.80742016601563E+0003  -2.80709497070313E+0003  -2.80680712890625E+0003  -2.80655810546875E+0003  -2.80634570312500E+0003  -2.80617211914063E+0003  -2.80603637695313E+0003  -2.80593872070313E+0003  -2.80587670898438E+0003  -2.80585205078125E+0003  -2.80586181640625E+0003  -2.80590429687500E+0003  -2.80597070312500E+0003  -2.80605883789063E+0003  -2.80616455078125E+0003  -2.80627954101563E+0003  -2.80640258789063E+0003  -2.80652636718750E+0003  -2.80664770507813E+0003  -2.80676464843750E+0003  -2.80687646484375E+0003  -2.80697875976563E+0003  -2.80707397460938E+0003  -2.80715942382813E+0003  -2.80723193359375E+0003  -2.80729199218750E+0003  -2.80733740234375E+0003  -2.80737353515625E+0003  -2.80739819335938E+0003  -2.80741845703125E+0003  -2.80743481445313E+0003  -2.80745166015625E+0003  -2.80746752929688E+0003  -2.80748754882813E+0003  -2.80750830078125E+0003  -2.80753051757813E+0003  -2.80755249023438E+0003  -2.80757275390625E+0003  -2.80758325195313E+0003  -2.80757348632813E+0003  -2.80753320312500E+0003  -2.80745532226563E+0003  -2.80731958007813E+0003  -2.80710888671875E+0003  -2.80680151367188E+0003  -2.80638500976563E+0003  -2.80590600585938E+0003  -2.80543066406250E+0003  -2.80501977539063E+0003  -2.80472192382813E+0003  -2.80452514648438E+0003  -2.80439111328125E+0003  -2.80429028320313E+0003  -2.80419750976563E+0003  -2.80410278320313E+0003  -2.80399804687500E+0003  -2.80386938476563E+0003  -2.80371997070313E+0003  -2.80355419921875E+0003  -2.80338525390625E+0003  -2.80321899414063E+0003  -2.80306665039063E+0003  -2.80293505859375E+0003  -2.80283227539063E+0003  -2.80276318359375E+0003  -2.80273608398438E+0003  -2.80274487304688E+0003  -2.80278540039063E+0003  -2.80285522460938E+0003  -2.80295727539063E+0003  -2.80308056640625E+0003  -2.80322534179688E+0003  -2.80338989257813E+0003  -2.80356787109375E+0003  -2.80376049804688E+0003  -2.80396606445313E+0003  -2.80418017578125E+0003  -2.80440405273438E+0003  -2.80463549804688E+0003  -2.80487377929688E+0003  -2.80511425781250E+0003  -2.80536010742188E+0003  -2.80560839843750E+0003  -2.80586157226563E+0003  -2.80611718750000E+0003  -2.80637524414063E+0003  -2.80663476562500E+0003  -2.80689648437500E+0003  -2.80715991210938E+0003  -2.80742553710938E+0003  -2.80768847656250E+0003  -2.80795092773438E+0003  -2.80821362304688E+0003  -2.80847241210938E+0003  -2.80872924804688E+0003  -2.80898071289063E+0003
  -2.81654760742188E+0003  -2.81619042968750E+0003  -2.81582861328125E+0003  -2.81546142578125E+0003  -2.81508935546875E+0003  -2.81471215820313E+0003  -2.81433007812500E+0003  -2.81394213867188E+0003  -2.81354711914063E+0003  -2.81314306640625E+0003  -2.81272778320313E+0003  -2.81229907226563E+0003  -2.81185522460938E+0003  -2.81139404296875E+0003  -2.81091357421875E+0003  -2.81041333007813E+0003  -2.80989184570313E+0003  -2.80936572265625E+0003  -2.80883325195313E+0003  -2.80830102539063E+0003  -2.80777539062500E+0003  -2.80726416015625E+0003  -2.80677392578125E+0003  -2.80630810546875E+0003  -2.80586059570313E+0003  -2.80542480468750E+0003  -2.80499511718750E+0003  -2.80455639648438E+0003  -2.80407641601563E+0003  -2.80359521484375E+0003  -2.80310034179688E+0003  -2.80260229492188E+0003  -2.80212670898438E+0003  -2.80171044921875E+0003  -2.80138037109375E+0003  -2.80117211914063E+0003  -2.80112548828125E+0003  -2.80128637695313E+0003  -2.80168920898438E+0003  -2.80234228515625E+0003  -2.80321997070313E+0003  -2.80430346679688E+0003  -2.80556323242188E+0003  -2.80689697265625E+0003  -2.80816064453125E+0003  -2.80906811523438E+0003  -2.80961621093750E+0003  -2.80983471679688E+0003  -2.80978222656250E+0003  -2.80952343750000E+0003  -2.80912524414063E+0003  -2.80865722656250E+0003  -2.80818969726563E+0003  -2.80779443359375E+0003  -2.80752783203125E+0003  -2.80737597656250E+0003  -2.80730737304688E+0003  -2.80728979492188E+0003  -2.80731250000000E+0003  -2.80743432617188E+0003  -2.80772973632813E+0003  -2.80827172851563E+0003  -2.80908959960938E+0003  -2.81010498046875E+0003  -2.81123583984375E+0003  -2.81241162109375E+0003  -2.81352172851563E+0003  -2.81437011718750E+0003  -2.81486206054688E+0003  -2.81491503906250E+0003  -2.81462792968750E+0003  -2.81414306640625E+0003  -2.81359350585938E+0003  -2.81308911132813E+0003  -2.81268408203125E+0003  -2.81237158203125E+0003  -2.81213793945313E+0003  -2.81197143554688E+0003  -2.81184057617188E+0003  -2.81178564453125E+0003  -2.81164550781250E+0003  -2.81139672851563E+0003  -2.81117041015625E+0003  -2.81097192382813E+0003  -2.81080322265625E+0003  -2.81068066406250E+0003  -2.81059936523438E+0003  -2.81057421875000E+0003  -2.81060107421875E+0003  -2.81068750000000E+0003  -2.81086181640625E+0003  -2.81116528320313E+0003  -2.81163671875000E+0003  -2.81230224609375E+0003  -2.81306738281250E+0003  -2.81379736328125E+0003  -2.81433422851563E+0003  -2.81454541015625E+0003  -2.81443090820313E+0003  -2.81403100585938E+0003  -2.81339697265625E+0003  -2.81258496093750E+0003  -2.81165185546875E+0003  -2.81065283203125E+0003  -2.80965258789063E+0003  -2.80870825195313E+0003  -2.80788671875000E+0003  -2.80725024414063E+0003  -2.80686987304688E+0003  -2.80674096679688E+0003  -2.80684692382813E+0003  -2.80721752929688E+0003  -2.80781396484375E+0003  -2.80855224609375E+0003  -2.80936181640625E+0003  -2.81015136718750E+0003  -2.81081127929688E+0003  -2.81130175781250E+0003  -2.81164843750000E+0003  -2.81188427734375E+0003  -2.81203833007813E+0003  -2.81213061523438E+0003  -2.81215966796875E+0003  -2.81212841796875E+0003  -2.81203808593750E+0003  -2.81189379882813E+0003  -2.81169750976563E+0003  -2.81145532226563E+0003  -2.81117431640625E+0003  -2.81085864257813E+0003  -2.81051440429688E+0003  -2.81014843750000E+0003  -2.80976464843750E+0003  -2.80937133789063E+0003  -2.80897460937500E+0003  -2.80858056640625E+0003  -2.80819775390625E+0003  -2.80782983398438E+0003  -2.80748852539063E+0003  -2.80717602539063E+0003  -2.80690185546875E+0003  -2.80666284179688E+0003  -2.80646093750000E+0003  -2.80629394531250E+0003  -2.80616284179688E+0003  -2.80606591796875E+0003  -2.80600219726563E+0003  -2.80597167968750E+0003  -2.80597094726563E+0003  -2.80599926757813E+0003  -2.80604858398438E+0003  -2.80611767578125E+0003  -2.80620214843750E+0003  -2.80629638671875E+0003  -2.80639697265625E+0003  -2.80650048828125E+0003  -2.80660156250000E+0003  -2.80670190429688E+0003  -2.80679614257813E+0003  -2.80688647460938E+0003  -2.80696923828125E+0003  -2.80704785156250E+0003  -2.80711572265625E+0003  -2.80717358398438E+0003  -2.80722070312500E+0003  -2.80725903320313E+0003  -2.80729248046875E+0003  -2.80732250976563E+0003  -2.80735009765625E+0003  -2.80737548828125E+0003  -2.80740283203125E+0003  -2.80743237304688E+0003  -2.80746435546875E+0003  -2.80749951171875E+0003  -2.80753710937500E+0003  -2.80757495117188E+0003  -2.80760961914063E+0003  -2.80763012695313E+0003  -2.80763037109375E+0003  -2.80760034179688E+0003  -2.80752001953125E+0003  -2.80736425781250E+0003  -2.80710278320313E+0003  -2.80672192382813E+0003  -2.80626318359375E+0003  -2.80579760742188E+0003  -2.80538378906250E+0003  -2.80506640625000E+0003  -2.80483276367188E+0003  -2.80465893554688E+0003  -2.80451562500000E+0003  -2.80438281250000E+0003  -2.80425097656250E+0003  -2.80411303710938E+0003  -2.80396069335938E+0003  -2.80378979492188E+0003  -2.80360815429688E+0003  -2.80342749023438E+0003  -2.80325122070313E+0003  -2.80309130859375E+0003  -2.80295605468750E+0003  -2.80284741210938E+0003  -2.80277563476563E+0003  -2.80274633789063E+0003  -2.80275488281250E+0003  -2.80279589843750E+0003  -2.80286572265625E+0003  -2.80296240234375E+0003  -2.80308520507813E+0003  -2.80323022460938E+0003  -2.80339404296875E+0003  -2.80357006835938E+0003  -2.80376269531250E+0003  -2.80396484375000E+0003  -2.80417700195313E+0003  -2.80439916992188E+0003  -2.80462792968750E+0003  -2.80486010742188E+0003  -2.80509838867188E+0003  -2.80533911132813E+0003  -2.80558300781250E+0003  -2.80583032226563E+0003  -2.80608007812500E+0003  -2.80633349609375E+0003  -2.80658837890625E+0003  -2.80684350585938E+0003  -2.80710083007813E+0003  -2.80735986328125E+0003  -2.80761914062500E+0003  -2.80787792968750E+0003  -2.80813452148438E+0003  -2.80838818359375E+0003  -2.80864086914063E+0003  -2.80888818359375E+0003
  -2.81612158203125E+0003  -2.81576928710938E+0003  -2.81541308593750E+0003  -2.81505273437500E+0003  -2.81468823242188E+0003  -2.81431933593750E+0003  -2.81394628906250E+0003  -2.81356860351563E+0003  -2.81318481445313E+0003  -2.81279272460938E+0003  -2.81238989257813E+0003  -2.81197460937500E+0003  -2.81154443359375E+0003  -2.81109790039063E+0003  -2.81063208007813E+0003  -2.81014160156250E+0003  -2.80964184570313E+0003  -2.80913256835938E+0003  -2.80861865234375E+0003  -2.80810717773438E+0003  -2.80760522460938E+0003  -2.80712036132813E+0003  -2.80666137695313E+0003  -2.80623022460938E+0003  -2.80582055664063E+0003  -2.80538623046875E+0003  -2.80494848632813E+0003  -2.80448803710938E+0003  -2.80403100585938E+0003  -2.80356933593750E+0003  -2.80308935546875E+0003  -2.80260571289063E+0003  -2.80215136718750E+0003  -2.80175756835938E+0003  -2.80145800781250E+0003  -2.80129589843750E+0003  -2.80132006835938E+0003  -2.80158081054688E+0003  -2.80212524414063E+0003  -2.80295166015625E+0003  -2.80403149414063E+0003  -2.80533203125000E+0003  -2.80681933593750E+0003  -2.80837060546875E+0003  -2.80982031250000E+0003  -2.81098852539063E+0003  -2.81163134765625E+0003  -2.81180786132813E+0003  -2.81165747070313E+0003  -2.81126782226563E+0003  -2.81072851562500E+0003  -2.81012036132813E+0003  -2.80952099609375E+0003  -2.80901049804688E+0003  -2.80865161132813E+0003  -2.80843310546875E+0003  -2.80832324218750E+0003  -2.80829052734375E+0003  -2.80832128906250E+0003  -2.80846093750000E+0003  -2.80876782226563E+0003  -2.80929785156250E+0003  -2.81006860351563E+0003  -2.81100927734375E+0003  -2.81203491210938E+0003  -2.81307153320313E+0003  -2.81402099609375E+0003  -2.81473681640625E+0003  -2.81511743164063E+0003  -2.81516162109375E+0003  -2.81490039062500E+0003  -2.81444067382813E+0003  -2.81391772460938E+0003  -2.81343457031250E+0003  -2.81303906250000E+0003  -2.81272827148438E+0003  -2.81249194335938E+0003  -2.81232080078125E+0003  -2.81218286132813E+0003  -2.81212329101563E+0003  -2.81198193359375E+0003  -2.81175390625000E+0003  -2.81155102539063E+0003  -2.81137402343750E+0003  -2.81123095703125E+0003  -2.81113037109375E+0003  -2.81107495117188E+0003  -2.81107373046875E+0003  -2.81112451171875E+0003  -2.81123315429688E+0003  -2.81142358398438E+0003  -2.81172656250000E+0003  -2.81217822265625E+0003  -2.81279174804688E+0003  -2.81348486328125E+0003  -2.81413647460938E+0003  -2.81460473632813E+0003  -2.81477343750000E+0003  -2.81461157226563E+0003  -2.81418066406250E+0003  -2.81353491210938E+0003  -2.81271948242188E+0003  -2.81178662109375E+0003  -2.81079541015625E+0003  -2.80980859375000E+0003  -2.80888183593750E+0003  -2.80807006835938E+0003  -2.80743286132813E+0003  -2.80704663085938E+0003  -2.80690673828125E+0003  -2.80699780273438E+0003  -2.80733251953125E+0003  -2.80786376953125E+0003  -2.80851806640625E+0003  -2.80922924804688E+0003  -2.80992089843750E+0003  -2.81051196289063E+0003  -2.81095043945313E+0003  -2.81126538085938E+0003  -2.81148217773438E+0003  -2.81162915039063E+0003  -2.81172143554688E+0003  -2.81176318359375E+0003  -2.81175000000000E+0003  -2.81168261718750E+0003  -2.81156591796875E+0003  -2.81140405273438E+0003  -2.81120190429688E+0003  -2.81095971679688E+0003  -2.81068554687500E+0003  -2.81038452148438E+0003  -2.81005371093750E+0003  -2.80970312500000E+0003  -2.80933593750000E+0003  -2.80896508789063E+0003  -2.80859448242188E+0003  -2.80822802734375E+0003  -2.80787719726563E+0003  -2.80754785156250E+0003  -2.80724829101563E+0003  -2.80698583984375E+0003  -2.80675659179688E+0003  -2.80655981445313E+0003  -2.80640039062500E+0003  -2.80627172851563E+0003  -2.80617504882813E+0003  -2.80610864257813E+0003  -2.80607055664063E+0003  -2.80606176757813E+0003  -2.80607666015625E+0003  -2.80611206054688E+0003  -2.80616528320313E+0003  -2.80623144531250E+0003  -2.80630688476563E+0003  -2.80639086914063E+0003  -2.80647631835938E+0003  -2.80656176757813E+0003  -2.80664477539063E+0003  -2.80672875976563E+0003  -2.80680786132813E+0003  -2.80688378906250E+0003  -2.80695312500000E+0003  -2.80701684570313E+0003  -2.80707128906250E+0003  -2.80711962890625E+0003  -2.80716406250000E+0003  -2.80720434570313E+0003  -2.80724023437500E+0003  -2.80727539062500E+0003  -2.80730834960938E+0003  -2.80734643554688E+0003  -2.80738134765625E+0003  -2.80742285156250E+0003  -2.80746655273438E+0003  -2.80751464843750E+0003  -2.80756591796875E+0003  -2.80761718750000E+0003  -2.80765869140625E+0003  -2.80768383789063E+0003  -2.80768554687500E+0003  -2.80764355468750E+0003  -2.80752856445313E+0003  -2.80730908203125E+0003  -2.80696606445313E+0003  -2.80654125976563E+0003  -2.80610034179688E+0003  -2.80569750976563E+0003  -2.80537231445313E+0003  -2.80511987304688E+0003  -2.80491162109375E+0003  -2.80473413085938E+0003  -2.80456396484375E+0003  -2.80440161132813E+0003  -2.80423608398438E+0003  -2.80405712890625E+0003  -2.80386791992188E+0003  -2.80366943359375E+0003  -2.80347534179688E+0003  -2.80329028320313E+0003  -2.80312451171875E+0003  -2.80298388671875E+0003  -2.80287353515625E+0003  -2.80279882812500E+0003  -2.80276928710938E+0003  -2.80277758789063E+0003  -2.80281713867188E+0003  -2.80288427734375E+0003  -2.80297851562500E+0003  -2.80310229492188E+0003  -2.80324560546875E+0003  -2.80340820312500E+0003  -2.80358569335938E+0003  -2.80377416992188E+0003  -2.80397412109375E+0003  -2.80418383789063E+0003  -2.80440234375000E+0003  -2.80462817382813E+0003  -2.80485668945313E+0003  -2.80509106445313E+0003  -2.80532617187500E+0003  -2.80556689453125E+0003  -2.80580810546875E+0003  -2.80605419921875E+0003  -2.80630029296875E+0003  -2.80654858398438E+0003  -2.80680004882813E+0003  -2.80705297851563E+0003  -2.80730664062500E+0003  -2.80755957031250E+0003  -2.80781298828125E+0003  -2.80806445312500E+0003  -2.80831518554688E+0003  -2.80856176757813E+0003  -2.80880541992188E+0003
  -2.81571166992188E+0003  -2.81536499023438E+0003  -2.81501489257813E+0003  -2.81466137695313E+0003  -2.81430468750000E+0003  -2.81394482421875E+0003  -2.81358154296875E+0003  -2.81321459960938E+0003  -2.81284252929688E+0003  -2.81246313476563E+0003  -2.81207446289063E+0003  -2.81167358398438E+0003  -2.81125952148438E+0003  -2.81082910156250E+0003  -2.81038085937500E+0003  -2.80990893554688E+0003  -2.80942895507813E+0003  -2.80894042968750E+0003  -2.80844921875000E+0003  -2.80796191406250E+0003  -2.80748583984375E+0003  -2.80702978515625E+0003  -2.80660180664063E+0003  -2.80619506835938E+0003  -2.80576562500000E+0003  -2.80534863281250E+0003  -2.80492504882813E+0003  -2.80448925781250E+0003  -2.80406518554688E+0003  -2.80362963867188E+0003  -2.80317968750000E+0003  -2.80272705078125E+0003  -2.80230737304688E+0003  -2.80195654296875E+0003  -2.80170751953125E+0003  -2.80160791015625E+0003  -2.80171118164063E+0003  -2.80208691406250E+0003  -2.80274194335938E+0003  -2.80368896484375E+0003  -2.80491162109375E+0003  -2.80636132812500E+0003  -2.80799414062500E+0003  -2.80968139648438E+0003  -2.81124121093750E+0003  -2.81248217773438E+0003  -2.81323730468750E+0003  -2.81345849609375E+0003  -2.81324169921875E+0003  -2.81276293945313E+0003  -2.81212500000000E+0003  -2.81141601562500E+0003  -2.81071899414063E+0003  -2.81012036132813E+0003  -2.80968872070313E+0003  -2.80941259765625E+0003  -2.80926074218750E+0003  -2.80920117187500E+0003  -2.80921704101563E+0003  -2.80934179687500E+0003  -2.80961743164063E+0003  -2.81008569335938E+0003  -2.81076171875000E+0003  -2.81157812500000E+0003  -2.81245629882813E+0003  -2.81332421875000E+0003  -2.81410156250000E+0003  -2.81469677734375E+0003  -2.81503540039063E+0003  -2.81508886718750E+0003  -2.81487988281250E+0003  -2.81450512695313E+0003  -2.81406494140625E+0003  -2.81363916015625E+0003  -2.81327856445313E+0003  -2.81298681640625E+0003  -2.81275952148438E+0003  -2.81259179687500E+0003  -2.81245336914063E+0003  -2.81239331054688E+0003  -2.81224780273438E+0003  -2.81203906250000E+0003  -2.81185961914063E+0003  -2.81170922851563E+0003  -2.81159179687500E+0003  -2.81151684570313E+0003  -2.81148608398438E+0003  -2.81150488281250E+0003  -2.81157104492188E+0003  -2.81168945312500E+0003  -2.81187524414063E+0003  -2.81215332031250E+0003  -2.81255004882813E+0003  -2.81307177734375E+0003  -2.81365722656250E+0003  -2.81419116210938E+0003  -2.81456030273438E+0003  -2.81467187500000E+0003  -2.81449487304688E+0003  -2.81408569335938E+0003  -2.81347827148438E+0003  -2.81271093750000E+0003  -2.81182983398438E+0003  -2.81089428710938E+0003  -2.80996337890625E+0003  -2.80909497070313E+0003  -2.80833154296875E+0003  -2.80772534179688E+0003  -2.80733959960938E+0003  -2.80719799804688E+0003  -2.80728173828125E+0003  -2.80757861328125E+0003  -2.80803515625000E+0003  -2.80859863281250E+0003  -2.80920336914063E+0003  -2.80978735351563E+0003  -2.81028735351563E+0003  -2.81066284179688E+0003  -2.81093701171875E+0003  -2.81112963867188E+0003  -2.81126611328125E+0003  -2.81136035156250E+0003  -2.81141040039063E+0003  -2.81140795898438E+0003  -2.81135986328125E+0003  -2.81126391601563E+0003  -2.81113012695313E+0003  -2.81096166992188E+0003  -2.81075976562500E+0003  -2.81052246093750E+0003  -2.81025732421875E+0003  -2.80996118164063E+0003  -2.80964160156250E+0003  -2.80930297851563E+0003  -2.80895410156250E+0003  -2.80860180664063E+0003  -2.80825512695313E+0003  -2.80792163085938E+0003  -2.80760498046875E+0003  -2.80731640625000E+0003  -2.80706030273438E+0003  -2.80683984375000E+0003  -2.80665112304688E+0003  -2.80649438476563E+0003  -2.80636669921875E+0003  -2.80626928710938E+0003  -2.80620019531250E+0003  -2.80615747070313E+0003  -2.80613916015625E+0003  -2.80614086914063E+0003  -2.80616503906250E+0003  -2.80620263671875E+0003  -2.80625292968750E+0003  -2.80631591796875E+0003  -2.80638427734375E+0003  -2.80645385742188E+0003  -2.80652734375000E+0003  -2.80659960937500E+0003  -2.80667285156250E+0003  -2.80674194335938E+0003  -2.80680981445313E+0003  -2.80687500000000E+0003  -2.80693481445313E+0003  -2.80698803710938E+0003  -2.80703735351563E+0003  -2.80708642578125E+0003  -2.80712817382813E+0003  -2.80716992187500E+0003  -2.80720996093750E+0003  -2.80725024414063E+0003  -2.80729077148438E+0003  -2.80733520507813E+0003  -2.80737988281250E+0003  -2.80743115234375E+0003  -2.80748364257813E+0003  -2.80754321289063E+0003  -2.80760156250000E+0003  -2.80765356445313E+0003  -2.80769262695313E+0003  -2.80772167968750E+0003  -2.80769897460938E+0003  -2.80758862304688E+0003  -2.80739575195313E+0003  -2.80710107421875E+0003  -2.80673315429688E+0003  -2.80633105468750E+0003  -2.80594946289063E+0003  -2.80563085937500E+0003  -2.80536669921875E+0003  -2.80513916015625E+0003  -2.80493310546875E+0003  -2.80473730468750E+0003  -2.80454589843750E+0003  -2.80435229492188E+0003  -2.80415478515625E+0003  -2.80394628906250E+0003  -2.80373632812500E+0003  -2.80353027343750E+0003  -2.80333935546875E+0003  -2.80316748046875E+0003  -2.80302294921875E+0003  -2.80292529296875E+0003  -2.80288110351563E+0003  -2.80286303710938E+0003  -2.80286450195313E+0003  -2.80288159179688E+0003  -2.80292333984375E+0003  -2.80301123046875E+0003  -2.80313012695313E+0003  -2.80327319335938E+0003  -2.80343237304688E+0003  -2.80360913085938E+0003  -2.80379541015625E+0003  -2.80399389648438E+0003  -2.80420019531250E+0003  -2.80441333007813E+0003  -2.80463525390625E+0003  -2.80486108398438E+0003  -2.80509033203125E+0003  -2.80532324218750E+0003  -2.80555908203125E+0003  -2.80579467773438E+0003  -2.80603369140625E+0003  -2.80627539062500E+0003  -2.80651953125000E+0003  -2.80676489257813E+0003  -2.80701245117188E+0003  -2.80726147460938E+0003  -2.80751074218750E+0003  -2.80775756835938E+0003  -2.80800366210938E+0003  -2.80825024414063E+0003  -2.80849340820313E+0003  -2.80873266601563E+0003
  -2.81531835937500E+0003  -2.81497753906250E+0003  -2.81463403320313E+0003  -2.81428808593750E+0003  -2.81393969726563E+0003  -2.81358911132813E+0003  -2.81323632812500E+0003  -2.81288085937500E+0003  -2.81252148437500E+0003  -2.81215576171875E+0003  -2.81178173828125E+0003  -2.81139746093750E+0003  -2.81100097656250E+0003  -2.81058959960938E+0003  -2.81016186523438E+0003  -2.80971240234375E+0003  -2.80925585937500E+0003  -2.80879248046875E+0003  -2.80832812500000E+0003  -2.80786865234375E+0003  -2.80742187500000E+0003  -2.80699560546875E+0003  -2.80659790039063E+0003  -2.80618212890625E+0003  -2.80577661132813E+0003  -2.80538330078125E+0003  -2.80498388671875E+0003  -2.80458251953125E+0003  -2.80418530273438E+0003  -2.80378662109375E+0003  -2.80337817382813E+0003  -2.80297583007813E+0003  -2.80261157226563E+0003  -2.80232324218750E+0003  -2.80214233398438E+0003  -2.80211840820313E+0003  -2.80232202148438E+0003  -2.80277758789063E+0003  -2.80351928710938E+0003  -2.80454638671875E+0003  -2.80584667968750E+0003  -2.80736962890625E+0003  -2.80906323242188E+0003  -2.81079687500000E+0003  -2.81238110351563E+0003  -2.81363183593750E+0003  -2.81437597656250E+0003  -2.81462695312500E+0003  -2.81445458984375E+0003  -2.81393066406250E+0003  -2.81324023437500E+0003  -2.81247436523438E+0003  -2.81171972656250E+0003  -2.81106567382813E+0003  -2.81058276367188E+0003  -2.81026147460938E+0003  -2.81007006835938E+0003  -2.80997729492188E+0003  -2.80996386718750E+0003  -2.81005297851563E+0003  -2.81027197265625E+0003  -2.81065576171875E+0003  -2.81121166992188E+0003  -2.81188305664063E+0003  -2.81260449218750E+0003  -2.81331225585938E+0003  -2.81394360351563E+0003  -2.81443652343750E+0003  -2.81474829101563E+0003  -2.81482958984375E+0003  -2.81469287109375E+0003  -2.81441040039063E+0003  -2.81405908203125E+0003  -2.81370947265625E+0003  -2.81339892578125E+0003  -2.81313818359375E+0003  -2.81292895507813E+0003  -2.81277001953125E+0003  -2.81263940429688E+0003  -2.81258349609375E+0003  -2.81242846679688E+0003  -2.81224365234375E+0003  -2.81208911132813E+0003  -2.81196386718750E+0003  -2.81187255859375E+0003  -2.81181909179688E+0003  -2.81180859375000E+0003  -2.81184301757813E+0003  -2.81191699218750E+0003  -2.81203393554688E+0003  -2.81220239257813E+0003  -2.81244042968750E+0003  -2.81276660156250E+0003  -2.81318383789063E+0003  -2.81363916015625E+0003  -2.81404272460938E+0003  -2.81430761718750E+0003  -2.81436425781250E+0003  -2.81419555664063E+0003  -2.81382714843750E+0003  -2.81328466796875E+0003  -2.81259057617188E+0003  -2.81179125976563E+0003  -2.81094360351563E+0003  -2.81009790039063E+0003  -2.80930566406250E+0003  -2.80861059570313E+0003  -2.80805639648438E+0003  -2.80769628906250E+0003  -2.80756884765625E+0003  -2.80764575195313E+0003  -2.80789306640625E+0003  -2.80827075195313E+0003  -2.80873754882813E+0003  -2.80923974609375E+0003  -2.80972387695313E+0003  -2.81013598632813E+0003  -2.81045190429688E+0003  -2.81068408203125E+0003  -2.81084960937500E+0003  -2.81096679687500E+0003  -2.81105590820313E+0003  -2.81110375976563E+0003  -2.81110815429688E+0003  -2.81107470703125E+0003  -2.81100000000000E+0003  -2.81088745117188E+0003  -2.81075048828125E+0003  -2.81057958984375E+0003  -2.81037231445313E+0003  -2.81013989257813E+0003  -2.80987475585938E+0003  -2.80958422851563E+0003  -2.80927148437500E+0003  -2.80894287109375E+0003  -2.80861010742188E+0003  -2.80828051757813E+0003  -2.80795996093750E+0003  -2.80765600585938E+0003  -2.80737719726563E+0003  -2.80713037109375E+0003  -2.80691674804688E+0003  -2.80673242187500E+0003  -2.80657885742188E+0003  -2.80645361328125E+0003  -2.80635424804688E+0003  -2.80628222656250E+0003  -2.80623388671875E+0003  -2.80620727539063E+0003  -2.80619946289063E+0003  -2.80621191406250E+0003  -2.80623852539063E+0003  -2.80627539062500E+0003  -2.80632275390625E+0003  -2.80637988281250E+0003  -2.80643994140625E+0003  -2.80650024414063E+0003  -2.80656396484375E+0003  -2.80662646484375E+0003  -2.80668945312500E+0003  -2.80675073242188E+0003  -2.80681005859375E+0003  -2.80686669921875E+0003  -2.80692041015625E+0003  -2.80696972656250E+0003  -2.80701684570313E+0003  -2.80706323242188E+0003  -2.80710668945313E+0003  -2.80715136718750E+0003  -2.80719458007813E+0003  -2.80723974609375E+0003  -2.80728466796875E+0003  -2.80733520507813E+0003  -2.80738696289063E+0003  -2.80744409179688E+0003  -2.80750317382813E+0003  -2.80756420898438E+0003  -2.80761523437500E+0003  -2.80766528320313E+0003  -2.80768237304688E+0003  -2.80763525390625E+0003  -2.80754003906250E+0003  -2.80737426757813E+0003  -2.80712207031250E+0003  -2.80680957031250E+0003  -2.80647753906250E+0003  -2.80613818359375E+0003  -2.80583227539063E+0003  -2.80556640625000E+0003  -2.80532690429688E+0003  -2.80510473632813E+0003  -2.80488745117188E+0003  -2.80467333984375E+0003  -2.80446166992188E+0003  -2.80424536132813E+0003  -2.80402441406250E+0003  -2.80380493164063E+0003  -2.80359252929688E+0003  -2.80339526367188E+0003  -2.80322143554688E+0003  -2.80309057617188E+0003  -2.80301904296875E+0003  -2.80297778320313E+0003  -2.80295874023438E+0003  -2.80295922851563E+0003  -2.80297338867188E+0003  -2.80300512695313E+0003  -2.80306127929688E+0003  -2.80317285156250E+0003  -2.80331225585938E+0003  -2.80347265625000E+0003  -2.80364282226563E+0003  -2.80382812500000E+0003  -2.80402368164063E+0003  -2.80422729492188E+0003  -2.80443872070313E+0003  -2.80465356445313E+0003  -2.80487597656250E+0003  -2.80510034179688E+0003  -2.80532739257813E+0003  -2.80555761718750E+0003  -2.80578930664063E+0003  -2.80602343750000E+0003  -2.80626098632813E+0003  -2.80649780273438E+0003  -2.80673901367188E+0003  -2.80698217773438E+0003  -2.80722558593750E+0003  -2.80746801757813E+0003  -2.80771093750000E+0003  -2.80795385742188E+0003  -2.80819458007813E+0003  -2.80843286132813E+0003  -2.80866796875000E+0003
  -2.81494213867188E+0003  -2.81460717773438E+0003  -2.81427099609375E+0003  -2.81393286132813E+0003  -2.81359375000000E+0003  -2.81325317382813E+0003  -2.81291137695313E+0003  -2.81256811523438E+0003  -2.81222192382813E+0003  -2.81187109375000E+0003  -2.81151342773438E+0003  -2.81114697265625E+0003  -2.81077026367188E+0003  -2.81038061523438E+0003  -2.80997680664063E+0003  -2.80955346679688E+0003  -2.80912524414063E+0003  -2.80869189453125E+0003  -2.80825854492188E+0003  -2.80783105468750E+0003  -2.80741674804688E+0003  -2.80702172851563E+0003  -2.80665356445313E+0003  -2.80625122070313E+0003  -2.80586230468750E+0003  -2.80548510742188E+0003  -2.80511132812500E+0003  -2.80474975585938E+0003  -2.80439331054688E+0003  -2.80404223632813E+0003  -2.80369458007813E+0003  -2.80336230468750E+0003  -2.80307446289063E+0003  -2.80286962890625E+0003  -2.80277612304688E+0003  -2.80284350585938E+0003  -2.80312695312500E+0003  -2.80364550781250E+0003  -2.80444311523438E+0003  -2.80551074218750E+0003  -2.80682885742188E+0003  -2.80833911132813E+0003  -2.80999853515625E+0003  -2.81167358398438E+0003  -2.81319140625000E+0003  -2.81437670898438E+0003  -2.81507299804688E+0003  -2.81529199218750E+0003  -2.81513134765625E+0003  -2.81468725585938E+0003  -2.81400122070313E+0003  -2.81322680664063E+0003  -2.81245971679688E+0003  -2.81178735351563E+0003  -2.81127905273438E+0003  -2.81092651367188E+0003  -2.81070117187500E+0003  -2.81057421875000E+0003  -2.81052661132813E+0003  -2.81056982421875E+0003  -2.81072851562500E+0003  -2.81102441406250E+0003  -2.81146118164063E+0003  -2.81199414062500E+0003  -2.81257055664063E+0003  -2.81313964843750E+0003  -2.81365234375000E+0003  -2.81406591796875E+0003  -2.81434033203125E+0003  -2.81445410156250E+0003  -2.81438159179688E+0003  -2.81418627929688E+0003  -2.81392504882813E+0003  -2.81365185546875E+0003  -2.81339672851563E+0003  -2.81317407226563E+0003  -2.81298999023438E+0003  -2.81282080078125E+0003  -2.81272973632813E+0003  -2.81268188476563E+0003  -2.81251733398438E+0003  -2.81235693359375E+0003  -2.81222558593750E+0003  -2.81212158203125E+0003  -2.81205273437500E+0003  -2.81201904296875E+0003  -2.81202319335938E+0003  -2.81206591796875E+0003  -2.81213964843750E+0003  -2.81224877929688E+0003  -2.81239477539063E+0003  -2.81258959960938E+0003  -2.81283984375000E+0003  -2.81315478515625E+0003  -2.81348461914063E+0003  -2.81376904296875E+0003  -2.81394262695313E+0003  -2.81395556640625E+0003  -2.81379614257813E+0003  -2.81347583007813E+0003  -2.81300292968750E+0003  -2.81239111328125E+0003  -2.81168603515625E+0003  -2.81093310546875E+0003  -2.81018188476563E+0003  -2.80947534179688E+0003  -2.80885620117188E+0003  -2.80836083984375E+0003  -2.80804272460938E+0003  -2.80792919921875E+0003  -2.80799682617188E+0003  -2.80820312500000E+0003  -2.80851147460938E+0003  -2.80889160156250E+0003  -2.80930102539063E+0003  -2.80969702148438E+0003  -2.81003784179688E+0003  -2.81030517578125E+0003  -2.81050366210938E+0003  -2.81064868164063E+0003  -2.81075512695313E+0003  -2.81082568359375E+0003  -2.81085961914063E+0003  -2.81086987304688E+0003  -2.81084448242188E+0003  -2.81078393554688E+0003  -2.81069042968750E+0003  -2.81057519531250E+0003  -2.81042578125000E+0003  -2.81024731445313E+0003  -2.81003930664063E+0003  -2.80979833984375E+0003  -2.80953344726563E+0003  -2.80923925781250E+0003  -2.80893310546875E+0003  -2.80861791992188E+0003  -2.80830346679688E+0003  -2.80799584960938E+0003  -2.80770483398438E+0003  -2.80743750000000E+0003  -2.80719921875000E+0003  -2.80698974609375E+0003  -2.80681079101563E+0003  -2.80665917968750E+0003  -2.80653515625000E+0003  -2.80643481445313E+0003  -2.80635839843750E+0003  -2.80630468750000E+0003  -2.80626904296875E+0003  -2.80625512695313E+0003  -2.80625708007813E+0003  -2.80627246093750E+0003  -2.80629931640625E+0003  -2.80633862304688E+0003  -2.80638037109375E+0003  -2.80643017578125E+0003  -2.80648266601563E+0003  -2.80653417968750E+0003  -2.80659082031250E+0003  -2.80664721679688E+0003  -2.80670239257813E+0003  -2.80675634765625E+0003  -2.80681030273438E+0003  -2.80686279296875E+0003  -2.80691259765625E+0003  -2.80696044921875E+0003  -2.80700561523438E+0003  -2.80705102539063E+0003  -2.80709497070313E+0003  -2.80714013671875E+0003  -2.80718676757813E+0003  -2.80723437500000E+0003  -2.80728344726563E+0003  -2.80733471679688E+0003  -2.80739062500000E+0003  -2.80744506835938E+0003  -2.80750000000000E+0003  -2.80755053710938E+0003  -2.80759619140625E+0003  -2.80757592773438E+0003  -2.80752856445313E+0003  -2.80744116210938E+0003  -2.80729638671875E+0003  -2.80708276367188E+0003  -2.80681835937500E+0003  -2.80653295898438E+0003  -2.80625366210938E+0003  -2.80597143554688E+0003  -2.80571069335938E+0003  -2.80546777343750E+0003  -2.80523413085938E+0003  -2.80500415039063E+0003  -2.80477783203125E+0003  -2.80455395507813E+0003  -2.80432714843750E+0003  -2.80409765625000E+0003  -2.80387402343750E+0003  -2.80365917968750E+0003  -2.80345947265625E+0003  -2.80329077148438E+0003  -2.80317626953125E+0003  -2.80310888671875E+0003  -2.80306738281250E+0003  -2.80304418945313E+0003  -2.80304345703125E+0003  -2.80305957031250E+0003  -2.80308813476563E+0003  -2.80313793945313E+0003  -2.80323046875000E+0003  -2.80336865234375E+0003  -2.80352368164063E+0003  -2.80369287109375E+0003  -2.80387280273438E+0003  -2.80406298828125E+0003  -2.80426220703125E+0003  -2.80446923828125E+0003  -2.80468017578125E+0003  -2.80489697265625E+0003  -2.80511645507813E+0003  -2.80533984375000E+0003  -2.80556323242188E+0003  -2.80579272460938E+0003  -2.80602050781250E+0003  -2.80625366210938E+0003  -2.80648559570313E+0003  -2.80672021484375E+0003  -2.80695849609375E+0003  -2.80719750976563E+0003  -2.80743603515625E+0003  -2.80767285156250E+0003  -2.80791210937500E+0003  -2.80814794921875E+0003  -2.80838110351563E+0003  -2.80861230468750E+0003
  -2.81458300781250E+0003  -2.81425463867188E+0003  -2.81392578125000E+0003  -2.81359643554688E+0003  -2.81326660156250E+0003  -2.81293652343750E+0003  -2.81260644531250E+0003  -2.81227587890625E+0003  -2.81194409179688E+0003  -2.81160864257813E+0003  -2.81126855468750E+0003  -2.81092187500000E+0003  -2.81056689453125E+0003  -2.81020166015625E+0003  -2.80982519531250E+0003  -2.80943212890625E+0003  -2.80903637695313E+0003  -2.80863745117188E+0003  -2.80823999023438E+0003  -2.80784887695313E+0003  -2.80746923828125E+0003  -2.80710693359375E+0003  -2.80676684570313E+0003  -2.80640283203125E+0003  -2.80602807617188E+0003  -2.80566674804688E+0003  -2.80532324218750E+0003  -2.80500000000000E+0003  -2.80469165039063E+0003  -2.80439819335938E+0003  -2.80412231445313E+0003  -2.80387719726563E+0003  -2.80368896484375E+0003  -2.80358398437500E+0003  -2.80359399414063E+0003  -2.80375341796875E+0003  -2.80410571289063E+0003  -2.80467919921875E+0003  -2.80550341796875E+0003  -2.80657275390625E+0003  -2.80784155273438E+0003  -2.80926513671875E+0003  -2.81079711914063E+0003  -2.81232104492188E+0003  -2.81368627929688E+0003  -2.81473754882813E+0003  -2.81534741210938E+0003  -2.81552880859375E+0003  -2.81536499023438E+0003  -2.81494165039063E+0003  -2.81435131835938E+0003  -2.81365747070313E+0003  -2.81292016601563E+0003  -2.81226489257813E+0003  -2.81175488281250E+0003  -2.81138549804688E+0003  -2.81113281250000E+0003  -2.81097363281250E+0003  -2.81089038085938E+0003  -2.81089184570313E+0003  -2.81099462890625E+0003  -2.81121264648438E+0003  -2.81154711914063E+0003  -2.81196264648438E+0003  -2.81241894531250E+0003  -2.81287573242188E+0003  -2.81329492187500E+0003  -2.81364331054688E+0003  -2.81388867187500E+0003  -2.81399926757813E+0003  -2.81397045898438E+0003  -2.81386425781250E+0003  -2.81368237304688E+0003  -2.81347778320313E+0003  -2.81327685546875E+0003  -2.81309057617188E+0003  -2.81290991210938E+0003  -2.81279516601563E+0003  -2.81272070312500E+0003  -2.81266821289063E+0003  -2.81251196289063E+0003  -2.81237353515625E+0003  -2.81226416015625E+0003  -2.81218164062500E+0003  -2.81212670898438E+0003  -2.81210546875000E+0003  -2.81211718750000E+0003  -2.81216259765625E+0003  -2.81223144531250E+0003  -2.81232739257813E+0003  -2.81244873046875E+0003  -2.81260351562500E+0003  -2.81279052734375E+0003  -2.81301513671875E+0003  -2.81324414062500E+0003  -2.81342919921875E+0003  -2.81352905273438E+0003  -2.81350903320313E+0003  -2.81336352539063E+0003  -2.81308227539063E+0003  -2.81267163085938E+0003  -2.81214086914063E+0003  -2.81152685546875E+0003  -2.81086865234375E+0003  -2.81020751953125E+0003  -2.80958593750000E+0003  -2.80904003906250E+0003  -2.80861157226563E+0003  -2.80833544921875E+0003  -2.80824218750000E+0003  -2.80829467773438E+0003  -2.80846044921875E+0003  -2.80871630859375E+0003  -2.80902978515625E+0003  -2.80936547851563E+0003  -2.80969335937500E+0003  -2.80997680664063E+0003  -2.81020483398438E+0003  -2.81037719726563E+0003  -2.81050488281250E+0003  -2.81059619140625E+0003  -2.81066088867188E+0003  -2.81068847656250E+0003  -2.81069262695313E+0003  -2.81067236328125E+0003  -2.81061987304688E+0003  -2.81054077148438E+0003  -2.81043945312500E+0003  -2.81030908203125E+0003  -2.81014794921875E+0003  -2.80995849609375E+0003  -2.80973901367188E+0003  -2.80949096679688E+0003  -2.80921679687500E+0003  -2.80892578125000E+0003  -2.80862573242188E+0003  -2.80832641601563E+0003  -2.80803344726563E+0003  -2.80775317382813E+0003  -2.80749462890625E+0003  -2.80726342773438E+0003  -2.80706079101563E+0003  -2.80688549804688E+0003  -2.80673706054688E+0003  -2.80661303710938E+0003  -2.80651220703125E+0003  -2.80643310546875E+0003  -2.80637426757813E+0003  -2.80633496093750E+0003  -2.80631250000000E+0003  -2.80630444335938E+0003  -2.80631225585938E+0003  -2.80632861328125E+0003  -2.80635644531250E+0003  -2.80638964843750E+0003  -2.80642724609375E+0003  -2.80647216796875E+0003  -2.80651831054688E+0003  -2.80656445312500E+0003  -2.80661425781250E+0003  -2.80666357421875E+0003  -2.80671411132813E+0003  -2.80676538085938E+0003  -2.80681396484375E+0003  -2.80686010742188E+0003  -2.80690747070313E+0003  -2.80695239257813E+0003  -2.80699633789063E+0003  -2.80704150390625E+0003  -2.80708569335938E+0003  -2.80713208007813E+0003  -2.80717553710938E+0003  -2.80722460937500E+0003  -2.80727246093750E+0003  -2.80732324218750E+0003  -2.80737060546875E+0003  -2.80741577148438E+0003  -2.80745483398438E+0003  -2.80747460937500E+0003  -2.80744384765625E+0003  -2.80739208984375E+0003  -2.80730786132813E+0003  -2.80717919921875E+0003  -2.80699707031250E+0003  -2.80677441406250E+0003  -2.80653125000000E+0003  -2.80628808593750E+0003  -2.80604541015625E+0003  -2.80579614257813E+0003  -2.80555859375000E+0003  -2.80532202148438E+0003  -2.80508862304688E+0003  -2.80485498046875E+0003  -2.80462670898438E+0003  -2.80439550781250E+0003  -2.80416406250000E+0003  -2.80393969726563E+0003  -2.80372656250000E+0003  -2.80352929687500E+0003  -2.80336914062500E+0003  -2.80325903320313E+0003  -2.80319140625000E+0003  -2.80314843750000E+0003  -2.80312524414063E+0003  -2.80312231445313E+0003  -2.80313671875000E+0003  -2.80316772460938E+0003  -2.80321606445313E+0003  -2.80330322265625E+0003  -2.80343725585938E+0003  -2.80358911132813E+0003  -2.80375219726563E+0003  -2.80392724609375E+0003  -2.80411523437500E+0003  -2.80430737304688E+0003  -2.80450830078125E+0003  -2.80471508789063E+0003  -2.80492724609375E+0003  -2.80514086914063E+0003  -2.80535815429688E+0003  -2.80557788085938E+0003  -2.80579980468750E+0003  -2.80602514648438E+0003  -2.80625146484375E+0003  -2.80647973632813E+0003  -2.80671093750000E+0003  -2.80694384765625E+0003  -2.80717504882813E+0003  -2.80741088867188E+0003  -2.80764282226563E+0003  -2.80787646484375E+0003  -2.80810815429688E+0003  -2.80833740234375E+0003  -2.80856616210938E+0003
  -2.81424023437500E+0003  -2.81391918945313E+0003  -2.81359838867188E+0003  -2.81327783203125E+0003  -2.81295776367188E+0003  -2.81263867187500E+0003  -2.81232031250000E+0003  -2.81200317382813E+0003  -2.81168579101563E+0003  -2.81136694335938E+0003  -2.81104516601563E+0003  -2.81071899414063E+0003  -2.81038720703125E+0003  -2.81004833984375E+0003  -2.80970166015625E+0003  -2.80934155273438E+0003  -2.80898193359375E+0003  -2.80862109375000E+0003  -2.80826318359375E+0003  -2.80791235351563E+0003  -2.80757104492188E+0003  -2.80724267578125E+0003  -2.80693066406250E+0003  -2.80662353515625E+0003  -2.80626635742188E+0003  -2.80592553710938E+0003  -2.80561010742188E+0003  -2.80532128906250E+0003  -2.80505957031250E+0003  -2.80483129882813E+0003  -2.80463769531250E+0003  -2.80449072265625E+0003  -2.80441113281250E+0003  -2.80442041015625E+0003  -2.80453784179688E+0003  -2.80479101562500E+0003  -2.80521606445313E+0003  -2.80583129882813E+0003  -2.80665917968750E+0003  -2.80768017578125E+0003  -2.80885839843750E+0003  -2.81014453125000E+0003  -2.81148974609375E+0003  -2.81280053710938E+0003  -2.81395654296875E+0003  -2.81483740234375E+0003  -2.81533691406250E+0003  -2.81546875000000E+0003  -2.81530639648438E+0003  -2.81491723632813E+0003  -2.81438061523438E+0003  -2.81376733398438E+0003  -2.81314404296875E+0003  -2.81254003906250E+0003  -2.81204321289063E+0003  -2.81166601562500E+0003  -2.81139135742188E+0003  -2.81120263671875E+0003  -2.81108544921875E+0003  -2.81104785156250E+0003  -2.81109960937500E+0003  -2.81125000000000E+0003  -2.81149780273438E+0003  -2.81181616210938E+0003  -2.81217358398438E+0003  -2.81253881835938E+0003  -2.81288183593750E+0003  -2.81317553710938E+0003  -2.81339355468750E+0003  -2.81350952148438E+0003  -2.81351708984375E+0003  -2.81344384765625E+0003  -2.81331884765625E+0003  -2.81317163085938E+0003  -2.81302368164063E+0003  -2.81288574218750E+0003  -2.81276806640625E+0003  -2.81267993164063E+0003  -2.81262597656250E+0003  -2.81255322265625E+0003  -2.81242041015625E+0003  -2.81230932617188E+0003  -2.81221972656250E+0003  -2.81215234375000E+0003  -2.81210791015625E+0003  -2.81209277343750E+0003  -2.81210791015625E+0003  -2.81214819335938E+0003  -2.81221166992188E+0003  -2.81228906250000E+0003  -2.81238964843750E+0003  -2.81250390625000E+0003  -2.81263793945313E+0003  -2.81279223632813E+0003  -2.81293994140625E+0003  -2.81304882812500E+0003  -2.81309692382813E+0003  -2.81305029296875E+0003  -2.81290698242188E+0003  -2.81265893554688E+0003  -2.81230688476563E+0003  -2.81185180664063E+0003  -2.81132446289063E+0003  -2.81075488281250E+0003  -2.81018530273438E+0003  -2.80965136718750E+0003  -2.80918286132813E+0003  -2.80882153320313E+0003  -2.80859130859375E+0003  -2.80850219726563E+0003  -2.80854125976563E+0003  -2.80868139648438E+0003  -2.80889257812500E+0003  -2.80915307617188E+0003  -2.80943383789063E+0003  -2.80970922851563E+0003  -2.80994799804688E+0003  -2.81014160156250E+0003  -2.81029443359375E+0003  -2.81040625000000E+0003  -2.81048754882813E+0003  -2.81054052734375E+0003  -2.81056372070313E+0003  -2.81056835937500E+0003  -2.81054907226563E+0003  -2.81050244140625E+0003  -2.81043334960938E+0003  -2.81034179687500E+0003  -2.81022216796875E+0003  -2.81007250976563E+0003  -2.80989355468750E+0003  -2.80968872070313E+0003  -2.80945605468750E+0003  -2.80919677734375E+0003  -2.80892065429688E+0003  -2.80863623046875E+0003  -2.80834838867188E+0003  -2.80806762695313E+0003  -2.80779858398438E+0003  -2.80754980468750E+0003  -2.80732690429688E+0003  -2.80713085937500E+0003  -2.80696093750000E+0003  -2.80681298828125E+0003  -2.80669042968750E+0003  -2.80658935546875E+0003  -2.80650756835938E+0003  -2.80644433593750E+0003  -2.80639941406250E+0003  -2.80637036132813E+0003  -2.80635595703125E+0003  -2.80635424804688E+0003  -2.80636181640625E+0003  -2.80638061523438E+0003  -2.80640551757813E+0003  -2.80643579101563E+0003  -2.80647045898438E+0003  -2.80650903320313E+0003  -2.80654980468750E+0003  -2.80659130859375E+0003  -2.80663647460938E+0003  -2.80668457031250E+0003  -2.80673095703125E+0003  -2.80677490234375E+0003  -2.80681958007813E+0003  -2.80686352539063E+0003  -2.80690502929688E+0003  -2.80694653320313E+0003  -2.80698803710938E+0003  -2.80703076171875E+0003  -2.80707543945313E+0003  -2.80711865234375E+0003  -2.80716210937500E+0003  -2.80720336914063E+0003  -2.80724462890625E+0003  -2.80728271484375E+0003  -2.80731567382813E+0003  -2.80733764648438E+0003  -2.80733764648438E+0003  -2.80729711914063E+0003  -2.80723876953125E+0003  -2.80715502929688E+0003  -2.80703784179688E+0003  -2.80688110351563E+0003  -2.80669311523438E+0003  -2.80648803710938E+0003  -2.80627807617188E+0003  -2.80606860351563E+0003  -2.80583520507813E+0003  -2.80560473632813E+0003  -2.80537597656250E+0003  -2.80514135742188E+0003  -2.80490991210938E+0003  -2.80468212890625E+0003  -2.80445410156250E+0003  -2.80422558593750E+0003  -2.80400561523438E+0003  -2.80379931640625E+0003  -2.80360644531250E+0003  -2.80344995117188E+0003  -2.80333862304688E+0003  -2.80326586914063E+0003  -2.80322387695313E+0003  -2.80320166015625E+0003  -2.80319750976563E+0003  -2.80321215820313E+0003  -2.80324389648438E+0003  -2.80329443359375E+0003  -2.80338916015625E+0003  -2.80351757812500E+0003  -2.80366528320313E+0003  -2.80382324218750E+0003  -2.80399243164063E+0003  -2.80417333984375E+0003  -2.80436254882813E+0003  -2.80455664062500E+0003  -2.80475878906250E+0003  -2.80496337890625E+0003  -2.80517211914063E+0003  -2.80538500976563E+0003  -2.80559912109375E+0003  -2.80581640625000E+0003  -2.80603564453125E+0003  -2.80625854492188E+0003  -2.80648120117188E+0003  -2.80670776367188E+0003  -2.80693481445313E+0003  -2.80716357421875E+0003  -2.80739257812500E+0003  -2.80762084960938E+0003  -2.80784960937500E+0003  -2.80807641601563E+0003  -2.80830322265625E+0003  -2.80852490234375E+0003
  -2.81391333007813E+0003  -2.81359960937500E+0003  -2.81328710937500E+0003  -2.81297583007813E+0003  -2.81266601562500E+0003  -2.81235815429688E+0003  -2.81205200195313E+0003  -2.81174829101563E+0003  -2.81144604492188E+0003  -2.81114379882813E+0003  -2.81084082031250E+0003  -2.81053588867188E+0003  -2.81022827148438E+0003  -2.80991674804688E+0003  -2.80960131835938E+0003  -2.80928125000000E+0003  -2.80895458984375E+0003  -2.80863476562500E+0003  -2.80831958007813E+0003  -2.80801171875000E+0003  -2.80771166992188E+0003  -2.80741967773438E+0003  -2.80713623046875E+0003  -2.80686450195313E+0003  -2.80656396484375E+0003  -2.80624267578125E+0003  -2.80595312500000E+0003  -2.80569946289063E+0003  -2.80548657226563E+0003  -2.80532153320313E+0003  -2.80521142578125E+0003  -2.80516625976563E+0003  -2.80519677734375E+0003  -2.80531933593750E+0003  -2.80554370117188E+0003  -2.80589062500000E+0003  -2.80637622070313E+0003  -2.80702246093750E+0003  -2.80783276367188E+0003  -2.80878979492188E+0003  -2.80984838867188E+0003  -2.81097192382813E+0003  -2.81210766601563E+0003  -2.81318603515625E+0003  -2.81411596679688E+0003  -2.81480517578125E+0003  -2.81518383789063E+0003  -2.81526220703125E+0003  -2.81509448242188E+0003  -2.81474023437500E+0003  -2.81425537109375E+0003  -2.81370751953125E+0003  -2.81314355468750E+0003  -2.81262402343750E+0003  -2.81218237304688E+0003  -2.81180151367188E+0003  -2.81150805664063E+0003  -2.81129101562500E+0003  -2.81114306640625E+0003  -2.81106884765625E+0003  -2.81107470703125E+0003  -2.81116601562500E+0003  -2.81134130859375E+0003  -2.81157861328125E+0003  -2.81185424804688E+0003  -2.81214355468750E+0003  -2.81242309570313E+0003  -2.81267041015625E+0003  -2.81286376953125E+0003  -2.81298144531250E+0003  -2.81301733398438E+0003  -2.81298950195313E+0003  -2.81291894531250E+0003  -2.81282617187500E+0003  -2.81272631835938E+0003  -2.81263061523438E+0003  -2.81254858398438E+0003  -2.81248974609375E+0003  -2.81245898437500E+0003  -2.81237109375000E+0003  -2.81226733398438E+0003  -2.81217895507813E+0003  -2.81210546875000E+0003  -2.81204882812500E+0003  -2.81201293945313E+0003  -2.81200122070313E+0003  -2.81201318359375E+0003  -2.81204614257813E+0003  -2.81209790039063E+0003  -2.81215966796875E+0003  -2.81223144531250E+0003  -2.81231323242188E+0003  -2.81240502929688E+0003  -2.81250292968750E+0003  -2.81259033203125E+0003  -2.81264819335938E+0003  -2.81265625000000E+0003  -2.81259545898438E+0003  -2.81245654296875E+0003  -2.81224072265625E+0003  -2.81193701171875E+0003  -2.81154736328125E+0003  -2.81110156250000E+0003  -2.81062353515625E+0003  -2.81014624023438E+0003  -2.80970166015625E+0003  -2.80930957031250E+0003  -2.80900146484375E+0003  -2.80880346679688E+0003  -2.80872607421875E+0003  -2.80875512695313E+0003  -2.80887231445313E+0003  -2.80905126953125E+0003  -2.80927050781250E+0003  -2.80950732421875E+0003  -2.80973950195313E+0003  -2.80994604492188E+0003  -2.81011547851563E+0003  -2.81024609375000E+0003  -2.81034521484375E+0003  -2.81041650390625E+0003  -2.81046191406250E+0003  -2.81048242187500E+0003  -2.81048583984375E+0003  -2.81046655273438E+0003  -2.81042578125000E+0003  -2.81035986328125E+0003  -2.81027050781250E+0003  -2.81015649414063E+0003  -2.81001367187500E+0003  -2.80984472656250E+0003  -2.80964941406250E+0003  -2.80942602539063E+0003  -2.80917944335938E+0003  -2.80891772460938E+0003  -2.80864501953125E+0003  -2.80837182617188E+0003  -2.80810302734375E+0003  -2.80784448242188E+0003  -2.80760449218750E+0003  -2.80738940429688E+0003  -2.80719970703125E+0003  -2.80703515625000E+0003  -2.80688916015625E+0003  -2.80676757812500E+0003  -2.80666577148438E+0003  -2.80658129882813E+0003  -2.80651586914063E+0003  -2.80646655273438E+0003  -2.80643115234375E+0003  -2.80640942382813E+0003  -2.80640014648438E+0003  -2.80640063476563E+0003  -2.80641040039063E+0003  -2.80642749023438E+0003  -2.80644970703125E+0003  -2.80647802734375E+0003  -2.80650976562500E+0003  -2.80654467773438E+0003  -2.80658154296875E+0003  -2.80662158203125E+0003  -2.80666113281250E+0003  -2.80670288085938E+0003  -2.80674316406250E+0003  -2.80678466796875E+0003  -2.80682446289063E+0003  -2.80686425781250E+0003  -2.80690112304688E+0003  -2.80694042968750E+0003  -2.80698046875000E+0003  -2.80701733398438E+0003  -2.80705737304688E+0003  -2.80709399414063E+0003  -2.80712866210938E+0003  -2.80716137695313E+0003  -2.80718896484375E+0003  -2.80720800781250E+0003  -2.80721704101563E+0003  -2.80719848632813E+0003  -2.80714746093750E+0003  -2.80708203125000E+0003  -2.80699707031250E+0003  -2.80688793945313E+0003  -2.80675146484375E+0003  -2.80659228515625E+0003  -2.80641845703125E+0003  -2.80623803710938E+0003  -2.80605175781250E+0003  -2.80583715820313E+0003  -2.80562036132813E+0003  -2.80539843750000E+0003  -2.80517333984375E+0003  -2.80494726562500E+0003  -2.80472485351563E+0003  -2.80450292968750E+0003  -2.80428344726563E+0003  -2.80407202148438E+0003  -2.80387304687500E+0003  -2.80368945312500E+0003  -2.80353540039063E+0003  -2.80341943359375E+0003  -2.80334130859375E+0003  -2.80329638671875E+0003  -2.80327465820313E+0003  -2.80327270507813E+0003  -2.80328784179688E+0003  -2.80332006835938E+0003  -2.80338134765625E+0003  -2.80348486328125E+0003  -2.80360986328125E+0003  -2.80375097656250E+0003  -2.80390356445313E+0003  -2.80406713867188E+0003  -2.80424145507813E+0003  -2.80442358398438E+0003  -2.80461206054688E+0003  -2.80480810546875E+0003  -2.80500830078125E+0003  -2.80521118164063E+0003  -2.80541796875000E+0003  -2.80562792968750E+0003  -2.80583935546875E+0003  -2.80605468750000E+0003  -2.80627221679688E+0003  -2.80649072265625E+0003  -2.80671166992188E+0003  -2.80693286132813E+0003  -2.80715844726563E+0003  -2.80738256835938E+0003  -2.80760693359375E+0003  -2.80783154296875E+0003  -2.80805395507813E+0003  -2.80827587890625E+0003  -2.80849487304688E+0003
  -2.81360205078125E+0003  -2.81329589843750E+0003  -2.81299169921875E+0003  -2.81268994140625E+0003  -2.81239038085938E+0003  -2.81209375000000E+0003  -2.81180029296875E+0003  -2.81150976562500E+0003  -2.81122241210938E+0003  -2.81093701171875E+0003  -2.81065258789063E+0003  -2.81036938476563E+0003  -2.81008593750000E+0003  -2.80980224609375E+0003  -2.80951831054688E+0003  -2.80923413085938E+0003  -2.80895190429688E+0003  -2.80866943359375E+0003  -2.80839916992188E+0003  -2.80813696289063E+0003  -2.80788085937500E+0003  -2.80762768554688E+0003  -2.80737524414063E+0003  -2.80712622070313E+0003  -2.80689208984375E+0003  -2.80660717773438E+0003  -2.80634130859375E+0003  -2.80611840820313E+0003  -2.80595117187500E+0003  -2.80584667968750E+0003  -2.80581567382813E+0003  -2.80586596679688E+0003  -2.80599951171875E+0003  -2.80622534179688E+0003  -2.80655078125000E+0003  -2.80697680664063E+0003  -2.80751489257813E+0003  -2.80817602539063E+0003  -2.80896166992188E+0003  -2.80984643554688E+0003  -2.81078857421875E+0003  -2.81175024414063E+0003  -2.81268627929688E+0003  -2.81354614257813E+0003  -2.81426220703125E+0003  -2.81477661132813E+0003  -2.81503369140625E+0003  -2.81504882812500E+0003  -2.81486499023438E+0003  -2.81452612304688E+0003  -2.81407861328125E+0003  -2.81357861328125E+0003  -2.81306201171875E+0003  -2.81257739257813E+0003  -2.81216577148438E+0003  -2.81182470703125E+0003  -2.81151367187500E+0003  -2.81127099609375E+0003  -2.81109423828125E+0003  -2.81098632812500E+0003  -2.81095117187500E+0003  -2.81099145507813E+0003  -2.81110473632813E+0003  -2.81127490234375E+0003  -2.81148242187500E+0003  -2.81170849609375E+0003  -2.81193432617188E+0003  -2.81214184570313E+0003  -2.81231298828125E+0003  -2.81242993164063E+0003  -2.81248657226563E+0003  -2.81249536132813E+0003  -2.81246997070313E+0003  -2.81242382812500E+0003  -2.81236938476563E+0003  -2.81231469726563E+0003  -2.81226855468750E+0003  -2.81224072265625E+0003  -2.81223095703125E+0003  -2.81214331054688E+0003  -2.81206396484375E+0003  -2.81199194335938E+0003  -2.81193090820313E+0003  -2.81188623046875E+0003  -2.81185717773438E+0003  -2.81184350585938E+0003  -2.81185205078125E+0003  -2.81187573242188E+0003  -2.81191040039063E+0003  -2.81195336914063E+0003  -2.81200292968750E+0003  -2.81205761718750E+0003  -2.81211230468750E+0003  -2.81216650390625E+0003  -2.81221069335938E+0003  -2.81223022460938E+0003  -2.81221191406250E+0003  -2.81214575195313E+0003  -2.81202197265625E+0003  -2.81183398437500E+0003  -2.81158007812500E+0003  -2.81125976562500E+0003  -2.81089013671875E+0003  -2.81049633789063E+0003  -2.81010107421875E+0003  -2.80973144531250E+0003  -2.80940600585938E+0003  -2.80915039062500E+0003  -2.80898681640625E+0003  -2.80892602539063E+0003  -2.80895263671875E+0003  -2.80905102539063E+0003  -2.80919995117188E+0003  -2.80938696289063E+0003  -2.80958837890625E+0003  -2.80978808593750E+0003  -2.80996240234375E+0003  -2.81011108398438E+0003  -2.81022851562500E+0003  -2.81031689453125E+0003  -2.81038085937500E+0003  -2.81042285156250E+0003  -2.81044335937500E+0003  -2.81044409179688E+0003  -2.81042114257813E+0003  -2.81037597656250E+0003  -2.81030957031250E+0003  -2.81022216796875E+0003  -2.81010888671875E+0003  -2.80996997070313E+0003  -2.80980541992188E+0003  -2.80961718750000E+0003  -2.80940356445313E+0003  -2.80916723632813E+0003  -2.80891674804688E+0003  -2.80865771484375E+0003  -2.80839379882813E+0003  -2.80813598632813E+0003  -2.80788964843750E+0003  -2.80765966796875E+0003  -2.80745312500000E+0003  -2.80726879882813E+0003  -2.80710668945313E+0003  -2.80696630859375E+0003  -2.80684497070313E+0003  -2.80674267578125E+0003  -2.80665722656250E+0003  -2.80658813476563E+0003  -2.80653686523438E+0003  -2.80649707031250E+0003  -2.80646752929688E+0003  -2.80645312500000E+0003  -2.80644677734375E+0003  -2.80644995117188E+0003  -2.80645874023438E+0003  -2.80647412109375E+0003  -2.80649389648438E+0003  -2.80652001953125E+0003  -2.80654711914063E+0003  -2.80657934570313E+0003  -2.80661230468750E+0003  -2.80664916992188E+0003  -2.80668579101563E+0003  -2.80672119140625E+0003  -2.80675659179688E+0003  -2.80679199218750E+0003  -2.80682739257813E+0003  -2.80686279296875E+0003  -2.80689672851563E+0003  -2.80693115234375E+0003  -2.80696313476563E+0003  -2.80699658203125E+0003  -2.80702685546875E+0003  -2.80705395507813E+0003  -2.80707641601563E+0003  -2.80709252929688E+0003  -2.80709936523438E+0003  -2.80709594726563E+0003  -2.80706665039063E+0003  -2.80700781250000E+0003  -2.80693676757813E+0003  -2.80685083007813E+0003  -2.80674804687500E+0003  -2.80662646484375E+0003  -2.80648925781250E+0003  -2.80633984375000E+0003  -2.80618237304688E+0003  -2.80601489257813E+0003  -2.80581591796875E+0003  -2.80561206054688E+0003  -2.80540087890625E+0003  -2.80518627929688E+0003  -2.80497094726563E+0003  -2.80475781250000E+0003  -2.80454638671875E+0003  -2.80433520507813E+0003  -2.80413647460938E+0003  -2.80394848632813E+0003  -2.80377709960938E+0003  -2.80362524414063E+0003  -2.80350512695313E+0003  -2.80342285156250E+0003  -2.80337182617188E+0003  -2.80334814453125E+0003  -2.80334741210938E+0003  -2.80336376953125E+0003  -2.80340917968750E+0003  -2.80348803710938E+0003  -2.80358959960938E+0003  -2.80370971679688E+0003  -2.80384448242188E+0003  -2.80398974609375E+0003  -2.80414794921875E+0003  -2.80431665039063E+0003  -2.80449121093750E+0003  -2.80467480468750E+0003  -2.80486523437500E+0003  -2.80505859375000E+0003  -2.80525683593750E+0003  -2.80545776367188E+0003  -2.80566284179688E+0003  -2.80586987304688E+0003  -2.80607861328125E+0003  -2.80629199218750E+0003  -2.80650732421875E+0003  -2.80672216796875E+0003  -2.80694018554688E+0003  -2.80715966796875E+0003  -2.80738037109375E+0003  -2.80759960937500E+0003  -2.80781909179688E+0003  -2.80803857421875E+0003  -2.80825537109375E+0003  -2.80847143554688E+0003
  -2.81330493164063E+0003  -2.81300683593750E+0003  -2.81271142578125E+0003  -2.81241894531250E+0003  -2.81212988281250E+0003  -2.81184448242188E+0003  -2.81156347656250E+0003  -2.81128662109375E+0003  -2.81101367187500E+0003  -2.81074462890625E+0003  -2.81047875976563E+0003  -2.81021630859375E+0003  -2.80995678710938E+0003  -2.80970068359375E+0003  -2.80944775390625E+0003  -2.80919897460938E+0003  -2.80895581054688E+0003  -2.80872070312500E+0003  -2.80849536132813E+0003  -2.80827490234375E+0003  -2.80806396484375E+0003  -2.80785156250000E+0003  -2.80763183593750E+0003  -2.80740722656250E+0003  -2.80719287109375E+0003  -2.80699707031250E+0003  -2.80675170898438E+0003  -2.80656152343750E+0003  -2.80643701171875E+0003  -2.80638623046875E+0003  -2.80642431640625E+0003  -2.80655859375000E+0003  -2.80678417968750E+0003  -2.80710131835938E+0003  -2.80750952148438E+0003  -2.80800195312500E+0003  -2.80858129882813E+0003  -2.80924389648438E+0003  -2.80999755859375E+0003  -2.81081030273438E+0003  -2.81164624023438E+0003  -2.81246337890625E+0003  -2.81322973632813E+0003  -2.81390551757813E+0003  -2.81444555664063E+0003  -2.81480737304688E+0003  -2.81495507812500E+0003  -2.81490429687500E+0003  -2.81468750000000E+0003  -2.81434301757813E+0003  -2.81391088867188E+0003  -2.81343115234375E+0003  -2.81294116210938E+0003  -2.81247631835938E+0003  -2.81207031250000E+0003  -2.81172973632813E+0003  -2.81143847656250E+0003  -2.81117285156250E+0003  -2.81096997070313E+0003  -2.81083154296875E+0003  -2.81075927734375E+0003  -2.81075512695313E+0003  -2.81081616210938E+0003  -2.81092993164063E+0003  -2.81108056640625E+0003  -2.81125366210938E+0003  -2.81143383789063E+0003  -2.81160668945313E+0003  -2.81175756835938E+0003  -2.81187182617188E+0003  -2.81194360351563E+0003  -2.81198095703125E+0003  -2.81199243164063E+0003  -2.81198681640625E+0003  -2.81197241210938E+0003  -2.81195629882813E+0003  -2.81194555664063E+0003  -2.81194726562500E+0003  -2.81194311523438E+0003  -2.81187890625000E+0003  -2.81182006835938E+0003  -2.81176489257813E+0003  -2.81171679687500E+0003  -2.81167993164063E+0003  -2.81165332031250E+0003  -2.81163940429688E+0003  -2.81164135742188E+0003  -2.81165356445313E+0003  -2.81167407226563E+0003  -2.81169799804688E+0003  -2.81172534179688E+0003  -2.81175463867188E+0003  -2.81178027343750E+0003  -2.81180273437500E+0003  -2.81181323242188E+0003  -2.81180737304688E+0003  -2.81177221679688E+0003  -2.81170410156250E+0003  -2.81159423828125E+0003  -2.81143798828125E+0003  -2.81122973632813E+0003  -2.81096850585938E+0003  -2.81067016601563E+0003  -2.81035473632813E+0003  -2.81003857421875E+0003  -2.80974096679688E+0003  -2.80948193359375E+0003  -2.80927929687500E+0003  -2.80915234375000E+0003  -2.80910693359375E+0003  -2.80913452148438E+0003  -2.80922143554688E+0003  -2.80934887695313E+0003  -2.80950610351563E+0003  -2.80967456054688E+0003  -2.80984448242188E+0003  -2.80999609375000E+0003  -2.81012329101563E+0003  -2.81022680664063E+0003  -2.81030664062500E+0003  -2.81036743164063E+0003  -2.81040600585938E+0003  -2.81042309570313E+0003  -2.81041772460938E+0003  -2.81039184570313E+0003  -2.81034619140625E+0003  -2.81027734375000E+0003  -2.81018554687500E+0003  -2.81007299804688E+0003  -2.80993408203125E+0003  -2.80977490234375E+0003  -2.80959057617188E+0003  -2.80938256835938E+0003  -2.80915722656250E+0003  -2.80891601562500E+0003  -2.80866894531250E+0003  -2.80841918945313E+0003  -2.80817163085938E+0003  -2.80793457031250E+0003  -2.80771435546875E+0003  -2.80751464843750E+0003  -2.80733715820313E+0003  -2.80718164062500E+0003  -2.80704370117188E+0003  -2.80692333984375E+0003  -2.80682104492188E+0003  -2.80673535156250E+0003  -2.80666430664063E+0003  -2.80660839843750E+0003  -2.80656274414063E+0003  -2.80653149414063E+0003  -2.80651049804688E+0003  -2.80649707031250E+0003  -2.80649389648438E+0003  -2.80649682617188E+0003  -2.80650659179688E+0003  -2.80652001953125E+0003  -2.80653857421875E+0003  -2.80656103515625E+0003  -2.80658740234375E+0003  -2.80661376953125E+0003  -2.80664477539063E+0003  -2.80667578125000E+0003  -2.80670678710938E+0003  -2.80673876953125E+0003  -2.80676855468750E+0003  -2.80679833984375E+0003  -2.80682861328125E+0003  -2.80685620117188E+0003  -2.80688476562500E+0003  -2.80691162109375E+0003  -2.80693774414063E+0003  -2.80695996093750E+0003  -2.80697875976563E+0003  -2.80699316406250E+0003  -2.80699804687500E+0003  -2.80699707031250E+0003  -2.80698291015625E+0003  -2.80694750976563E+0003  -2.80688452148438E+0003  -2.80681030273438E+0003  -2.80672509765625E+0003  -2.80662719726563E+0003  -2.80651660156250E+0003  -2.80639428710938E+0003  -2.80626196289063E+0003  -2.80612084960938E+0003  -2.80596362304688E+0003  -2.80578027343750E+0003  -2.80558935546875E+0003  -2.80538964843750E+0003  -2.80518750000000E+0003  -2.80498437500000E+0003  -2.80478491210938E+0003  -2.80458349609375E+0003  -2.80438818359375E+0003  -2.80420117187500E+0003  -2.80402514648438E+0003  -2.80386694335938E+0003  -2.80372631835938E+0003  -2.80360961914063E+0003  -2.80352099609375E+0003  -2.80346411132813E+0003  -2.80344067382813E+0003  -2.80344165039063E+0003  -2.80347216796875E+0003  -2.80352636718750E+0003  -2.80360424804688E+0003  -2.80370312500000E+0003  -2.80381665039063E+0003  -2.80394604492188E+0003  -2.80408496093750E+0003  -2.80423510742188E+0003  -2.80439819335938E+0003  -2.80456542968750E+0003  -2.80474365234375E+0003  -2.80492749023438E+0003  -2.80511523437500E+0003  -2.80530786132813E+0003  -2.80550561523438E+0003  -2.80570336914063E+0003  -2.80590551757813E+0003  -2.80611157226563E+0003  -2.80631884765625E+0003  -2.80652905273438E+0003  -2.80674023437500E+0003  -2.80695556640625E+0003  -2.80716796875000E+0003  -2.80738525390625E+0003  -2.80759960937500E+0003  -2.80781567382813E+0003  -2.80803027343750E+0003  -2.80824365234375E+0003  -2.80845458984375E+0003
  -2.81302197265625E+0003  -2.81273193359375E+0003  -2.81244531250000E+0003  -2.81216235351563E+0003  -2.81188354492188E+0003  -2.81160961914063E+0003  -2.81134033203125E+0003  -2.81107641601563E+0003  -2.81081811523438E+0003  -2.81056494140625E+0003  -2.81031689453125E+0003  -2.81007397460938E+0003  -2.80983740234375E+0003  -2.80960693359375E+0003  -2.80938354492188E+0003  -2.80916821289063E+0003  -2.80896191406250E+0003  -2.80876684570313E+0003  -2.80858447265625E+0003  -2.80841333007813E+0003  -2.80824560546875E+0003  -2.80806762695313E+0003  -2.80788110351563E+0003  -2.80768139648438E+0003  -2.80748828125000E+0003  -2.80732226562500E+0003  -2.80716113281250E+0003  -2.80699877929688E+0003  -2.80690893554688E+0003  -2.80690722656250E+0003  -2.80700756835938E+0003  -2.80721484375000E+0003  -2.80751806640625E+0003  -2.80791088867188E+0003  -2.80838281250000E+0003  -2.80892919921875E+0003  -2.80953686523438E+0003  -2.81020092773438E+0003  -2.81091333007813E+0003  -2.81165551757813E+0003  -2.81239160156250E+0003  -2.81309057617188E+0003  -2.81371557617188E+0003  -2.81424169921875E+0003  -2.81463500976563E+0003  -2.81487207031250E+0003  -2.81492407226563E+0003  -2.81480664062500E+0003  -2.81455126953125E+0003  -2.81418945312500E+0003  -2.81375292968750E+0003  -2.81327978515625E+0003  -2.81279809570313E+0003  -2.81234082031250E+0003  -2.81193481445313E+0003  -2.81158593750000E+0003  -2.81129565429688E+0003  -2.81102636718750E+0003  -2.81079956054688E+0003  -2.81063330078125E+0003  -2.81052807617188E+0003  -2.81048535156250E+0003  -2.81050195312500E+0003  -2.81056787109375E+0003  -2.81067114257813E+0003  -2.81079980468750E+0003  -2.81094116210938E+0003  -2.81108422851563E+0003  -2.81121655273438E+0003  -2.81132617187500E+0003  -2.81140820312500E+0003  -2.81146679687500E+0003  -2.81150756835938E+0003  -2.81153540039063E+0003  -2.81155639648438E+0003  -2.81157519531250E+0003  -2.81159716796875E+0003  -2.81162695312500E+0003  -2.81163281250000E+0003  -2.81159252929688E+0003  -2.81155126953125E+0003  -2.81151098632813E+0003  -2.81147509765625E+0003  -2.81144384765625E+0003  -2.81141894531250E+0003  -2.81140478515625E+0003  -2.81139721679688E+0003  -2.81139941406250E+0003  -2.81140600585938E+0003  -2.81141357421875E+0003  -2.81142163085938E+0003  -2.81142846679688E+0003  -2.81143261718750E+0003  -2.81143212890625E+0003  -2.81142211914063E+0003  -2.81140063476563E+0003  -2.81135644531250E+0003  -2.81128735351563E+0003  -2.81119165039063E+0003  -2.81106127929688E+0003  -2.81089526367188E+0003  -2.81068627929688E+0003  -2.81045361328125E+0003  -2.81020776367188E+0003  -2.80996118164063E+0003  -2.80973413085938E+0003  -2.80953466796875E+0003  -2.80938110351563E+0003  -2.80928906250000E+0003  -2.80926342773438E+0003  -2.80929296875000E+0003  -2.80937060546875E+0003  -2.80948095703125E+0003  -2.80961596679688E+0003  -2.80976000976563E+0003  -2.80990234375000E+0003  -2.81003369140625E+0003  -2.81014550781250E+0003  -2.81023803710938E+0003  -2.81031103515625E+0003  -2.81036328125000E+0003  -2.81039697265625E+0003  -2.81041088867188E+0003  -2.81040356445313E+0003  -2.81037524414063E+0003  -2.81032470703125E+0003  -2.81025268554688E+0003  -2.81015844726563E+0003  -2.81004321289063E+0003  -2.80990649414063E+0003  -2.80974804687500E+0003  -2.80956640625000E+0003  -2.80936621093750E+0003  -2.80914770507813E+0003  -2.80891723632813E+0003  -2.80868041992188E+0003  -2.80844165039063E+0003  -2.80820629882813E+0003  -2.80798120117188E+0003  -2.80777099609375E+0003  -2.80758032226563E+0003  -2.80740820312500E+0003  -2.80725585937500E+0003  -2.80712182617188E+0003  -2.80700317382813E+0003  -2.80690161132813E+0003  -2.80681567382813E+0003  -2.80674218750000E+0003  -2.80668212890625E+0003  -2.80663500976563E+0003  -2.80659838867188E+0003  -2.80657299804688E+0003  -2.80655444335938E+0003  -2.80654418945313E+0003  -2.80654248046875E+0003  -2.80654516601563E+0003  -2.80655322265625E+0003  -2.80656591796875E+0003  -2.80658227539063E+0003  -2.80660156250000E+0003  -2.80662377929688E+0003  -2.80664868164063E+0003  -2.80667578125000E+0003  -2.80670092773438E+0003  -2.80672656250000E+0003  -2.80675170898438E+0003  -2.80677685546875E+0003  -2.80680102539063E+0003  -2.80682299804688E+0003  -2.80684545898438E+0003  -2.80686499023438E+0003  -2.80688305664063E+0003  -2.80689843750000E+0003  -2.80690844726563E+0003  -2.80691235351563E+0003  -2.80690966796875E+0003  -2.80689868164063E+0003  -2.80687792968750E+0003  -2.80684106445313E+0003  -2.80677563476563E+0003  -2.80670141601563E+0003  -2.80661718750000E+0003  -2.80652392578125E+0003  -2.80642065429688E+0003  -2.80630810546875E+0003  -2.80618676757813E+0003  -2.80605712890625E+0003  -2.80590722656250E+0003  -2.80573559570313E+0003  -2.80555761718750E+0003  -2.80537158203125E+0003  -2.80518090820313E+0003  -2.80499218750000E+0003  -2.80480468750000E+0003  -2.80461816406250E+0003  -2.80443896484375E+0003  -2.80426440429688E+0003  -2.80410668945313E+0003  -2.80395751953125E+0003  -2.80383007812500E+0003  -2.80372216796875E+0003  -2.80364135742188E+0003  -2.80358886718750E+0003  -2.80356445312500E+0003  -2.80357006835938E+0003  -2.80359985351563E+0003  -2.80365234375000E+0003  -2.80372631835938E+0003  -2.80382031250000E+0003  -2.80392822265625E+0003  -2.80405004882813E+0003  -2.80418457031250E+0003  -2.80432934570313E+0003  -2.80448315429688E+0003  -2.80464794921875E+0003  -2.80481909179688E+0003  -2.80499682617188E+0003  -2.80517895507813E+0003  -2.80536596679688E+0003  -2.80555639648438E+0003  -2.80575146484375E+0003  -2.80594921875000E+0003  -2.80615039062500E+0003  -2.80635253906250E+0003  -2.80655883789063E+0003  -2.80676611328125E+0003  -2.80697583007813E+0003  -2.80718457031250E+0003  -2.80739550781250E+0003  -2.80760766601563E+0003  -2.80781860351563E+0003  -2.80802978515625E+0003  -2.80823779296875E+0003  -2.80844580078125E+0003
  -2.81275244140625E+0003  -2.81247045898438E+0003  -2.81219262695313E+0003  -2.81191918945313E+0003  -2.81165039062500E+0003  -2.81138720703125E+0003  -2.81112963867188E+0003  -2.81087841796875E+0003  -2.81063354492188E+0003  -2.81039526367188E+0003  -2.81016381835938E+0003  -2.80993969726563E+0003  -2.80972363281250E+0003  -2.80951660156250E+0003  -2.80931982421875E+0003  -2.80913427734375E+0003  -2.80896093750000E+0003  -2.80880102539063E+0003  -2.80865625000000E+0003  -2.80852392578125E+0003  -2.80839428710938E+0003  -2.80825683593750E+0003  -2.80809594726563E+0003  -2.80792260742188E+0003  -2.80775195312500E+0003  -2.80760766601563E+0003  -2.80751269531250E+0003  -2.80739965820313E+0003  -2.80734521484375E+0003  -2.80738574218750E+0003  -2.80753759765625E+0003  -2.80780249023438E+0003  -2.80816845703125E+0003  -2.80861938476563E+0003  -2.80914331054688E+0003  -2.80972412109375E+0003  -2.81035058593750E+0003  -2.81100854492188E+0003  -2.81168408203125E+0003  -2.81236035156250E+0003  -2.81300952148438E+0003  -2.81360424804688E+0003  -2.81411450195313E+0003  -2.81452856445313E+0003  -2.81481152343750E+0003  -2.81494384765625E+0003  -2.81490771484375E+0003  -2.81473339843750E+0003  -2.81443823242188E+0003  -2.81405151367188E+0003  -2.81360815429688E+0003  -2.81313330078125E+0003  -2.81265087890625E+0003  -2.81219287109375E+0003  -2.81178417968750E+0003  -2.81142651367188E+0003  -2.81112304687500E+0003  -2.81086132812500E+0003  -2.81061279296875E+0003  -2.81042114257813E+0003  -2.81028662109375E+0003  -2.81020996093750E+0003  -2.81018872070313E+0003  -2.81021459960938E+0003  -2.81027758789063E+0003  -2.81036865234375E+0003  -2.81047705078125E+0003  -2.81059375000000E+0003  -2.81070874023438E+0003  -2.81081250000000E+0003  -2.81090014648438E+0003  -2.81097387695313E+0003  -2.81103662109375E+0003  -2.81109179687500E+0003  -2.81114208984375E+0003  -2.81119067382813E+0003  -2.81124072265625E+0003  -2.81129492187500E+0003  -2.81131542968750E+0003  -2.81129248046875E+0003  -2.81126953125000E+0003  -2.81124291992188E+0003  -2.81121655273438E+0003  -2.81119165039063E+0003  -2.81116967773438E+0003  -2.81115356445313E+0003  -2.81114038085938E+0003  -2.81113256835938E+0003  -2.81112500000000E+0003  -2.81111914062500E+0003  -2.81111206054688E+0003  -2.81110449218750E+0003  -2.81109179687500E+0003  -2.81107568359375E+0003  -2.81105200195313E+0003  -2.81101855468750E+0003  -2.81097094726563E+0003  -2.81090942382813E+0003  -2.81082397460938E+0003  -2.81071752929688E+0003  -2.81058520507813E+0003  -2.81042480468750E+0003  -2.81024731445313E+0003  -2.81006127929688E+0003  -2.80987670898438E+0003  -2.80971020507813E+0003  -2.80956542968750E+0003  -2.80946020507813E+0003  -2.80939746093750E+0003  -2.80938671875000E+0003  -2.80942114257813E+0003  -2.80949316406250E+0003  -2.80959033203125E+0003  -2.80970361328125E+0003  -2.80982739257813E+0003  -2.80995068359375E+0003  -2.81006298828125E+0003  -2.81016235351563E+0003  -2.81024438476563E+0003  -2.81030981445313E+0003  -2.81035864257813E+0003  -2.81038891601563E+0003  -2.81039794921875E+0003  -2.81038916015625E+0003  -2.81035693359375E+0003  -2.81030444335938E+0003  -2.81022900390625E+0003  -2.81013085937500E+0003  -2.81001416015625E+0003  -2.80987719726563E+0003  -2.80971972656250E+0003  -2.80954296875000E+0003  -2.80934887695313E+0003  -2.80913916015625E+0003  -2.80892016601563E+0003  -2.80869360351563E+0003  -2.80846850585938E+0003  -2.80824316406250E+0003  -2.80802807617188E+0003  -2.80782739257813E+0003  -2.80764526367188E+0003  -2.80748022460938E+0003  -2.80733105468750E+0003  -2.80720190429688E+0003  -2.80708593750000E+0003  -2.80698486328125E+0003  -2.80689770507813E+0003  -2.80682348632813E+0003  -2.80676293945313E+0003  -2.80671118164063E+0003  -2.80667089843750E+0003  -2.80663989257813E+0003  -2.80661669921875E+0003  -2.80660327148438E+0003  -2.80659301757813E+0003  -2.80659204101563E+0003  -2.80659423828125E+0003  -2.80660278320313E+0003  -2.80661254882813E+0003  -2.80662646484375E+0003  -2.80664306640625E+0003  -2.80666284179688E+0003  -2.80668237304688E+0003  -2.80670214843750E+0003  -2.80672314453125E+0003  -2.80674267578125E+0003  -2.80676123046875E+0003  -2.80677758789063E+0003  -2.80679541015625E+0003  -2.80681030273438E+0003  -2.80682324218750E+0003  -2.80683251953125E+0003  -2.80683984375000E+0003  -2.80684301757813E+0003  -2.80683959960938E+0003  -2.80682861328125E+0003  -2.80681030273438E+0003  -2.80678247070313E+0003  -2.80674487304688E+0003  -2.80667993164063E+0003  -2.80660595703125E+0003  -2.80652416992188E+0003  -2.80643408203125E+0003  -2.80633618164063E+0003  -2.80623022460938E+0003  -2.80611645507813E+0003  -2.80599511718750E+0003  -2.80584936523438E+0003  -2.80569116210938E+0003  -2.80552319335938E+0003  -2.80535009765625E+0003  -2.80517407226563E+0003  -2.80499902343750E+0003  -2.80482617187500E+0003  -2.80465356445313E+0003  -2.80448657226563E+0003  -2.80432836914063E+0003  -2.80418115234375E+0003  -2.80404858398438E+0003  -2.80393139648438E+0003  -2.80383618164063E+0003  -2.80376416015625E+0003  -2.80371606445313E+0003  -2.80369653320313E+0003  -2.80370239257813E+0003  -2.80373071289063E+0003  -2.80378295898438E+0003  -2.80385058593750E+0003  -2.80393969726563E+0003  -2.80404296875000E+0003  -2.80415869140625E+0003  -2.80428759765625E+0003  -2.80442773437500E+0003  -2.80457666015625E+0003  -2.80473364257813E+0003  -2.80489990234375E+0003  -2.80507055664063E+0003  -2.80524804687500E+0003  -2.80542944335938E+0003  -2.80561572265625E+0003  -2.80580493164063E+0003  -2.80599902343750E+0003  -2.80619531250000E+0003  -2.80639257812500E+0003  -2.80659350585938E+0003  -2.80679736328125E+0003  -2.80700122070313E+0003  -2.80720874023438E+0003  -2.80741503906250E+0003  -2.80762036132813E+0003  -2.80782861328125E+0003  -2.80803417968750E+0003  -2.80824047851563E+0003  -2.80844189453125E+0003
  -2.81249584960938E+0003  -2.81222167968750E+0003  -2.81195263671875E+0003  -2.81168823242188E+0003  -2.81142968750000E+0003  -2.81117675781250E+0003  -2.81093041992188E+0003  -2.81069091796875E+0003  -2.81045874023438E+0003  -2.81023413085938E+0003  -2.81001782226563E+0003  -2.80981005859375E+0003  -2.80961230468750E+0003  -2.80942529296875E+0003  -2.80925097656250E+0003  -2.80909008789063E+0003  -2.80894335937500E+0003  -2.80881176757813E+0003  -2.80869604492188E+0003  -2.80859350585938E+0003  -2.80849414062500E+0003  -2.80838549804688E+0003  -2.80825732421875E+0003  -2.80810400390625E+0003  -2.80795825195313E+0003  -2.80783837890625E+0003  -2.80776782226563E+0003  -2.80773974609375E+0003  -2.80771582031250E+0003  -2.80779272460938E+0003  -2.80798608398438E+0003  -2.80829882812500E+0003  -2.80870898437500E+0003  -2.80920166015625E+0003  -2.80975805664063E+0003  -2.81036010742188E+0003  -2.81099218750000E+0003  -2.81163769531250E+0003  -2.81228100585938E+0003  -2.81290039062500E+0003  -2.81347167968750E+0003  -2.81397802734375E+0003  -2.81441357421875E+0003  -2.81473535156250E+0003  -2.81492822265625E+0003  -2.81498071289063E+0003  -2.81488598632813E+0003  -2.81465844726563E+0003  -2.81433447265625E+0003  -2.81393164062500E+0003  -2.81347900390625E+0003  -2.81299707031250E+0003  -2.81251684570313E+0003  -2.81205639648438E+0003  -2.81164404296875E+0003  -2.81128002929688E+0003  -2.81096582031250E+0003  -2.81069995117188E+0003  -2.81043872070313E+0003  -2.81022436523438E+0003  -2.81006323242188E+0003  -2.80995678710938E+0003  -2.80990258789063E+0003  -2.80989404296875E+0003  -2.80992285156250E+0003  -2.80998071289063E+0003  -2.81006054687500E+0003  -2.81015380859375E+0003  -2.81025268554688E+0003  -2.81034936523438E+0003  -2.81043896484375E+0003  -2.81052270507813E+0003  -2.81060131835938E+0003  -2.81067700195313E+0003  -2.81074975585938E+0003  -2.81082177734375E+0003  -2.81089404296875E+0003  -2.81096777343750E+0003  -2.81100439453125E+0003  -2.81100122070313E+0003  -2.81098974609375E+0003  -2.81097558593750E+0003  -2.81095825195313E+0003  -2.81093945312500E+0003  -2.81092016601563E+0003  -2.81090209960938E+0003  -2.81088671875000E+0003  -2.81087109375000E+0003  -2.81085449218750E+0003  -2.81083862304688E+0003  -2.81082226562500E+0003  -2.81080151367188E+0003  -2.81077758789063E+0003  -2.81075195312500E+0003  -2.81071899414063E+0003  -2.81068017578125E+0003  -2.81063305664063E+0003  -2.81057421875000E+0003  -2.81050195312500E+0003  -2.81041357421875E+0003  -2.81031103515625E+0003  -2.81019018554688E+0003  -2.81005932617188E+0003  -2.80992333984375E+0003  -2.80979321289063E+0003  -2.80967456054688E+0003  -2.80957714843750E+0003  -2.80950683593750E+0003  -2.80947143554688E+0003  -2.80947607421875E+0003  -2.80951489257813E+0003  -2.80958081054688E+0003  -2.80966796875000E+0003  -2.80976513671875E+0003  -2.80986987304688E+0003  -2.80997680664063E+0003  -2.81007543945313E+0003  -2.81016381835938E+0003  -2.81023706054688E+0003  -2.81029638671875E+0003  -2.81034106445313E+0003  -2.81036645507813E+0003  -2.81037524414063E+0003  -2.81036279296875E+0003  -2.81033032226563E+0003  -2.81027392578125E+0003  -2.81019799804688E+0003  -2.81009936523438E+0003  -2.80998193359375E+0003  -2.80984594726563E+0003  -2.80969091796875E+0003  -2.80952026367188E+0003  -2.80933178710938E+0003  -2.80913110351563E+0003  -2.80892138671875E+0003  -2.80870629882813E+0003  -2.80849243164063E+0003  -2.80828076171875E+0003  -2.80807519531250E+0003  -2.80788476562500E+0003  -2.80771069335938E+0003  -2.80755175781250E+0003  -2.80740917968750E+0003  -2.80728442382813E+0003  -2.80717065429688E+0003  -2.80707153320313E+0003  -2.80698510742188E+0003  -2.80691064453125E+0003  -2.80684619140625E+0003  -2.80679321289063E+0003  -2.80674926757813E+0003  -2.80671386718750E+0003  -2.80668798828125E+0003  -2.80666748046875E+0003  -2.80665527343750E+0003  -2.80664624023438E+0003  -2.80664379882813E+0003  -2.80664404296875E+0003  -2.80664990234375E+0003  -2.80665966796875E+0003  -2.80666967773438E+0003  -2.80668334960938E+0003  -2.80669580078125E+0003  -2.80671191406250E+0003  -2.80672534179688E+0003  -2.80673999023438E+0003  -2.80675244140625E+0003  -2.80676318359375E+0003  -2.80677368164063E+0003  -2.80678198242188E+0003  -2.80678759765625E+0003  -2.80679028320313E+0003  -2.80678906250000E+0003  -2.80678662109375E+0003  -2.80677441406250E+0003  -2.80675708007813E+0003  -2.80673291015625E+0003  -2.80670117187500E+0003  -2.80665844726563E+0003  -2.80659545898438E+0003  -2.80652246093750E+0003  -2.80644238281250E+0003  -2.80635546875000E+0003  -2.80626147460938E+0003  -2.80616040039063E+0003  -2.80605273437500E+0003  -2.80593774414063E+0003  -2.80579833984375E+0003  -2.80564990234375E+0003  -2.80549389648438E+0003  -2.80533300781250E+0003  -2.80517041015625E+0003  -2.80500756835938E+0003  -2.80484692382813E+0003  -2.80469042968750E+0003  -2.80453784179688E+0003  -2.80439306640625E+0003  -2.80425878906250E+0003  -2.80413940429688E+0003  -2.80403417968750E+0003  -2.80394702148438E+0003  -2.80388281250000E+0003  -2.80384204101563E+0003  -2.80382495117188E+0003  -2.80383276367188E+0003  -2.80386010742188E+0003  -2.80390869140625E+0003  -2.80397705078125E+0003  -2.80406079101563E+0003  -2.80415893554688E+0003  -2.80427172851563E+0003  -2.80439404296875E+0003  -2.80452807617188E+0003  -2.80467187500000E+0003  -2.80482446289063E+0003  -2.80498486328125E+0003  -2.80515063476563E+0003  -2.80532177734375E+0003  -2.80549975585938E+0003  -2.80568164062500E+0003  -2.80586572265625E+0003  -2.80605468750000E+0003  -2.80624707031250E+0003  -2.80644018554688E+0003  -2.80663623046875E+0003  -2.80683642578125E+0003  -2.80703613281250E+0003  -2.80723754882813E+0003  -2.80744067382813E+0003  -2.80764306640625E+0003  -2.80784521484375E+0003  -2.80804760742188E+0003  -2.80824804687500E+0003  -2.80844702148438E+0003
  -2.81225097656250E+0003  -2.81198510742188E+0003  -2.81172436523438E+0003  -2.81146923828125E+0003  -2.81121972656250E+0003  -2.81097705078125E+0003  -2.81074121093750E+0003  -2.81051269531250E+0003  -2.81029223632813E+0003  -2.81007983398438E+0003  -2.80987670898438E+0003  -2.80968359375000E+0003  -2.80950122070313E+0003  -2.80933129882813E+0003  -2.80917480468750E+0003  -2.80903295898438E+0003  -2.80890625000000E+0003  -2.80879516601563E+0003  -2.80869995117188E+0003  -2.80861767578125E+0003  -2.80853906250000E+0003  -2.80845239257813E+0003  -2.80834716796875E+0003  -2.80822241210938E+0003  -2.80809863281250E+0003  -2.80800537109375E+0003  -2.80796118164063E+0003  -2.80798657226563E+0003  -2.80801196289063E+0003  -2.80812060546875E+0003  -2.80834667968750E+0003  -2.80869018554688E+0003  -2.80912963867188E+0003  -2.80964526367188E+0003  -2.81021948242188E+0003  -2.81082861328125E+0003  -2.81145605468750E+0003  -2.81208496093750E+0003  -2.81269409179688E+0003  -2.81326782226563E+0003  -2.81379614257813E+0003  -2.81425097656250E+0003  -2.81461718750000E+0003  -2.81485766601563E+0003  -2.81497656250000E+0003  -2.81496386718750E+0003  -2.81482324218750E+0003  -2.81456469726563E+0003  -2.81422290039063E+0003  -2.81381152343750E+0003  -2.81335791015625E+0003  -2.81287792968750E+0003  -2.81240039062500E+0003  -2.81194238281250E+0003  -2.81152612304688E+0003  -2.81115722656250E+0003  -2.81083374023438E+0003  -2.81055615234375E+0003  -2.81029052734375E+0003  -2.81005541992188E+0003  -2.80987133789063E+0003  -2.80973852539063E+0003  -2.80965551757813E+0003  -2.80961694335938E+0003  -2.80961572265625E+0003  -2.80964575195313E+0003  -2.80970019531250E+0003  -2.80977246093750E+0003  -2.80985620117188E+0003  -2.80994458007813E+0003  -2.81003344726563E+0003  -2.81012255859375E+0003  -2.81021166992188E+0003  -2.81030102539063E+0003  -2.81039013671875E+0003  -2.81047851562500E+0003  -2.81056689453125E+0003  -2.81065527343750E+0003  -2.81070947265625E+0003  -2.81072167968750E+0003  -2.81072167968750E+0003  -2.81071801757813E+0003  -2.81071020507813E+0003  -2.81069604492188E+0003  -2.81067993164063E+0003  -2.81066235351563E+0003  -2.81064624023438E+0003  -2.81062670898438E+0003  -2.81060693359375E+0003  -2.81058374023438E+0003  -2.81055932617188E+0003  -2.81053271484375E+0003  -2.81050146484375E+0003  -2.81047045898438E+0003  -2.81043334960938E+0003  -2.81039208984375E+0003  -2.81034594726563E+0003  -2.81029296875000E+0003  -2.81022924804688E+0003  -2.81016040039063E+0003  -2.81007861328125E+0003  -2.80998754882813E+0003  -2.80989355468750E+0003  -2.80979833984375E+0003  -2.80970727539063E+0003  -2.80962988281250E+0003  -2.80956591796875E+0003  -2.80952514648438E+0003  -2.80951196289063E+0003  -2.80952856445313E+0003  -2.80957031250000E+0003  -2.80963208007813E+0003  -2.80970922851563E+0003  -2.80979663085938E+0003  -2.80988647460938E+0003  -2.80997949218750E+0003  -2.81006665039063E+0003  -2.81014428710938E+0003  -2.81021289062500E+0003  -2.81026831054688E+0003  -2.81030786132813E+0003  -2.81033227539063E+0003  -2.81034106445313E+0003  -2.81032568359375E+0003  -2.81029003906250E+0003  -2.81023315429688E+0003  -2.81015600585938E+0003  -2.81005957031250E+0003  -2.80994360351563E+0003  -2.80980981445313E+0003  -2.80966015625000E+0003  -2.80949389648438E+0003  -2.80931274414063E+0003  -2.80912304687500E+0003  -2.80892358398438E+0003  -2.80872045898438E+0003  -2.80851684570313E+0003  -2.80831689453125E+0003  -2.80812524414063E+0003  -2.80794482421875E+0003  -2.80777783203125E+0003  -2.80762841796875E+0003  -2.80749121093750E+0003  -2.80736889648438E+0003  -2.80725952148438E+0003  -2.80716137695313E+0003  -2.80707543945313E+0003  -2.80700048828125E+0003  -2.80693652343750E+0003  -2.80688061523438E+0003  -2.80683422851563E+0003  -2.80679638671875E+0003  -2.80676440429688E+0003  -2.80673950195313E+0003  -2.80672119140625E+0003  -2.80670947265625E+0003  -2.80670092773438E+0003  -2.80669702148438E+0003  -2.80669604492188E+0003  -2.80669946289063E+0003  -2.80670458984375E+0003  -2.80671191406250E+0003  -2.80671923828125E+0003  -2.80672778320313E+0003  -2.80673510742188E+0003  -2.80674389648438E+0003  -2.80675097656250E+0003  -2.80675634765625E+0003  -2.80676025390625E+0003  -2.80676245117188E+0003  -2.80676171875000E+0003  -2.80675805664063E+0003  -2.80674877929688E+0003  -2.80673754882813E+0003  -2.80672045898438E+0003  -2.80669677734375E+0003  -2.80666748046875E+0003  -2.80663085937500E+0003  -2.80658398437500E+0003  -2.80652124023438E+0003  -2.80644897460938E+0003  -2.80637060546875E+0003  -2.80628613281250E+0003  -2.80619580078125E+0003  -2.80609912109375E+0003  -2.80599633789063E+0003  -2.80588623046875E+0003  -2.80575659179688E+0003  -2.80561694335938E+0003  -2.80547192382813E+0003  -2.80532226562500E+0003  -2.80517041015625E+0003  -2.80502172851563E+0003  -2.80487304687500E+0003  -2.80472949218750E+0003  -2.80459008789063E+0003  -2.80445874023438E+0003  -2.80433618164063E+0003  -2.80422827148438E+0003  -2.80413354492188E+0003  -2.80405639648438E+0003  -2.80399926757813E+0003  -2.80396215820313E+0003  -2.80394995117188E+0003  -2.80395874023438E+0003  -2.80398925781250E+0003  -2.80403686523438E+0003  -2.80410180664063E+0003  -2.80418115234375E+0003  -2.80427636718750E+0003  -2.80438330078125E+0003  -2.80450268554688E+0003  -2.80463281250000E+0003  -2.80477172851563E+0003  -2.80491845703125E+0003  -2.80507250976563E+0003  -2.80523559570313E+0003  -2.80540185546875E+0003  -2.80557470703125E+0003  -2.80575195312500E+0003  -2.80593017578125E+0003  -2.80611645507813E+0003  -2.80630346679688E+0003  -2.80649291992188E+0003  -2.80668554687500E+0003  -2.80687890625000E+0003  -2.80707495117188E+0003  -2.80727294921875E+0003  -2.80747167968750E+0003  -2.80766894531250E+0003  -2.80786840820313E+0003  -2.80806591796875E+0003  -2.80826293945313E+0003  -2.80845898437500E+0003
  -2.81201806640625E+0003  -2.81175976562500E+0003  -2.81150732421875E+0003  -2.81126049804688E+0003  -2.81102050781250E+0003  -2.81078735351563E+0003  -2.81056127929688E+0003  -2.81034301757813E+0003  -2.81013305664063E+0003  -2.80993212890625E+0003  -2.80974072265625E+0003  -2.80955981445313E+0003  -2.80939062500000E+0003  -2.80923413085938E+0003  -2.80909155273438E+0003  -2.80896435546875E+0003  -2.80885253906250E+0003  -2.80875537109375E+0003  -2.80867382812500E+0003  -2.80860473632813E+0003  -2.80853955078125E+0003  -2.80846875000000E+0003  -2.80838305664063E+0003  -2.80828320312500E+0003  -2.80818432617188E+0003  -2.80811791992188E+0003  -2.80810009765625E+0003  -2.80814990234375E+0003  -2.80824218750000E+0003  -2.80837500000000E+0003  -2.80862329101563E+0003  -2.80898510742188E+0003  -2.80944042968750E+0003  -2.80996899414063E+0003  -2.81054443359375E+0003  -2.81114941406250E+0003  -2.81176440429688E+0003  -2.81236938476563E+0003  -2.81294799804688E+0003  -2.81349243164063E+0003  -2.81396972656250E+0003  -2.81437670898438E+0003  -2.81469482421875E+0003  -2.81488183593750E+0003  -2.81494702148438E+0003  -2.81489282226563E+0003  -2.81472192382813E+0003  -2.81444995117188E+0003  -2.81410034179688E+0003  -2.81369116210938E+0003  -2.81324243164063E+0003  -2.81276904296875E+0003  -2.81229467773438E+0003  -2.81184399414063E+0003  -2.81142724609375E+0003  -2.81105297851563E+0003  -2.81072143554688E+0003  -2.81043383789063E+0003  -2.81016503906250E+0003  -2.80991235351563E+0003  -2.80970800781250E+0003  -2.80955224609375E+0003  -2.80944482421875E+0003  -2.80938061523438E+0003  -2.80935424804688E+0003  -2.80935986328125E+0003  -2.80939208984375E+0003  -2.80944580078125E+0003  -2.80951513671875E+0003  -2.80959448242188E+0003  -2.80968041992188E+0003  -2.80977148437500E+0003  -2.80986596679688E+0003  -2.80996386718750E+0003  -2.81006274414063E+0003  -2.81016259765625E+0003  -2.81026171875000E+0003  -2.81035961914063E+0003  -2.81043188476563E+0003  -2.81045434570313E+0003  -2.81046459960938E+0003  -2.81047094726563E+0003  -2.81046850585938E+0003  -2.81046142578125E+0003  -2.81044995117188E+0003  -2.81043554687500E+0003  -2.81041894531250E+0003  -2.81040063476563E+0003  -2.81037890625000E+0003  -2.81035205078125E+0003  -2.81032617187500E+0003  -2.81029589843750E+0003  -2.81026342773438E+0003  -2.81022705078125E+0003  -2.81019116210938E+0003  -2.81014965820313E+0003  -2.81010571289063E+0003  -2.81005566406250E+0003  -2.81000317382813E+0003  -2.80994506835938E+0003  -2.80988427734375E+0003  -2.80981738281250E+0003  -2.80975097656250E+0003  -2.80968676757813E+0003  -2.80962817382813E+0003  -2.80957836914063E+0003  -2.80954296875000E+0003  -2.80952416992188E+0003  -2.80952514648438E+0003  -2.80955029296875E+0003  -2.80959301757813E+0003  -2.80965332031250E+0003  -2.80972363281250E+0003  -2.80980175781250E+0003  -2.80988183593750E+0003  -2.80996289062500E+0003  -2.81004052734375E+0003  -2.81011181640625E+0003  -2.81017382812500E+0003  -2.81022338867188E+0003  -2.81026342773438E+0003  -2.81028369140625E+0003  -2.81028906250000E+0003  -2.81027563476563E+0003  -2.81024145507813E+0003  -2.81018334960938E+0003  -2.81010888671875E+0003  -2.81001318359375E+0003  -2.80990185546875E+0003  -2.80977246093750E+0003  -2.80962548828125E+0003  -2.80946630859375E+0003  -2.80929541015625E+0003  -2.80911450195313E+0003  -2.80892504882813E+0003  -2.80873657226563E+0003  -2.80854418945313E+0003  -2.80835595703125E+0003  -2.80817724609375E+0003  -2.80800683593750E+0003  -2.80784814453125E+0003  -2.80770532226563E+0003  -2.80757421875000E+0003  -2.80745678710938E+0003  -2.80734936523438E+0003  -2.80725537109375E+0003  -2.80717065429688E+0003  -2.80709423828125E+0003  -2.80703076171875E+0003  -2.80697290039063E+0003  -2.80692260742188E+0003  -2.80688183593750E+0003  -2.80684765625000E+0003  -2.80681811523438E+0003  -2.80679614257813E+0003  -2.80677905273438E+0003  -2.80676562500000E+0003  -2.80675634765625E+0003  -2.80675146484375E+0003  -2.80674853515625E+0003  -2.80674780273438E+0003  -2.80674707031250E+0003  -2.80674877929688E+0003  -2.80675170898438E+0003  -2.80675561523438E+0003  -2.80675488281250E+0003  -2.80675561523438E+0003  -2.80675561523438E+0003  -2.80675512695313E+0003  -2.80675048828125E+0003  -2.80674438476563E+0003  -2.80673388671875E+0003  -2.80671826171875E+0003  -2.80670043945313E+0003  -2.80667724609375E+0003  -2.80664892578125E+0003  -2.80661254882813E+0003  -2.80657177734375E+0003  -2.80652441406250E+0003  -2.80645776367188E+0003  -2.80638598632813E+0003  -2.80630908203125E+0003  -2.80622705078125E+0003  -2.80613940429688E+0003  -2.80604687500000E+0003  -2.80594897460938E+0003  -2.80584521484375E+0003  -2.80572583007813E+0003  -2.80559399414063E+0003  -2.80545800781250E+0003  -2.80531835937500E+0003  -2.80518017578125E+0003  -2.80504199218750E+0003  -2.80490478515625E+0003  -2.80477197265625E+0003  -2.80464575195313E+0003  -2.80452563476563E+0003  -2.80441406250000E+0003  -2.80431591796875E+0003  -2.80423144531250E+0003  -2.80416357421875E+0003  -2.80411352539063E+0003  -2.80408276367188E+0003  -2.80407348632813E+0003  -2.80408471679688E+0003  -2.80411450195313E+0003  -2.80416137695313E+0003  -2.80422534179688E+0003  -2.80430322265625E+0003  -2.80439453125000E+0003  -2.80449877929688E+0003  -2.80461376953125E+0003  -2.80473803710938E+0003  -2.80487475585938E+0003  -2.80501708984375E+0003  -2.80516699218750E+0003  -2.80532299804688E+0003  -2.80548803710938E+0003  -2.80565551757813E+0003  -2.80582788085938E+0003  -2.80600415039063E+0003  -2.80618261718750E+0003  -2.80636669921875E+0003  -2.80655249023438E+0003  -2.80674096679688E+0003  -2.80692993164063E+0003  -2.80712109375000E+0003  -2.80731420898438E+0003  -2.80750854492188E+0003  -2.80770336914063E+0003  -2.80789672851563E+0003  -2.80809204101563E+0003  -2.80828442382813E+0003  -2.80847583007813E+0003
  -2.81179565429688E+0003  -2.81154516601563E+0003  -2.81130053710938E+0003  -2.81106225585938E+0003  -2.81083081054688E+0003  -2.81060644531250E+0003  -2.81038964843750E+0003  -2.81018090820313E+0003  -2.80998071289063E+0003  -2.80978979492188E+0003  -2.80960864257813E+0003  -2.80943847656250E+0003  -2.80928002929688E+0003  -2.80913452148438E+0003  -2.80900292968750E+0003  -2.80888671875000E+0003  -2.80878491210938E+0003  -2.80869775390625E+0003  -2.80862451171875E+0003  -2.80856347656250E+0003  -2.80850708007813E+0003  -2.80844799804688E+0003  -2.80837890625000E+0003  -2.80830102539063E+0003  -2.80822705078125E+0003  -2.80818676757813E+0003  -2.80819384765625E+0003  -2.80826611328125E+0003  -2.80841455078125E+0003  -2.80856933593750E+0003  -2.80883056640625E+0003  -2.80920043945313E+0003  -2.80965917968750E+0003  -2.81018432617188E+0003  -2.81075195312500E+0003  -2.81134179687500E+0003  -2.81193627929688E+0003  -2.81251879882813E+0003  -2.81306591796875E+0003  -2.81356909179688E+0003  -2.81400634765625E+0003  -2.81436572265625E+0003  -2.81464404296875E+0003  -2.81480297851563E+0003  -2.81484057617188E+0003  -2.81476708984375E+0003  -2.81458593750000E+0003  -2.81431201171875E+0003  -2.81396606445313E+0003  -2.81356640625000E+0003  -2.81312597656250E+0003  -2.81266406250000E+0003  -2.81219995117188E+0003  -2.81175463867188E+0003  -2.81134008789063E+0003  -2.81096557617188E+0003  -2.81062792968750E+0003  -2.81033129882813E+0003  -2.81005859375000E+0003  -2.80979101562500E+0003  -2.80956958007813E+0003  -2.80939453125000E+0003  -2.80926660156250E+0003  -2.80918066406250E+0003  -2.80913281250000E+0003  -2.80911767578125E+0003  -2.80913134765625E+0003  -2.80916845703125E+0003  -2.80922485351563E+0003  -2.80929516601563E+0003  -2.80937597656250E+0003  -2.80946582031250E+0003  -2.80956225585938E+0003  -2.80966357421875E+0003  -2.80976831054688E+0003  -2.80987402343750E+0003  -2.80997949218750E+0003  -2.81008276367188E+0003  -2.81017578125000E+0003  -2.81020532226563E+0003  -2.81022558593750E+0003  -2.81023779296875E+0003  -2.81024340820313E+0003  -2.81024096679688E+0003  -2.81023388671875E+0003  -2.81022363281250E+0003  -2.81021020507813E+0003  -2.81019238281250E+0003  -2.81017016601563E+0003  -2.81014697265625E+0003  -2.81012084960938E+0003  -2.81009033203125E+0003  -2.81005761718750E+0003  -2.81002294921875E+0003  -2.80998583984375E+0003  -2.80994628906250E+0003  -2.80990747070313E+0003  -2.80986206054688E+0003  -2.80981909179688E+0003  -2.80977221679688E+0003  -2.80972338867188E+0003  -2.80967724609375E+0003  -2.80963232421875E+0003  -2.80958837890625E+0003  -2.80955175781250E+0003  -2.80952294921875E+0003  -2.80950878906250E+0003  -2.80950415039063E+0003  -2.80951879882813E+0003  -2.80954907226563E+0003  -2.80959423828125E+0003  -2.80965014648438E+0003  -2.80971630859375E+0003  -2.80978735351563E+0003  -2.80986157226563E+0003  -2.80993530273438E+0003  -2.81000512695313E+0003  -2.81006884765625E+0003  -2.81012548828125E+0003  -2.81017333984375E+0003  -2.81020825195313E+0003  -2.81022778320313E+0003  -2.81023266601563E+0003  -2.81022021484375E+0003  -2.81018554687500E+0003  -2.81013208007813E+0003  -2.81005639648438E+0003  -2.80996484375000E+0003  -2.80985595703125E+0003  -2.80973022460938E+0003  -2.80959155273438E+0003  -2.80944213867188E+0003  -2.80928051757813E+0003  -2.80910864257813E+0003  -2.80893286132813E+0003  -2.80875366210938E+0003  -2.80857568359375E+0003  -2.80840039062500E+0003  -2.80822998046875E+0003  -2.80807153320313E+0003  -2.80792016601563E+0003  -2.80778442382813E+0003  -2.80765942382813E+0003  -2.80754589843750E+0003  -2.80744409179688E+0003  -2.80735180664063E+0003  -2.80726831054688E+0003  -2.80719311523438E+0003  -2.80712744140625E+0003  -2.80706909179688E+0003  -2.80701879882813E+0003  -2.80697314453125E+0003  -2.80693603515625E+0003  -2.80690356445313E+0003  -2.80687646484375E+0003  -2.80685498046875E+0003  -2.80683715820313E+0003  -2.80682275390625E+0003  -2.80681274414063E+0003  -2.80680371093750E+0003  -2.80679760742188E+0003  -2.80679199218750E+0003  -2.80678710937500E+0003  -2.80678442382813E+0003  -2.80678149414063E+0003  -2.80677636718750E+0003  -2.80677197265625E+0003  -2.80676513671875E+0003  -2.80675610351563E+0003  -2.80674609375000E+0003  -2.80673388671875E+0003  -2.80671752929688E+0003  -2.80669775390625E+0003  -2.80667236328125E+0003  -2.80664550781250E+0003  -2.80661132812500E+0003  -2.80657250976563E+0003  -2.80652832031250E+0003  -2.80647290039063E+0003  -2.80640576171875E+0003  -2.80633447265625E+0003  -2.80625878906250E+0003  -2.80617871093750E+0003  -2.80609399414063E+0003  -2.80600488281250E+0003  -2.80591088867188E+0003  -2.80581250000000E+0003  -2.80570263671875E+0003  -2.80558105468750E+0003  -2.80545434570313E+0003  -2.80532592773438E+0003  -2.80519726562500E+0003  -2.80506860351563E+0003  -2.80494213867188E+0003  -2.80481958007813E+0003  -2.80470410156250E+0003  -2.80459521484375E+0003  -2.80449609375000E+0003  -2.80440795898438E+0003  -2.80433154296875E+0003  -2.80427075195313E+0003  -2.80422729492188E+0003  -2.80420214843750E+0003  -2.80419653320313E+0003  -2.80420971679688E+0003  -2.80424096679688E+0003  -2.80428857421875E+0003  -2.80435131835938E+0003  -2.80442700195313E+0003  -2.80451538085938E+0003  -2.80461523437500E+0003  -2.80472753906250E+0003  -2.80485009765625E+0003  -2.80497998046875E+0003  -2.80511889648438E+0003  -2.80526586914063E+0003  -2.80541796875000E+0003  -2.80557788085938E+0003  -2.80574145507813E+0003  -2.80590942382813E+0003  -2.80608154296875E+0003  -2.80625708007813E+0003  -2.80643579101563E+0003  -2.80661718750000E+0003  -2.80680004882813E+0003  -2.80698583984375E+0003  -2.80717358398438E+0003  -2.80736352539063E+0003  -2.80755273437500E+0003  -2.80774267578125E+0003  -2.80793286132813E+0003  -2.80812280273438E+0003  -2.80831103515625E+0003  -2.80849877929688E+0003
  -2.81158398437500E+0003  -2.81134057617188E+0003  -2.81110375976563E+0003  -2.81087329101563E+0003  -2.81064990234375E+0003  -2.81043408203125E+0003  -2.81022583007813E+0003  -2.81002563476563E+0003  -2.80983398437500E+0003  -2.80965234375000E+0003  -2.80948022460938E+0003  -2.80931909179688E+0003  -2.80916967773438E+0003  -2.80903295898438E+0003  -2.80891015625000E+0003  -2.80880151367188E+0003  -2.80870703125000E+0003  -2.80862622070313E+0003  -2.80855883789063E+0003  -2.80850268554688E+0003  -2.80845239257813E+0003  -2.80840258789063E+0003  -2.80834765625000E+0003  -2.80828930664063E+0003  -2.80823876953125E+0003  -2.80822216796875E+0003  -2.80825122070313E+0003  -2.80834179687500E+0003  -2.80850830078125E+0003  -2.80870581054688E+0003  -2.80897485351563E+0003  -2.80934619140625E+0003  -2.80979736328125E+0003  -2.81030834960938E+0003  -2.81085937500000E+0003  -2.81142871093750E+0003  -2.81199609375000E+0003  -2.81255249023438E+0003  -2.81306738281250E+0003  -2.81352856445313E+0003  -2.81393041992188E+0003  -2.81425439453125E+0003  -2.81449560546875E+0003  -2.81463647460938E+0003  -2.81466577148438E+0003  -2.81458862304688E+0003  -2.81441381835938E+0003  -2.81415185546875E+0003  -2.81381982421875E+0003  -2.81343090820313E+0003  -2.81300659179688E+0003  -2.81255786132813E+0003  -2.81210693359375E+0003  -2.81167065429688E+0003  -2.81126245117188E+0003  -2.81088745117188E+0003  -2.81054809570313E+0003  -2.81024658203125E+0003  -2.80996728515625E+0003  -2.80968823242188E+0003  -2.80945239257813E+0003  -2.80926171875000E+0003  -2.80911645507813E+0003  -2.80901342773438E+0003  -2.80894799804688E+0003  -2.80891625976563E+0003  -2.80891381835938E+0003  -2.80893652343750E+0003  -2.80898046875000E+0003  -2.80904174804688E+0003  -2.80911669921875E+0003  -2.80920288085938E+0003  -2.80929785156250E+0003  -2.80939941406250E+0003  -2.80950561523438E+0003  -2.80961352539063E+0003  -2.80972167968750E+0003  -2.80982739257813E+0003  -2.80992919921875E+0003  -2.80997558593750E+0003  -2.81000146484375E+0003  -2.81002075195313E+0003  -2.81003198242188E+0003  -2.81003710937500E+0003  -2.81003613281250E+0003  -2.81003125000000E+0003  -2.81001953125000E+0003  -2.81000634765625E+0003  -2.80998925781250E+0003  -2.80996850585938E+0003  -2.80994213867188E+0003  -2.80991430664063E+0003  -2.80988476562500E+0003  -2.80985229492188E+0003  -2.80981811523438E+0003  -2.80978198242188E+0003  -2.80974609375000E+0003  -2.80970825195313E+0003  -2.80967016601563E+0003  -2.80963378906250E+0003  -2.80959643554688E+0003  -2.80956274414063E+0003  -2.80953173828125E+0003  -2.80950415039063E+0003  -2.80948364257813E+0003  -2.80947167968750E+0003  -2.80946728515625E+0003  -2.80947583007813E+0003  -2.80949731445313E+0003  -2.80953027343750E+0003  -2.80957788085938E+0003  -2.80963208007813E+0003  -2.80969335937500E+0003  -2.80975976562500E+0003  -2.80982910156250E+0003  -2.80989550781250E+0003  -2.80996118164063E+0003  -2.81001977539063E+0003  -2.81007104492188E+0003  -2.81011645507813E+0003  -2.81015039062500E+0003  -2.81016918945313E+0003  -2.81017285156250E+0003  -2.81016040039063E+0003  -2.81012597656250E+0003  -2.81007495117188E+0003  -2.81000292968750E+0003  -2.80991503906250E+0003  -2.80981103515625E+0003  -2.80969042968750E+0003  -2.80956030273438E+0003  -2.80941772460938E+0003  -2.80926635742188E+0003  -2.80910717773438E+0003  -2.80894213867188E+0003  -2.80877490234375E+0003  -2.80860864257813E+0003  -2.80844409179688E+0003  -2.80828564453125E+0003  -2.80813623046875E+0003  -2.80799560546875E+0003  -2.80786669921875E+0003  -2.80774877929688E+0003  -2.80763940429688E+0003  -2.80754150390625E+0003  -2.80745117187500E+0003  -2.80736962890625E+0003  -2.80729565429688E+0003  -2.80722973632813E+0003  -2.80716992187500E+0003  -2.80711718750000E+0003  -2.80707177734375E+0003  -2.80703002929688E+0003  -2.80699487304688E+0003  -2.80696459960938E+0003  -2.80693823242188E+0003  -2.80691479492188E+0003  -2.80689599609375E+0003  -2.80688037109375E+0003  -2.80686645507813E+0003  -2.80685400390625E+0003  -2.80684375000000E+0003  -2.80683520507813E+0003  -2.80682592773438E+0003  -2.80681518554688E+0003  -2.80680615234375E+0003  -2.80679370117188E+0003  -2.80678320312500E+0003  -2.80676855468750E+0003  -2.80675341796875E+0003  -2.80673486328125E+0003  -2.80671289062500E+0003  -2.80668652343750E+0003  -2.80665747070313E+0003  -2.80662377929688E+0003  -2.80658740234375E+0003  -2.80654565429688E+0003  -2.80649633789063E+0003  -2.80643261718750E+0003  -2.80636572265625E+0003  -2.80629467773438E+0003  -2.80622045898438E+0003  -2.80614184570313E+0003  -2.80605957031250E+0003  -2.80597363281250E+0003  -2.80588354492188E+0003  -2.80578955078125E+0003  -2.80569165039063E+0003  -2.80557861328125E+0003  -2.80546093750000E+0003  -2.80534155273438E+0003  -2.80522241210938E+0003  -2.80510156250000E+0003  -2.80498632812500E+0003  -2.80487329101563E+0003  -2.80476879882813E+0003  -2.80467065429688E+0003  -2.80457983398438E+0003  -2.80450097656250E+0003  -2.80443286132813E+0003  -2.80438012695313E+0003  -2.80434252929688E+0003  -2.80432104492188E+0003  -2.80432055664063E+0003  -2.80433715820313E+0003  -2.80436962890625E+0003  -2.80441674804688E+0003  -2.80447729492188E+0003  -2.80455297851563E+0003  -2.80463891601563E+0003  -2.80473852539063E+0003  -2.80484594726563E+0003  -2.80496411132813E+0003  -2.80509179687500E+0003  -2.80522656250000E+0003  -2.80536914062500E+0003  -2.80551904296875E+0003  -2.80567407226563E+0003  -2.80583325195313E+0003  -2.80599731445313E+0003  -2.80616479492188E+0003  -2.80633569335938E+0003  -2.80651074218750E+0003  -2.80668823242188E+0003  -2.80686694335938E+0003  -2.80704858398438E+0003  -2.80723046875000E+0003  -2.80741625976563E+0003  -2.80760156250000E+0003  -2.80778881835938E+0003  -2.80797290039063E+0003  -2.80815991210938E+0003  -2.80834375000000E+0003  -2.80852783203125E+0003
  -2.81138159179688E+0003  -2.81114550781250E+0003  -2.81091577148438E+0003  -2.81069287109375E+0003  -2.81047729492188E+0003  -2.81026904296875E+0003  -2.81006835937500E+0003  -2.80987622070313E+0003  -2.80969287109375E+0003  -2.80951879882813E+0003  -2.80935473632813E+0003  -2.80920117187500E+0003  -2.80905932617188E+0003  -2.80892968750000E+0003  -2.80881323242188E+0003  -2.80871069335938E+0003  -2.80862133789063E+0003  -2.80854516601563E+0003  -2.80848120117188E+0003  -2.80842822265625E+0003  -2.80838281250000E+0003  -2.80834082031250E+0003  -2.80829809570313E+0003  -2.80825732421875E+0003  -2.80822680664063E+0003  -2.80823095703125E+0003  -2.80827905273438E+0003  -2.80838500976563E+0003  -2.80856054687500E+0003  -2.80879687500000E+0003  -2.80906884765625E+0003  -2.80943090820313E+0003  -2.80986865234375E+0003  -2.81035986328125E+0003  -2.81088598632813E+0003  -2.81142822265625E+0003  -2.81196752929688E+0003  -2.81249096679688E+0003  -2.81297265625000E+0003  -2.81340356445313E+0003  -2.81377050781250E+0003  -2.81406787109375E+0003  -2.81428442382813E+0003  -2.81440991210938E+0003  -2.81444213867188E+0003  -2.81437622070313E+0003  -2.81421679687500E+0003  -2.81396777343750E+0003  -2.81365429687500E+0003  -2.81328393554688E+0003  -2.81287768554688E+0003  -2.81244946289063E+0003  -2.81201098632813E+0003  -2.81158959960938E+0003  -2.81118701171875E+0003  -2.81081762695313E+0003  -2.81047802734375E+0003  -2.81016992187500E+0003  -2.80988696289063E+0003  -2.80959912109375E+0003  -2.80935278320313E+0003  -2.80914965820313E+0003  -2.80899145507813E+0003  -2.80887451171875E+0003  -2.80879516601563E+0003  -2.80874951171875E+0003  -2.80873388671875E+0003  -2.80874487304688E+0003  -2.80877856445313E+0003  -2.80883056640625E+0003  -2.80889868164063E+0003  -2.80897949218750E+0003  -2.80907104492188E+0003  -2.80917041015625E+0003  -2.80927465820313E+0003  -2.80938232421875E+0003  -2.80948999023438E+0003  -2.80959521484375E+0003  -2.80969726562500E+0003  -2.80977050781250E+0003  -2.80980078125000E+0003  -2.80982519531250E+0003  -2.80984204101563E+0003  -2.80985156250000E+0003  -2.80985668945313E+0003  -2.80985620117188E+0003  -2.80985205078125E+0003  -2.80984301757813E+0003  -2.80982861328125E+0003  -2.80981274414063E+0003  -2.80979199218750E+0003  -2.80976782226563E+0003  -2.80974194335938E+0003  -2.80971411132813E+0003  -2.80968261718750E+0003  -2.80965234375000E+0003  -2.80961914062500E+0003  -2.80958886718750E+0003  -2.80955664062500E+0003  -2.80952758789063E+0003  -2.80949926757813E+0003  -2.80947412109375E+0003  -2.80945239257813E+0003  -2.80943457031250E+0003  -2.80942456054688E+0003  -2.80942041015625E+0003  -2.80942797851563E+0003  -2.80944311523438E+0003  -2.80946850585938E+0003  -2.80950341796875E+0003  -2.80954833984375E+0003  -2.80960205078125E+0003  -2.80966162109375E+0003  -2.80972485351563E+0003  -2.80978808593750E+0003  -2.80985229492188E+0003  -2.80991381835938E+0003  -2.80996923828125E+0003  -2.81001757812500E+0003  -2.81005932617188E+0003  -2.81008959960938E+0003  -2.81010815429688E+0003  -2.81011206054688E+0003  -2.81009912109375E+0003  -2.81006713867188E+0003  -2.81001757812500E+0003  -2.80994970703125E+0003  -2.80986499023438E+0003  -2.80976660156250E+0003  -2.80965527343750E+0003  -2.80953295898438E+0003  -2.80939941406250E+0003  -2.80925732421875E+0003  -2.80910937500000E+0003  -2.80895458984375E+0003  -2.80880004882813E+0003  -2.80864477539063E+0003  -2.80849218750000E+0003  -2.80834497070313E+0003  -2.80820434570313E+0003  -2.80807275390625E+0003  -2.80795141601563E+0003  -2.80783935546875E+0003  -2.80773559570313E+0003  -2.80764062500000E+0003  -2.80755200195313E+0003  -2.80747387695313E+0003  -2.80740136718750E+0003  -2.80733520507813E+0003  -2.80727441406250E+0003  -2.80722167968750E+0003  -2.80717309570313E+0003  -2.80712988281250E+0003  -2.80709277343750E+0003  -2.80705786132813E+0003  -2.80702636718750E+0003  -2.80699975585938E+0003  -2.80697705078125E+0003  -2.80695410156250E+0003  -2.80693725585938E+0003  -2.80691967773438E+0003  -2.80690356445313E+0003  -2.80688818359375E+0003  -2.80687426757813E+0003  -2.80685937500000E+0003  -2.80684399414063E+0003  -2.80682714843750E+0003  -2.80680834960938E+0003  -2.80678955078125E+0003  -2.80676831054688E+0003  -2.80674511718750E+0003  -2.80671752929688E+0003  -2.80668750000000E+0003  -2.80665332031250E+0003  -2.80661816406250E+0003  -2.80657592773438E+0003  -2.80652978515625E+0003  -2.80646972656250E+0003  -2.80640551757813E+0003  -2.80633813476563E+0003  -2.80626757812500E+0003  -2.80619384765625E+0003  -2.80611718750000E+0003  -2.80603735351563E+0003  -2.80595410156250E+0003  -2.80586767578125E+0003  -2.80577783203125E+0003  -2.80568481445313E+0003  -2.80558764648438E+0003  -2.80547851562500E+0003  -2.80536743164063E+0003  -2.80525561523438E+0003  -2.80514575195313E+0003  -2.80504003906250E+0003  -2.80493774414063E+0003  -2.80483984375000E+0003  -2.80475146484375E+0003  -2.80466992187500E+0003  -2.80459790039063E+0003  -2.80453759765625E+0003  -2.80449072265625E+0003  -2.80445996093750E+0003  -2.80444458007813E+0003  -2.80444653320313E+0003  -2.80446459960938E+0003  -2.80449877929688E+0003  -2.80454492187500E+0003  -2.80460644531250E+0003  -2.80467993164063E+0003  -2.80476513671875E+0003  -2.80486157226563E+0003  -2.80496850585938E+0003  -2.80508349609375E+0003  -2.80520727539063E+0003  -2.80534033203125E+0003  -2.80547998046875E+0003  -2.80562304687500E+0003  -2.80577490234375E+0003  -2.80593139648438E+0003  -2.80608984375000E+0003  -2.80625317382813E+0003  -2.80642138671875E+0003  -2.80659155273438E+0003  -2.80676342773438E+0003  -2.80693872070313E+0003  -2.80711572265625E+0003  -2.80729443359375E+0003  -2.80747631835938E+0003  -2.80765600585938E+0003  -2.80783862304688E+0003  -2.80802099609375E+0003  -2.80820288085938E+0003  -2.80838427734375E+0003  -2.80856250000000E+0003
  -2.81118823242188E+0003  -2.81095874023438E+0003  -2.81073608398438E+0003  -2.81052001953125E+0003  -2.81031152343750E+0003  -2.81011035156250E+0003  -2.80991723632813E+0003  -2.80973217773438E+0003  -2.80955590820313E+0003  -2.80938891601563E+0003  -2.80923144531250E+0003  -2.80908471679688E+0003  -2.80894921875000E+0003  -2.80882519531250E+0003  -2.80871386718750E+0003  -2.80861523437500E+0003  -2.80852978515625E+0003  -2.80845629882813E+0003  -2.80839477539063E+0003  -2.80834448242188E+0003  -2.80830273437500E+0003  -2.80826733398438E+0003  -2.80823535156250E+0003  -2.80820947265625E+0003  -2.80819677734375E+0003  -2.80821826171875E+0003  -2.80828149414063E+0003  -2.80839892578125E+0003  -2.80858056640625E+0003  -2.80883764648438E+0003  -2.80912011718750E+0003  -2.80946899414063E+0003  -2.80988549804688E+0003  -2.81035351562500E+0003  -2.81084936523438E+0003  -2.81135864257813E+0003  -2.81186718750000E+0003  -2.81235839843750E+0003  -2.81281005859375E+0003  -2.81321069335938E+0003  -2.81355224609375E+0003  -2.81382958984375E+0003  -2.81403051757813E+0003  -2.81415380859375E+0003  -2.81418969726563E+0003  -2.81413769531250E+0003  -2.81399194335938E+0003  -2.81376513671875E+0003  -2.81347094726563E+0003  -2.81312329101563E+0003  -2.81273706054688E+0003  -2.81232934570313E+0003  -2.81191381835938E+0003  -2.81150390625000E+0003  -2.81111572265625E+0003  -2.81075097656250E+0003  -2.81041357421875E+0003  -2.81010546875000E+0003  -2.80981396484375E+0003  -2.80952050781250E+0003  -2.80926708984375E+0003  -2.80905566406250E+0003  -2.80888769531250E+0003  -2.80876049804688E+0003  -2.80867041015625E+0003  -2.80861425781250E+0003  -2.80858813476563E+0003  -2.80858886718750E+0003  -2.80861279296875E+0003  -2.80865698242188E+0003  -2.80871801757813E+0003  -2.80879272460938E+0003  -2.80887939453125E+0003  -2.80897436523438E+0003  -2.80907543945313E+0003  -2.80918017578125E+0003  -2.80928564453125E+0003  -2.80938916015625E+0003  -2.80948925781250E+0003  -2.80958569335938E+0003  -2.80962597656250E+0003  -2.80965332031250E+0003  -2.80967456054688E+0003  -2.80968945312500E+0003  -2.80969824218750E+0003  -2.80970483398438E+0003  -2.80970483398438E+0003  -2.80970043945313E+0003  -2.80969384765625E+0003  -2.80968188476563E+0003  -2.80966577148438E+0003  -2.80964843750000E+0003  -2.80962622070313E+0003  -2.80960302734375E+0003  -2.80957812500000E+0003  -2.80955249023438E+0003  -2.80952441406250E+0003  -2.80949804687500E+0003  -2.80947143554688E+0003  -2.80944921875000E+0003  -2.80942651367188E+0003  -2.80940893554688E+0003  -2.80939184570313E+0003  -2.80938159179688E+0003  -2.80937670898438E+0003  -2.80937915039063E+0003  -2.80938940429688E+0003  -2.80940771484375E+0003  -2.80943530273438E+0003  -2.80947314453125E+0003  -2.80951831054688E+0003  -2.80956982421875E+0003  -2.80962695312500E+0003  -2.80968774414063E+0003  -2.80974658203125E+0003  -2.80980737304688E+0003  -2.80986376953125E+0003  -2.80991674804688E+0003  -2.80996411132813E+0003  -2.81000219726563E+0003  -2.81003125000000E+0003  -2.81004833984375E+0003  -2.81005249023438E+0003  -2.81003979492188E+0003  -2.81001049804688E+0003  -2.80996264648438E+0003  -2.80989892578125E+0003  -2.80982104492188E+0003  -2.80972851562500E+0003  -2.80962426757813E+0003  -2.80950854492188E+0003  -2.80938403320313E+0003  -2.80925341796875E+0003  -2.80911547851563E+0003  -2.80897363281250E+0003  -2.80883007812500E+0003  -2.80868652343750E+0003  -2.80854492187500E+0003  -2.80840771484375E+0003  -2.80827709960938E+0003  -2.80815405273438E+0003  -2.80803906250000E+0003  -2.80793383789063E+0003  -2.80783496093750E+0003  -2.80774316406250E+0003  -2.80765869140625E+0003  -2.80758178710938E+0003  -2.80751025390625E+0003  -2.80744360351563E+0003  -2.80738354492188E+0003  -2.80732983398438E+0003  -2.80727905273438E+0003  -2.80723266601563E+0003  -2.80719116210938E+0003  -2.80715356445313E+0003  -2.80712133789063E+0003  -2.80709082031250E+0003  -2.80706323242188E+0003  -2.80703637695313E+0003  -2.80701367187500E+0003  -2.80699316406250E+0003  -2.80697216796875E+0003  -2.80695190429688E+0003  -2.80693017578125E+0003  -2.80690991210938E+0003  -2.80688989257813E+0003  -2.80686865234375E+0003  -2.80684594726563E+0003  -2.80682153320313E+0003  -2.80679614257813E+0003  -2.80676611328125E+0003  -2.80673632812500E+0003  -2.80670019531250E+0003  -2.80666381835938E+0003  -2.80662182617188E+0003  -2.80657788085938E+0003  -2.80651831054688E+0003  -2.80645605468750E+0003  -2.80639086914063E+0003  -2.80632348632813E+0003  -2.80625366210938E+0003  -2.80618115234375E+0003  -2.80610595703125E+0003  -2.80602807617188E+0003  -2.80594750976563E+0003  -2.80586450195313E+0003  -2.80577856445313E+0003  -2.80569018554688E+0003  -2.80560009765625E+0003  -2.80550878906250E+0003  -2.80540551757813E+0003  -2.80530297851563E+0003  -2.80520068359375E+0003  -2.80510253906250E+0003  -2.80500805664063E+0003  -2.80491992187500E+0003  -2.80483789062500E+0003  -2.80476562500000E+0003  -2.80470288085938E+0003  -2.80464868164063E+0003  -2.80460839843750E+0003  -2.80458203125000E+0003  -2.80457104492188E+0003  -2.80457641601563E+0003  -2.80459716796875E+0003  -2.80463134765625E+0003  -2.80467895507813E+0003  -2.80474072265625E+0003  -2.80481274414063E+0003  -2.80489721679688E+0003  -2.80499096679688E+0003  -2.80509448242188E+0003  -2.80520727539063E+0003  -2.80533007812500E+0003  -2.80545874023438E+0003  -2.80559472656250E+0003  -2.80573559570313E+0003  -2.80588134765625E+0003  -2.80603442382813E+0003  -2.80618823242188E+0003  -2.80634838867188E+0003  -2.80651220703125E+0003  -2.80667724609375E+0003  -2.80684692382813E+0003  -2.80701586914063E+0003  -2.80719018554688E+0003  -2.80736450195313E+0003  -2.80754150390625E+0003  -2.80771850585938E+0003  -2.80789428710938E+0003  -2.80807250976563E+0003  -2.80825122070313E+0003  -2.80842578125000E+0003  -2.80860229492188E+0003
  -2.81100341796875E+0003  -2.81078002929688E+0003  -2.81056372070313E+0003  -2.81035449218750E+0003  -2.81015234375000E+0003  -2.80995776367188E+0003  -2.80977099609375E+0003  -2.80959252929688E+0003  -2.80942236328125E+0003  -2.80926147460938E+0003  -2.80911035156250E+0003  -2.80896899414063E+0003  -2.80883862304688E+0003  -2.80871948242188E+0003  -2.80861206054688E+0003  -2.80851708984375E+0003  -2.80843383789063E+0003  -2.80836254882813E+0003  -2.80830322265625E+0003  -2.80825488281250E+0003  -2.80821655273438E+0003  -2.80818652343750E+0003  -2.80816381835938E+0003  -2.80815087890625E+0003  -2.80815283203125E+0003  -2.80818896484375E+0003  -2.80826416015625E+0003  -2.80838940429688E+0003  -2.80857373046875E+0003  -2.80882666015625E+0003  -2.80913696289063E+0003  -2.80946875000000E+0003  -2.80986157226563E+0003  -2.81030126953125E+0003  -2.81076708984375E+0003  -2.81124291992188E+0003  -2.81171606445313E+0003  -2.81217358398438E+0003  -2.81259643554688E+0003  -2.81297070312500E+0003  -2.81329467773438E+0003  -2.81355664062500E+0003  -2.81375000000000E+0003  -2.81386962890625E+0003  -2.81391162109375E+0003  -2.81387231445313E+0003  -2.81374511718750E+0003  -2.81354003906250E+0003  -2.81326806640625E+0003  -2.81294506835938E+0003  -2.81258300781250E+0003  -2.81219848632813E+0003  -2.81180346679688E+0003  -2.81141186523438E+0003  -2.81103540039063E+0003  -2.81068115234375E+0003  -2.81034887695313E+0003  -2.81004199218750E+0003  -2.80974365234375E+0003  -2.80944921875000E+0003  -2.80919189453125E+0003  -2.80897534179688E+0003  -2.80880126953125E+0003  -2.80866699218750E+0003  -2.80856933593750E+0003  -2.80850512695313E+0003  -2.80847094726563E+0003  -2.80846362304688E+0003  -2.80848022460938E+0003  -2.80851684570313E+0003  -2.80857128906250E+0003  -2.80864013671875E+0003  -2.80872070312500E+0003  -2.80881079101563E+0003  -2.80890747070313E+0003  -2.80900830078125E+0003  -2.80911010742188E+0003  -2.80921044921875E+0003  -2.80930810546875E+0003  -2.80940283203125E+0003  -2.80947485351563E+0003  -2.80950537109375E+0003  -2.80953198242188E+0003  -2.80955102539063E+0003  -2.80956640625000E+0003  -2.80957568359375E+0003  -2.80958276367188E+0003  -2.80958325195313E+0003  -2.80958154296875E+0003  -2.80957446289063E+0003  -2.80956347656250E+0003  -2.80955200195313E+0003  -2.80953491210938E+0003  -2.80951831054688E+0003  -2.80949926757813E+0003  -2.80947729492188E+0003  -2.80945410156250E+0003  -2.80943481445313E+0003  -2.80941235351563E+0003  -2.80939379882813E+0003  -2.80937524414063E+0003  -2.80936254882813E+0003  -2.80935107421875E+0003  -2.80934472656250E+0003  -2.80934448242188E+0003  -2.80934790039063E+0003  -2.80936010742188E+0003  -2.80938061523438E+0003  -2.80940991210938E+0003  -2.80944702148438E+0003  -2.80949169921875E+0003  -2.80954199218750E+0003  -2.80959619140625E+0003  -2.80965136718750E+0003  -2.80970996093750E+0003  -2.80976684570313E+0003  -2.80982153320313E+0003  -2.80986962890625E+0003  -2.80991455078125E+0003  -2.80995190429688E+0003  -2.80997802734375E+0003  -2.80999438476563E+0003  -2.80999682617188E+0003  -2.80998681640625E+0003  -2.80995947265625E+0003  -2.80991552734375E+0003  -2.80985522460938E+0003  -2.80978295898438E+0003  -2.80969555664063E+0003  -2.80959863281250E+0003  -2.80949169921875E+0003  -2.80937719726563E+0003  -2.80925610351563E+0003  -2.80912915039063E+0003  -2.80899829101563E+0003  -2.80886401367188E+0003  -2.80873144531250E+0003  -2.80860107421875E+0003  -2.80847363281250E+0003  -2.80835205078125E+0003  -2.80823754882813E+0003  -2.80812939453125E+0003  -2.80802807617188E+0003  -2.80793579101563E+0003  -2.80784863281250E+0003  -2.80776684570313E+0003  -2.80769091796875E+0003  -2.80762207031250E+0003  -2.80755566406250E+0003  -2.80749584960938E+0003  -2.80744116210938E+0003  -2.80738964843750E+0003  -2.80734204101563E+0003  -2.80729833984375E+0003  -2.80725805664063E+0003  -2.80722167968750E+0003  -2.80718725585938E+0003  -2.80715551757813E+0003  -2.80712475585938E+0003  -2.80709814453125E+0003  -2.80707226562500E+0003  -2.80704663085938E+0003  -2.80702148437500E+0003  -2.80699707031250E+0003  -2.80697216796875E+0003  -2.80694433593750E+0003  -2.80691992187500E+0003  -2.80689233398438E+0003  -2.80686401367188E+0003  -2.80683251953125E+0003  -2.80679907226563E+0003  -2.80676586914063E+0003  -2.80672558593750E+0003  -2.80668457031250E+0003  -2.80663891601563E+0003  -2.80658007812500E+0003  -2.80651879882813E+0003  -2.80645556640625E+0003  -2.80639038085938E+0003  -2.80632299804688E+0003  -2.80625341796875E+0003  -2.80618188476563E+0003  -2.80610815429688E+0003  -2.80603271484375E+0003  -2.80595458984375E+0003  -2.80587475585938E+0003  -2.80579248046875E+0003  -2.80570874023438E+0003  -2.80562329101563E+0003  -2.80553833007813E+0003  -2.80545385742188E+0003  -2.80536108398438E+0003  -2.80526684570313E+0003  -2.80517529296875E+0003  -2.80508935546875E+0003  -2.80500976562500E+0003  -2.80493408203125E+0003  -2.80486767578125E+0003  -2.80481201171875E+0003  -2.80476562500000E+0003  -2.80473168945313E+0003  -2.80471093750000E+0003  -2.80470263671875E+0003  -2.80471020507813E+0003  -2.80473339843750E+0003  -2.80476879882813E+0003  -2.80481762695313E+0003  -2.80487792968750E+0003  -2.80494995117188E+0003  -2.80503295898438E+0003  -2.80512402343750E+0003  -2.80522778320313E+0003  -2.80533764648438E+0003  -2.80545727539063E+0003  -2.80558105468750E+0003  -2.80571313476563E+0003  -2.80585180664063E+0003  -2.80599365234375E+0003  -2.80614160156250E+0003  -2.80629345703125E+0003  -2.80644921875000E+0003  -2.80660791015625E+0003  -2.80677075195313E+0003  -2.80693310546875E+0003  -2.80710034179688E+0003  -2.80727026367188E+0003  -2.80743945312500E+0003  -2.80761132812500E+0003  -2.80778515625000E+0003  -2.80795751953125E+0003  -2.80813183593750E+0003  -2.80830371093750E+0003  -2.80847485351563E+0003  -2.80864770507813E+0003
  -2.81082641601563E+0003  -2.81060888671875E+0003  -2.81039843750000E+0003  -2.81019506835938E+0003  -2.80999877929688E+0003  -2.80981005859375E+0003  -2.80962915039063E+0003  -2.80945629882813E+0003  -2.80929199218750E+0003  -2.80913647460938E+0003  -2.80899047851563E+0003  -2.80885400390625E+0003  -2.80872827148438E+0003  -2.80861279296875E+0003  -2.80850903320313E+0003  -2.80841674804688E+0003  -2.80833593750000E+0003  -2.80826660156250E+0003  -2.80820898437500E+0003  -2.80816308593750E+0003  -2.80812792968750E+0003  -2.80810327148438E+0003  -2.80808813476563E+0003  -2.80808569335938E+0003  -2.80809960937500E+0003  -2.80814648437500E+0003  -2.80823120117188E+0003  -2.80836108398438E+0003  -2.80854516601563E+0003  -2.80879150390625E+0003  -2.80910766601563E+0003  -2.80944409179688E+0003  -2.80981225585938E+0003  -2.81022167968750E+0003  -2.81065527343750E+0003  -2.81109863281250E+0003  -2.81153857421875E+0003  -2.81196264648438E+0003  -2.81235620117188E+0003  -2.81270849609375E+0003  -2.81301245117188E+0003  -2.81326245117188E+0003  -2.81344848632813E+0003  -2.81357055664063E+0003  -2.81362060546875E+0003  -2.81359155273438E+0003  -2.81348095703125E+0003  -2.81329589843750E+0003  -2.81304687500000E+0003  -2.81274829101563E+0003  -2.81241235351563E+0003  -2.81205322265625E+0003  -2.81167993164063E+0003  -2.81130810546875E+0003  -2.81094897460938E+0003  -2.81060644531250E+0003  -2.81028198242188E+0003  -2.80998095703125E+0003  -2.80967333984375E+0003  -2.80938061523438E+0003  -2.80912353515625E+0003  -2.80890551757813E+0003  -2.80872851562500E+0003  -2.80859057617188E+0003  -2.80848803710938E+0003  -2.80841870117188E+0003  -2.80837866210938E+0003  -2.80836523437500E+0003  -2.80837573242188E+0003  -2.80840625000000E+0003  -2.80845434570313E+0003  -2.80851757812500E+0003  -2.80859301757813E+0003  -2.80867822265625E+0003  -2.80877001953125E+0003  -2.80886645507813E+0003  -2.80896484375000E+0003  -2.80906176757813E+0003  -2.80915649414063E+0003  -2.80924877929688E+0003  -2.80933789062500E+0003  -2.80938818359375E+0003  -2.80941625976563E+0003  -2.80944189453125E+0003  -2.80945849609375E+0003  -2.80947338867188E+0003  -2.80948437500000E+0003  -2.80949194335938E+0003  -2.80949291992188E+0003  -2.80949243164063E+0003  -2.80948828125000E+0003  -2.80947949218750E+0003  -2.80946923828125E+0003  -2.80945605468750E+0003  -2.80944213867188E+0003  -2.80942651367188E+0003  -2.80940795898438E+0003  -2.80939184570313E+0003  -2.80937402343750E+0003  -2.80935815429688E+0003  -2.80934570312500E+0003  -2.80933569335938E+0003  -2.80932714843750E+0003  -2.80932324218750E+0003  -2.80932568359375E+0003  -2.80933227539063E+0003  -2.80934570312500E+0003  -2.80936621093750E+0003  -2.80939453125000E+0003  -2.80943164062500E+0003  -2.80947412109375E+0003  -2.80952148437500E+0003  -2.80957324218750E+0003  -2.80962817382813E+0003  -2.80968164062500E+0003  -2.80973583984375E+0003  -2.80978662109375E+0003  -2.80983374023438E+0003  -2.80987573242188E+0003  -2.80990991210938E+0003  -2.80993481445313E+0003  -2.80994995117188E+0003  -2.80995166015625E+0003  -2.80994140625000E+0003  -2.80991333007813E+0003  -2.80987231445313E+0003  -2.80981738281250E+0003  -2.80974975585938E+0003  -2.80967187500000E+0003  -2.80958227539063E+0003  -2.80948388671875E+0003  -2.80937548828125E+0003  -2.80926586914063E+0003  -2.80914746093750E+0003  -2.80902832031250E+0003  -2.80890625000000E+0003  -2.80878271484375E+0003  -2.80866210937500E+0003  -2.80854443359375E+0003  -2.80843017578125E+0003  -2.80832397460938E+0003  -2.80822290039063E+0003  -2.80812670898438E+0003  -2.80803906250000E+0003  -2.80795629882813E+0003  -2.80787622070313E+0003  -2.80780322265625E+0003  -2.80773535156250E+0003  -2.80767163085938E+0003  -2.80761108398438E+0003  -2.80755444335938E+0003  -2.80750219726563E+0003  -2.80745410156250E+0003  -2.80740747070313E+0003  -2.80736669921875E+0003  -2.80732714843750E+0003  -2.80728833007813E+0003  -2.80725415039063E+0003  -2.80722045898438E+0003  -2.80718969726563E+0003  -2.80715820312500E+0003  -2.80712915039063E+0003  -2.80709936523438E+0003  -2.80706933593750E+0003  -2.80704052734375E+0003  -2.80701123046875E+0003  -2.80697949218750E+0003  -2.80694848632813E+0003  -2.80691650390625E+0003  -2.80688183593750E+0003  -2.80684472656250E+0003  -2.80680517578125E+0003  -2.80676513671875E+0003  -2.80671386718750E+0003  -2.80665527343750E+0003  -2.80659472656250E+0003  -2.80653271484375E+0003  -2.80646899414063E+0003  -2.80640356445313E+0003  -2.80633666992188E+0003  -2.80626782226563E+0003  -2.80619750976563E+0003  -2.80612524414063E+0003  -2.80605175781250E+0003  -2.80597631835938E+0003  -2.80589941406250E+0003  -2.80582104492188E+0003  -2.80574121093750E+0003  -2.80566088867188E+0003  -2.80558056640625E+0003  -2.80550170898438E+0003  -2.80542529296875E+0003  -2.80534326171875E+0003  -2.80526098632813E+0003  -2.80518115234375E+0003  -2.80510815429688E+0003  -2.80504052734375E+0003  -2.80498046875000E+0003  -2.80493139648438E+0003  -2.80489135742188E+0003  -2.80486132812500E+0003  -2.80484643554688E+0003  -2.80484252929688E+0003  -2.80485253906250E+0003  -2.80487719726563E+0003  -2.80491308593750E+0003  -2.80496215820313E+0003  -2.80502197265625E+0003  -2.80509399414063E+0003  -2.80517626953125E+0003  -2.80526562500000E+0003  -2.80536669921875E+0003  -2.80547290039063E+0003  -2.80558813476563E+0003  -2.80571044921875E+0003  -2.80583862304688E+0003  -2.80597290039063E+0003  -2.80611230468750E+0003  -2.80625512695313E+0003  -2.80640283203125E+0003  -2.80655419921875E+0003  -2.80670751953125E+0003  -2.80686669921875E+0003  -2.80702612304688E+0003  -2.80718945312500E+0003  -2.80735253906250E+0003  -2.80752075195313E+0003  -2.80768725585938E+0003  -2.80785595703125E+0003  -2.80802539062500E+0003  -2.80819262695313E+0003  -2.80836108398438E+0003  -2.80852807617188E+0003  -2.80869531250000E+0003
  -2.81065698242188E+0003  -2.81044482421875E+0003  -2.81023974609375E+0003  -2.81004174804688E+0003  -2.80985058593750E+0003  -2.80966723632813E+0003  -2.80949121093750E+0003  -2.80932348632813E+0003  -2.80916430664063E+0003  -2.80901367187500E+0003  -2.80887207031250E+0003  -2.80874023437500E+0003  -2.80861816406250E+0003  -2.80850634765625E+0003  -2.80840527343750E+0003  -2.80831542968750E+0003  -2.80823681640625E+0003  -2.80816967773438E+0003  -2.80811425781250E+0003  -2.80807055664063E+0003  -2.80803881835938E+0003  -2.80801879882813E+0003  -2.80801049804688E+0003  -2.80801660156250E+0003  -2.80803955078125E+0003  -2.80809472656250E+0003  -2.80818505859375E+0003  -2.80831762695313E+0003  -2.80849877929688E+0003  -2.80873657226563E+0003  -2.80903735351563E+0003  -2.80939819335938E+0003  -2.80974267578125E+0003  -2.81012329101563E+0003  -2.81052587890625E+0003  -2.81093652343750E+0003  -2.81134521484375E+0003  -2.81173754882813E+0003  -2.81210327148438E+0003  -2.81243334960938E+0003  -2.81271875000000E+0003  -2.81295605468750E+0003  -2.81313891601563E+0003  -2.81326025390625E+0003  -2.81331396484375E+0003  -2.81329492187500E+0003  -2.81319995117188E+0003  -2.81303417968750E+0003  -2.81280786132813E+0003  -2.81253491210938E+0003  -2.81222436523438E+0003  -2.81189086914063E+0003  -2.81154394531250E+0003  -2.81119433593750E+0003  -2.81085278320313E+0003  -2.81052392578125E+0003  -2.81021313476563E+0003  -2.80991796875000E+0003  -2.80960131835938E+0003  -2.80931420898438E+0003  -2.80906054687500E+0003  -2.80884448242188E+0003  -2.80866772460938E+0003  -2.80852856445313E+0003  -2.80842407226563E+0003  -2.80835156250000E+0003  -2.80830786132813E+0003  -2.80829052734375E+0003  -2.80829589843750E+0003  -2.80832177734375E+0003  -2.80836523437500E+0003  -2.80842333984375E+0003  -2.80849438476563E+0003  -2.80857470703125E+0003  -2.80866210937500E+0003  -2.80875463867188E+0003  -2.80884887695313E+0003  -2.80894238281250E+0003  -2.80903417968750E+0003  -2.80912377929688E+0003  -2.80921069335938E+0003  -2.80929467773438E+0003  -2.80933105468750E+0003  -2.80935620117188E+0003  -2.80937915039063E+0003  -2.80939697265625E+0003  -2.80941113281250E+0003  -2.80942260742188E+0003  -2.80942993164063E+0003  -2.80943286132813E+0003  -2.80943310546875E+0003  -2.80942993164063E+0003  -2.80942431640625E+0003  -2.80941601562500E+0003  -2.80940625000000E+0003  -2.80939233398438E+0003  -2.80937988281250E+0003  -2.80936767578125E+0003  -2.80935449218750E+0003  -2.80934228515625E+0003  -2.80933203125000E+0003  -2.80932470703125E+0003  -2.80932006835938E+0003  -2.80931835937500E+0003  -2.80932226562500E+0003  -2.80932983398438E+0003  -2.80934448242188E+0003  -2.80936499023438E+0003  -2.80939233398438E+0003  -2.80942822265625E+0003  -2.80946850585938E+0003  -2.80951391601563E+0003  -2.80956347656250E+0003  -2.80961303710938E+0003  -2.80966528320313E+0003  -2.80971484375000E+0003  -2.80976367187500E+0003  -2.80980639648438E+0003  -2.80984497070313E+0003  -2.80987622070313E+0003  -2.80990014648438E+0003  -2.80991381835938E+0003  -2.80991601562500E+0003  -2.80990576171875E+0003  -2.80988110351563E+0003  -2.80984326171875E+0003  -2.80979223632813E+0003  -2.80972924804688E+0003  -2.80965771484375E+0003  -2.80957397460938E+0003  -2.80948266601563E+0003  -2.80938525390625E+0003  -2.80928271484375E+0003  -2.80917480468750E+0003  -2.80906494140625E+0003  -2.80895190429688E+0003  -2.80883911132813E+0003  -2.80872753906250E+0003  -2.80861816406250E+0003  -2.80851318359375E+0003  -2.80841210937500E+0003  -2.80831835937500E+0003  -2.80822827148438E+0003  -2.80814428710938E+0003  -2.80806323242188E+0003  -2.80798876953125E+0003  -2.80791796875000E+0003  -2.80785180664063E+0003  -2.80778759765625E+0003  -2.80772949218750E+0003  -2.80767260742188E+0003  -2.80761914062500E+0003  -2.80756909179688E+0003  -2.80752050781250E+0003  -2.80747705078125E+0003  -2.80743579101563E+0003  -2.80739550781250E+0003  -2.80735791015625E+0003  -2.80732055664063E+0003  -2.80728564453125E+0003  -2.80725146484375E+0003  -2.80721923828125E+0003  -2.80718579101563E+0003  -2.80715307617188E+0003  -2.80711962890625E+0003  -2.80708618164063E+0003  -2.80705126953125E+0003  -2.80701562500000E+0003  -2.80697998046875E+0003  -2.80694091796875E+0003  -2.80690087890625E+0003  -2.80685913085938E+0003  -2.80680224609375E+0003  -2.80674414062500E+0003  -2.80668432617188E+0003  -2.80662304687500E+0003  -2.80656030273438E+0003  -2.80649609375000E+0003  -2.80643090820313E+0003  -2.80636401367188E+0003  -2.80629614257813E+0003  -2.80622705078125E+0003  -2.80615673828125E+0003  -2.80608496093750E+0003  -2.80601220703125E+0003  -2.80593823242188E+0003  -2.80586352539063E+0003  -2.80578784179688E+0003  -2.80571166992188E+0003  -2.80563647460938E+0003  -2.80556298828125E+0003  -2.80549169921875E+0003  -2.80542407226563E+0003  -2.80535742187500E+0003  -2.80528515625000E+0003  -2.80521777343750E+0003  -2.80515649414063E+0003  -2.80510302734375E+0003  -2.80505981445313E+0003  -2.80502319335938E+0003  -2.80500122070313E+0003  -2.80498754882813E+0003  -2.80498803710938E+0003  -2.80499951171875E+0003  -2.80502661132813E+0003  -2.80506518554688E+0003  -2.80511279296875E+0003  -2.80517358398438E+0003  -2.80524365234375E+0003  -2.80532348632813E+0003  -2.80541186523438E+0003  -2.80550830078125E+0003  -2.80561328125000E+0003  -2.80572583007813E+0003  -2.80584545898438E+0003  -2.80596948242188E+0003  -2.80609887695313E+0003  -2.80623535156250E+0003  -2.80637451171875E+0003  -2.80651782226563E+0003  -2.80666528320313E+0003  -2.80681518554688E+0003  -2.80696899414063E+0003  -2.80712329101563E+0003  -2.80728320312500E+0003  -2.80744311523438E+0003  -2.80760400390625E+0003  -2.80776757812500E+0003  -2.80793164062500E+0003  -2.80809570312500E+0003  -2.80826049804688E+0003  -2.80842358398438E+0003  -2.80858764648438E+0003  -2.80875024414063E+0003
  -2.81049511718750E+0003  -2.81028808593750E+0003  -2.81008764648438E+0003  -2.80989428710938E+0003  -2.80970800781250E+0003  -2.80952954101563E+0003  -2.80935815429688E+0003  -2.80919506835938E+0003  -2.80904003906250E+0003  -2.80889331054688E+0003  -2.80875585937500E+0003  -2.80862744140625E+0003  -2.80850878906250E+0003  -2.80840014648438E+0003  -2.80830175781250E+0003  -2.80821435546875E+0003  -2.80813769531250E+0003  -2.80807250976563E+0003  -2.80801928710938E+0003  -2.80797802734375E+0003  -2.80794946289063E+0003  -2.80793359375000E+0003  -2.80793090820313E+0003  -2.80794335937500E+0003  -2.80797314453125E+0003  -2.80803369140625E+0003  -2.80812744140625E+0003  -2.80825976562500E+0003  -2.80843701171875E+0003  -2.80866503906250E+0003  -2.80894873046875E+0003  -2.80928686523438E+0003  -2.80965625000000E+0003  -2.81000805664063E+0003  -2.81037963867188E+0003  -2.81075952148438E+0003  -2.81113720703125E+0003  -2.81150048828125E+0003  -2.81184008789063E+0003  -2.81214990234375E+0003  -2.81241967773438E+0003  -2.81264355468750E+0003  -2.81281884765625E+0003  -2.81293774414063E+0003  -2.81299633789063E+0003  -2.81298657226563E+0003  -2.81290527343750E+0003  -2.81275854492188E+0003  -2.81255541992188E+0003  -2.81230761718750E+0003  -2.81202465820313E+0003  -2.81171704101563E+0003  -2.81139648437500E+0003  -2.81106958007813E+0003  -2.81074804687500E+0003  -2.81043750000000E+0003  -2.81013989257813E+0003  -2.80983374023438E+0003  -2.80952856445313E+0003  -2.80925024414063E+0003  -2.80900317382813E+0003  -2.80879150390625E+0003  -2.80861791992188E+0003  -2.80848071289063E+0003  -2.80837646484375E+0003  -2.80830297851563E+0003  -2.80825732421875E+0003  -2.80823706054688E+0003  -2.80823950195313E+0003  -2.80826171875000E+0003  -2.80830126953125E+0003  -2.80835546875000E+0003  -2.80842187500000E+0003  -2.80849780273438E+0003  -2.80858154296875E+0003  -2.80866992187500E+0003  -2.80876025390625E+0003  -2.80885058593750E+0003  -2.80893920898438E+0003  -2.80902587890625E+0003  -2.80911083984375E+0003  -2.80919311523438E+0003  -2.80926977539063E+0003  -2.80930004882813E+0003  -2.80932568359375E+0003  -2.80934594726563E+0003  -2.80936352539063E+0003  -2.80937841796875E+0003  -2.80938940429688E+0003  -2.80939501953125E+0003  -2.80939965820313E+0003  -2.80940185546875E+0003  -2.80939965820313E+0003  -2.80939501953125E+0003  -2.80938818359375E+0003  -2.80938037109375E+0003  -2.80937109375000E+0003  -2.80935986328125E+0003  -2.80935107421875E+0003  -2.80934130859375E+0003  -2.80933569335938E+0003  -2.80933056640625E+0003  -2.80932739257813E+0003  -2.80932788085938E+0003  -2.80933203125000E+0003  -2.80934155273438E+0003  -2.80935522460938E+0003  -2.80937622070313E+0003  -2.80940307617188E+0003  -2.80943652343750E+0003  -2.80947509765625E+0003  -2.80951782226563E+0003  -2.80956469726563E+0003  -2.80960986328125E+0003  -2.80965771484375E+0003  -2.80970410156250E+0003  -2.80974877929688E+0003  -2.80978979492188E+0003  -2.80982495117188E+0003  -2.80985375976563E+0003  -2.80987500000000E+0003  -2.80988720703125E+0003  -2.80988989257813E+0003  -2.80988012695313E+0003  -2.80985888671875E+0003  -2.80982446289063E+0003  -2.80977636718750E+0003  -2.80971899414063E+0003  -2.80965112304688E+0003  -2.80957373046875E+0003  -2.80949291992188E+0003  -2.80940209960938E+0003  -2.80930786132813E+0003  -2.80920898437500E+0003  -2.80910742187500E+0003  -2.80900341796875E+0003  -2.80890039062500E+0003  -2.80879785156250E+0003  -2.80869604492188E+0003  -2.80859790039063E+0003  -2.80850512695313E+0003  -2.80841699218750E+0003  -2.80833276367188E+0003  -2.80825244140625E+0003  -2.80817504882813E+0003  -2.80810205078125E+0003  -2.80803393554688E+0003  -2.80796801757813E+0003  -2.80790698242188E+0003  -2.80784765625000E+0003  -2.80779199218750E+0003  -2.80773779296875E+0003  -2.80768750000000E+0003  -2.80763842773438E+0003  -2.80759179687500E+0003  -2.80754882812500E+0003  -2.80750634765625E+0003  -2.80746655273438E+0003  -2.80742749023438E+0003  -2.80738916015625E+0003  -2.80735131835938E+0003  -2.80731591796875E+0003  -2.80727880859375E+0003  -2.80724291992188E+0003  -2.80720678710938E+0003  -2.80716967773438E+0003  -2.80713134765625E+0003  -2.80709326171875E+0003  -2.80705297851563E+0003  -2.80701220703125E+0003  -2.80695996093750E+0003  -2.80690332031250E+0003  -2.80684521484375E+0003  -2.80678540039063E+0003  -2.80672485351563E+0003  -2.80666308593750E+0003  -2.80660034179688E+0003  -2.80653613281250E+0003  -2.80647119140625E+0003  -2.80640478515625E+0003  -2.80633789062500E+0003  -2.80627001953125E+0003  -2.80620141601563E+0003  -2.80613159179688E+0003  -2.80606127929688E+0003  -2.80599072265625E+0003  -2.80591918945313E+0003  -2.80584741210938E+0003  -2.80577563476563E+0003  -2.80570483398438E+0003  -2.80563623046875E+0003  -2.80557031250000E+0003  -2.80550732421875E+0003  -2.80544897460938E+0003  -2.80539575195313E+0003  -2.80533618164063E+0003  -2.80528125000000E+0003  -2.80523461914063E+0003  -2.80519555664063E+0003  -2.80516503906250E+0003  -2.80514404296875E+0003  -2.80513525390625E+0003  -2.80513793945313E+0003  -2.80515405273438E+0003  -2.80518115234375E+0003  -2.80521801757813E+0003  -2.80526806640625E+0003  -2.80532763671875E+0003  -2.80539648437500E+0003  -2.80547558593750E+0003  -2.80556079101563E+0003  -2.80565600585938E+0003  -2.80575927734375E+0003  -2.80586791992188E+0003  -2.80598217773438E+0003  -2.80610424804688E+0003  -2.80623168945313E+0003  -2.80636230468750E+0003  -2.80649853515625E+0003  -2.80663793945313E+0003  -2.80678027343750E+0003  -2.80692626953125E+0003  -2.80707519531250E+0003  -2.80722656250000E+0003  -2.80738159179688E+0003  -2.80753637695313E+0003  -2.80769335937500E+0003  -2.80785302734375E+0003  -2.80801147460938E+0003  -2.80817187500000E+0003  -2.80833129882813E+0003  -2.80849023437500E+0003  -2.80865087890625E+0003  -2.80881005859375E+0003
  -2.81034082031250E+0003  -2.81013842773438E+0003  -2.80994262695313E+0003  -2.80975366210938E+0003  -2.80957177734375E+0003  -2.80939697265625E+0003  -2.80923022460938E+0003  -2.80907080078125E+0003  -2.80891943359375E+0003  -2.80877661132813E+0003  -2.80864233398438E+0003  -2.80851708984375E+0003  -2.80840161132813E+0003  -2.80829541015625E+0003  -2.80819946289063E+0003  -2.80811401367188E+0003  -2.80803930664063E+0003  -2.80797583007813E+0003  -2.80792456054688E+0003  -2.80788574218750E+0003  -2.80785961914063E+0003  -2.80784716796875E+0003  -2.80784887695313E+0003  -2.80786645507813E+0003  -2.80790112304688E+0003  -2.80796508789063E+0003  -2.80806005859375E+0003  -2.80819067382813E+0003  -2.80836181640625E+0003  -2.80857861328125E+0003  -2.80884570312500E+0003  -2.80916040039063E+0003  -2.80951342773438E+0003  -2.80988085937500E+0003  -2.81022338867188E+0003  -2.81057250976563E+0003  -2.81092016601563E+0003  -2.81125561523438E+0003  -2.81157031250000E+0003  -2.81185766601563E+0003  -2.81211132812500E+0003  -2.81232397460938E+0003  -2.81249243164063E+0003  -2.81261035156250E+0003  -2.81267016601563E+0003  -2.81266967773438E+0003  -2.81260278320313E+0003  -2.81247363281250E+0003  -2.81229370117188E+0003  -2.81207299804688E+0003  -2.81181640625000E+0003  -2.81153540039063E+0003  -2.81124023437500E+0003  -2.81093872070313E+0003  -2.81063940429688E+0003  -2.81034692382813E+0003  -2.81005786132813E+0003  -2.80974682617188E+0003  -2.80945532226563E+0003  -2.80918872070313E+0003  -2.80895117187500E+0003  -2.80874682617188E+0003  -2.80857885742188E+0003  -2.80844531250000E+0003  -2.80834350585938E+0003  -2.80827099609375E+0003  -2.80822558593750E+0003  -2.80820385742188E+0003  -2.80820434570313E+0003  -2.80822412109375E+0003  -2.80826049804688E+0003  -2.80831127929688E+0003  -2.80837402343750E+0003  -2.80844653320313E+0003  -2.80852563476563E+0003  -2.80861035156250E+0003  -2.80869702148438E+0003  -2.80878393554688E+0003  -2.80886938476563E+0003  -2.80895336914063E+0003  -2.80903564453125E+0003  -2.80911547851563E+0003  -2.80919311523438E+0003  -2.80926489257813E+0003  -2.80929296875000E+0003  -2.80931689453125E+0003  -2.80933715820313E+0003  -2.80935327148438E+0003  -2.80936962890625E+0003  -2.80937963867188E+0003  -2.80938720703125E+0003  -2.80939111328125E+0003  -2.80939282226563E+0003  -2.80939184570313E+0003  -2.80938867187500E+0003  -2.80938330078125E+0003  -2.80937695312500E+0003  -2.80937060546875E+0003  -2.80936303710938E+0003  -2.80935717773438E+0003  -2.80935253906250E+0003  -2.80934863281250E+0003  -2.80934936523438E+0003  -2.80935131835938E+0003  -2.80935571289063E+0003  -2.80936523437500E+0003  -2.80937939453125E+0003  -2.80939892578125E+0003  -2.80942431640625E+0003  -2.80945605468750E+0003  -2.80949243164063E+0003  -2.80953173828125E+0003  -2.80957421875000E+0003  -2.80961743164063E+0003  -2.80966113281250E+0003  -2.80970361328125E+0003  -2.80974365234375E+0003  -2.80978173828125E+0003  -2.80981372070313E+0003  -2.80984008789063E+0003  -2.80986035156250E+0003  -2.80987158203125E+0003  -2.80987329101563E+0003  -2.80986499023438E+0003  -2.80984301757813E+0003  -2.80981176757813E+0003  -2.80976879882813E+0003  -2.80971459960938E+0003  -2.80965380859375E+0003  -2.80958496093750E+0003  -2.80950805664063E+0003  -2.80942602539063E+0003  -2.80933886718750E+0003  -2.80924780273438E+0003  -2.80915576171875E+0003  -2.80906127929688E+0003  -2.80896557617188E+0003  -2.80887231445313E+0003  -2.80877832031250E+0003  -2.80868750000000E+0003  -2.80860009765625E+0003  -2.80851831054688E+0003  -2.80843725585938E+0003  -2.80836035156250E+0003  -2.80828930664063E+0003  -2.80821826171875E+0003  -2.80815209960938E+0003  -2.80808837890625E+0003  -2.80802709960938E+0003  -2.80796875000000E+0003  -2.80791381835938E+0003  -2.80785913085938E+0003  -2.80780810546875E+0003  -2.80775976562500E+0003  -2.80771166992188E+0003  -2.80766601562500E+0003  -2.80762207031250E+0003  -2.80757861328125E+0003  -2.80753808593750E+0003  -2.80749707031250E+0003  -2.80745800781250E+0003  -2.80741870117188E+0003  -2.80737841796875E+0003  -2.80733911132813E+0003  -2.80730053710938E+0003  -2.80726049804688E+0003  -2.80721972656250E+0003  -2.80717968750000E+0003  -2.80712817382813E+0003  -2.80707202148438E+0003  -2.80701538085938E+0003  -2.80695727539063E+0003  -2.80689819335938E+0003  -2.80683789062500E+0003  -2.80677661132813E+0003  -2.80671459960938E+0003  -2.80665161132813E+0003  -2.80658764648438E+0003  -2.80652294921875E+0003  -2.80645776367188E+0003  -2.80639184570313E+0003  -2.80632543945313E+0003  -2.80625830078125E+0003  -2.80619091796875E+0003  -2.80612329101563E+0003  -2.80605541992188E+0003  -2.80598730468750E+0003  -2.80591894531250E+0003  -2.80585156250000E+0003  -2.80578515625000E+0003  -2.80572119140625E+0003  -2.80565942382813E+0003  -2.80560180664063E+0003  -2.80554833984375E+0003  -2.80550000000000E+0003  -2.80545751953125E+0003  -2.80541601562500E+0003  -2.80537280273438E+0003  -2.80533813476563E+0003  -2.80531103515625E+0003  -2.80529711914063E+0003  -2.80528930664063E+0003  -2.80529516601563E+0003  -2.80531250000000E+0003  -2.80534106445313E+0003  -2.80537988281250E+0003  -2.80542822265625E+0003  -2.80548779296875E+0003  -2.80555590820313E+0003  -2.80563305664063E+0003  -2.80571606445313E+0003  -2.80580761718750E+0003  -2.80590966796875E+0003  -2.80601391601563E+0003  -2.80612548828125E+0003  -2.80624414062500E+0003  -2.80636669921875E+0003  -2.80649462890625E+0003  -2.80662670898438E+0003  -2.80676318359375E+0003  -2.80690039062500E+0003  -2.80704296875000E+0003  -2.80718652343750E+0003  -2.80733276367188E+0003  -2.80748291015625E+0003  -2.80763354492188E+0003  -2.80778686523438E+0003  -2.80794213867188E+0003  -2.80809643554688E+0003  -2.80825048828125E+0003  -2.80840673828125E+0003  -2.80856274414063E+0003  -2.80871728515625E+0003  -2.80887182617188E+0003
  -2.81019409179688E+0003  -2.80999609375000E+0003  -2.80980444335938E+0003  -2.80961938476563E+0003  -2.80944165039063E+0003  -2.80927075195313E+0003  -2.80910717773438E+0003  -2.80895117187500E+0003  -2.80880346679688E+0003  -2.80866381835938E+0003  -2.80853247070313E+0003  -2.80840991210938E+0003  -2.80829687500000E+0003  -2.80819311523438E+0003  -2.80809912109375E+0003  -2.80801538085938E+0003  -2.80794238281250E+0003  -2.80788037109375E+0003  -2.80783056640625E+0003  -2.80779345703125E+0003  -2.80776977539063E+0003  -2.80776025390625E+0003  -2.80776513671875E+0003  -2.80778613281250E+0003  -2.80782763671875E+0003  -2.80789013671875E+0003  -2.80798461914063E+0003  -2.80811181640625E+0003  -2.80827587890625E+0003  -2.80848095703125E+0003  -2.80873046875000E+0003  -2.80902246093750E+0003  -2.80934838867188E+0003  -2.80969873046875E+0003  -2.81005761718750E+0003  -2.81037890625000E+0003  -2.81069921875000E+0003  -2.81100756835938E+0003  -2.81129736328125E+0003  -2.81156445312500E+0003  -2.81180029296875E+0003  -2.81200268554688E+0003  -2.81216381835938E+0003  -2.81227783203125E+0003  -2.81234130859375E+0003  -2.81234887695313E+0003  -2.81229565429688E+0003  -2.81218579101563E+0003  -2.81202856445313E+0003  -2.81182983398438E+0003  -2.81160034179688E+0003  -2.81134692382813E+0003  -2.81107861328125E+0003  -2.81080297851563E+0003  -2.81052636718750E+0003  -2.81025415039063E+0003  -2.80995068359375E+0003  -2.80965771484375E+0003  -2.80938305664063E+0003  -2.80913037109375E+0003  -2.80890454101563E+0003  -2.80870996093750E+0003  -2.80854980468750E+0003  -2.80842211914063E+0003  -2.80832421875000E+0003  -2.80825463867188E+0003  -2.80821069335938E+0003  -2.80818920898438E+0003  -2.80818896484375E+0003  -2.80820703125000E+0003  -2.80824096679688E+0003  -2.80828881835938E+0003  -2.80834838867188E+0003  -2.80841748046875E+0003  -2.80849316406250E+0003  -2.80857348632813E+0003  -2.80865698242188E+0003  -2.80874023437500E+0003  -2.80882250976563E+0003  -2.80890380859375E+0003  -2.80898339843750E+0003  -2.80906127929688E+0003  -2.80913647460938E+0003  -2.80920971679688E+0003  -2.80928002929688E+0003  -2.80930590820313E+0003  -2.80933032226563E+0003  -2.80934912109375E+0003  -2.80936645507813E+0003  -2.80938061523438E+0003  -2.80939086914063E+0003  -2.80939916992188E+0003  -2.80940332031250E+0003  -2.80940527343750E+0003  -2.80940551757813E+0003  -2.80940136718750E+0003  -2.80939892578125E+0003  -2.80939501953125E+0003  -2.80939086914063E+0003  -2.80938598632813E+0003  -2.80938305664063E+0003  -2.80938354492188E+0003  -2.80938281250000E+0003  -2.80938671875000E+0003  -2.80939184570313E+0003  -2.80940234375000E+0003  -2.80941601562500E+0003  -2.80943359375000E+0003  -2.80945776367188E+0003  -2.80948706054688E+0003  -2.80952050781250E+0003  -2.80955615234375E+0003  -2.80959521484375E+0003  -2.80963500976563E+0003  -2.80967553710938E+0003  -2.80971289062500E+0003  -2.80975048828125E+0003  -2.80978344726563E+0003  -2.80981298828125E+0003  -2.80983593750000E+0003  -2.80985400390625E+0003  -2.80986596679688E+0003  -2.80986743164063E+0003  -2.80985864257813E+0003  -2.80984033203125E+0003  -2.80981005859375E+0003  -2.80977050781250E+0003  -2.80972143554688E+0003  -2.80966479492188E+0003  -2.80960058593750E+0003  -2.80953198242188E+0003  -2.80945654296875E+0003  -2.80937890625000E+0003  -2.80929516601563E+0003  -2.80920947265625E+0003  -2.80912182617188E+0003  -2.80903540039063E+0003  -2.80894970703125E+0003  -2.80886108398438E+0003  -2.80877807617188E+0003  -2.80869775390625E+0003  -2.80861914062500E+0003  -2.80854443359375E+0003  -2.80847143554688E+0003  -2.80840209960938E+0003  -2.80833642578125E+0003  -2.80827099609375E+0003  -2.80820971679688E+0003  -2.80814916992188E+0003  -2.80809179687500E+0003  -2.80803613281250E+0003  -2.80798364257813E+0003  -2.80793139648438E+0003  -2.80787988281250E+0003  -2.80783276367188E+0003  -2.80778540039063E+0003  -2.80774047851563E+0003  -2.80769628906250E+0003  -2.80765234375000E+0003  -2.80760937500000E+0003  -2.80756835937500E+0003  -2.80752612304688E+0003  -2.80748413085938E+0003  -2.80744287109375E+0003  -2.80740063476563E+0003  -2.80735888671875E+0003  -2.80730664062500E+0003  -2.80725073242188E+0003  -2.80719433593750E+0003  -2.80713745117188E+0003  -2.80707958984375E+0003  -2.80702075195313E+0003  -2.80696069335938E+0003  -2.80690014648438E+0003  -2.80683862304688E+0003  -2.80677636718750E+0003  -2.80671362304688E+0003  -2.80665014648438E+0003  -2.80658593750000E+0003  -2.80652172851563E+0003  -2.80645703125000E+0003  -2.80639208984375E+0003  -2.80632690429688E+0003  -2.80626171875000E+0003  -2.80619653320313E+0003  -2.80613159179688E+0003  -2.80606640625000E+0003  -2.80600170898438E+0003  -2.80593798828125E+0003  -2.80587597656250E+0003  -2.80581616210938E+0003  -2.80575903320313E+0003  -2.80570581054688E+0003  -2.80565698242188E+0003  -2.80561328125000E+0003  -2.80557519531250E+0003  -2.80554321289063E+0003  -2.80551855468750E+0003  -2.80548754882813E+0003  -2.80546508789063E+0003  -2.80545214843750E+0003  -2.80544946289063E+0003  -2.80545751953125E+0003  -2.80547583007813E+0003  -2.80550610351563E+0003  -2.80554443359375E+0003  -2.80559399414063E+0003  -2.80565087890625E+0003  -2.80571752929688E+0003  -2.80579272460938E+0003  -2.80587500000000E+0003  -2.80596679687500E+0003  -2.80606298828125E+0003  -2.80616406250000E+0003  -2.80627416992188E+0003  -2.80638867187500E+0003  -2.80650659179688E+0003  -2.80663183593750E+0003  -2.80675927734375E+0003  -2.80689086914063E+0003  -2.80702416992188E+0003  -2.80716235351563E+0003  -2.80730200195313E+0003  -2.80744335937500E+0003  -2.80758886718750E+0003  -2.80773559570313E+0003  -2.80788403320313E+0003  -2.80803442382813E+0003  -2.80818359375000E+0003  -2.80833496093750E+0003  -2.80848730468750E+0003  -2.80863745117188E+0003  -2.80878759765625E+0003  -2.80893725585938E+0003
  -2.81005517578125E+0003  -2.80986132812500E+0003  -2.80967358398438E+0003  -2.80949218750000E+0003  -2.80931762695313E+0003  -2.80915014648438E+0003  -2.80898974609375E+0003  -2.80883715820313E+0003  -2.80869213867188E+0003  -2.80855517578125E+0003  -2.80842675781250E+0003  -2.80830664062500E+0003  -2.80819555664063E+0003  -2.80809399414063E+0003  -2.80800146484375E+0003  -2.80791943359375E+0003  -2.80784765625000E+0003  -2.80778710937500E+0003  -2.80773876953125E+0003  -2.80770312500000E+0003  -2.80768115234375E+0003  -2.80767309570313E+0003  -2.80767993164063E+0003  -2.80770361328125E+0003  -2.80774707031250E+0003  -2.80781005859375E+0003  -2.80790307617188E+0003  -2.80802563476563E+0003  -2.80818188476563E+0003  -2.80837451171875E+0003  -2.80860668945313E+0003  -2.80887622070313E+0003  -2.80917626953125E+0003  -2.80949755859375E+0003  -2.80983276367188E+0003  -2.81017260742188E+0003  -2.81047534179688E+0003  -2.81075805664063E+0003  -2.81102636718750E+0003  -2.81127270507813E+0003  -2.81149267578125E+0003  -2.81168383789063E+0003  -2.81183520507813E+0003  -2.81194824218750E+0003  -2.81201367187500E+0003  -2.81202832031250E+0003  -2.81198828125000E+0003  -2.81189624023438E+0003  -2.81175952148438E+0003  -2.81158593750000E+0003  -2.81138305664063E+0003  -2.81115747070313E+0003  -2.81091552734375E+0003  -2.81066503906250E+0003  -2.81041333007813E+0003  -2.81012402343750E+0003  -2.80984082031250E+0003  -2.80956860351563E+0003  -2.80931201171875E+0003  -2.80907543945313E+0003  -2.80886328125000E+0003  -2.80868041992188E+0003  -2.80853002929688E+0003  -2.80840991210938E+0003  -2.80831811523438E+0003  -2.80825219726563E+0003  -2.80821093750000E+0003  -2.80819116210938E+0003  -2.80819091796875E+0003  -2.80820800781250E+0003  -2.80824072265625E+0003  -2.80828637695313E+0003  -2.80834301757813E+0003  -2.80840893554688E+0003  -2.80848095703125E+0003  -2.80855810546875E+0003  -2.80863769531250E+0003  -2.80871801757813E+0003  -2.80879711914063E+0003  -2.80887548828125E+0003  -2.80895239257813E+0003  -2.80902734375000E+0003  -2.80910083007813E+0003  -2.80917211914063E+0003  -2.80924072265625E+0003  -2.80930712890625E+0003  -2.80934179687500E+0003  -2.80936401367188E+0003  -2.80938305664063E+0003  -2.80939843750000E+0003  -2.80941210937500E+0003  -2.80942089843750E+0003  -2.80942968750000E+0003  -2.80943261718750E+0003  -2.80943579101563E+0003  -2.80943603515625E+0003  -2.80943530273438E+0003  -2.80943310546875E+0003  -2.80943017578125E+0003  -2.80942773437500E+0003  -2.80942871093750E+0003  -2.80942773437500E+0003  -2.80942944335938E+0003  -2.80943286132813E+0003  -2.80943896484375E+0003  -2.80944946289063E+0003  -2.80946118164063E+0003  -2.80947827148438E+0003  -2.80949951171875E+0003  -2.80952685546875E+0003  -2.80955761718750E+0003  -2.80958984375000E+0003  -2.80962622070313E+0003  -2.80966040039063E+0003  -2.80969653320313E+0003  -2.80973193359375E+0003  -2.80976562500000E+0003  -2.80979467773438E+0003  -2.80982177734375E+0003  -2.80984375000000E+0003  -2.80985766601563E+0003  -2.80986816406250E+0003  -2.80986938476563E+0003  -2.80986083984375E+0003  -2.80984497070313E+0003  -2.80981591796875E+0003  -2.80978076171875E+0003  -2.80973657226563E+0003  -2.80968530273438E+0003  -2.80962768554688E+0003  -2.80956420898438E+0003  -2.80949487304688E+0003  -2.80942260742188E+0003  -2.80934838867188E+0003  -2.80927026367188E+0003  -2.80918994140625E+0003  -2.80911035156250E+0003  -2.80902978515625E+0003  -2.80894946289063E+0003  -2.80887304687500E+0003  -2.80879687500000E+0003  -2.80872314453125E+0003  -2.80865185546875E+0003  -2.80858374023438E+0003  -2.80851782226563E+0003  -2.80845385742188E+0003  -2.80839208984375E+0003  -2.80833129882813E+0003  -2.80827368164063E+0003  -2.80821630859375E+0003  -2.80816137695313E+0003  -2.80810742187500E+0003  -2.80805590820313E+0003  -2.80800659179688E+0003  -2.80795727539063E+0003  -2.80790966796875E+0003  -2.80786230468750E+0003  -2.80781640625000E+0003  -2.80777148437500E+0003  -2.80772607421875E+0003  -2.80768408203125E+0003  -2.80763964843750E+0003  -2.80759497070313E+0003  -2.80755175781250E+0003  -2.80749536132813E+0003  -2.80743920898438E+0003  -2.80738256835938E+0003  -2.80732568359375E+0003  -2.80726806640625E+0003  -2.80721044921875E+0003  -2.80715185546875E+0003  -2.80709252929688E+0003  -2.80703222656250E+0003  -2.80697143554688E+0003  -2.80690966796875E+0003  -2.80684765625000E+0003  -2.80678515625000E+0003  -2.80672241210938E+0003  -2.80665917968750E+0003  -2.80659594726563E+0003  -2.80653271484375E+0003  -2.80646948242188E+0003  -2.80640576171875E+0003  -2.80634277343750E+0003  -2.80628027343750E+0003  -2.80621801757813E+0003  -2.80615576171875E+0003  -2.80609448242188E+0003  -2.80603466796875E+0003  -2.80597631835938E+0003  -2.80592089843750E+0003  -2.80586791992188E+0003  -2.80581909179688E+0003  -2.80577441406250E+0003  -2.80573461914063E+0003  -2.80570068359375E+0003  -2.80567285156250E+0003  -2.80565185546875E+0003  -2.80563842773438E+0003  -2.80562695312500E+0003  -2.80561694335938E+0003  -2.80561450195313E+0003  -2.80562426757813E+0003  -2.80564501953125E+0003  -2.80567553710938E+0003  -2.80571362304688E+0003  -2.80576318359375E+0003  -2.80581982421875E+0003  -2.80588549804688E+0003  -2.80595751953125E+0003  -2.80603784179688E+0003  -2.80612426757813E+0003  -2.80621826171875E+0003  -2.80632031250000E+0003  -2.80642456054688E+0003  -2.80653564453125E+0003  -2.80665087890625E+0003  -2.80677075195313E+0003  -2.80689501953125E+0003  -2.80702124023438E+0003  -2.80715136718750E+0003  -2.80728466796875E+0003  -2.80741992187500E+0003  -2.80755957031250E+0003  -2.80769848632813E+0003  -2.80784155273438E+0003  -2.80798510742188E+0003  -2.80813012695313E+0003  -2.80827587890625E+0003  -2.80842236328125E+0003  -2.80856762695313E+0003  -2.80871508789063E+0003  -2.80886181640625E+0003  -2.80900634765625E+0003
  -2.80992431640625E+0003  -2.80973388671875E+0003  -2.80954980468750E+0003  -2.80937182617188E+0003  -2.80920043945313E+0003  -2.80903613281250E+0003  -2.80887890625000E+0003  -2.80872851562500E+0003  -2.80858642578125E+0003  -2.80845190429688E+0003  -2.80832568359375E+0003  -2.80820751953125E+0003  -2.80809863281250E+0003  -2.80799853515625E+0003  -2.80790771484375E+0003  -2.80782690429688E+0003  -2.80775634765625E+0003  -2.80769726562500E+0003  -2.80764990234375E+0003  -2.80761547851563E+0003  -2.80759448242188E+0003  -2.80758764648438E+0003  -2.80759594726563E+0003  -2.80762084960938E+0003  -2.80766479492188E+0003  -2.80773046875000E+0003  -2.80781738281250E+0003  -2.80793505859375E+0003  -2.80808227539063E+0003  -2.80826220703125E+0003  -2.80847753906250E+0003  -2.80872583007813E+0003  -2.80900024414063E+0003  -2.80929443359375E+0003  -2.80960083007813E+0003  -2.80991210937500E+0003  -2.81022119140625E+0003  -2.81051464843750E+0003  -2.81076000976563E+0003  -2.81098852539063E+0003  -2.81119067382813E+0003  -2.81137109375000E+0003  -2.81151660156250E+0003  -2.81162548828125E+0003  -2.81169360351563E+0003  -2.81171386718750E+0003  -2.81168627929688E+0003  -2.81161083984375E+0003  -2.81149609375000E+0003  -2.81134521484375E+0003  -2.81116601562500E+0003  -2.81096704101563E+0003  -2.81075073242188E+0003  -2.81051782226563E+0003  -2.81025366210938E+0003  -2.80998950195313E+0003  -2.80972998046875E+0003  -2.80947973632813E+0003  -2.80924267578125E+0003  -2.80902392578125E+0003  -2.80882763671875E+0003  -2.80865820312500E+0003  -2.80851879882813E+0003  -2.80840771484375E+0003  -2.80832275390625E+0003  -2.80826269531250E+0003  -2.80822460937500E+0003  -2.80820751953125E+0003  -2.80820849609375E+0003  -2.80822583007813E+0003  -2.80825732421875E+0003  -2.80830151367188E+0003  -2.80835571289063E+0003  -2.80841870117188E+0003  -2.80848779296875E+0003  -2.80856152343750E+0003  -2.80863793945313E+0003  -2.80871459960938E+0003  -2.80879077148438E+0003  -2.80886596679688E+0003  -2.80894042968750E+0003  -2.80901293945313E+0003  -2.80908422851563E+0003  -2.80915307617188E+0003  -2.80922045898438E+0003  -2.80928466796875E+0003  -2.80934667968750E+0003  -2.80939453125000E+0003  -2.80941528320313E+0003  -2.80943286132813E+0003  -2.80944726562500E+0003  -2.80945971679688E+0003  -2.80947021484375E+0003  -2.80947509765625E+0003  -2.80948120117188E+0003  -2.80948022460938E+0003  -2.80948266601563E+0003  -2.80948266601563E+0003  -2.80948339843750E+0003  -2.80948071289063E+0003  -2.80948217773438E+0003  -2.80948388671875E+0003  -2.80948608398438E+0003  -2.80948999023438E+0003  -2.80949682617188E+0003  -2.80950561523438E+0003  -2.80951757812500E+0003  -2.80953173828125E+0003  -2.80955200195313E+0003  -2.80957641601563E+0003  -2.80960375976563E+0003  -2.80963354492188E+0003  -2.80966577148438E+0003  -2.80969750976563E+0003  -2.80972998046875E+0003  -2.80976098632813E+0003  -2.80978881835938E+0003  -2.80981616210938E+0003  -2.80983886718750E+0003  -2.80985888671875E+0003  -2.80987133789063E+0003  -2.80987939453125E+0003  -2.80988085937500E+0003  -2.80987133789063E+0003  -2.80985693359375E+0003  -2.80983203125000E+0003  -2.80979882812500E+0003  -2.80976000976563E+0003  -2.80971240234375E+0003  -2.80966088867188E+0003  -2.80960327148438E+0003  -2.80953930664063E+0003  -2.80947485351563E+0003  -2.80940625000000E+0003  -2.80933349609375E+0003  -2.80926147460938E+0003  -2.80918872070313E+0003  -2.80911450195313E+0003  -2.80904028320313E+0003  -2.80896777343750E+0003  -2.80889721679688E+0003  -2.80882958984375E+0003  -2.80876220703125E+0003  -2.80869824218750E+0003  -2.80863500976563E+0003  -2.80857250976563E+0003  -2.80851269531250E+0003  -2.80845532226563E+0003  -2.80839794921875E+0003  -2.80834179687500E+0003  -2.80828759765625E+0003  -2.80823535156250E+0003  -2.80818286132813E+0003  -2.80813354492188E+0003  -2.80808276367188E+0003  -2.80803540039063E+0003  -2.80798608398438E+0003  -2.80793994140625E+0003  -2.80789355468750E+0003  -2.80784790039063E+0003  -2.80780249023438E+0003  -2.80775097656250E+0003  -2.80769335937500E+0003  -2.80763623046875E+0003  -2.80757910156250E+0003  -2.80752172851563E+0003  -2.80746459960938E+0003  -2.80740698242188E+0003  -2.80734887695313E+0003  -2.80729052734375E+0003  -2.80723144531250E+0003  -2.80717187500000E+0003  -2.80711157226563E+0003  -2.80705078125000E+0003  -2.80698950195313E+0003  -2.80692749023438E+0003  -2.80686572265625E+0003  -2.80680371093750E+0003  -2.80674169921875E+0003  -2.80667944335938E+0003  -2.80661743164063E+0003  -2.80655566406250E+0003  -2.80649438476563E+0003  -2.80643359375000E+0003  -2.80637304687500E+0003  -2.80631372070313E+0003  -2.80625463867188E+0003  -2.80619677734375E+0003  -2.80614038085938E+0003  -2.80608569335938E+0003  -2.80603369140625E+0003  -2.80598510742188E+0003  -2.80594018554688E+0003  -2.80589941406250E+0003  -2.80586376953125E+0003  -2.80583349609375E+0003  -2.80580932617188E+0003  -2.80579150390625E+0003  -2.80578125000000E+0003  -2.80577880859375E+0003  -2.80578320312500E+0003  -2.80578613281250E+0003  -2.80579638671875E+0003  -2.80581689453125E+0003  -2.80584838867188E+0003  -2.80588696289063E+0003  -2.80593505859375E+0003  -2.80599194335938E+0003  -2.80605419921875E+0003  -2.80612622070313E+0003  -2.80620385742188E+0003  -2.80628808593750E+0003  -2.80637963867188E+0003  -2.80647631835938E+0003  -2.80657836914063E+0003  -2.80668603515625E+0003  -2.80679687500000E+0003  -2.80691381835938E+0003  -2.80703173828125E+0003  -2.80715551757813E+0003  -2.80728198242188E+0003  -2.80741088867188E+0003  -2.80754296875000E+0003  -2.80767553710938E+0003  -2.80781152343750E+0003  -2.80794995117188E+0003  -2.80808837890625E+0003  -2.80822924804688E+0003  -2.80837036132813E+0003  -2.80851196289063E+0003  -2.80865307617188E+0003  -2.80879663085938E+0003  -2.80893774414063E+0003  -2.80908007812500E+0003
  -2.80980078125000E+0003  -2.80961401367188E+0003  -2.80943334960938E+0003  -2.80925854492188E+0003  -2.80909008789063E+0003  -2.80892871093750E+0003  -2.80877392578125E+0003  -2.80862622070313E+0003  -2.80848632812500E+0003  -2.80835400390625E+0003  -2.80822973632813E+0003  -2.80811376953125E+0003  -2.80800659179688E+0003  -2.80790795898438E+0003  -2.80781884765625E+0003  -2.80773925781250E+0003  -2.80766992187500E+0003  -2.80761157226563E+0003  -2.80756518554688E+0003  -2.80753173828125E+0003  -2.80751123046875E+0003  -2.80750537109375E+0003  -2.80751416015625E+0003  -2.80753955078125E+0003  -2.80758300781250E+0003  -2.80764721679688E+0003  -2.80773339843750E+0003  -2.80784179687500E+0003  -2.80798022460938E+0003  -2.80814770507813E+0003  -2.80834594726563E+0003  -2.80857373046875E+0003  -2.80882470703125E+0003  -2.80909301757813E+0003  -2.80937231445313E+0003  -2.80965625000000E+0003  -2.80993896484375E+0003  -2.81021411132813E+0003  -2.81047607421875E+0003  -2.81071435546875E+0003  -2.81090527343750E+0003  -2.81107177734375E+0003  -2.81121020507813E+0003  -2.81131494140625E+0003  -2.81138330078125E+0003  -2.81141113281250E+0003  -2.81139331054688E+0003  -2.81133422851563E+0003  -2.81123681640625E+0003  -2.81110839843750E+0003  -2.81095507812500E+0003  -2.81077807617188E+0003  -2.81056127929688E+0003  -2.81033007812500E+0003  -2.81009326171875E+0003  -2.80985498046875E+0003  -2.80962011718750E+0003  -2.80939257812500E+0003  -2.80917651367188E+0003  -2.80897656250000E+0003  -2.80879736328125E+0003  -2.80864257812500E+0003  -2.80851538085938E+0003  -2.80841455078125E+0003  -2.80833789062500E+0003  -2.80828417968750E+0003  -2.80825146484375E+0003  -2.80823706054688E+0003  -2.80823974609375E+0003  -2.80825781250000E+0003  -2.80828906250000E+0003  -2.80833178710938E+0003  -2.80838452148438E+0003  -2.80844458007813E+0003  -2.80851098632813E+0003  -2.80858178710938E+0003  -2.80865454101563E+0003  -2.80872802734375E+0003  -2.80880151367188E+0003  -2.80887377929688E+0003  -2.80894506835938E+0003  -2.80901538085938E+0003  -2.80908422851563E+0003  -2.80915087890625E+0003  -2.80921606445313E+0003  -2.80927929687500E+0003  -2.80933959960938E+0003  -2.80939721679688E+0003  -2.80945190429688E+0003  -2.80947973632813E+0003  -2.80949658203125E+0003  -2.80951025390625E+0003  -2.80952001953125E+0003  -2.80952929687500E+0003  -2.80953613281250E+0003  -2.80953906250000E+0003  -2.80954199218750E+0003  -2.80954296875000E+0003  -2.80954443359375E+0003  -2.80954565429688E+0003  -2.80954687500000E+0003  -2.80954931640625E+0003  -2.80955249023438E+0003  -2.80955541992188E+0003  -2.80956201171875E+0003  -2.80957177734375E+0003  -2.80958129882813E+0003  -2.80959643554688E+0003  -2.80961352539063E+0003  -2.80963427734375E+0003  -2.80965844726563E+0003  -2.80968676757813E+0003  -2.80971459960938E+0003  -2.80974194335938E+0003  -2.80977001953125E+0003  -2.80979760742188E+0003  -2.80982519531250E+0003  -2.80984667968750E+0003  -2.80986596679688E+0003  -2.80988403320313E+0003  -2.80989550781250E+0003  -2.80990185546875E+0003  -2.80990209960938E+0003  -2.80989379882813E+0003  -2.80987890625000E+0003  -2.80985742187500E+0003  -2.80982641601563E+0003  -2.80978955078125E+0003  -2.80974853515625E+0003  -2.80970068359375E+0003  -2.80964672851563E+0003  -2.80959033203125E+0003  -2.80953076171875E+0003  -2.80946875000000E+0003  -2.80940234375000E+0003  -2.80933691406250E+0003  -2.80926879882813E+0003  -2.80920141601563E+0003  -2.80913330078125E+0003  -2.80906542968750E+0003  -2.80900097656250E+0003  -2.80893579101563E+0003  -2.80887353515625E+0003  -2.80881079101563E+0003  -2.80875122070313E+0003  -2.80869213867188E+0003  -2.80863378906250E+0003  -2.80857690429688E+0003  -2.80852172851563E+0003  -2.80846777343750E+0003  -2.80841479492188E+0003  -2.80836181640625E+0003  -2.80831103515625E+0003  -2.80826171875000E+0003  -2.80821044921875E+0003  -2.80816333007813E+0003  -2.80811474609375E+0003  -2.80806567382813E+0003  -2.80801635742188E+0003  -2.80795751953125E+0003  -2.80789916992188E+0003  -2.80784082031250E+0003  -2.80778295898438E+0003  -2.80772534179688E+0003  -2.80766772460938E+0003  -2.80760986328125E+0003  -2.80755200195313E+0003  -2.80749414062500E+0003  -2.80743579101563E+0003  -2.80737695312500E+0003  -2.80731811523438E+0003  -2.80725830078125E+0003  -2.80719824218750E+0003  -2.80713745117188E+0003  -2.80707641601563E+0003  -2.80701538085938E+0003  -2.80695410156250E+0003  -2.80689306640625E+0003  -2.80683203125000E+0003  -2.80677124023438E+0003  -2.80671093750000E+0003  -2.80665063476563E+0003  -2.80659130859375E+0003  -2.80653271484375E+0003  -2.80647485351563E+0003  -2.80641796875000E+0003  -2.80636157226563E+0003  -2.80630688476563E+0003  -2.80625366210938E+0003  -2.80620312500000E+0003  -2.80615454101563E+0003  -2.80610937500000E+0003  -2.80606835937500E+0003  -2.80603149414063E+0003  -2.80599926757813E+0003  -2.80597265625000E+0003  -2.80595141601563E+0003  -2.80593701171875E+0003  -2.80592968750000E+0003  -2.80592968750000E+0003  -2.80593774414063E+0003  -2.80595434570313E+0003  -2.80597045898438E+0003  -2.80599291992188E+0003  -2.80602416992188E+0003  -2.80606152343750E+0003  -2.80610913085938E+0003  -2.80616503906250E+0003  -2.80622705078125E+0003  -2.80629589843750E+0003  -2.80637280273438E+0003  -2.80645434570313E+0003  -2.80654223632813E+0003  -2.80663647460938E+0003  -2.80673510742188E+0003  -2.80683959960938E+0003  -2.80694604492188E+0003  -2.80705786132813E+0003  -2.80717285156250E+0003  -2.80729174804688E+0003  -2.80741381835938E+0003  -2.80753881835938E+0003  -2.80766625976563E+0003  -2.80779541015625E+0003  -2.80792700195313E+0003  -2.80805932617188E+0003  -2.80819409179688E+0003  -2.80832934570313E+0003  -2.80846606445313E+0003  -2.80860449218750E+0003  -2.80874194335938E+0003  -2.80887963867188E+0003  -2.80901757812500E+0003  -2.80915502929688E+0003
  -2.80968530273438E+0003  -2.80950195312500E+0003  -2.80932421875000E+0003  -2.80915283203125E+0003  -2.80898730468750E+0003  -2.80882812500000E+0003  -2.80867578125000E+0003  -2.80853076171875E+0003  -2.80839282226563E+0003  -2.80826245117188E+0003  -2.80814013671875E+0003  -2.80802563476563E+0003  -2.80792016601563E+0003  -2.80782324218750E+0003  -2.80773535156250E+0003  -2.80765698242188E+0003  -2.80758886718750E+0003  -2.80753149414063E+0003  -2.80748608398438E+0003  -2.80745312500000E+0003  -2.80743334960938E+0003  -2.80742724609375E+0003  -2.80743627929688E+0003  -2.80746118164063E+0003  -2.80750341796875E+0003  -2.80756494140625E+0003  -2.80764721679688E+0003  -2.80774902343750E+0003  -2.80787817382813E+0003  -2.80803295898438E+0003  -2.80821533203125E+0003  -2.80842382812500E+0003  -2.80865234375000E+0003  -2.80889672851563E+0003  -2.80915112304688E+0003  -2.80940991210938E+0003  -2.80966821289063E+0003  -2.80992016601563E+0003  -2.81016088867188E+0003  -2.81038549804688E+0003  -2.81058959960938E+0003  -2.81076855468750E+0003  -2.81091845703125E+0003  -2.81102124023438E+0003  -2.81108984375000E+0003  -2.81112353515625E+0003  -2.81111547851563E+0003  -2.81106835937500E+0003  -2.81098925781250E+0003  -2.81086718750000E+0003  -2.81071459960938E+0003  -2.81053979492188E+0003  -2.81034814453125E+0003  -2.81014477539063E+0003  -2.80993481445313E+0003  -2.80972265625000E+0003  -2.80951245117188E+0003  -2.80930810546875E+0003  -2.80911376953125E+0003  -2.80893383789063E+0003  -2.80877246093750E+0003  -2.80863354492188E+0003  -2.80851977539063E+0003  -2.80842968750000E+0003  -2.80836254882813E+0003  -2.80831567382813E+0003  -2.80828833007813E+0003  -2.80827758789063E+0003  -2.80828295898438E+0003  -2.80830200195313E+0003  -2.80833349609375E+0003  -2.80837548828125E+0003  -2.80842675781250E+0003  -2.80848486328125E+0003  -2.80854858398438E+0003  -2.80861645507813E+0003  -2.80868627929688E+0003  -2.80875659179688E+0003  -2.80882690429688E+0003  -2.80889648437500E+0003  -2.80896508789063E+0003  -2.80903295898438E+0003  -2.80909912109375E+0003  -2.80916406250000E+0003  -2.80922705078125E+0003  -2.80928808593750E+0003  -2.80934667968750E+0003  -2.80940307617188E+0003  -2.80945654296875E+0003  -2.80950732421875E+0003  -2.80955493164063E+0003  -2.80957104492188E+0003  -2.80958300781250E+0003  -2.80959423828125E+0003  -2.80960131835938E+0003  -2.80960595703125E+0003  -2.80961132812500E+0003  -2.80961279296875E+0003  -2.80961499023438E+0003  -2.80961767578125E+0003  -2.80961987304688E+0003  -2.80962255859375E+0003  -2.80962548828125E+0003  -2.80962890625000E+0003  -2.80963549804688E+0003  -2.80964306640625E+0003  -2.80965356445313E+0003  -2.80966601562500E+0003  -2.80968139648438E+0003  -2.80970141601563E+0003  -2.80972094726563E+0003  -2.80974511718750E+0003  -2.80976977539063E+0003  -2.80979589843750E+0003  -2.80982080078125E+0003  -2.80984375000000E+0003  -2.80986669921875E+0003  -2.80988598632813E+0003  -2.80990332031250E+0003  -2.80991796875000E+0003  -2.80992822265625E+0003  -2.80993188476563E+0003  -2.80993188476563E+0003  -2.80992529296875E+0003  -2.80991015625000E+0003  -2.80989038085938E+0003  -2.80986303710938E+0003  -2.80982885742188E+0003  -2.80978979492188E+0003  -2.80974707031250E+0003  -2.80969995117188E+0003  -2.80964794921875E+0003  -2.80959252929688E+0003  -2.80953515625000E+0003  -2.80947558593750E+0003  -2.80941577148438E+0003  -2.80935375976563E+0003  -2.80929052734375E+0003  -2.80922802734375E+0003  -2.80916625976563E+0003  -2.80910375976563E+0003  -2.80904418945313E+0003  -2.80898461914063E+0003  -2.80892602539063E+0003  -2.80886865234375E+0003  -2.80881201171875E+0003  -2.80875683593750E+0003  -2.80870288085938E+0003  -2.80864794921875E+0003  -2.80859423828125E+0003  -2.80854248046875E+0003  -2.80849145507813E+0003  -2.80843969726563E+0003  -2.80838989257813E+0003  -2.80834106445313E+0003  -2.80829003906250E+0003  -2.80822949218750E+0003  -2.80816992187500E+0003  -2.80811035156250E+0003  -2.80805151367188E+0003  -2.80799291992188E+0003  -2.80793457031250E+0003  -2.80787646484375E+0003  -2.80781835937500E+0003  -2.80776049804688E+0003  -2.80770239257813E+0003  -2.80764453125000E+0003  -2.80758618164063E+0003  -2.80752783203125E+0003  -2.80746923828125E+0003  -2.80741015625000E+0003  -2.80735083007813E+0003  -2.80729101562500E+0003  -2.80723071289063E+0003  -2.80717041015625E+0003  -2.80711010742188E+0003  -2.80704980468750E+0003  -2.80698974609375E+0003  -2.80692968750000E+0003  -2.80687060546875E+0003  -2.80681127929688E+0003  -2.80675341796875E+0003  -2.80669580078125E+0003  -2.80663916015625E+0003  -2.80658374023438E+0003  -2.80652929687500E+0003  -2.80647607421875E+0003  -2.80642431640625E+0003  -2.80637451171875E+0003  -2.80632690429688E+0003  -2.80628198242188E+0003  -2.80624047851563E+0003  -2.80620288085938E+0003  -2.80616918945313E+0003  -2.80614062500000E+0003  -2.80611694335938E+0003  -2.80609887695313E+0003  -2.80608740234375E+0003  -2.80608251953125E+0003  -2.80608496093750E+0003  -2.80609472656250E+0003  -2.80611279296875E+0003  -2.80613940429688E+0003  -2.80617163085938E+0003  -2.80620263671875E+0003  -2.80624121093750E+0003  -2.80628808593750E+0003  -2.80634106445313E+0003  -2.80640234375000E+0003  -2.80646923828125E+0003  -2.80654248046875E+0003  -2.80662158203125E+0003  -2.80670703125000E+0003  -2.80679809570313E+0003  -2.80689331054688E+0003  -2.80699340820313E+0003  -2.80709863281250E+0003  -2.80720581054688E+0003  -2.80731689453125E+0003  -2.80743041992188E+0003  -2.80754931640625E+0003  -2.80766918945313E+0003  -2.80779223632813E+0003  -2.80791796875000E+0003  -2.80804467773438E+0003  -2.80817089843750E+0003  -2.80830322265625E+0003  -2.80843432617188E+0003  -2.80856591796875E+0003  -2.80869970703125E+0003  -2.80883251953125E+0003  -2.80896655273438E+0003  -2.80909985351563E+0003  -2.80923486328125E+0003
  -2.80957763671875E+0003  -2.80939746093750E+0003  -2.80922314453125E+0003  -2.80905444335938E+0003  -2.80889160156250E+0003  -2.80873486328125E+0003  -2.80858496093750E+0003  -2.80844213867188E+0003  -2.80830615234375E+0003  -2.80817773437500E+0003  -2.80805712890625E+0003  -2.80794458007813E+0003  -2.80784033203125E+0003  -2.80774487304688E+0003  -2.80765820312500E+0003  -2.80758105468750E+0003  -2.80751391601563E+0003  -2.80745776367188E+0003  -2.80741284179688E+0003  -2.80738061523438E+0003  -2.80736083984375E+0003  -2.80735498046875E+0003  -2.80736352539063E+0003  -2.80738720703125E+0003  -2.80742773437500E+0003  -2.80748583984375E+0003  -2.80756323242188E+0003  -2.80766137695313E+0003  -2.80777832031250E+0003  -2.80792114257813E+0003  -2.80808813476563E+0003  -2.80827832031250E+0003  -2.80848657226563E+0003  -2.80870849609375E+0003  -2.80893969726563E+0003  -2.80917529296875E+0003  -2.80941088867188E+0003  -2.80964135742188E+0003  -2.80986279296875E+0003  -2.81007006835938E+0003  -2.81026000976563E+0003  -2.81042773437500E+0003  -2.81056982421875E+0003  -2.81068212890625E+0003  -2.81076074218750E+0003  -2.81080151367188E+0003  -2.81080126953125E+0003  -2.81076171875000E+0003  -2.81068798828125E+0003  -2.81058398437500E+0003  -2.81045556640625E+0003  -2.81030615234375E+0003  -2.81014086914063E+0003  -2.80996386718750E+0003  -2.80978027343750E+0003  -2.80959399414063E+0003  -2.80940844726563E+0003  -2.80922753906250E+0003  -2.80905566406250E+0003  -2.80889624023438E+0003  -2.80875317382813E+0003  -2.80863061523438E+0003  -2.80853076171875E+0003  -2.80845263671875E+0003  -2.80839477539063E+0003  -2.80835571289063E+0003  -2.80833422851563E+0003  -2.80832812500000E+0003  -2.80833642578125E+0003  -2.80835742187500E+0003  -2.80838916015625E+0003  -2.80843090820313E+0003  -2.80848071289063E+0003  -2.80853710937500E+0003  -2.80859838867188E+0003  -2.80866357421875E+0003  -2.80873071289063E+0003  -2.80879833984375E+0003  -2.80886572265625E+0003  -2.80893237304688E+0003  -2.80899853515625E+0003  -2.80906372070313E+0003  -2.80912744140625E+0003  -2.80918994140625E+0003  -2.80925073242188E+0003  -2.80931005859375E+0003  -2.80936669921875E+0003  -2.80942163085938E+0003  -2.80947363281250E+0003  -2.80952343750000E+0003  -2.80956982421875E+0003  -2.80961328125000E+0003  -2.80965356445313E+0003  -2.80966699218750E+0003  -2.80967553710938E+0003  -2.80968041992188E+0003  -2.80968652343750E+0003  -2.80969067382813E+0003  -2.80969409179688E+0003  -2.80969653320313E+0003  -2.80969824218750E+0003  -2.80970361328125E+0003  -2.80970556640625E+0003  -2.80971069335938E+0003  -2.80971606445313E+0003  -2.80972363281250E+0003  -2.80973168945313E+0003  -2.80974365234375E+0003  -2.80975683593750E+0003  -2.80977319335938E+0003  -2.80979321289063E+0003  -2.80981298828125E+0003  -2.80983496093750E+0003  -2.80985717773438E+0003  -2.80987719726563E+0003  -2.80989819335938E+0003  -2.80991845703125E+0003  -2.80993457031250E+0003  -2.80994970703125E+0003  -2.80996240234375E+0003  -2.80996801757813E+0003  -2.80997216796875E+0003  -2.80997216796875E+0003  -2.80996411132813E+0003  -2.80994946289063E+0003  -2.80993139648438E+0003  -2.80990527343750E+0003  -2.80987524414063E+0003  -2.80984082031250E+0003  -2.80980102539063E+0003  -2.80975708007813E+0003  -2.80971020507813E+0003  -2.80965991210938E+0003  -2.80960693359375E+0003  -2.80955273437500E+0003  -2.80949755859375E+0003  -2.80944116210938E+0003  -2.80938354492188E+0003  -2.80932470703125E+0003  -2.80926611328125E+0003  -2.80921020507813E+0003  -2.80915209960938E+0003  -2.80909643554688E+0003  -2.80904174804688E+0003  -2.80898559570313E+0003  -2.80893334960938E+0003  -2.80887866210938E+0003  -2.80882641601563E+0003  -2.80877392578125E+0003  -2.80872290039063E+0003  -2.80867138671875E+0003  -2.80861987304688E+0003  -2.80856811523438E+0003  -2.80850659179688E+0003  -2.80844555664063E+0003  -2.80838500976563E+0003  -2.80832519531250E+0003  -2.80826586914063E+0003  -2.80820678710938E+0003  -2.80814794921875E+0003  -2.80808935546875E+0003  -2.80803125000000E+0003  -2.80797290039063E+0003  -2.80791479492188E+0003  -2.80785693359375E+0003  -2.80779907226563E+0003  -2.80774096679688E+0003  -2.80768310546875E+0003  -2.80762500000000E+0003  -2.80756640625000E+0003  -2.80750756835938E+0003  -2.80744824218750E+0003  -2.80738891601563E+0003  -2.80732958984375E+0003  -2.80727001953125E+0003  -2.80721069335938E+0003  -2.80715136718750E+0003  -2.80709252929688E+0003  -2.80703393554688E+0003  -2.80697607421875E+0003  -2.80691870117188E+0003  -2.80686254882813E+0003  -2.80680688476563E+0003  -2.80675244140625E+0003  -2.80669946289063E+0003  -2.80664746093750E+0003  -2.80659716796875E+0003  -2.80654833984375E+0003  -2.80650146484375E+0003  -2.80645678710938E+0003  -2.80641503906250E+0003  -2.80637695312500E+0003  -2.80634252929688E+0003  -2.80631225585938E+0003  -2.80628662109375E+0003  -2.80626611328125E+0003  -2.80625097656250E+0003  -2.80624194335938E+0003  -2.80623925781250E+0003  -2.80624340820313E+0003  -2.80625512695313E+0003  -2.80627441406250E+0003  -2.80630200195313E+0003  -2.80633764648438E+0003  -2.80638159179688E+0003  -2.80642016601563E+0003  -2.80646557617188E+0003  -2.80651855468750E+0003  -2.80657788085938E+0003  -2.80664306640625E+0003  -2.80671484375000E+0003  -2.80679199218750E+0003  -2.80687280273438E+0003  -2.80696069335938E+0003  -2.80705200195313E+0003  -2.80714916992188E+0003  -2.80724902343750E+0003  -2.80735375976563E+0003  -2.80746215820313E+0003  -2.80757250976563E+0003  -2.80768652343750E+0003  -2.80780249023438E+0003  -2.80791967773438E+0003  -2.80803979492188E+0003  -2.80816235351563E+0003  -2.80828833007813E+0003  -2.80841284179688E+0003  -2.80854077148438E+0003  -2.80866870117188E+0003  -2.80879663085938E+0003  -2.80892480468750E+0003  -2.80905517578125E+0003  -2.80918383789063E+0003  -2.80931323242188E+0003
  -2.80947778320313E+0003  -2.80930102539063E+0003  -2.80912963867188E+0003  -2.80896362304688E+0003  -2.80880346679688E+0003  -2.80864941406250E+0003  -2.80850170898438E+0003  -2.80836059570313E+0003  -2.80822680664063E+0003  -2.80810009765625E+0003  -2.80798120117188E+0003  -2.80787011718750E+0003  -2.80776757812500E+0003  -2.80767358398438E+0003  -2.80758813476563E+0003  -2.80751245117188E+0003  -2.80744653320313E+0003  -2.80739135742188E+0003  -2.80734716796875E+0003  -2.80731494140625E+0003  -2.80729565429688E+0003  -2.80728930664063E+0003  -2.80729687500000E+0003  -2.80731909179688E+0003  -2.80735717773438E+0003  -2.80741162109375E+0003  -2.80748388671875E+0003  -2.80757495117188E+0003  -2.80768530273438E+0003  -2.80781372070313E+0003  -2.80796655273438E+0003  -2.80813964843750E+0003  -2.80832885742188E+0003  -2.80853076171875E+0003  -2.80874072265625E+0003  -2.80895483398438E+0003  -2.80916943359375E+0003  -2.80937988281250E+0003  -2.80958325195313E+0003  -2.80977416992188E+0003  -2.80995043945313E+0003  -2.81010766601563E+0003  -2.81024243164063E+0003  -2.81035058593750E+0003  -2.81042919921875E+0003  -2.81047387695313E+0003  -2.81048217773438E+0003  -2.81045581054688E+0003  -2.81039868164063E+0003  -2.81031445312500E+0003  -2.81020776367188E+0003  -2.81008203125000E+0003  -2.80994165039063E+0003  -2.80979028320313E+0003  -2.80963232421875E+0003  -2.80947094726563E+0003  -2.80930981445313E+0003  -2.80915258789063E+0003  -2.80900268554688E+0003  -2.80886401367188E+0003  -2.80873999023438E+0003  -2.80863403320313E+0003  -2.80854833984375E+0003  -2.80848242187500E+0003  -2.80843481445313E+0003  -2.80840405273438E+0003  -2.80838867187500E+0003  -2.80838745117188E+0003  -2.80839868164063E+0003  -2.80842163085938E+0003  -2.80845458984375E+0003  -2.80849609375000E+0003  -2.80854492187500E+0003  -2.80859960937500E+0003  -2.80865917968750E+0003  -2.80872143554688E+0003  -2.80878588867188E+0003  -2.80885083007813E+0003  -2.80891552734375E+0003  -2.80897949218750E+0003  -2.80904321289063E+0003  -2.80910571289063E+0003  -2.80916699218750E+0003  -2.80922729492188E+0003  -2.80928588867188E+0003  -2.80934277343750E+0003  -2.80939794921875E+0003  -2.80945092773438E+0003  -2.80950170898438E+0003  -2.80954980468750E+0003  -2.80959545898438E+0003  -2.80963842773438E+0003  -2.80967797851563E+0003  -2.80971459960938E+0003  -2.80974755859375E+0003  -2.80976367187500E+0003  -2.80977001953125E+0003  -2.80977465820313E+0003  -2.80977807617188E+0003  -2.80978198242188E+0003  -2.80978491210938E+0003  -2.80978955078125E+0003  -2.80979418945313E+0003  -2.80979565429688E+0003  -2.80980078125000E+0003  -2.80980810546875E+0003  -2.80981665039063E+0003  -2.80982617187500E+0003  -2.80984008789063E+0003  -2.80985278320313E+0003  -2.80987084960938E+0003  -2.80988842773438E+0003  -2.80990625000000E+0003  -2.80992456054688E+0003  -2.80994189453125E+0003  -2.80995898437500E+0003  -2.80997729492188E+0003  -2.80999169921875E+0003  -2.81000244140625E+0003  -2.81001342773438E+0003  -2.81001855468750E+0003  -2.81002124023438E+0003  -2.81001806640625E+0003  -2.81001074218750E+0003  -2.80999707031250E+0003  -2.80998022460938E+0003  -2.80995629882813E+0003  -2.80992919921875E+0003  -2.80989648437500E+0003  -2.80986035156250E+0003  -2.80982055664063E+0003  -2.80977807617188E+0003  -2.80973266601563E+0003  -2.80968408203125E+0003  -2.80963403320313E+0003  -2.80958203125000E+0003  -2.80953002929688E+0003  -2.80947729492188E+0003  -2.80942480468750E+0003  -2.80936914062500E+0003  -2.80931567382813E+0003  -2.80926269531250E+0003  -2.80921020507813E+0003  -2.80915625000000E+0003  -2.80910375976563E+0003  -2.80905249023438E+0003  -2.80900097656250E+0003  -2.80894946289063E+0003  -2.80889941406250E+0003  -2.80884472656250E+0003  -2.80878320312500E+0003  -2.80872216796875E+0003  -2.80866162109375E+0003  -2.80860131835938E+0003  -2.80854125976563E+0003  -2.80848144531250E+0003  -2.80842236328125E+0003  -2.80836328125000E+0003  -2.80830493164063E+0003  -2.80824633789063E+0003  -2.80818823242188E+0003  -2.80813037109375E+0003  -2.80807226562500E+0003  -2.80801464843750E+0003  -2.80795678710938E+0003  -2.80789916992188E+0003  -2.80784130859375E+0003  -2.80778344726563E+0003  -2.80772558593750E+0003  -2.80766748046875E+0003  -2.80760937500000E+0003  -2.80755078125000E+0003  -2.80749194335938E+0003  -2.80743334960938E+0003  -2.80737475585938E+0003  -2.80731640625000E+0003  -2.80725830078125E+0003  -2.80720068359375E+0003  -2.80714355468750E+0003  -2.80708715820313E+0003  -2.80703149414063E+0003  -2.80697705078125E+0003  -2.80692358398438E+0003  -2.80687158203125E+0003  -2.80682080078125E+0003  -2.80677124023438E+0003  -2.80672338867188E+0003  -2.80667724609375E+0003  -2.80663330078125E+0003  -2.80659179687500E+0003  -2.80655346679688E+0003  -2.80651806640625E+0003  -2.80648657226563E+0003  -2.80645947265625E+0003  -2.80643652343750E+0003  -2.80641894531250E+0003  -2.80640649414063E+0003  -2.80639941406250E+0003  -2.80639916992188E+0003  -2.80640527343750E+0003  -2.80641821289063E+0003  -2.80643872070313E+0003  -2.80646679687500E+0003  -2.80650292968750E+0003  -2.80654638671875E+0003  -2.80659765625000E+0003  -2.80664697265625E+0003  -2.80669653320313E+0003  -2.80675561523438E+0003  -2.80681811523438E+0003  -2.80688745117188E+0003  -2.80696191406250E+0003  -2.80704003906250E+0003  -2.80712475585938E+0003  -2.80721264648438E+0003  -2.80730590820313E+0003  -2.80740454101563E+0003  -2.80750366210938E+0003  -2.80760717773438E+0003  -2.80771362304688E+0003  -2.80782275390625E+0003  -2.80793579101563E+0003  -2.80804907226563E+0003  -2.80816455078125E+0003  -2.80828320312500E+0003  -2.80840307617188E+0003  -2.80852587890625E+0003  -2.80864624023438E+0003  -2.80877197265625E+0003  -2.80889648437500E+0003  -2.80902026367188E+0003  -2.80914453125000E+0003  -2.80926953125000E+0003  -2.80939453125000E+0003
  -2.80938574218750E+0003  -2.80921215820313E+0003  -2.80904394531250E+0003  -2.80888085937500E+0003  -2.80872314453125E+0003  -2.80857153320313E+0003  -2.80842626953125E+0003  -2.80828735351563E+0003  -2.80815527343750E+0003  -2.80803027343750E+0003  -2.80791308593750E+0003  -2.80780371093750E+0003  -2.80770263671875E+0003  -2.80760986328125E+0003  -2.80752612304688E+0003  -2.80745190429688E+0003  -2.80738696289063E+0003  -2.80733276367188E+0003  -2.80728955078125E+0003  -2.80725756835938E+0003  -2.80723803710938E+0003  -2.80723144531250E+0003  -2.80723779296875E+0003  -2.80725805664063E+0003  -2.80729321289063E+0003  -2.80734375000000E+0003  -2.80741088867188E+0003  -2.80749462890625E+0003  -2.80759594726563E+0003  -2.80771582031250E+0003  -2.80785498046875E+0003  -2.80801000976563E+0003  -2.80818164062500E+0003  -2.80836474609375E+0003  -2.80855541992188E+0003  -2.80874975585938E+0003  -2.80894531250000E+0003  -2.80913745117188E+0003  -2.80932348632813E+0003  -2.80949975585938E+0003  -2.80966284179688E+0003  -2.80980981445313E+0003  -2.80993701171875E+0003  -2.81004150390625E+0003  -2.81011914062500E+0003  -2.81016748046875E+0003  -2.81018359375000E+0003  -2.81016894531250E+0003  -2.81012646484375E+0003  -2.81006054687500E+0003  -2.80997387695313E+0003  -2.80987036132813E+0003  -2.80975366210938E+0003  -2.80962646484375E+0003  -2.80949243164063E+0003  -2.80935571289063E+0003  -2.80921826171875E+0003  -2.80908422851563E+0003  -2.80895654296875E+0003  -2.80883837890625E+0003  -2.80873291015625E+0003  -2.80864355468750E+0003  -2.80857250976563E+0003  -2.80851879882813E+0003  -2.80848095703125E+0003  -2.80845874023438E+0003  -2.80844970703125E+0003  -2.80845336914063E+0003  -2.80846850585938E+0003  -2.80849365234375E+0003  -2.80852758789063E+0003  -2.80856933593750E+0003  -2.80861743164063E+0003  -2.80867089843750E+0003  -2.80872851562500E+0003  -2.80878857421875E+0003  -2.80885034179688E+0003  -2.80891259765625E+0003  -2.80897485351563E+0003  -2.80903637695313E+0003  -2.80909716796875E+0003  -2.80915722656250E+0003  -2.80921630859375E+0003  -2.80927392578125E+0003  -2.80933056640625E+0003  -2.80938525390625E+0003  -2.80943847656250E+0003  -2.80948974609375E+0003  -2.80953906250000E+0003  -2.80958569335938E+0003  -2.80963012695313E+0003  -2.80967187500000E+0003  -2.80971093750000E+0003  -2.80974658203125E+0003  -2.80977978515625E+0003  -2.80981054687500E+0003  -2.80983862304688E+0003  -2.80986450195313E+0003  -2.80986962890625E+0003  -2.80987426757813E+0003  -2.80987719726563E+0003  -2.80988110351563E+0003  -2.80988281250000E+0003  -2.80988793945313E+0003  -2.80989233398438E+0003  -2.80989941406250E+0003  -2.80990551757813E+0003  -2.80991503906250E+0003  -2.80992724609375E+0003  -2.80993847656250E+0003  -2.80995239257813E+0003  -2.80996777343750E+0003  -2.80998388671875E+0003  -2.80999877929688E+0003  -2.81001440429688E+0003  -2.81002807617188E+0003  -2.81004248046875E+0003  -2.81005346679688E+0003  -2.81006396484375E+0003  -2.81007104492188E+0003  -2.81007543945313E+0003  -2.81007543945313E+0003  -2.81007275390625E+0003  -2.81006518554688E+0003  -2.81005175781250E+0003  -2.81003515625000E+0003  -2.81001416015625E+0003  -2.80998828125000E+0003  -2.80995898437500E+0003  -2.80992602539063E+0003  -2.80988916015625E+0003  -2.80984936523438E+0003  -2.80980688476563E+0003  -2.80976464843750E+0003  -2.80971777343750E+0003  -2.80967163085938E+0003  -2.80962060546875E+0003  -2.80957250976563E+0003  -2.80952197265625E+0003  -2.80947265625000E+0003  -2.80942138671875E+0003  -2.80937084960938E+0003  -2.80932226562500E+0003  -2.80927246093750E+0003  -2.80922265625000E+0003  -2.80917236328125E+0003  -2.80911376953125E+0003  -2.80905371093750E+0003  -2.80899365234375E+0003  -2.80893408203125E+0003  -2.80887426757813E+0003  -2.80881494140625E+0003  -2.80875537109375E+0003  -2.80869628906250E+0003  -2.80863720703125E+0003  -2.80857861328125E+0003  -2.80852026367188E+0003  -2.80846215820313E+0003  -2.80840405273438E+0003  -2.80834619140625E+0003  -2.80828857421875E+0003  -2.80823120117188E+0003  -2.80817358398438E+0003  -2.80811621093750E+0003  -2.80805883789063E+0003  -2.80800146484375E+0003  -2.80794433593750E+0003  -2.80788696289063E+0003  -2.80782958984375E+0003  -2.80777221679688E+0003  -2.80771459960938E+0003  -2.80765673828125E+0003  -2.80759912109375E+0003  -2.80754125976563E+0003  -2.80748388671875E+0003  -2.80742651367188E+0003  -2.80736962890625E+0003  -2.80731347656250E+0003  -2.80725781250000E+0003  -2.80720336914063E+0003  -2.80714941406250E+0003  -2.80709667968750E+0003  -2.80704516601563E+0003  -2.80699536132813E+0003  -2.80694653320313E+0003  -2.80689941406250E+0003  -2.80685424804688E+0003  -2.80681079101563E+0003  -2.80676953125000E+0003  -2.80673095703125E+0003  -2.80669555664063E+0003  -2.80666284179688E+0003  -2.80663427734375E+0003  -2.80660986328125E+0003  -2.80658984375000E+0003  -2.80657470703125E+0003  -2.80656445312500E+0003  -2.80655957031250E+0003  -2.80656079101563E+0003  -2.80656860351563E+0003  -2.80658276367188E+0003  -2.80660400390625E+0003  -2.80663281250000E+0003  -2.80666894531250E+0003  -2.80671240234375E+0003  -2.80676318359375E+0003  -2.80682006835938E+0003  -2.80687744140625E+0003  -2.80693212890625E+0003  -2.80699462890625E+0003  -2.80706176757813E+0003  -2.80713208007813E+0003  -2.80720898437500E+0003  -2.80728979492188E+0003  -2.80737597656250E+0003  -2.80746362304688E+0003  -2.80755761718750E+0003  -2.80765527343750E+0003  -2.80775292968750E+0003  -2.80785668945313E+0003  -2.80796191406250E+0003  -2.80806884765625E+0003  -2.80817871093750E+0003  -2.80829101562500E+0003  -2.80840380859375E+0003  -2.80851953125000E+0003  -2.80863720703125E+0003  -2.80875585937500E+0003  -2.80887548828125E+0003  -2.80899438476563E+0003  -2.80911523437500E+0003  -2.80923583984375E+0003  -2.80935693359375E+0003  -2.80947851562500E+0003
  -2.80930151367188E+0003  -2.80913183593750E+0003  -2.80896630859375E+0003  -2.80880615234375E+0003  -2.80865112304688E+0003  -2.80850195312500E+0003  -2.80835888671875E+0003  -2.80822192382813E+0003  -2.80809204101563E+0003  -2.80796923828125E+0003  -2.80785351562500E+0003  -2.80774584960938E+0003  -2.80764624023438E+0003  -2.80755517578125E+0003  -2.80747290039063E+0003  -2.80739990234375E+0003  -2.80733642578125E+0003  -2.80728320312500E+0003  -2.80724047851563E+0003  -2.80720947265625E+0003  -2.80718969726563E+0003  -2.80718212890625E+0003  -2.80718725585938E+0003  -2.80720556640625E+0003  -2.80723779296875E+0003  -2.80728417968750E+0003  -2.80734545898438E+0003  -2.80742236328125E+0003  -2.80751513671875E+0003  -2.80762451171875E+0003  -2.80775097656250E+0003  -2.80789379882813E+0003  -2.80804736328125E+0003  -2.80821313476563E+0003  -2.80838598632813E+0003  -2.80856274414063E+0003  -2.80873999023438E+0003  -2.80891577148438E+0003  -2.80908593750000E+0003  -2.80924853515625E+0003  -2.80939941406250E+0003  -2.80953662109375E+0003  -2.80965649414063E+0003  -2.80975659179688E+0003  -2.80983374023438E+0003  -2.80988452148438E+0003  -2.80990722656250E+0003  -2.80990283203125E+0003  -2.80987426757813E+0003  -2.80982470703125E+0003  -2.80975659179688E+0003  -2.80967382812500E+0003  -2.80957836914063E+0003  -2.80947412109375E+0003  -2.80936352539063E+0003  -2.80925000000000E+0003  -2.80913574218750E+0003  -2.80902368164063E+0003  -2.80891772460938E+0003  -2.80881933593750E+0003  -2.80873217773438E+0003  -2.80865942382813E+0003  -2.80860253906250E+0003  -2.80856054687500E+0003  -2.80853344726563E+0003  -2.80851904296875E+0003  -2.80851684570313E+0003  -2.80852539062500E+0003  -2.80854418945313E+0003  -2.80857177734375E+0003  -2.80860693359375E+0003  -2.80864892578125E+0003  -2.80869653320313E+0003  -2.80874877929688E+0003  -2.80880444335938E+0003  -2.80886254882813E+0003  -2.80892211914063E+0003  -2.80898193359375E+0003  -2.80904125976563E+0003  -2.80910058593750E+0003  -2.80915917968750E+0003  -2.80921655273438E+0003  -2.80927294921875E+0003  -2.80932836914063E+0003  -2.80938281250000E+0003  -2.80943554687500E+0003  -2.80948657226563E+0003  -2.80953613281250E+0003  -2.80958349609375E+0003  -2.80962890625000E+0003  -2.80967187500000E+0003  -2.80971264648438E+0003  -2.80975073242188E+0003  -2.80978588867188E+0003  -2.80981884765625E+0003  -2.80984912109375E+0003  -2.80987744140625E+0003  -2.80990380859375E+0003  -2.80992846679688E+0003  -2.80995117187500E+0003  -2.80997241210938E+0003  -2.80997827148438E+0003  -2.80997998046875E+0003  -2.80998413085938E+0003  -2.80998925781250E+0003  -2.80999389648438E+0003  -2.81000000000000E+0003  -2.81000756835938E+0003  -2.81001708984375E+0003  -2.81002685546875E+0003  -2.81004003906250E+0003  -2.81005224609375E+0003  -2.81006567382813E+0003  -2.81007763671875E+0003  -2.81009033203125E+0003  -2.81010131835938E+0003  -2.81011450195313E+0003  -2.81012182617188E+0003  -2.81012866210938E+0003  -2.81013500976563E+0003  -2.81013891601563E+0003  -2.81013891601563E+0003  -2.81013500976563E+0003  -2.81012768554688E+0003  -2.81011474609375E+0003  -2.81009667968750E+0003  -2.81007666015625E+0003  -2.81005322265625E+0003  -2.81002539062500E+0003  -2.80999536132813E+0003  -2.80996166992188E+0003  -2.80992553710938E+0003  -2.80988696289063E+0003  -2.80984594726563E+0003  -2.80980395507813E+0003  -2.80975952148438E+0003  -2.80971435546875E+0003  -2.80966992187500E+0003  -2.80962304687500E+0003  -2.80957568359375E+0003  -2.80952905273438E+0003  -2.80948095703125E+0003  -2.80942700195313E+0003  -2.80936987304688E+0003  -2.80931201171875E+0003  -2.80925439453125E+0003  -2.80919677734375E+0003  -2.80913867187500E+0003  -2.80908081054688E+0003  -2.80902294921875E+0003  -2.80896508789063E+0003  -2.80890722656250E+0003  -2.80884936523438E+0003  -2.80879125976563E+0003  -2.80873364257813E+0003  -2.80867602539063E+0003  -2.80861865234375E+0003  -2.80856127929688E+0003  -2.80850390625000E+0003  -2.80844702148438E+0003  -2.80838989257813E+0003  -2.80833325195313E+0003  -2.80827636718750E+0003  -2.80821948242188E+0003  -2.80816284179688E+0003  -2.80810620117188E+0003  -2.80804956054688E+0003  -2.80799267578125E+0003  -2.80793603515625E+0003  -2.80787939453125E+0003  -2.80782275390625E+0003  -2.80776586914063E+0003  -2.80770922851563E+0003  -2.80765234375000E+0003  -2.80759594726563E+0003  -2.80754003906250E+0003  -2.80748461914063E+0003  -2.80742993164063E+0003  -2.80737597656250E+0003  -2.80732275390625E+0003  -2.80727075195313E+0003  -2.80721997070313E+0003  -2.80717041015625E+0003  -2.80712255859375E+0003  -2.80707617187500E+0003  -2.80703125000000E+0003  -2.80698852539063E+0003  -2.80694750976563E+0003  -2.80690917968750E+0003  -2.80687329101563E+0003  -2.80684033203125E+0003  -2.80681054687500E+0003  -2.80678442382813E+0003  -2.80676269531250E+0003  -2.80674511718750E+0003  -2.80673193359375E+0003  -2.80672412109375E+0003  -2.80672143554688E+0003  -2.80672436523438E+0003  -2.80673315429688E+0003  -2.80674877929688E+0003  -2.80677050781250E+0003  -2.80679956054688E+0003  -2.80683569335938E+0003  -2.80687866210938E+0003  -2.80692871093750E+0003  -2.80698486328125E+0003  -2.80704736328125E+0003  -2.80711132812500E+0003  -2.80717065429688E+0003  -2.80723291015625E+0003  -2.80730126953125E+0003  -2.80737548828125E+0003  -2.80745532226563E+0003  -2.80753564453125E+0003  -2.80762329101563E+0003  -2.80771215820313E+0003  -2.80780444335938E+0003  -2.80789990234375E+0003  -2.80799731445313E+0003  -2.80809985351563E+0003  -2.80820385742188E+0003  -2.80830859375000E+0003  -2.80841723632813E+0003  -2.80852758789063E+0003  -2.80863696289063E+0003  -2.80875122070313E+0003  -2.80886523437500E+0003  -2.80897998046875E+0003  -2.80909545898438E+0003  -2.80921142578125E+0003  -2.80932934570313E+0003  -2.80944506835938E+0003  -2.80956323242188E+0003
  -2.80922558593750E+0003  -2.80905883789063E+0003  -2.80889672851563E+0003  -2.80873974609375E+0003  -2.80858740234375E+0003  -2.80844091796875E+0003  -2.80830004882813E+0003  -2.80816528320313E+0003  -2.80803759765625E+0003  -2.80791674804688E+0003  -2.80780297851563E+0003  -2.80769702148438E+0003  -2.80759912109375E+0003  -2.80750952148438E+0003  -2.80742895507813E+0003  -2.80735742187500E+0003  -2.80729516601563E+0003  -2.80724340820313E+0003  -2.80720166015625E+0003  -2.80717065429688E+0003  -2.80715112304688E+0003  -2.80714282226563E+0003  -2.80714672851563E+0003  -2.80716284179688E+0003  -2.80719189453125E+0003  -2.80723413085938E+0003  -2.80729003906250E+0003  -2.80736035156250E+0003  -2.80744482421875E+0003  -2.80754443359375E+0003  -2.80765917968750E+0003  -2.80778857421875E+0003  -2.80792944335938E+0003  -2.80807763671875E+0003  -2.80823437500000E+0003  -2.80839477539063E+0003  -2.80855639648438E+0003  -2.80871679687500E+0003  -2.80887255859375E+0003  -2.80902197265625E+0003  -2.80916186523438E+0003  -2.80928955078125E+0003  -2.80940234375000E+0003  -2.80949829101563E+0003  -2.80957397460938E+0003  -2.80962719726563E+0003  -2.80965576171875E+0003  -2.80966064453125E+0003  -2.80964428710938E+0003  -2.80960961914063E+0003  -2.80955883789063E+0003  -2.80949462890625E+0003  -2.80941943359375E+0003  -2.80933666992188E+0003  -2.80924755859375E+0003  -2.80915600585938E+0003  -2.80906323242188E+0003  -2.80897290039063E+0003  -2.80888671875000E+0003  -2.80880786132813E+0003  -2.80873852539063E+0003  -2.80868164062500E+0003  -2.80863818359375E+0003  -2.80860815429688E+0003  -2.80859033203125E+0003  -2.80858422851563E+0003  -2.80858813476563E+0003  -2.80860205078125E+0003  -2.80862402343750E+0003  -2.80865405273438E+0003  -2.80869091796875E+0003  -2.80873291015625E+0003  -2.80878027343750E+0003  -2.80883154296875E+0003  -2.80888549804688E+0003  -2.80894165039063E+0003  -2.80899902343750E+0003  -2.80905639648438E+0003  -2.80911376953125E+0003  -2.80917041015625E+0003  -2.80922631835938E+0003  -2.80928173828125E+0003  -2.80933593750000E+0003  -2.80938916015625E+0003  -2.80944116210938E+0003  -2.80949194335938E+0003  -2.80954101562500E+0003  -2.80958837890625E+0003  -2.80963427734375E+0003  -2.80967797851563E+0003  -2.80971997070313E+0003  -2.80975903320313E+0003  -2.80979638671875E+0003  -2.80983105468750E+0003  -2.80986328125000E+0003  -2.80989331054688E+0003  -2.80992114257813E+0003  -2.80994750976563E+0003  -2.80997192382813E+0003  -2.80999487304688E+0003  -2.81001684570313E+0003  -2.81003710937500E+0003  -2.81005664062500E+0003  -2.81007568359375E+0003  -2.81008789062500E+0003  -2.81009277343750E+0003  -2.81009814453125E+0003  -2.81010302734375E+0003  -2.81011132812500E+0003  -2.81012084960938E+0003  -2.81012915039063E+0003  -2.81014038085938E+0003  -2.81015161132813E+0003  -2.81016088867188E+0003  -2.81017065429688E+0003  -2.81017968750000E+0003  -2.81018750000000E+0003  -2.81019726562500E+0003  -2.81020190429688E+0003  -2.81020410156250E+0003  -2.81020507812500E+0003  -2.81020385742188E+0003  -2.81020117187500E+0003  -2.81019140625000E+0003  -2.81018066406250E+0003  -2.81016308593750E+0003  -2.81014355468750E+0003  -2.81012231445313E+0003  -2.81009741210938E+0003  -2.81006787109375E+0003  -2.81003808593750E+0003  -2.81000463867188E+0003  -2.80996826171875E+0003  -2.80993139648438E+0003  -2.80989257812500E+0003  -2.80985131835938E+0003  -2.80980981445313E+0003  -2.80976538085938E+0003  -2.80971337890625E+0003  -2.80966064453125E+0003  -2.80960717773438E+0003  -2.80955346679688E+0003  -2.80949951171875E+0003  -2.80944506835938E+0003  -2.80939013671875E+0003  -2.80933471679688E+0003  -2.80927929687500E+0003  -2.80922338867188E+0003  -2.80916748046875E+0003  -2.80911132812500E+0003  -2.80905541992188E+0003  -2.80899877929688E+0003  -2.80894262695313E+0003  -2.80888623046875E+0003  -2.80882958984375E+0003  -2.80877319335938E+0003  -2.80871679687500E+0003  -2.80866064453125E+0003  -2.80860424804688E+0003  -2.80854809570313E+0003  -2.80849194335938E+0003  -2.80843579101563E+0003  -2.80837988281250E+0003  -2.80832397460938E+0003  -2.80826782226563E+0003  -2.80821215820313E+0003  -2.80815625000000E+0003  -2.80810009765625E+0003  -2.80804418945313E+0003  -2.80798876953125E+0003  -2.80793286132813E+0003  -2.80787695312500E+0003  -2.80782128906250E+0003  -2.80776611328125E+0003  -2.80771093750000E+0003  -2.80765625000000E+0003  -2.80760229492188E+0003  -2.80754907226563E+0003  -2.80749682617188E+0003  -2.80744531250000E+0003  -2.80739501953125E+0003  -2.80734619140625E+0003  -2.80729882812500E+0003  -2.80725292968750E+0003  -2.80720874023438E+0003  -2.80716625976563E+0003  -2.80712548828125E+0003  -2.80708691406250E+0003  -2.80705102539063E+0003  -2.80701782226563E+0003  -2.80698730468750E+0003  -2.80696044921875E+0003  -2.80693652343750E+0003  -2.80691699218750E+0003  -2.80690161132813E+0003  -2.80689062500000E+0003  -2.80688476562500E+0003  -2.80688378906250E+0003  -2.80688842773438E+0003  -2.80689819335938E+0003  -2.80691455078125E+0003  -2.80693701171875E+0003  -2.80696630859375E+0003  -2.80700244140625E+0003  -2.80704492187500E+0003  -2.80709375000000E+0003  -2.80714892578125E+0003  -2.80720971679688E+0003  -2.80727636718750E+0003  -2.80734570312500E+0003  -2.80740600585938E+0003  -2.80747290039063E+0003  -2.80754370117188E+0003  -2.80761889648438E+0003  -2.80769628906250E+0003  -2.80777832031250E+0003  -2.80786401367188E+0003  -2.80795336914063E+0003  -2.80804516601563E+0003  -2.80814111328125E+0003  -2.80823852539063E+0003  -2.80833886718750E+0003  -2.80843920898438E+0003  -2.80854345703125E+0003  -2.80864868164063E+0003  -2.80875732421875E+0003  -2.80886352539063E+0003  -2.80897387695313E+0003  -2.80908569335938E+0003  -2.80919775390625E+0003  -2.80930932617188E+0003  -2.80942260742188E+0003  -2.80953491210938E+0003  -2.80964843750000E+0003
  -2.80915722656250E+0003  -2.80899438476563E+0003  -2.80883569335938E+0003  -2.80868139648438E+0003  -2.80853222656250E+0003  -2.80838818359375E+0003  -2.80825024414063E+0003  -2.80811791992188E+0003  -2.80799218750000E+0003  -2.80787353515625E+0003  -2.80776196289063E+0003  -2.80765795898438E+0003  -2.80756176757813E+0003  -2.80747412109375E+0003  -2.80739526367188E+0003  -2.80732519531250E+0003  -2.80726489257813E+0003  -2.80721411132813E+0003  -2.80717309570313E+0003  -2.80714282226563E+0003  -2.80712304687500E+0003  -2.80711450195313E+0003  -2.80711694335938E+0003  -2.80713110351563E+0003  -2.80715722656250E+0003  -2.80719555664063E+0003  -2.80724633789063E+0003  -2.80731005859375E+0003  -2.80738720703125E+0003  -2.80747753906250E+0003  -2.80758178710938E+0003  -2.80769873046875E+0003  -2.80782641601563E+0003  -2.80796264648438E+0003  -2.80810473632813E+0003  -2.80824853515625E+0003  -2.80839575195313E+0003  -2.80854223632813E+0003  -2.80868505859375E+0003  -2.80882226562500E+0003  -2.80895166015625E+0003  -2.80907080078125E+0003  -2.80917724609375E+0003  -2.80926904296875E+0003  -2.80934326171875E+0003  -2.80939819335938E+0003  -2.80943188476563E+0003  -2.80944482421875E+0003  -2.80943945312500E+0003  -2.80941796875000E+0003  -2.80938281250000E+0003  -2.80933569335938E+0003  -2.80927929687500E+0003  -2.80921557617188E+0003  -2.80914672851563E+0003  -2.80907519531250E+0003  -2.80900268554688E+0003  -2.80893212890625E+0003  -2.80886547851563E+0003  -2.80880468750000E+0003  -2.80875170898438E+0003  -2.80870971679688E+0003  -2.80867919921875E+0003  -2.80866015625000E+0003  -2.80865161132813E+0003  -2.80865307617188E+0003  -2.80866308593750E+0003  -2.80868164062500E+0003  -2.80870727539063E+0003  -2.80873925781250E+0003  -2.80877709960938E+0003  -2.80882006835938E+0003  -2.80886694335938E+0003  -2.80891699218750E+0003  -2.80896972656250E+0003  -2.80902416992188E+0003  -2.80907958984375E+0003  -2.80913476562500E+0003  -2.80918969726563E+0003  -2.80924414062500E+0003  -2.80929785156250E+0003  -2.80935058593750E+0003  -2.80940258789063E+0003  -2.80945410156250E+0003  -2.80950390625000E+0003  -2.80955224609375E+0003  -2.80959985351563E+0003  -2.80964550781250E+0003  -2.80968920898438E+0003  -2.80973168945313E+0003  -2.80977197265625E+0003  -2.80981030273438E+0003  -2.80984619140625E+0003  -2.80988012695313E+0003  -2.80991186523438E+0003  -2.80994140625000E+0003  -2.80996899414063E+0003  -2.80999511718750E+0003  -2.81001928710938E+0003  -2.81004248046875E+0003  -2.81006396484375E+0003  -2.81008422851563E+0003  -2.81010375976563E+0003  -2.81012231445313E+0003  -2.81013964843750E+0003  -2.81015698242188E+0003  -2.81017358398438E+0003  -2.81018994140625E+0003  -2.81020605468750E+0003  -2.81021557617188E+0003  -2.81022363281250E+0003  -2.81023095703125E+0003  -2.81023999023438E+0003  -2.81024731445313E+0003  -2.81025537109375E+0003  -2.81026293945313E+0003  -2.81026855468750E+0003  -2.81027368164063E+0003  -2.81027685546875E+0003  -2.81027856445313E+0003  -2.81027929687500E+0003  -2.81027563476563E+0003  -2.81027099609375E+0003  -2.81026196289063E+0003  -2.81025073242188E+0003  -2.81023681640625E+0003  -2.81021704101563E+0003  -2.81019482421875E+0003  -2.81017236328125E+0003  -2.81014624023438E+0003  -2.81011694335938E+0003  -2.81008520507813E+0003  -2.81004614257813E+0003  -2.81000488281250E+0003  -2.80996142578125E+0003  -2.80991674804688E+0003  -2.80987036132813E+0003  -2.80982250976563E+0003  -2.80977368164063E+0003  -2.80972412109375E+0003  -2.80967382812500E+0003  -2.80962304687500E+0003  -2.80957153320313E+0003  -2.80951953125000E+0003  -2.80946704101563E+0003  -2.80941430664063E+0003  -2.80936083984375E+0003  -2.80930737304688E+0003  -2.80925341796875E+0003  -2.80919897460938E+0003  -2.80914453125000E+0003  -2.80909008789063E+0003  -2.80903515625000E+0003  -2.80897998046875E+0003  -2.80892504882813E+0003  -2.80886987304688E+0003  -2.80881469726563E+0003  -2.80875927734375E+0003  -2.80870434570313E+0003  -2.80864916992188E+0003  -2.80859375000000E+0003  -2.80853857421875E+0003  -2.80848364257813E+0003  -2.80842871093750E+0003  -2.80837329101563E+0003  -2.80831835937500E+0003  -2.80826342773438E+0003  -2.80820849609375E+0003  -2.80815380859375E+0003  -2.80809912109375E+0003  -2.80804418945313E+0003  -2.80798950195313E+0003  -2.80793530273438E+0003  -2.80788134765625E+0003  -2.80782763671875E+0003  -2.80777416992188E+0003  -2.80772192382813E+0003  -2.80767016601563E+0003  -2.80761938476563E+0003  -2.80756958007813E+0003  -2.80752148437500E+0003  -2.80747436523438E+0003  -2.80742895507813E+0003  -2.80738500976563E+0003  -2.80734301757813E+0003  -2.80730273437500E+0003  -2.80726440429688E+0003  -2.80722827148438E+0003  -2.80719433593750E+0003  -2.80716357421875E+0003  -2.80713549804688E+0003  -2.80711083984375E+0003  -2.80708984375000E+0003  -2.80707202148438E+0003  -2.80705859375000E+0003  -2.80704980468750E+0003  -2.80704541015625E+0003  -2.80704589843750E+0003  -2.80705175781250E+0003  -2.80706323242188E+0003  -2.80707983398438E+0003  -2.80710302734375E+0003  -2.80713208007813E+0003  -2.80716772460938E+0003  -2.80720971679688E+0003  -2.80725781250000E+0003  -2.80731152343750E+0003  -2.80737109375000E+0003  -2.80743554687500E+0003  -2.80750537109375E+0003  -2.80757788085938E+0003  -2.80764038085938E+0003  -2.80770849609375E+0003  -2.80778002929688E+0003  -2.80785644531250E+0003  -2.80793530273438E+0003  -2.80801733398438E+0003  -2.80810400390625E+0003  -2.80819165039063E+0003  -2.80828320312500E+0003  -2.80837573242188E+0003  -2.80847143554688E+0003  -2.80856909179688E+0003  -2.80866772460938E+0003  -2.80877099609375E+0003  -2.80887475585938E+0003  -2.80897875976563E+0003  -2.80908374023438E+0003  -2.80919116210938E+0003  -2.80929907226563E+0003  -2.80940722656250E+0003  -2.80951586914063E+0003  -2.80962426757813E+0003  -2.80973364257813E+0003
  -2.80909716796875E+0003  -2.80893798828125E+0003  -2.80878271484375E+0003  -2.80863183593750E+0003  -2.80848583984375E+0003  -2.80834497070313E+0003  -2.80820947265625E+0003  -2.80808007812500E+0003  -2.80795703125000E+0003  -2.80784033203125E+0003  -2.80773095703125E+0003  -2.80762915039063E+0003  -2.80753515625000E+0003  -2.80744946289063E+0003  -2.80737231445313E+0003  -2.80730419921875E+0003  -2.80724536132813E+0003  -2.80719604492188E+0003  -2.80715649414063E+0003  -2.80712670898438E+0003  -2.80710717773438E+0003  -2.80709790039063E+0003  -2.80709960937500E+0003  -2.80711181640625E+0003  -2.80713500976563E+0003  -2.80716992187500E+0003  -2.80721630859375E+0003  -2.80727416992188E+0003  -2.80734399414063E+0003  -2.80742626953125E+0003  -2.80752075195313E+0003  -2.80762695312500E+0003  -2.80774267578125E+0003  -2.80786621093750E+0003  -2.80799511718750E+0003  -2.80812768554688E+0003  -2.80826171875000E+0003  -2.80839379882813E+0003  -2.80852465820313E+0003  -2.80865087890625E+0003  -2.80877075195313E+0003  -2.80888208007813E+0003  -2.80898266601563E+0003  -2.80907055664063E+0003  -2.80914355468750E+0003  -2.80919970703125E+0003  -2.80923779296875E+0003  -2.80925781250000E+0003  -2.80926220703125E+0003  -2.80925268554688E+0003  -2.80923120117188E+0003  -2.80919970703125E+0003  -2.80915966796875E+0003  -2.80911352539063E+0003  -2.80906298828125E+0003  -2.80901000976563E+0003  -2.80895654296875E+0003  -2.80890380859375E+0003  -2.80885424804688E+0003  -2.80881005859375E+0003  -2.80877246093750E+0003  -2.80874389648438E+0003  -2.80872509765625E+0003  -2.80871630859375E+0003  -2.80871630859375E+0003  -2.80872753906250E+0003  -2.80874340820313E+0003  -2.80876635742188E+0003  -2.80879516601563E+0003  -2.80882958984375E+0003  -2.80886865234375E+0003  -2.80891186523438E+0003  -2.80895849609375E+0003  -2.80900781250000E+0003  -2.80905908203125E+0003  -2.80910791015625E+0003  -2.80916137695313E+0003  -2.80921459960938E+0003  -2.80926757812500E+0003  -2.80931982421875E+0003  -2.80937133789063E+0003  -2.80942236328125E+0003  -2.80947216796875E+0003  -2.80952099609375E+0003  -2.80956909179688E+0003  -2.80961596679688E+0003  -2.80966088867188E+0003  -2.80970483398438E+0003  -2.80974755859375E+0003  -2.80978784179688E+0003  -2.80982714843750E+0003  -2.80986401367188E+0003  -2.80989916992188E+0003  -2.80993212890625E+0003  -2.80996313476563E+0003  -2.80999218750000E+0003  -2.81001953125000E+0003  -2.81004516601563E+0003  -2.81006909179688E+0003  -2.81009204101563E+0003  -2.81011328125000E+0003  -2.81013378906250E+0003  -2.81015258789063E+0003  -2.81017089843750E+0003  -2.81018823242188E+0003  -2.81020458984375E+0003  -2.81022070312500E+0003  -2.81023608398438E+0003  -2.81025122070313E+0003  -2.81026586914063E+0003  -2.81028027343750E+0003  -2.81029394531250E+0003  -2.81030664062500E+0003  -2.81031787109375E+0003  -2.81032788085938E+0003  -2.81033642578125E+0003  -2.81034350585938E+0003  -2.81034838867188E+0003  -2.81035083007813E+0003  -2.81035131835938E+0003  -2.81034936523438E+0003  -2.81034448242188E+0003  -2.81033666992188E+0003  -2.81032519531250E+0003  -2.81031079101563E+0003  -2.81029296875000E+0003  -2.81027221679688E+0003  -2.81024829101563E+0003  -2.81022167968750E+0003  -2.81019213867188E+0003  -2.81015991210938E+0003  -2.81012548828125E+0003  -2.81008886718750E+0003  -2.81005053710938E+0003  -2.81001025390625E+0003  -2.80996850585938E+0003  -2.80992504882813E+0003  -2.80988037109375E+0003  -2.80983447265625E+0003  -2.80978784179688E+0003  -2.80974023437500E+0003  -2.80969189453125E+0003  -2.80964306640625E+0003  -2.80959375000000E+0003  -2.80954345703125E+0003  -2.80949291992188E+0003  -2.80944165039063E+0003  -2.80939013671875E+0003  -2.80933789062500E+0003  -2.80928540039063E+0003  -2.80923266601563E+0003  -2.80917944335938E+0003  -2.80912646484375E+0003  -2.80907299804688E+0003  -2.80901904296875E+0003  -2.80896533203125E+0003  -2.80891137695313E+0003  -2.80885742187500E+0003  -2.80880346679688E+0003  -2.80874926757813E+0003  -2.80869531250000E+0003  -2.80864111328125E+0003  -2.80858715820313E+0003  -2.80853295898438E+0003  -2.80847900390625E+0003  -2.80842504882813E+0003  -2.80837109375000E+0003  -2.80831713867188E+0003  -2.80826342773438E+0003  -2.80820971679688E+0003  -2.80815625000000E+0003  -2.80810302734375E+0003  -2.80804980468750E+0003  -2.80799707031250E+0003  -2.80794482421875E+0003  -2.80789331054688E+0003  -2.80784228515625E+0003  -2.80779248046875E+0003  -2.80774340820313E+0003  -2.80769531250000E+0003  -2.80764892578125E+0003  -2.80760375976563E+0003  -2.80756030273438E+0003  -2.80751831054688E+0003  -2.80747827148438E+0003  -2.80744018554688E+0003  -2.80740380859375E+0003  -2.80736987304688E+0003  -2.80733837890625E+0003  -2.80730981445313E+0003  -2.80728417968750E+0003  -2.80726147460938E+0003  -2.80724243164063E+0003  -2.80722680664063E+0003  -2.80721508789063E+0003  -2.80720825195313E+0003  -2.80720532226563E+0003  -2.80720727539063E+0003  -2.80721411132813E+0003  -2.80722631835938E+0003  -2.80724389648438E+0003  -2.80726733398438E+0003  -2.80729638671875E+0003  -2.80733178710938E+0003  -2.80737304687500E+0003  -2.80741992187500E+0003  -2.80747241210938E+0003  -2.80753027343750E+0003  -2.80759301757813E+0003  -2.80766088867188E+0003  -2.80773339843750E+0003  -2.80780810546875E+0003  -2.80787231445313E+0003  -2.80794262695313E+0003  -2.80801464843750E+0003  -2.80808959960938E+0003  -2.80816870117188E+0003  -2.80825097656250E+0003  -2.80833544921875E+0003  -2.80842236328125E+0003  -2.80851245117188E+0003  -2.80860449218750E+0003  -2.80869775390625E+0003  -2.80879443359375E+0003  -2.80889086914063E+0003  -2.80898950195313E+0003  -2.80909057617188E+0003  -2.80919335937500E+0003  -2.80929614257813E+0003  -2.80940063476563E+0003  -2.80950512695313E+0003  -2.80960961914063E+0003  -2.80971508789063E+0003  -2.80981982421875E+0003
