DSAA
234  134
 5.72000000000000E+0004   6.88500000000000E+0004
 7.78000000000000E+0004   8.44500000000000E+0004
 1.19717224121094E+0002   3.82665466308594E+0002
   2.69000000000000E+0002   2.69000000000000E+0002   2.69000000000000E+0002   2.69000000000000E+0002   2.69000000000000E+0002   2.69000000000000E+0002   2.69000000000000E+0002   2.69000000000000E+0002   2.69000000000000E+0002   2.69000000000000E+0002   2.69000000000000E+0002   2.69000000000000E+0002   2.69000000000000E+0002   2.69000000000000E+0002   2.69000000000000E+0002   2.69000000000000E+0002   2.69000000000000E+0002   2.69000000000000E+0002   2.69000000000000E+0002   2.69000000000000E+0002   2.69000000000000E+0002   2.69000000000000E+0002   2.69000000000000E+0002   2.69000000000000E+0002   2.69000000000000E+0002   2.69000000000000E+0002   2.69000000000000E+0002   2.69000000000000E+0002   2.69000000000000E+0002   2.69000000000000E+0002   2.69000000000000E+0002   2.69000000000000E+0002   2.69000000000000E+0002   2.69000000000000E+0002   2.69000000000000E+0002   2.69000000000000E+0002   2.69000000000000E+0002   2.69000000000000E+0002   2.69000000000000E+0002   2.69000000000000E+0002   2.69000000000000E+0002   2.69000000000000E+0002   2.69000000000000E+0002   2.69000000000000E+0002   2.69000000000000E+0002   2.69000000000000E+0002   2.69000000000000E+0002   2.69000000000000E+0002   2.69000000000000E+0002   2.69000000000000E+0002   2.69000000000000E+0002   2.69000000000000E+0002   2.69000000000000E+0002   2.69000000000000E+0002   2.69000000000000E+0002   2.69000000000000E+0002   2.69000000000000E+0002   2.69000000000000E+0002   2.69000000000000E+0002   2.69000000000000E+0002   2.69000000000000E+0002   2.69000000000000E+0002   2.69000000000000E+0002   2.69000000000000E+0002   2.69000000000000E+0002   2.69000000000000E+0002   2.69000000000000E+0002   2.69000000000000E+0002   2.69000000000000E+0002   2.69000000000000E+0002   2.69000000000000E+0002   2.69000000000000E+0002   2.69000000000000E+0002   2.69000000000000E+0002   2.69000000000000E+0002   2.69000000000000E+0002   2.69000000000000E+0002   2.69000000000000E+0002   2.69000000000000E+0002   2.69000000000000E+0002   2.69000000000000E+0002   2.69000000000000E+0002   2.69000000000000E+0002   2.69000000000000E+0002   2.69000000000000E+0002   2.69000000000000E+0002   2.69000000000000E+0002   2.69000000000000E+0002   2.69000000000000E+0002   2.69000000000000E+0002   2.69000000000000E+0002   2.69000000000000E+0002   2.69000000000000E+0002   2.69000000000000E+0002   2.69000000000000E+0002   2.69000000000000E+0002   2.69000000000000E+0002   2.69000000000000E+0002   2.69000000000000E+0002   2.69000000000000E+0002   2.69000000000000E+0002   2.69000000000000E+0002   2.69000000000000E+0002   2.69000000000000E+0002   2.69000000000000E+0002   2.69000000000000E+0002   2.69000000000000E+0002   2.69000000000000E+0002   2.69000000000000E+0002   2.69000000000000E+0002   2.69000000000000E+0002   2.69000000000000E+0002   2.69000000000000E+0002   2.69000000000000E+0002   2.69000000000000E+0002   2.69000000000000E+0002   2.69000000000000E+0002   2.69000000000000E+0002   2.69000000000000E+0002   2.69000000000000E+0002   2.69000000000000E+0002   2.69000000000000E+0002   2.69000000000000E+0002   2.69000000000000E+0002   2.69000000000000E+0002   2.69000000000000E+0002   2.69000000000000E+0002   2.69000000000000E+0002   2.69000000000000E+0002   2.69000000000000E+0002   2.69000000000000E+0002   2.69000000000000E+0002   2.69000000000000E+0002   2.69000000000000E+0002   2.69000000000000E+0002   2.69000000000000E+0002   2.69000000000000E+0002   2.69000000000000E+0002   2.69000000000000E+0002   2.69000000000000E+0002   2.69000000000000E+0002   2.69000000000000E+0002   2.69000000000000E+0002   2.69000000000000E+0002   2.69000000000000E+0002   2.69000000000000E+0002   2.69000000000000E+0002   2.69000000000000E+0002   2.69000000000000E+0002   2.69000000000000E+0002   2.69000000000000E+0002   2.69000000000000E+0002   2.69000000000000E+0002   2.69000000000000E+0002   2.69000000000000E+0002   2.69000000000000E+0002   2.69000000000000E+0002   2.69000000000000E+0002   2.69000000000000E+0002   2.69000000000000E+0002   2.69000000000000E+0002   2.69000000000000E+0002   2.69000000000000E+0002   2.69000000000000E+0002   2.69000000000000E+0002   2.69000000000000E+0002   2.69000000000000E+0002   2.69000000000000E+0002   2.69000000000000E+0002   2.69000000000000E+0002   2.69000000000000E+0002   2.69000000000000E+0002   2.69000000000000E+0002   2.69000000000000E+0002   2.69000000000000E+0002   2.69000000000000E+0002   2.69000000000000E+0002   2.69000000000000E+0002   2.69000000000000E+0002   2.69000000000000E+0002   2.69000000000000E+0002   2.69000000000000E+0002   2.69000000000000E+0002   2.69000000000000E+0002   2.69000000000000E+0002   2.69000000000000E+0002   2.69000000000000E+0002   2.69000000000000E+0002   2.69000000000000E+0002   2.69000000000000E+0002   2.69000000000000E+0002   2.69000000000000E+0002   2.69000000000000E+0002   2.69000000000000E+0002   2.69000000000000E+0002   2.69000000000000E+0002   2.69000000000000E+0002   2.69000000000000E+0002   2.69000000000000E+0002   2.69000000000000E+0002   2.69000000000000E+0002   2.69000000000000E+0002   2.69000000000000E+0002   2.69000000000000E+0002   2.69000000000000E+0002   2.69000000000000E+0002   2.69000000000000E+0002   2.69000000000000E+0002   2.69000000000000E+0002   2.69000000000000E+0002   2.69000000000000E+0002   2.69000000000000E+0002   2.69000000000000E+0002   2.69000000000000E+0002   2.69000000000000E+0002   2.69000000000000E+0002   2.69000000000000E+0002   2.69000000000000E+0002   2.69000000000000E+0002   2.69000000000000E+0002   2.69000000000000E+0002   2.69000000000000E+0002   2.69000000000000E+0002   2.69000000000000E+0002   2.69000000000000E+0002   2.69000000000000E+0002   2.69000000000000E+0002   2.69000000000000E+0002   2.69000000000000E+0002   2.69000000000000E+0002   2.69000000000000E+0002   2.69000000000000E+0002   2.69000000000000E+0002   2.69000000000000E+0002
   2.69000000000000E+0002   2.69000000000000E+0002   2.69000000000000E+0002   2.69000000000000E+0002   2.69000000000000E+0002   2.69000000000000E+0002   2.69000000000000E+0002   2.69000000000000E+0002   2.69000000000000E+0002   2.69000000000000E+0002   2.69000000000000E+0002   2.69000000000000E+0002   2.69000000000000E+0002   2.69000000000000E+0002   2.69000000000000E+0002   2.69000000000000E+0002   2.69000000000000E+0002   2.69000000000000E+0002   2.69000000000000E+0002   2.69000000000000E+0002   2.69000000000000E+0002   2.69000000000000E+0002   2.69000000000000E+0002   2.69000000000000E+0002   2.69000000000000E+0002   2.69000000000000E+0002   2.69000000000000E+0002   2.69000000000000E+0002   2.69000000000000E+0002   2.69000000000000E+0002   2.69000000000000E+0002   2.69000000000000E+0002   2.69000000000000E+0002   2.69000000000000E+0002   2.69000000000000E+0002   2.69000000000000E+0002   2.69000000000000E+0002   2.69000000000000E+0002   2.69000000000000E+0002   2.69000000000000E+0002   2.69000000000000E+0002   2.69000000000000E+0002   2.69000000000000E+0002   2.69000000000000E+0002   2.69000000000000E+0002   2.69000000000000E+0002   2.69000000000000E+0002   2.69000000000000E+0002   2.69000000000000E+0002   2.69000000000000E+0002   2.69000000000000E+0002   2.69000000000000E+0002   2.69000000000000E+0002   2.69000000000000E+0002   2.69000000000000E+0002   2.69000000000000E+0002   2.69000000000000E+0002   2.69000000000000E+0002   2.69000000000000E+0002   2.69000000000000E+0002   2.69000000000000E+0002   2.69000000000000E+0002   2.69000000000000E+0002   2.69000000000000E+0002   2.69000000000000E+0002   2.69000000000000E+0002   2.69000000000000E+0002   2.69000000000000E+0002   2.69000000000000E+0002   2.69000000000000E+0002   2.69000000000000E+0002   2.69000000000000E+0002   2.69000000000000E+0002   2.69000000000000E+0002   2.69000000000000E+0002   2.69000000000000E+0002   2.69000000000000E+0002   2.69000000000000E+0002   2.69000000000000E+0002   2.69000000000000E+0002   2.69000000000000E+0002   2.69000000000000E+0002   2.69000000000000E+0002   2.69000000000000E+0002   2.69000000000000E+0002   2.69000000000000E+0002   2.69000000000000E+0002   2.69000000000000E+0002   2.69000000000000E+0002   2.69000000000000E+0002   2.69000000000000E+0002   2.69000000000000E+0002   2.69000000000000E+0002   2.69000000000000E+0002   2.69000000000000E+0002   2.69000000000000E+0002   2.69000000000000E+0002   2.69000000000000E+0002   2.69000000000000E+0002   2.69000000000000E+0002   2.69000000000000E+0002   2.69000000000000E+0002   2.69000000000000E+0002   2.69000000000000E+0002   2.69000000000000E+0002   2.69000000000000E+0002   2.69000000000000E+0002   2.69000000000000E+0002   2.69000000000000E+0002   2.69000000000000E+0002   2.69000000000000E+0002   2.69000000000000E+0002   2.69000000000000E+0002   2.69000000000000E+0002   2.69000000000000E+0002   2.69000000000000E+0002   2.69000000000000E+0002   2.69000000000000E+0002   2.69000000000000E+0002   2.69000000000000E+0002   2.69000000000000E+0002   2.69000000000000E+0002   2.69000000000000E+0002   2.69000000000000E+0002   2.69000000000000E+0002   2.69000000000000E+0002   2.68874176025391E+0002   2.68793762207031E+0002   2.68586517333984E+0002   2.68353363037109E+0002   2.68107360839844E+0002   2.67808593750000E+0002   2.67087066650391E+0002   2.66232879638672E+0002   2.65884155273438E+0002   2.66045349121094E+0002   2.66467529296875E+0002   2.66290069580078E+0002   2.66054260253906E+0002   2.66253082275391E+0002   2.66619812011719E+0002   2.66533966064453E+0002   2.66502105712891E+0002   2.66796752929688E+0002   2.67136993408203E+0002   2.67126922607422E+0002   2.67187988281250E+0002   2.67459869384766E+0002   2.67687286376953E+0002   2.67677642822266E+0002   2.67746337890625E+0002   2.67939941406250E+0002   2.68022186279297E+0002   2.67947967529297E+0002   2.67949249267578E+0002   2.68064056396484E+0002   2.68233703613281E+0002   2.68259124755859E+0002   2.68224548339844E+0002   2.68271545410156E+0002   2.68346008300781E+0002   2.68292999267578E+0002   2.68241973876953E+0002   2.68276672363281E+0002   2.68302093505859E+0002   2.68196716308594E+0002   2.68133331298828E+0002   2.68165588378906E+0002   2.68143829345703E+0002   2.67992980957031E+0002   2.67928009033203E+0002   2.67968231201172E+0002   2.67873870849609E+0002   2.67640106201172E+0002   2.67528045654297E+0002   2.67588836669922E+0002   2.67747619628906E+0002   2.67695068359375E+0002   2.67565399169922E+0002   2.67604827880859E+0002   2.67736206054688E+0002   2.67653717041016E+0002   2.67560180664063E+0002   2.67646423339844E+0002   2.67796630859375E+0002   2.67734100341797E+0002   2.67695373535156E+0002   2.67823303222656E+0002   2.67989379882813E+0002   2.67973510742188E+0002   2.67990509033203E+0002   2.68130157470703E+0002   2.68271575927734E+0002   2.68262237548828E+0002   2.68268096923828E+0002   2.68342071533203E+0002   2.68376892089844E+0002   2.68275756835938E+0002   2.68208282470703E+0002   2.68227661132813E+0002   2.68207733154297E+0002   2.68069946289063E+0002   2.68034393310547E+0002   2.68144439697266E+0002   2.68203826904297E+0002   2.68135681152344E+0002   2.68167846679688E+0002   2.68332214355469E+0002   2.68595825195313E+0002   2.68751281738281E+0002   2.68861114501953E+0002   2.68936859130859E+0002   2.68981262207031E+0002   2.69000000000000E+0002   2.69000000000000E+0002   2.69000000000000E+0002   2.69000000000000E+0002   2.69000000000000E+0002   2.69000000000000E+0002   2.69000000000000E+0002   2.69000000000000E+0002   2.69000000000000E+0002   2.69000000000000E+0002   2.69000000000000E+0002   2.69000000000000E+0002   2.69000000000000E+0002   2.69000000000000E+0002   2.69000000000000E+0002   2.69000000000000E+0002   2.69000000000000E+0002   2.69000000000000E+0002   2.69000000000000E+0002   2.69000000000000E+0002   2.69000000000000E+0002
   2.69000000000000E+0002   2.69000000000000E+0002   2.69000000000000E+0002   2.69000000000000E+0002   2.69000000000000E+0002   2.69000000000000E+0002   2.69000000000000E+0002   2.69000000000000E+0002   2.69000000000000E+0002   2.69000000000000E+0002   2.69000000000000E+0002   2.69000000000000E+0002   2.69000000000000E+0002   2.69000000000000E+0002   2.69000000000000E+0002   2.69000000000000E+0002   2.69000000000000E+0002   2.69000000000000E+0002   2.69000000000000E+0002   2.69000000000000E+0002   2.69000000000000E+0002   2.69000000000000E+0002   2.69000000000000E+0002   2.69000000000000E+0002   2.69000000000000E+0002   2.69000000000000E+0002   2.69000000000000E+0002   2.69000000000000E+0002   2.69000000000000E+0002   2.69000000000000E+0002   2.69000000000000E+0002   2.69000000000000E+0002   2.69000000000000E+0002   2.69000000000000E+0002   2.69000000000000E+0002   2.69000000000000E+0002   2.69000000000000E+0002   2.69000000000000E+0002   2.69000000000000E+0002   2.69000000000000E+0002   2.69000000000000E+0002   2.69000000000000E+0002   2.69000000000000E+0002   2.69000000000000E+0002   2.69000000000000E+0002   2.69000000000000E+0002   2.69000000000000E+0002   2.69000000000000E+0002   2.69000000000000E+0002   2.69000000000000E+0002   2.69000000000000E+0002   2.69000000000000E+0002   2.69000000000000E+0002   2.69000000000000E+0002   2.69000000000000E+0002   2.69000000000000E+0002   2.69000000000000E+0002   2.69000000000000E+0002   2.69000000000000E+0002   2.69000000000000E+0002   2.69000000000000E+0002   2.69000000000000E+0002   2.69000000000000E+0002   2.69000000000000E+0002   2.69000000000000E+0002   2.69000000000000E+0002   2.69000000000000E+0002   2.69000000000000E+0002   2.69000000000000E+0002   2.69000000000000E+0002   2.69000000000000E+0002   2.69000000000000E+0002   2.69000000000000E+0002   2.69000000000000E+0002   2.69000000000000E+0002   2.69000000000000E+0002   2.69000000000000E+0002   2.69000000000000E+0002   2.69000000000000E+0002   2.69000000000000E+0002   2.69000000000000E+0002   2.69000000000000E+0002   2.69000000000000E+0002   2.69000000000000E+0002   2.69000000000000E+0002   2.69000000000000E+0002   2.69000000000000E+0002   2.69000000000000E+0002   2.69000000000000E+0002   2.69000000000000E+0002   2.69000000000000E+0002   2.69060241699219E+0002   2.69144927978516E+0002   2.69185089111328E+0002   2.69192993164063E+0002   2.69215179443359E+0002   2.69228912353516E+0002   2.69235321044922E+0002   2.69254821777344E+0002   2.69229797363281E+0002   2.69193176269531E+0002   2.69166900634766E+0002   2.69140014648438E+0002   2.69132446289063E+0002   2.69093658447266E+0002   2.69050354003906E+0002   2.69026702880859E+0002   2.69012908935547E+0002   2.69000000000000E+0002   2.69000000000000E+0002   2.69000000000000E+0002   2.69000000000000E+0002   2.69000000000000E+0002   2.69000000000000E+0002   2.69000000000000E+0002   2.69000000000000E+0002   2.69000000000000E+0002   2.69000000000000E+0002   2.69000000000000E+0002   2.69000000000000E+0002   2.68911743164063E+0002   2.68713989257813E+0002   2.68580200195313E+0002   2.68393585205078E+0002   2.68116516113281E+0002   2.67752593994141E+0002   2.67412231445313E+0002   2.67089965820313E+0002   2.66717437744141E+0002   2.66322235107422E+0002   2.65903717041016E+0002   2.65422485351563E+0002   2.64820770263672E+0002   2.64233551025391E+0002   2.63889251708984E+0002   2.63829223632813E+0002   2.63902343750000E+0002   2.63904663085938E+0002   2.63921234130859E+0002   2.64096710205078E+0002   2.64350769042969E+0002   2.64549377441406E+0002   2.64771179199219E+0002   2.65095153808594E+0002   2.65434265136719E+0002   2.65698486328125E+0002   2.65957061767578E+0002   2.66254547119141E+0002   2.66521606445313E+0002   2.66715179443359E+0002   2.66895385742188E+0002   2.67080718994141E+0002   2.67216003417969E+0002   2.67293182373047E+0002   2.67373565673828E+0002   2.67484649658203E+0002   2.67598236083984E+0002   2.67665313720703E+0002   2.67698883056641E+0002   2.67736358642578E+0002   2.67764495849609E+0002   2.67754302978516E+0002   2.67729919433594E+0002   2.67714843750000E+0002   2.67682800292969E+0002   2.67613037109375E+0002   2.67540954589844E+0002   2.67482238769531E+0002   2.67399658203125E+0002   2.67283264160156E+0002   2.67180328369141E+0002   2.67094299316406E+0002   2.66970642089844E+0002   2.66816131591797E+0002   2.66706756591797E+0002   2.66674133300781E+0002   2.66675445556641E+0002   2.66636505126953E+0002   2.66581787109375E+0002   2.66576812744141E+0002   2.66598632812500E+0002   2.66586639404297E+0002   2.66578857421875E+0002   2.66630218505859E+0002   2.66705596923828E+0002   2.66750762939453E+0002   2.66810485839844E+0002   2.66930297851563E+0002   2.67072082519531E+0002   2.67189178466797E+0002   2.67316436767578E+0002   2.67477935791016E+0002   2.67630371093750E+0002   2.67731201171875E+0002   2.67800933837891E+0002   2.67850372314453E+0002   2.67846588134766E+0002   2.67774353027344E+0002   2.67677642822266E+0002   2.67585571289063E+0002   2.67481597900391E+0002   2.67374237060547E+0002   2.67328582763672E+0002   2.67365814208984E+0002   2.67435058593750E+0002   2.67516571044922E+0002   2.67656677246094E+0002   2.67870849609375E+0002   2.68123474121094E+0002   2.68348602294922E+0002   2.68531707763672E+0002   2.68678771972656E+0002   2.68791656494141E+0002   2.68874389648438E+0002   2.68943969726563E+0002   2.68990600585938E+0002   2.69000000000000E+0002   2.69000000000000E+0002   2.69000000000000E+0002   2.69000000000000E+0002   2.69000000000000E+0002   2.69000000000000E+0002   2.69000000000000E+0002   2.69000000000000E+0002   2.69000000000000E+0002   2.69000000000000E+0002   2.69000000000000E+0002   2.69000000000000E+0002   2.69000000000000E+0002   2.69000000000000E+0002   2.69000000000000E+0002   2.69000000000000E+0002   2.69000000000000E+0002   2.69000000000000E+0002
   2.69000000000000E+0002   2.69000000000000E+0002   2.69000000000000E+0002   2.69000000000000E+0002   2.69000000000000E+0002   2.69000000000000E+0002   2.69000000000000E+0002   2.69000000000000E+0002   2.69000000000000E+0002   2.69000000000000E+0002   2.69000000000000E+0002   2.69000000000000E+0002   2.69000000000000E+0002   2.69000000000000E+0002   2.69000000000000E+0002   2.69000000000000E+0002   2.69000000000000E+0002   2.69000000000000E+0002   2.69000000000000E+0002   2.69000000000000E+0002   2.69000000000000E+0002   2.69000000000000E+0002   2.69000000000000E+0002   2.69000000000000E+0002   2.69000000000000E+0002   2.69000000000000E+0002   2.69000000000000E+0002   2.69000000000000E+0002   2.69000000000000E+0002   2.69000000000000E+0002   2.69000000000000E+0002   2.69000000000000E+0002   2.69000000000000E+0002   2.69000000000000E+0002   2.69000000000000E+0002   2.69000000000000E+0002   2.69000000000000E+0002   2.69000000000000E+0002   2.69000000000000E+0002   2.69000000000000E+0002   2.69000000000000E+0002   2.69000000000000E+0002   2.69000000000000E+0002   2.69000000000000E+0002   2.69000000000000E+0002   2.69000000000000E+0002   2.69000000000000E+0002   2.69000000000000E+0002   2.69000000000000E+0002   2.69000000000000E+0002   2.69000000000000E+0002   2.69000000000000E+0002   2.69000000000000E+0002   2.69000000000000E+0002   2.69000000000000E+0002   2.69000000000000E+0002   2.69000000000000E+0002   2.69000000000000E+0002   2.69000000000000E+0002   2.69000000000000E+0002   2.69000000000000E+0002   2.69000000000000E+0002   2.69000000000000E+0002   2.69000000000000E+0002   2.69000000000000E+0002   2.69000000000000E+0002   2.69000000000000E+0002   2.69000000000000E+0002   2.69000000000000E+0002   2.69000000000000E+0002   2.69000000000000E+0002   2.69000000000000E+0002   2.69000000000000E+0002   2.69000000000000E+0002   2.69000000000000E+0002   2.69000000000000E+0002   2.69000000000000E+0002   2.69000000000000E+0002   2.69000000000000E+0002   2.69000000000000E+0002   2.69000000000000E+0002   2.69000000000000E+0002   2.69000000000000E+0002   2.69000000000000E+0002   2.69000000000000E+0002   2.69000000000000E+0002   2.69000000000000E+0002   2.69160461425781E+0002   2.69293945312500E+0002   2.69386383056641E+0002   2.69487396240234E+0002   2.69577392578125E+0002   2.69657745361328E+0002   2.69711456298828E+0002   2.69738800048828E+0002   2.69756134033203E+0002   2.69762268066406E+0002   2.69757843017578E+0002   2.69743469238281E+0002   2.69708740234375E+0002   2.69658874511719E+0002   2.69604309082031E+0002   2.69546386718750E+0002   2.69486785888672E+0002   2.69415496826172E+0002   2.69338104248047E+0002   2.69265716552734E+0002   2.69198150634766E+0002   2.69137634277344E+0002   2.69077301025391E+0002   2.69019592285156E+0002   2.68968994140625E+0002   2.68920349121094E+0002   2.68863586425781E+0002   2.68815368652344E+0002   2.68759826660156E+0002   2.68678222656250E+0002   2.68553466796875E+0002   2.68421997070313E+0002   2.68261474609375E+0002   2.68035125732422E+0002   2.67741546630859E+0002   2.67419250488281E+0002   2.67060729980469E+0002   2.66639007568359E+0002   2.66165771484375E+0002   2.65673919677734E+0002   2.65172851562500E+0002   2.64650970458984E+0002   2.64112121582031E+0002   2.63559173583984E+0002   2.62988433837891E+0002   2.62413452148438E+0002   2.61904876708984E+0002   2.61553222656250E+0002   2.61386596679688E+0002   2.61356842041016E+0002   2.61405059814453E+0002   2.61536956787109E+0002   2.61777557373047E+0002   2.62100799560547E+0002   2.62465209960938E+0002   2.62870208740234E+0002   2.63319396972656E+0002   2.63780029296875E+0002   2.64219146728516E+0002   2.64638610839844E+0002   2.65041503906250E+0002   2.65408142089844E+0002   2.65725433349609E+0002   2.66003509521484E+0002   2.66247680664063E+0002   2.66449066162109E+0002   2.66610107421875E+0002   2.66750183105469E+0002   2.66881500244141E+0002   2.66997192382813E+0002   2.67084838867188E+0002   2.67145904541016E+0002   2.67188812255859E+0002   2.67211761474609E+0002   2.67209594726563E+0002   2.67187164306641E+0002   2.67149475097656E+0002   2.67091125488281E+0002   2.67008789062500E+0002   2.66910675048828E+0002   2.66801269531250E+0002   2.66674530029297E+0002   2.66531250000000E+0002   2.66383728027344E+0002   2.66234832763672E+0002   2.66077178955078E+0002   2.65919281005859E+0002   2.65786621093750E+0002   2.65692199707031E+0002   2.65623382568359E+0002   2.65560943603516E+0002   2.65508941650391E+0002   2.65482116699219E+0002   2.65476257324219E+0002   2.65479766845703E+0002   2.65500976562500E+0002   2.65552856445313E+0002   2.65628448486328E+0002   2.65717864990234E+0002   2.65832122802734E+0002   2.65983825683594E+0002   2.66165313720703E+0002   2.66364410400391E+0002   2.66581634521484E+0002   2.66811920166016E+0002   2.67030364990234E+0002   2.67209289550781E+0002   2.67334533691406E+0002   2.67394897460938E+0002   2.67376281738281E+0002   2.67277770996094E+0002   2.67120910644531E+0002   2.66934295654297E+0002   2.66744812011719E+0002   2.66588867187500E+0002   2.66509704589844E+0002   2.66528442382813E+0002   2.66634979248047E+0002   2.66813659667969E+0002   2.67056823730469E+0002   2.67348968505859E+0002   2.67658721923828E+0002   2.67950958251953E+0002   2.68206176757813E+0002   2.68419525146484E+0002   2.68591827392578E+0002   2.68727905273438E+0002   2.68834838867188E+0002   2.68915161132813E+0002   2.68970153808594E+0002   2.69000000000000E+0002   2.69000000000000E+0002   2.69000000000000E+0002   2.69000000000000E+0002   2.69000000000000E+0002   2.69000000000000E+0002   2.69000000000000E+0002   2.69000000000000E+0002   2.69000000000000E+0002   2.69000000000000E+0002   2.69000000000000E+0002   2.69000000000000E+0002   2.69000000000000E+0002   2.69000000000000E+0002   2.69000000000000E+0002   2.69000000000000E+0002   2.69000000000000E+0002
   2.69000000000000E+0002   2.69000000000000E+0002   2.69000000000000E+0002   2.69000000000000E+0002   2.69000000000000E+0002   2.69000000000000E+0002   2.69000000000000E+0002   2.69000000000000E+0002   2.69000000000000E+0002   2.69000000000000E+0002   2.69000000000000E+0002   2.69000000000000E+0002   2.69000000000000E+0002   2.69000000000000E+0002   2.69000000000000E+0002   2.69000000000000E+0002   2.69000000000000E+0002   2.69000000000000E+0002   2.69000000000000E+0002   2.69000000000000E+0002   2.69000000000000E+0002   2.69000000000000E+0002   2.69000000000000E+0002   2.69000000000000E+0002   2.69000000000000E+0002   2.69000000000000E+0002   2.69000000000000E+0002   2.69000000000000E+0002   2.69000000000000E+0002   2.69000000000000E+0002   2.69000000000000E+0002   2.69000000000000E+0002   2.69000000000000E+0002   2.69000000000000E+0002   2.69000000000000E+0002   2.69000000000000E+0002   2.69000000000000E+0002   2.69000000000000E+0002   2.69000000000000E+0002   2.69000000000000E+0002   2.69000000000000E+0002   2.69000000000000E+0002   2.69000000000000E+0002   2.69000000000000E+0002   2.69000000000000E+0002   2.69000000000000E+0002   2.69000000000000E+0002   2.69000000000000E+0002   2.69000000000000E+0002   2.69000000000000E+0002   2.69000000000000E+0002   2.69000000000000E+0002   2.69000000000000E+0002   2.69000000000000E+0002   2.69000000000000E+0002   2.69000000000000E+0002   2.69000000000000E+0002   2.69000000000000E+0002   2.69000000000000E+0002   2.69000000000000E+0002   2.69000000000000E+0002   2.69000000000000E+0002   2.69000000000000E+0002   2.69000000000000E+0002   2.69000000000000E+0002   2.69000000000000E+0002   2.69000000000000E+0002   2.69000000000000E+0002   2.69000000000000E+0002   2.69000000000000E+0002   2.69000000000000E+0002   2.69000000000000E+0002   2.69000000000000E+0002   2.69000000000000E+0002   2.69000000000000E+0002   2.69000000000000E+0002   2.69000000000000E+0002   2.69000000000000E+0002   2.69000000000000E+0002   2.69000000000000E+0002   2.69000000000000E+0002   2.69000000000000E+0002   2.69000000000000E+0002   2.69000000000000E+0002   2.69169433593750E+0002   2.69349456787109E+0002   2.69521667480469E+0002   2.69702026367188E+0002   2.69859008789063E+0002   2.69984771728516E+0002   2.70093292236328E+0002   2.70185150146484E+0002   2.70258544921875E+0002   2.70309478759766E+0002   2.70338134765625E+0002   2.70348968505859E+0002   2.70343872070313E+0002   2.70323364257813E+0002   2.70286804199219E+0002   2.70232574462891E+0002   2.70162414550781E+0002   2.70080291748047E+0002   2.69988372802734E+0002   2.69887207031250E+0002   2.69775939941406E+0002   2.69657135009766E+0002   2.69535278320313E+0002   2.69412689208984E+0002   2.69290161132813E+0002   2.69166809082031E+0002   2.69042938232422E+0002   2.68918884277344E+0002   2.68791839599609E+0002   2.68658325195313E+0002   2.68517364501953E+0002   2.68361022949219E+0002   2.68177368164063E+0002   2.67959259033203E+0002   2.67708312988281E+0002   2.67415527343750E+0002   2.67066284179688E+0002   2.66658721923828E+0002   2.66200805664063E+0002   2.65693267822266E+0002   2.65132476806641E+0002   2.64525573730469E+0002   2.63887207031250E+0002   2.63227966308594E+0002   2.62553314208984E+0002   2.61871154785156E+0002   2.61192077636719E+0002   2.60530883789063E+0002   2.59915100097656E+0002   2.59390899658203E+0002   2.59006835937500E+0002   2.58787109375000E+0002   2.58725219726563E+0002   2.58804229736328E+0002   2.59016662597656E+0002   2.59356170654297E+0002   2.59801879882813E+0002   2.60325622558594E+0002   2.60905212402344E+0002   2.61519775390625E+0002   2.62142395019531E+0002   2.62748199462891E+0002   2.63322967529297E+0002   2.63857177734375E+0002   2.64340240478516E+0002   2.64766021728516E+0002   2.65135894775391E+0002   2.65453033447266E+0002   2.65719696044922E+0002   2.65941711425781E+0002   2.66128967285156E+0002   2.66288818359375E+0002   2.66422241210938E+0002   2.66527343750000E+0002   2.66604675292969E+0002   2.66656280517578E+0002   2.66682006835938E+0002   2.66680908203125E+0002   2.66653594970703E+0002   2.66600738525391E+0002   2.66521270751953E+0002   2.66415100097656E+0002   2.66284973144531E+0002   2.66133728027344E+0002   2.65962890625000E+0002   2.65776275634766E+0002   2.65580383300781E+0002   2.65380493164063E+0002   2.65180755615234E+0002   2.64989685058594E+0002   2.64819366455078E+0002   2.64677185058594E+0002   2.64561798095703E+0002   2.64469116210938E+0002   2.64399810791016E+0002   2.64357238769531E+0002   2.64340789794922E+0002   2.64348327636719E+0002   2.64381622314453E+0002   2.64443756103516E+0002   2.64534271240234E+0002   2.64653228759766E+0002   2.64806274414063E+0002   2.65000396728516E+0002   2.65237426757813E+0002   2.65514617919922E+0002   2.65825103759766E+0002   2.66152496337891E+0002   2.66467956542969E+0002   2.66737091064453E+0002   2.66928344726563E+0002   2.67016632080078E+0002   2.66985992431641E+0002   2.66836639404297E+0002   2.66589202880859E+0002   2.66282745361328E+0002   2.65971099853516E+0002   2.65717834472656E+0002   2.65581970214844E+0002   2.65596496582031E+0002   2.65758758544922E+0002   2.66040252685547E+0002   2.66402252197266E+0002   2.66804351806641E+0002   2.67208709716797E+0002   2.67585174560547E+0002   2.67915893554688E+0002   2.68194335937500E+0002   2.68421234130859E+0002   2.68601379394531E+0002   2.68741119384766E+0002   2.68846038818359E+0002   2.68920989990234E+0002   2.68970001220703E+0002   2.68997192382813E+0002   2.69000000000000E+0002   2.69000000000000E+0002   2.69000000000000E+0002   2.69000000000000E+0002   2.69000000000000E+0002   2.69000000000000E+0002   2.69000000000000E+0002   2.69000000000000E+0002   2.69000000000000E+0002   2.69000000000000E+0002   2.69000000000000E+0002   2.69000000000000E+0002   2.69000000000000E+0002   2.69000000000000E+0002   2.69000000000000E+0002
   2.69000000000000E+0002   2.69000000000000E+0002   2.69000000000000E+0002   2.69000000000000E+0002   2.69000000000000E+0002   2.69000000000000E+0002   2.69000000000000E+0002   2.69000000000000E+0002   2.69000000000000E+0002   2.69000000000000E+0002   2.69000000000000E+0002   2.69000000000000E+0002   2.69000000000000E+0002   2.69000000000000E+0002   2.69000000000000E+0002   2.69000000000000E+0002   2.69000000000000E+0002   2.69000000000000E+0002   2.69000000000000E+0002   2.69000000000000E+0002   2.69000000000000E+0002   2.69000000000000E+0002   2.69000000000000E+0002   2.69000000000000E+0002   2.69000000000000E+0002   2.69000000000000E+0002   2.69000000000000E+0002   2.69000000000000E+0002   2.69000000000000E+0002   2.69000000000000E+0002   2.69000000000000E+0002   2.69000000000000E+0002   2.69000000000000E+0002   2.69000000000000E+0002   2.69000000000000E+0002   2.69000000000000E+0002   2.69000000000000E+0002   2.69000000000000E+0002   2.69000000000000E+0002   2.69000000000000E+0002   2.69000000000000E+0002   2.69000000000000E+0002   2.69000000000000E+0002   2.69000000000000E+0002   2.69000000000000E+0002   2.69000000000000E+0002   2.69000000000000E+0002   2.69000000000000E+0002   2.69000000000000E+0002   2.69000000000000E+0002   2.69000000000000E+0002   2.69000000000000E+0002   2.69000000000000E+0002   2.69000000000000E+0002   2.69000000000000E+0002   2.69000000000000E+0002   2.69000000000000E+0002   2.69000000000000E+0002   2.69000000000000E+0002   2.69000000000000E+0002   2.69000000000000E+0002   2.69000000000000E+0002   2.69000000000000E+0002   2.69000000000000E+0002   2.69000000000000E+0002   2.69000000000000E+0002   2.69000000000000E+0002   2.69000000000000E+0002   2.69000000000000E+0002   2.69000000000000E+0002   2.69000000000000E+0002   2.69000000000000E+0002   2.69000000000000E+0002   2.69000000000000E+0002   2.69000000000000E+0002   2.69000000000000E+0002   2.69000000000000E+0002   2.69000000000000E+0002   2.69000000000000E+0002   2.69000000000000E+0002   2.69000000000000E+0002   2.69000000000000E+0002   2.69208404541016E+0002   2.69450927734375E+0002   2.69711975097656E+0002   2.69946472167969E+0002   2.70149414062500E+0002   2.70332794189453E+0002   2.70492492675781E+0002   2.70626251220703E+0002   2.70737152099609E+0002   2.70826904296875E+0002   2.70895080566406E+0002   2.70940734863281E+0002   2.70964050292969E+0002   2.70966400146484E+0002   2.70948944091797E+0002   2.70912048339844E+0002   2.70855621337891E+0002   2.70779571533203E+0002   2.70684844970703E+0002   2.70573272705078E+0002   2.70446441650391E+0002   2.70305419921875E+0002   2.70151275634766E+0002   2.69986114501953E+0002   2.69812652587891E+0002   2.69633087158203E+0002   2.69448699951172E+0002   2.69259948730469E+0002   2.69066894531250E+0002   2.68868927001953E+0002   2.68663879394531E+0002   2.68448516845703E+0002   2.68218627929688E+0002   2.67967376708984E+0002   2.67686370849609E+0002   2.67368377685547E+0002   2.67007781982422E+0002   2.66597045898438E+0002   2.66128509521484E+0002   2.65598785400391E+0002   2.65008819580078E+0002   2.64360015869141E+0002   2.63654876708984E+0002   2.62900268554688E+0002   2.62107055664063E+0002   2.61287048339844E+0002   2.60452301025391E+0002   2.59617034912109E+0002   2.58799285888672E+0002   2.58022705078125E+0002   2.57319061279297E+0002   2.56727508544922E+0002   2.56286651611328E+0002   2.56023773193359E+0002   2.55950225830078E+0002   2.56065490722656E+0002   2.56361816406250E+0002   2.56823059082031E+0002   2.57422576904297E+0002   2.58126739501953E+0002   2.58900482177734E+0002   2.59709442138672E+0002   2.60520812988281E+0002   2.61306365966797E+0002   2.62045104980469E+0002   2.62722534179688E+0002   2.63329132080078E+0002   2.63860839843750E+0002   2.64318908691406E+0002   2.64707946777344E+0002   2.65034454345703E+0002   2.65306457519531E+0002   2.65532897949219E+0002   2.65721038818359E+0002   2.65875030517578E+0002   2.65996795654297E+0002   2.66087646484375E+0002   2.66148284912109E+0002   2.66178497314453E+0002   2.66177398681641E+0002   2.66144073486328E+0002   2.66077758789063E+0002   2.65977722167969E+0002   2.65844146728516E+0002   2.65678894042969E+0002   2.65484985351563E+0002   2.65266387939453E+0002   2.65028778076172E+0002   2.64779235839844E+0002   2.64525329589844E+0002   2.64274963378906E+0002   2.64037139892578E+0002   2.63821014404297E+0002   2.63633300781250E+0002   2.63476867675781E+0002   2.63352539062500E+0002   2.63261260986328E+0002   2.63203979492188E+0002   2.63180389404297E+0002   2.63189453125000E+0002   2.63230804443359E+0002   2.63304534912109E+0002   2.63411132812500E+0002   2.63553009033203E+0002   2.63736694335938E+0002   2.63971740722656E+0002   2.64267486572266E+0002   2.64628448486328E+0002   2.65048095703125E+0002   2.65502838134766E+0002   2.65951477050781E+0002   2.66342681884766E+0002   2.66625671386719E+0002   2.66758972167969E+0002   2.66716979980469E+0002   2.66495758056641E+0002   2.66118103027344E+0002   2.65637359619141E+0002   2.65137573242188E+0002   2.64724121093750E+0002   2.64496582031250E+0002   2.64511505126953E+0002   2.64760864257813E+0002   2.65185272216797E+0002   2.65707214355469E+0002   2.66257812500000E+0002   2.66787353515625E+0002   2.67265380859375E+0002   2.67677276611328E+0002   2.68019622802734E+0002   2.68295867919922E+0002   2.68513031005859E+0002   2.68679321289063E+0002   2.68802734375000E+0002   2.68890533447266E+0002   2.68949432373047E+0002   2.68984863281250E+0002   2.69000000000000E+0002   2.69000000000000E+0002   2.69000000000000E+0002   2.69000000000000E+0002   2.69000000000000E+0002   2.69000000000000E+0002   2.69000000000000E+0002   2.69000000000000E+0002   2.69000000000000E+0002   2.69000000000000E+0002   2.69000000000000E+0002   2.69000000000000E+0002   2.69000000000000E+0002   2.69000000000000E+0002   2.69000000000000E+0002
   2.69000000000000E+0002   2.69000000000000E+0002   2.69000000000000E+0002   2.69000000000000E+0002   2.69000000000000E+0002   2.69000000000000E+0002   2.69000000000000E+0002   2.69000000000000E+0002   2.69000000000000E+0002   2.69000000000000E+0002   2.69000000000000E+0002   2.69000000000000E+0002   2.69000000000000E+0002   2.69000000000000E+0002   2.69000000000000E+0002   2.69000000000000E+0002   2.69000000000000E+0002   2.69000000000000E+0002   2.69000000000000E+0002   2.69000000000000E+0002   2.69000000000000E+0002   2.69000000000000E+0002   2.69000000000000E+0002   2.69000000000000E+0002   2.69000000000000E+0002   2.69000000000000E+0002   2.69000000000000E+0002   2.69000000000000E+0002   2.69000000000000E+0002   2.69000000000000E+0002   2.69000000000000E+0002   2.69000000000000E+0002   2.69000000000000E+0002   2.69000000000000E+0002   2.69000000000000E+0002   2.69000000000000E+0002   2.69000000000000E+0002   2.69000000000000E+0002   2.69000000000000E+0002   2.69000000000000E+0002   2.69000000000000E+0002   2.69000000000000E+0002   2.69000000000000E+0002   2.69000000000000E+0002   2.69000000000000E+0002   2.69000000000000E+0002   2.69000000000000E+0002   2.69000000000000E+0002   2.69000000000000E+0002   2.69000000000000E+0002   2.69000000000000E+0002   2.69000000000000E+0002   2.69000000000000E+0002   2.69000000000000E+0002   2.69000000000000E+0002   2.69000000000000E+0002   2.69000000000000E+0002   2.69000000000000E+0002   2.69000000000000E+0002   2.69000000000000E+0002   2.69000000000000E+0002   2.69000000000000E+0002   2.69000000000000E+0002   2.69000000000000E+0002   2.69000000000000E+0002   2.69000000000000E+0002   2.69000000000000E+0002   2.69000000000000E+0002   2.69000000000000E+0002   2.69000000000000E+0002   2.69000000000000E+0002   2.69000000000000E+0002   2.69000000000000E+0002   2.69000000000000E+0002   2.69000000000000E+0002   2.69000000000000E+0002   2.69000000000000E+0002   2.69000000000000E+0002   2.69000000000000E+0002   2.69000000000000E+0002   2.69166778564453E+0002   2.69503784179688E+0002   2.69820617675781E+0002   2.70102935791016E+0002   2.70368225097656E+0002   2.70607330322266E+0002   2.70817687988281E+0002   2.71002288818359E+0002   2.71161895751953E+0002   2.71296478271484E+0002   2.71406921386719E+0002   2.71493896484375E+0002   2.71557403564453E+0002   2.71597106933594E+0002   2.71613067626953E+0002   2.71605682373047E+0002   2.71575286865234E+0002   2.71522094726563E+0002   2.71445983886719E+0002   2.71347076416016E+0002   2.71225830078125E+0002   2.71083221435547E+0002   2.70920379638672E+0002   2.70738616943359E+0002   2.70539459228516E+0002   2.70325012207031E+0002   2.70097625732422E+0002   2.69859588623047E+0002   2.69612670898438E+0002   2.69357910156250E+0002   2.69095642089844E+0002   2.68825225830078E+0002   2.68544586181641E+0002   2.68250305175781E+0002   2.67937316894531E+0002   2.67598846435547E+0002   2.67226989746094E+0002   2.66813568115234E+0002   2.66350646972656E+0002   2.65830413818359E+0002   2.65245971679688E+0002   2.64593048095703E+0002   2.63870300292969E+0002   2.63078948974609E+0002   2.62222961425781E+0002   2.61309783935547E+0002   2.60350341796875E+0002   2.59358245849609E+0002   2.58349578857422E+0002   2.57343688964844E+0002   2.56364318847656E+0002   2.55440917968750E+0002   2.54609252929688E+0002   2.53910079956055E+0002   2.53384567260742E+0002   2.53067947387695E+0002   2.52984222412109E+0002   2.53143188476563E+0002   2.53538940429688E+0002   2.54149322509766E+0002   2.54937591552734E+0002   2.55857543945313E+0002   2.56859771728516E+0002   2.57896667480469E+0002   2.58925689697266E+0002   2.59911743164063E+0002   2.60828674316406E+0002   2.61659027099609E+0002   2.62393371582031E+0002   2.63029388427734E+0002   2.63570770263672E+0002   2.64025360107422E+0002   2.64403442382813E+0002   2.64716186523438E+0002   2.64974334716797E+0002   2.65186737060547E+0002   2.65359649658203E+0002   2.65496887207031E+0002   2.65600311279297E+0002   2.65670349121094E+0002   2.65706115722656E+0002   2.65705810546875E+0002   2.65667297363281E+0002   2.65588439941406E+0002   2.65467681884766E+0002   2.65304809570313E+0002   2.65101348876953E+0002   2.64860839843750E+0002   2.64588867187500E+0002   2.64292938232422E+0002   2.63982116699219E+0002   2.63666473388672E+0002   2.63356323242188E+0002   2.63062072753906E+0002   2.62793243408203E+0002   2.62557373046875E+0002   2.62359436035156E+0002   2.62202453613281E+0002   2.62087951660156E+0002   2.62016387939453E+0002   2.61986968994141E+0002   2.61997924804688E+0002   2.62047088623047E+0002   2.62132385253906E+0002   2.62252960205078E+0002   2.62411224365234E+0002   2.62615447998047E+0002   2.62881408691406E+0002   2.63230255126953E+0002   2.63680419921875E+0002   2.64232818603516E+0002   2.64857421875000E+0002   2.65492401123047E+0002   2.66057922363281E+0002   2.66475128173828E+0002   2.66680053710938E+0002   2.66631561279297E+0002   2.66316314697266E+0002   2.65755584716797E+0002   2.65015594482422E+0002   2.64218475341797E+0002   2.63538818359375E+0002   2.63159240722656E+0002   2.63184997558594E+0002   2.63586669921875E+0002   2.64235412597656E+0002   2.64987152099609E+0002   2.65735504150391E+0002   2.66419891357422E+0002   2.67013244628906E+0002   2.67508880615234E+0002   2.67911071777344E+0002   2.68229309082031E+0002   2.68474975585938E+0002   2.68659606933594E+0002   2.68793853759766E+0002   2.68887145996094E+0002   2.68947814941406E+0002   2.68983001708984E+0002   2.68997833251953E+0002   2.69000000000000E+0002   2.69000000000000E+0002   2.69000000000000E+0002   2.69000000000000E+0002   2.69000000000000E+0002   2.69000000000000E+0002   2.69000000000000E+0002   2.69000000000000E+0002   2.69000000000000E+0002   2.69000000000000E+0002   2.69000000000000E+0002   2.69000000000000E+0002   2.69000000000000E+0002   2.69000000000000E+0002
   2.69000000000000E+0002   2.69000000000000E+0002   2.69000000000000E+0002   2.69000000000000E+0002   2.69000000000000E+0002   2.69000000000000E+0002   2.69000000000000E+0002   2.69000000000000E+0002   2.69000000000000E+0002   2.69000000000000E+0002   2.69000000000000E+0002   2.69000000000000E+0002   2.69000000000000E+0002   2.69000000000000E+0002   2.69000000000000E+0002   2.69000000000000E+0002   2.69000000000000E+0002   2.69000000000000E+0002   2.69000000000000E+0002   2.69000000000000E+0002   2.69000000000000E+0002   2.69000000000000E+0002   2.69000000000000E+0002   2.69000000000000E+0002   2.69000000000000E+0002   2.69000000000000E+0002   2.69000000000000E+0002   2.69000000000000E+0002   2.69000000000000E+0002   2.69000000000000E+0002   2.69000000000000E+0002   2.69000000000000E+0002   2.69000000000000E+0002   2.69000000000000E+0002   2.69000000000000E+0002   2.69000000000000E+0002   2.69000000000000E+0002   2.69000000000000E+0002   2.69000000000000E+0002   2.69000000000000E+0002   2.69000000000000E+0002   2.69000000000000E+0002   2.69000000000000E+0002   2.69000000000000E+0002   2.69000000000000E+0002   2.69000000000000E+0002   2.69000000000000E+0002   2.69000000000000E+0002   2.69000000000000E+0002   2.69000000000000E+0002   2.69000000000000E+0002   2.69000000000000E+0002   2.69000000000000E+0002   2.69000000000000E+0002   2.69000000000000E+0002   2.69000000000000E+0002   2.69000000000000E+0002   2.69000000000000E+0002   2.69000000000000E+0002   2.69000000000000E+0002   2.69000000000000E+0002   2.69000000000000E+0002   2.69000000000000E+0002   2.69000000000000E+0002   2.69000000000000E+0002   2.69000000000000E+0002   2.69000000000000E+0002   2.69000000000000E+0002   2.69000000000000E+0002   2.69000000000000E+0002   2.69000000000000E+0002   2.69000000000000E+0002   2.69000000000000E+0002   2.69000000000000E+0002   2.69000000000000E+0002   2.69000000000000E+0002   2.69000000000000E+0002   2.69000000000000E+0002   2.69132781982422E+0002   2.69481475830078E+0002   2.69828338623047E+0002   2.70184661865234E+0002   2.70512817382813E+0002   2.70806152343750E+0002   2.71070404052734E+0002   2.71307098388672E+0002   2.71516693115234E+0002   2.71700378417969E+0002   2.71858886718750E+0002   2.71992462158203E+0002   2.72101287841797E+0002   2.72185333251953E+0002   2.72244354248047E+0002   2.72278015136719E+0002   2.72286041259766E+0002   2.72268402099609E+0002   2.72224945068359E+0002   2.72155487060547E+0002   2.72059692382813E+0002   2.71937408447266E+0002   2.71788635253906E+0002   2.71613800048828E+0002   2.71413757324219E+0002   2.71189697265625E+0002   2.70943420410156E+0002   2.70677154541016E+0002   2.70393554687500E+0002   2.70095245361328E+0002   2.69784576416016E+0002   2.69463348388672E+0002   2.69132354736328E+0002   2.68791320800781E+0002   2.68438354492188E+0002   2.68069854736328E+0002   2.67680358886719E+0002   2.67262573242188E+0002   2.66807830810547E+0002   2.66306671142578E+0002   2.65749420166016E+0002   2.65126800537109E+0002   2.64430877685547E+0002   2.63655944824219E+0002   2.62799407958984E+0002   2.61861907958984E+0002   2.60847717285156E+0002   2.59765014648438E+0002   2.58625823974609E+0002   2.57445739746094E+0002   2.56244079589844E+0002   2.55044036865234E+0002   2.53873870849609E+0002   2.52767761230469E+0002   2.51766632080078E+0002   2.50917633056641E+0002   2.50271377563477E+0002   2.49876571655273E+0002   2.49772598266602E+0002   2.49981002807617E+0002   2.50498687744141E+0002   2.51295837402344E+0002   2.52320190429688E+0002   2.53506164550781E+0002   2.54785079956055E+0002   2.56092864990234E+0002   2.57374816894531E+0002   2.58587585449219E+0002   2.59700012207031E+0002   2.60692626953125E+0002   2.61556793212891E+0002   2.62293121337891E+0002   2.62909637451172E+0002   2.63419342041016E+0002   2.63837615966797E+0002   2.64180114746094E+0002   2.64460937500000E+0002   2.64691406250000E+0002   2.64879608154297E+0002   2.65030456542969E+0002   2.65146087646484E+0002   2.65226440429688E+0002   2.65269622802734E+0002   2.65272399902344E+0002   2.65230865478516E+0002   2.65141113281250E+0002   2.65000061035156E+0002   2.64806304931641E+0002   2.64561065673828E+0002   2.64268402099609E+0002   2.63935455322266E+0002   2.63571990966797E+0002   2.63189849853516E+0002   2.62801971435547E+0002   2.62421539306641E+0002   2.62061157226563E+0002   2.61731964111328E+0002   2.61442993164063E+0002   2.61200805664063E+0002   2.61009582519531E+0002   2.60871368408203E+0002   2.60786346435547E+0002   2.60752990722656E+0002   2.60768127441406E+0002   2.60827270507813E+0002   2.60925384521484E+0002   2.61058044433594E+0002   2.61224731445313E+0002   2.61433685302734E+0002   2.61708251953125E+0002   2.62089508056641E+0002   2.62625549316406E+0002   2.63340454101563E+0002   2.64199279785156E+0002   2.65103607177734E+0002   2.65924468994141E+0002   2.66540710449219E+0002   2.66859161376953E+0002   2.66818572998047E+0002   2.66390075683594E+0002   2.65582977294922E+0002   2.64463500976563E+0002   2.63190429687500E+0002   2.62049438476563E+0002   2.61402557373047E+0002   2.61474853515625E+0002   2.62170684814453E+0002   2.63193542480469E+0002   2.64279815673828E+0002   2.65283203125000E+0002   2.66146728515625E+0002   2.66860473632813E+0002   2.67434661865234E+0002   2.67886657714844E+0002   2.68235137939453E+0002   2.68497650146484E+0002   2.68689910888672E+0002   2.68825378417969E+0002   2.68915588378906E+0002   2.68970336914063E+0002   2.68997863769531E+0002   2.69005310058594E+0002   2.69000000000000E+0002   2.69000000000000E+0002   2.69000000000000E+0002   2.69000000000000E+0002   2.69000000000000E+0002   2.69000000000000E+0002   2.69000000000000E+0002   2.69000000000000E+0002   2.69000000000000E+0002   2.69000000000000E+0002   2.69000000000000E+0002   2.69000000000000E+0002   2.69000000000000E+0002   2.69000000000000E+0002
   2.69000000000000E+0002   2.69000000000000E+0002   2.69000000000000E+0002   2.69000000000000E+0002   2.69000000000000E+0002   2.69000000000000E+0002   2.69000000000000E+0002   2.69000000000000E+0002   2.69000000000000E+0002   2.69000000000000E+0002   2.69000000000000E+0002   2.69000000000000E+0002   2.69000000000000E+0002   2.69000000000000E+0002   2.69000000000000E+0002   2.69000000000000E+0002   2.69000000000000E+0002   2.69000000000000E+0002   2.69000000000000E+0002   2.69000000000000E+0002   2.69000000000000E+0002   2.69000000000000E+0002   2.69000000000000E+0002   2.69000000000000E+0002   2.69000000000000E+0002   2.69000000000000E+0002   2.69000000000000E+0002   2.69000000000000E+0002   2.69000000000000E+0002   2.69000000000000E+0002   2.69000000000000E+0002   2.69000000000000E+0002   2.69000000000000E+0002   2.69000000000000E+0002   2.69000000000000E+0002   2.69000000000000E+0002   2.69000000000000E+0002   2.69000000000000E+0002   2.69000000000000E+0002   2.69000000000000E+0002   2.69000000000000E+0002   2.69000000000000E+0002   2.69000000000000E+0002   2.69000000000000E+0002   2.69000000000000E+0002   2.69000000000000E+0002   2.69000000000000E+0002   2.69000000000000E+0002   2.69000000000000E+0002   2.69000000000000E+0002   2.69000000000000E+0002   2.69000000000000E+0002   2.69000000000000E+0002   2.69000000000000E+0002   2.69000000000000E+0002   2.69000000000000E+0002   2.69000000000000E+0002   2.69000000000000E+0002   2.69000000000000E+0002   2.69000000000000E+0002   2.69000000000000E+0002   2.69000000000000E+0002   2.69000000000000E+0002   2.69000000000000E+0002   2.69000000000000E+0002   2.69000000000000E+0002   2.69000000000000E+0002   2.69000000000000E+0002   2.69000000000000E+0002   2.69000000000000E+0002   2.69000000000000E+0002   2.69000000000000E+0002   2.69000000000000E+0002   2.69000000000000E+0002   2.69000000000000E+0002   2.69000000000000E+0002   2.69000000000000E+0002   2.69368591308594E+0002   2.69783081054688E+0002   2.70206726074219E+0002   2.70587554931641E+0002   2.70938415527344E+0002   2.71258209228516E+0002   2.71546203613281E+0002   2.71804962158203E+0002   2.72036834716797E+0002   2.72243072509766E+0002   2.72424499511719E+0002   2.72581420898438E+0002   2.72713653564453E+0002   2.72820739746094E+0002   2.72902038574219E+0002   2.72956909179688E+0002   2.72984680175781E+0002   2.72984893798828E+0002   2.72957061767578E+0002   2.72900726318359E+0002   2.72815307617188E+0002   2.72700103759766E+0002   2.72554382324219E+0002   2.72377685546875E+0002   2.72169830322266E+0002   2.71931304931641E+0002   2.71663238525391E+0002   2.71367523193359E+0002   2.71046813964844E+0002   2.70704223632813E+0002   2.70343231201172E+0002   2.69967010498047E+0002   2.69578338623047E+0002   2.69178894042969E+0002   2.68769042968750E+0002   2.68347259521484E+0002   2.67909973144531E+0002   2.67451202392578E+0002   2.66962829589844E+0002   2.66434753417969E+0002   2.65855590820313E+0002   2.65213378906250E+0002   2.64496520996094E+0002   2.63694824218750E+0002   2.62800659179688E+0002   2.61809753417969E+0002   2.60721893310547E+0002   2.59541351318359E+0002   2.58277069091797E+0002   2.56942474365234E+0002   2.55555343627930E+0002   2.54137542724609E+0002   2.52715377807617E+0002   2.51320358276367E+0002   2.49990570068359E+0002   2.48772445678711E+0002   2.47722167968750E+0002   2.46905151367188E+0002   2.46391403198242E+0002   2.46244430541992E+0002   2.46504928588867E+0002   2.47175125122070E+0002   2.48212951660156E+0002   2.49540679931641E+0002   2.51062713623047E+0002   2.52683074951172E+0002   2.54316848754883E+0002   2.55895080566406E+0002   2.57365692138672E+0002   2.58692901611328E+0002   2.59856231689453E+0002   2.60849243164063E+0002   2.61677459716797E+0002   2.62355743408203E+0002   2.62904724121094E+0002   2.63347259521484E+0002   2.63705230712891E+0002   2.63997283935547E+0002   2.64237762451172E+0002   2.64436431884766E+0002   2.64598815917969E+0002   2.64726837158203E+0002   2.64819488525391E+0002   2.64873382568359E+0002   2.64883270263672E+0002   2.64842803955078E+0002   2.64745391845703E+0002   2.64585479736328E+0002   2.64359832763672E+0002   2.64068695068359E+0002   2.63716735839844E+0002   2.63312866210938E+0002   2.62869903564453E+0002   2.62403320312500E+0002   2.61929901123047E+0002   2.61466491699219E+0002   2.61028656005859E+0002   2.60630004882813E+0002   2.60281402587891E+0002   2.59990844726563E+0002   2.59763366699219E+0002   2.59601257324219E+0002   2.59504394531250E+0002   2.59470275878906E+0002   2.59494079589844E+0002   2.59568603515625E+0002   2.59684387207031E+0002   2.59830657958984E+0002   2.59998779296875E+0002   2.60190338134766E+0002   2.60431884765625E+0002   2.60793243408203E+0002   2.61385162353516E+0002   2.62296691894531E+0002   2.63493865966797E+0002   2.64802276611328E+0002   2.66001586914063E+0002   2.66909942626953E+0002   2.67402740478516E+0002   2.67399841308594E+0002   2.66852264404297E+0002   2.65740722656250E+0002   2.64096130371094E+0002   2.62069763183594E+0002   2.60084442138672E+0002   2.58914520263672E+0002   2.59149932861328E+0002   2.60464477539063E+0002   2.62121002197266E+0002   2.63673889160156E+0002   2.64979125976563E+0002   2.66026733398438E+0002   2.66848358154297E+0002   2.67482788085938E+0002   2.67965545654297E+0002   2.68326507568359E+0002   2.68590209960938E+0002   2.68776580810547E+0002   2.68901824951172E+0002   2.68979156494141E+0002   2.69019470214844E+0002   2.69031921386719E+0002   2.69024261474609E+0002   2.69004089355469E+0002   2.69000000000000E+0002   2.69000000000000E+0002   2.69000000000000E+0002   2.69000000000000E+0002   2.69000000000000E+0002   2.69000000000000E+0002   2.69000000000000E+0002   2.69000000000000E+0002   2.69000000000000E+0002   2.69000000000000E+0002   2.69000000000000E+0002   2.69000000000000E+0002   2.69000000000000E+0002
   2.69000000000000E+0002   2.69000000000000E+0002   2.69000000000000E+0002   2.69000000000000E+0002   2.69000000000000E+0002   2.69000000000000E+0002   2.69000000000000E+0002   2.69000000000000E+0002   2.69000000000000E+0002   2.69000000000000E+0002   2.69000000000000E+0002   2.69000000000000E+0002   2.69000000000000E+0002   2.69000000000000E+0002   2.69000000000000E+0002   2.69000000000000E+0002   2.69000000000000E+0002   2.69000000000000E+0002   2.69000000000000E+0002   2.69000000000000E+0002   2.69000000000000E+0002   2.69000000000000E+0002   2.69000000000000E+0002   2.69000000000000E+0002   2.69000000000000E+0002   2.69000000000000E+0002   2.69000000000000E+0002   2.69000000000000E+0002   2.69000000000000E+0002   2.69000000000000E+0002   2.69000000000000E+0002   2.69000000000000E+0002   2.69000000000000E+0002   2.69000000000000E+0002   2.69000000000000E+0002   2.69000000000000E+0002   2.69000000000000E+0002   2.69000000000000E+0002   2.69000000000000E+0002   2.69000000000000E+0002   2.69000000000000E+0002   2.69000000000000E+0002   2.69000000000000E+0002   2.69000000000000E+0002   2.69000000000000E+0002   2.69000000000000E+0002   2.69000000000000E+0002   2.69000000000000E+0002   2.69000000000000E+0002   2.69000000000000E+0002   2.69000000000000E+0002   2.69000000000000E+0002   2.69000000000000E+0002   2.69000000000000E+0002   2.69000000000000E+0002   2.69000000000000E+0002   2.69000000000000E+0002   2.69000000000000E+0002   2.69000000000000E+0002   2.69000000000000E+0002   2.69000000000000E+0002   2.69000000000000E+0002   2.69000000000000E+0002   2.69000000000000E+0002   2.69000000000000E+0002   2.69000000000000E+0002   2.69000000000000E+0002   2.69000000000000E+0002   2.69000000000000E+0002   2.69000000000000E+0002   2.69000000000000E+0002   2.69000000000000E+0002   2.69000000000000E+0002   2.69000000000000E+0002   2.69000000000000E+0002   2.69189727783203E+0002   2.69684204101563E+0002   2.70171142578125E+0002   2.70612487792969E+0002   2.71023986816406E+0002   2.71397308349609E+0002   2.71735168457031E+0002   2.72041168212891E+0002   2.72317840576172E+0002   2.72567687988281E+0002   2.72792877197266E+0002   2.72994598388672E+0002   2.73173339843750E+0002   2.73328796386719E+0002   2.73460113525391E+0002   2.73566040039063E+0002   2.73645263671875E+0002   2.73696594238281E+0002   2.73719024658203E+0002   2.73711791992188E+0002   2.73674224853516E+0002   2.73605621337891E+0002   2.73504974365234E+0002   2.73371063232422E+0002   2.73202484130859E+0002   2.72997955322266E+0002   2.72756683349609E+0002   2.72478546142578E+0002   2.72164550781250E+0002   2.71816772460938E+0002   2.71438354492188E+0002   2.71033355712891E+0002   2.70606323242188E+0002   2.70161773681641E+0002   2.69703826904297E+0002   2.69235534667969E+0002   2.68758270263672E+0002   2.68271270751953E+0002   2.67771087646484E+0002   2.67251312255859E+0002   2.66702484130859E+0002   2.66112579345703E+0002   2.65467498779297E+0002   2.64752105712891E+0002   2.63951354980469E+0002   2.63051757812500E+0002   2.62042694091797E+0002   2.60917694091797E+0002   2.59675201416016E+0002   2.58319427490234E+0002   2.56860046386719E+0002   2.55312332153320E+0002   2.53696243286133E+0002   2.52036163330078E+0002   2.50360610961914E+0002   2.48702987670898E+0002   2.47103378295898E+0002   2.45612075805664E+0002   2.44294448852539E+0002   2.43235031127930E+0002   2.42535980224609E+0002   2.42302536010742E+0002   2.42611907958984E+0002   2.43478179931641E+0002   2.44837539672852E+0002   2.46567245483398E+0002   2.48523056030273E+0002   2.50570449829102E+0002   2.52599227905273E+0002   2.54525695800781E+0002   2.56289703369141E+0002   2.57851959228516E+0002   2.59192199707031E+0002   2.60308013916016E+0002   2.61212677001953E+0002   2.61931427001953E+0002   2.62496368408203E+0002   2.62940948486328E+0002   2.63295471191406E+0002   2.63584411621094E+0002   2.63825256347656E+0002   2.64028991699219E+0002   2.64201049804688E+0002   2.64342529296875E+0002   2.64450958251953E+0002   2.64520935058594E+0002   2.64544464111328E+0002   2.64511810302734E+0002   2.64412567138672E+0002   2.64237243652344E+0002   2.63979492187500E+0002   2.63637969970703E+0002   2.63217590332031E+0002   2.62729827880859E+0002   2.62191650390625E+0002   2.61623596191406E+0002   2.61047668457031E+0002   2.60485473632813E+0002   2.59956542968750E+0002   2.59477478027344E+0002   2.59061309814453E+0002   2.58717376708984E+0002   2.58451324462891E+0002   2.58265502929688E+0002   2.58159271240234E+0002   2.58129211425781E+0002   2.58168945312500E+0002   2.58268432617188E+0002   2.58413146972656E+0002   2.58583068847656E+0002   2.58754150390625E+0002   2.58906646728516E+0002   2.59049896240234E+0002   2.59276550292969E+0002   2.59820220947266E+0002   2.60959320068359E+0002   2.62684387207031E+0002   2.64625701904297E+0002   2.66382781982422E+0002   2.67702972412109E+0002   2.68447418212891E+0002   2.68530731201172E+0002   2.67887298583984E+0002   2.66455230712891E+0002   2.64175964355469E+0002   2.61053344726563E+0002   2.57471527099609E+0002   2.55073883056641E+0002   2.55888397216797E+0002   2.58578887939453E+0002   2.61231964111328E+0002   2.63343536376953E+0002   2.64940460205078E+0002   2.66134033203125E+0002   2.67022888183594E+0002   2.67681640625000E+0002   2.68165283203125E+0002   2.68514373779297E+0002   2.68759490966797E+0002   2.68923919677734E+0002   2.69025756835938E+0002   2.69079345703125E+0002   2.69096221923828E+0002   2.69085906982422E+0002   2.69056579589844E+0002   2.69016601562500E+0002   2.69000000000000E+0002   2.69000000000000E+0002   2.69000000000000E+0002   2.69000000000000E+0002   2.69000000000000E+0002   2.69000000000000E+0002   2.69000000000000E+0002   2.69000000000000E+0002   2.69000000000000E+0002   2.69000000000000E+0002   2.69000000000000E+0002   2.69000000000000E+0002   2.69000000000000E+0002
   2.69000000000000E+0002   2.69000000000000E+0002   2.69000000000000E+0002   2.69000000000000E+0002   2.69000000000000E+0002   2.69000000000000E+0002   2.69000000000000E+0002   2.69000000000000E+0002   2.69000000000000E+0002   2.69000000000000E+0002   2.69000000000000E+0002   2.69000000000000E+0002   2.69000000000000E+0002   2.69000000000000E+0002   2.69000000000000E+0002   2.69000000000000E+0002   2.69000000000000E+0002   2.69000000000000E+0002   2.69000000000000E+0002   2.69000000000000E+0002   2.69000000000000E+0002   2.69000000000000E+0002   2.69000000000000E+0002   2.69000000000000E+0002   2.69000000000000E+0002   2.69000000000000E+0002   2.69000000000000E+0002   2.69000000000000E+0002   2.69000000000000E+0002   2.69000000000000E+0002   2.69000000000000E+0002   2.69000000000000E+0002   2.69000000000000E+0002   2.69000000000000E+0002   2.69000000000000E+0002   2.69000000000000E+0002   2.69000000000000E+0002   2.69000000000000E+0002   2.69000000000000E+0002   2.69000000000000E+0002   2.69000000000000E+0002   2.69000000000000E+0002   2.69000000000000E+0002   2.69000000000000E+0002   2.69000000000000E+0002   2.69000000000000E+0002   2.69000000000000E+0002   2.69000000000000E+0002   2.69000000000000E+0002   2.69000000000000E+0002   2.69000000000000E+0002   2.69000000000000E+0002   2.69000000000000E+0002   2.69000000000000E+0002   2.69000000000000E+0002   2.69000000000000E+0002   2.69000000000000E+0002   2.69000000000000E+0002   2.69000000000000E+0002   2.69000000000000E+0002   2.69000000000000E+0002   2.69000000000000E+0002   2.69000000000000E+0002   2.69000000000000E+0002   2.69000000000000E+0002   2.69000000000000E+0002   2.69000000000000E+0002   2.69000000000000E+0002   2.69000000000000E+0002   2.69000000000000E+0002   2.69000000000000E+0002   2.69000000000000E+0002   2.69000000000000E+0002   2.69118438720703E+0002   2.69621215820313E+0002   2.70095428466797E+0002   2.70601226806641E+0002   2.71077209472656E+0002   2.71507659912109E+0002   2.71897064208984E+0002   2.72248901367188E+0002   2.72566925048828E+0002   2.72855102539063E+0002   2.73116973876953E+0002   2.73355377197266E+0002   2.73572418212891E+0002   2.73769134521484E+0002   2.73945434570313E+0002   2.74100311279297E+0002   2.74231933593750E+0002   2.74338073730469E+0002   2.74416442871094E+0002   2.74465240478516E+0002   2.74483032226563E+0002   2.74468994140625E+0002   2.74422454833984E+0002   2.74342498779297E+0002   2.74227905273438E+0002   2.74076721191406E+0002   2.73886596679688E+0002   2.73655151367188E+0002   2.73380554199219E+0002   2.73061889648438E+0002   2.72699829101563E+0002   2.72296752929688E+0002   2.71856597900391E+0002   2.71384582519531E+0002   2.70886840820313E+0002   2.70369781494141E+0002   2.69839447021484E+0002   2.69300750732422E+0002   2.68756805419922E+0002   2.68207977294922E+0002   2.67651336669922E+0002   2.67079925537109E+0002   2.66482849121094E+0002   2.65845397949219E+0002   2.65149749755859E+0002   2.64376373291016E+0002   2.63505493164063E+0002   2.62518829345703E+0002   2.61401550292969E+0002   2.60143981933594E+0002   2.58742828369141E+0002   2.57201904296875E+0002   2.55532226562500E+0002   2.53751235961914E+0002   2.51881805419922E+0002   2.49950988769531E+0002   2.47989013671875E+0002   2.46029281616211E+0002   2.44110412597656E+0002   2.42281555175781E+0002   2.40612258911133E+0002   2.39206359863281E+0002   2.38211990356445E+0002   2.37808715820313E+0002   2.38150222778320E+0002   2.39279769897461E+0002   2.41089843750000E+0002   2.43370666503906E+0002   2.45896621704102E+0002   2.48481079101563E+0002   2.50987930297852E+0002   2.53322174072266E+0002   2.55418685913086E+0002   2.57236053466797E+0002   2.58755279541016E+0002   2.59979949951172E+0002   2.60934936523438E+0002   2.61661163330078E+0002   2.62207824707031E+0002   2.62623596191406E+0002   2.62950134277344E+0002   2.63218505859375E+0002   2.63448944091797E+0002   2.63652465820313E+0002   2.63833282470703E+0002   2.63990753173828E+0002   2.64120513916016E+0002   2.64214599609375E+0002   2.64261718750000E+0002   2.64247589111328E+0002   2.64156250000000E+0002   2.63972290039063E+0002   2.63684051513672E+0002   2.63287170410156E+0002   2.62786743164063E+0002   2.62197814941406E+0002   2.61543487548828E+0002   2.60851593017578E+0002   2.60151397705078E+0002   2.59470672607422E+0002   2.58833923339844E+0002   2.58261383056641E+0002   2.57768371582031E+0002   2.57365447998047E+0002   2.57058532714844E+0002   2.56849700927734E+0002   2.56737518310547E+0002   2.56717803955078E+0002   2.56783233642578E+0002   2.56922149658203E+0002   2.57116027832031E+0002   2.57335052490234E+0002   2.57533721923828E+0002   2.57650573730469E+0002   2.57628295898438E+0002   2.57506683349609E+0002   2.57688995361328E+0002   2.59051666259766E+0002   2.61720123291016E+0002   2.64686614990234E+0002   2.67226928710938E+0002   2.69082092285156E+0002   2.70156921386719E+0002   2.70389648437500E+0002   2.69713531494141E+0002   2.68033721923828E+0002   2.65188507080078E+0002   2.60885009765625E+0002   2.54735260009766E+0002   2.48580108642578E+0002   2.51874938964844E+0002   2.57258758544922E+0002   2.61011962890625E+0002   2.63550628662109E+0002   2.65305664062500E+0002   2.66542877197266E+0002   2.67424468994141E+0002   2.68053375244141E+0002   2.68497894287109E+0002   2.68805084228516E+0002   2.69008636474609E+0002   2.69133178710938E+0002   2.69197479248047E+0002   2.69215911865234E+0002   2.69199981689453E+0002   2.69159149169922E+0002   2.69101806640625E+0002   2.69037750244141E+0002   2.69000000000000E+0002   2.69000000000000E+0002   2.69000000000000E+0002   2.69000000000000E+0002   2.69000000000000E+0002   2.69000000000000E+0002   2.69000000000000E+0002   2.69000000000000E+0002   2.69000000000000E+0002   2.69000000000000E+0002   2.69000000000000E+0002   2.69000000000000E+0002   2.69000000000000E+0002
   2.69000000000000E+0002   2.69000000000000E+0002   2.69000000000000E+0002   2.69000000000000E+0002   2.69000000000000E+0002   2.69000000000000E+0002   2.69000000000000E+0002   2.69000000000000E+0002   2.69000000000000E+0002   2.69000000000000E+0002   2.69000000000000E+0002   2.69000000000000E+0002   2.69000000000000E+0002   2.69000000000000E+0002   2.69000000000000E+0002   2.69000000000000E+0002   2.69000000000000E+0002   2.69000000000000E+0002   2.69000000000000E+0002   2.69000000000000E+0002   2.69000000000000E+0002   2.69000000000000E+0002   2.69000000000000E+0002   2.69000000000000E+0002   2.69000000000000E+0002   2.69000000000000E+0002   2.69000000000000E+0002   2.69000000000000E+0002   2.69000000000000E+0002   2.69000000000000E+0002   2.69000000000000E+0002   2.69000000000000E+0002   2.69000000000000E+0002   2.69000000000000E+0002   2.69000000000000E+0002   2.69000000000000E+0002   2.69000000000000E+0002   2.69000000000000E+0002   2.69000000000000E+0002   2.69000000000000E+0002   2.69000000000000E+0002   2.69000000000000E+0002   2.69000000000000E+0002   2.69000000000000E+0002   2.69000000000000E+0002   2.69000000000000E+0002   2.69000000000000E+0002   2.69000000000000E+0002   2.69000000000000E+0002   2.69000000000000E+0002   2.69000000000000E+0002   2.69000000000000E+0002   2.69000000000000E+0002   2.69000000000000E+0002   2.69000000000000E+0002   2.69000000000000E+0002   2.69000000000000E+0002   2.69000000000000E+0002   2.69000000000000E+0002   2.69000000000000E+0002   2.69000000000000E+0002   2.69000000000000E+0002   2.69000000000000E+0002   2.69000000000000E+0002   2.69000000000000E+0002   2.69000000000000E+0002   2.69000000000000E+0002   2.69000000000000E+0002   2.69000000000000E+0002   2.69000000000000E+0002   2.69000000000000E+0002   2.69134246826172E+0002   2.69571289062500E+0002   2.70074127197266E+0002   2.70626831054688E+0002   2.71136352539063E+0002   2.71613739013672E+0002   2.72054199218750E+0002   2.72453216552734E+0002   2.72812622070313E+0002   2.73136505126953E+0002   2.73429412841797E+0002   2.73695770263672E+0002   2.73939666748047E+0002   2.74164428710938E+0002   2.74372222900391E+0002   2.74563934326172E+0002   2.74738891601563E+0002   2.74895050048828E+0002   2.75029296875000E+0002   2.75137908935547E+0002   2.75217376708984E+0002   2.75264923095703E+0002   2.75278961181641E+0002   2.75258728027344E+0002   2.75203918457031E+0002   2.75113983154297E+0002   2.74987304687500E+0002   2.74821258544922E+0002   2.74612091064453E+0002   2.74355743408203E+0002   2.74048706054688E+0002   2.73688873291016E+0002   2.73276458740234E+0002   2.72814086914063E+0002   2.72306793212891E+0002   2.71761566162109E+0002   2.71186645507813E+0002   2.70590881347656E+0002   2.69983062744141E+0002   2.69370788574219E+0002   2.68759582519531E+0002   2.68151855468750E+0002   2.67545593261719E+0002   2.66933593750000E+0002   2.66303131103516E+0002   2.65636016845703E+0002   2.64909667968750E+0002   2.64098449707031E+0002   2.63175964355469E+0002   2.62117340087891E+0002   2.60901763916016E+0002   2.59515045166016E+0002   2.57951385498047E+0002   2.56214294433594E+0002   2.54316589355469E+0002   2.52279235839844E+0002   2.50129272460938E+0002   2.47897491455078E+0002   2.45615936279297E+0002   2.43316360473633E+0002   2.41030899047852E+0002   2.38797653198242E+0002   2.36675872802734E+0002   2.34775604248047E+0002   2.33299316406250E+0002   2.32558853149414E+0002   2.32882064819336E+0002   2.34391036987305E+0002   2.36875305175781E+0002   2.39939483642578E+0002   2.43221725463867E+0002   2.46476577758789E+0002   2.49554168701172E+0002   2.52360214233398E+0002   2.54830444335938E+0002   2.56922119140625E+0002   2.58616485595703E+0002   2.59924377441406E+0002   2.60887268066406E+0002   2.61570343017578E+0002   2.62048828125000E+0002   2.62393585205078E+0002   2.62661041259766E+0002   2.62889038085938E+0002   2.63098449707031E+0002   2.63297851562500E+0002   2.63488189697266E+0002   2.63666168212891E+0002   2.63825134277344E+0002   2.63954681396484E+0002   2.64039855957031E+0002   2.64060668945313E+0002   2.63993225097656E+0002   2.63812774658203E+0002   2.63498901367188E+0002   2.63041564941406E+0002   2.62445739746094E+0002   2.61732025146484E+0002   2.60933074951172E+0002   2.60087646484375E+0002   2.59235046386719E+0002   2.58411132812500E+0002   2.57646362304688E+0002   2.56964935302734E+0002   2.56384613037109E+0002   2.55916793823242E+0002   2.55567184448242E+0002   2.55336715698242E+0002   2.55222854614258E+0002   2.55220611572266E+0002   2.55322891235352E+0002   2.55519180297852E+0002   2.55791290283203E+0002   2.56105163574219E+0002   2.56397247314453E+0002   2.56556060791016E+0002   2.56403442382813E+0002   2.55718170166016E+0002   2.54686767578125E+0002   2.56064025878906E+0002   2.60797821044922E+0002   2.65313171386719E+0002   2.68793548583984E+0002   2.71249481201172E+0002   2.72708831787109E+0002   2.73154449462891E+0002   2.72537200927734E+0002   2.70772521972656E+0002   2.67698120117188E+0002   2.62966369628906E+0002   2.55847213745117E+0002   2.46527740478516E+0002   2.52079467773438E+0002   2.58251495361328E+0002   2.62076812744141E+0002   2.64536407470703E+0002   2.66177764892578E+0002   2.67299346923828E+0002   2.68073577880859E+0002   2.68606201171875E+0002   2.68965637207031E+0002   2.69198028564453E+0002   2.69335723876953E+0002   2.69402069091797E+0002   2.69414550781250E+0002   2.69386535644531E+0002   2.69328613281250E+0002   2.69249511718750E+0002   2.69157196044922E+0002   2.69061340332031E+0002   2.69000000000000E+0002   2.69000000000000E+0002   2.69000000000000E+0002   2.69000000000000E+0002   2.69000000000000E+0002   2.69000000000000E+0002   2.69000000000000E+0002   2.69000000000000E+0002   2.69000000000000E+0002   2.69000000000000E+0002   2.69000000000000E+0002   2.69000000000000E+0002   2.69000000000000E+0002
   2.69000000000000E+0002   2.69000000000000E+0002   2.69000000000000E+0002   2.69000000000000E+0002   2.69000000000000E+0002   2.69000000000000E+0002   2.69000000000000E+0002   2.69000000000000E+0002   2.69000000000000E+0002   2.69000000000000E+0002   2.69000000000000E+0002   2.69000000000000E+0002   2.69000000000000E+0002   2.69000000000000E+0002   2.69000000000000E+0002   2.69000000000000E+0002   2.69000000000000E+0002   2.69000000000000E+0002   2.69000000000000E+0002   2.69000000000000E+0002   2.69000000000000E+0002   2.69000000000000E+0002   2.69000000000000E+0002   2.69000000000000E+0002   2.69000000000000E+0002   2.69000000000000E+0002   2.69000000000000E+0002   2.69000000000000E+0002   2.69000000000000E+0002   2.69000000000000E+0002   2.69000000000000E+0002   2.69000000000000E+0002   2.69000000000000E+0002   2.69000000000000E+0002   2.69000000000000E+0002   2.69000000000000E+0002   2.69000000000000E+0002   2.69000000000000E+0002   2.69000000000000E+0002   2.69000000000000E+0002   2.69000000000000E+0002   2.69000000000000E+0002   2.69000000000000E+0002   2.69000000000000E+0002   2.69000000000000E+0002   2.69000000000000E+0002   2.69000000000000E+0002   2.69000000000000E+0002   2.69000000000000E+0002   2.69000000000000E+0002   2.69000000000000E+0002   2.69000000000000E+0002   2.69000000000000E+0002   2.69000000000000E+0002   2.69000000000000E+0002   2.69000000000000E+0002   2.69000000000000E+0002   2.69000000000000E+0002   2.69000000000000E+0002   2.69000000000000E+0002   2.69000000000000E+0002   2.69000000000000E+0002   2.69000000000000E+0002   2.69000000000000E+0002   2.69000000000000E+0002   2.69000000000000E+0002   2.69000000000000E+0002   2.69000000000000E+0002   2.69000000000000E+0002   2.69252593994141E+0002   2.69634277343750E+0002   2.70148834228516E+0002   2.70711547851563E+0002   2.71244842529297E+0002   2.71760375976563E+0002   2.72240570068359E+0002   2.72680877685547E+0002   2.73081146240234E+0002   2.73441741943359E+0002   2.73765197753906E+0002   2.74055847167969E+0002   2.74318664550781E+0002   2.74558898925781E+0002   2.74781433105469E+0002   2.74990203857422E+0002   2.75187866210938E+0002   2.75375213623047E+0002   2.75550933837891E+0002   2.75711639404297E+0002   2.75852294921875E+0002   2.75967010498047E+0002   2.76050354003906E+0002   2.76098358154297E+0002   2.76109191894531E+0002   2.76082946777344E+0002   2.76020416259766E+0002   2.75921905517578E+0002   2.75785980224609E+0002   2.75608856201172E+0002   2.75384887695313E+0002   2.75107299804688E+0002   2.74769989013672E+0002   2.74368896484375E+0002   2.73903411865234E+0002   2.73376647949219E+0002   2.72795196533203E+0002   2.72168334960938E+0002   2.71507202148438E+0002   2.70823944091797E+0002   2.70130798339844E+0002   2.69439147949219E+0002   2.68758239746094E+0002   2.68093414306641E+0002   2.67444641113281E+0002   2.66804840087891E+0002   2.66159271240234E+0002   2.65485412597656E+0002   2.64754241943359E+0002   2.63932067871094E+0002   2.62983306884766E+0002   2.61873870849609E+0002   2.60574523925781E+0002   2.59064697265625E+0002   2.57334930419922E+0002   2.55388641357422E+0002   2.53241668701172E+0002   2.50920440673828E+0002   2.48458755493164E+0002   2.45893661499023E+0002   2.43260848999023E+0002   2.40590194702148E+0002   2.37902587890625E+0002   2.35211441040039E+0002   2.32537033081055E+0002   2.29951263427734E+0002   2.27679458618164E+0002   2.26244674682617E+0002   2.26405578613281E+0002   2.28529724121094E+0002   2.32111373901367E+0002   2.36320831298828E+0002   2.40593444824219E+0002   2.44659088134766E+0002   2.48396743774414E+0002   2.51737350463867E+0002   2.54624572753906E+0002   2.57010345458984E+0002   2.58869354248047E+0002   2.60217712402344E+0002   2.61121032714844E+0002   2.61683197021484E+0002   2.62020812988281E+0002   2.62237670898438E+0002   2.62408508300781E+0002   2.62576019287109E+0002   2.62756744384766E+0002   2.62951568603516E+0002   2.63154998779297E+0002   2.63359985351563E+0002   2.63558349609375E+0002   2.63738311767578E+0002   2.63881622314453E+0002   2.63961730957031E+0002   2.63943817138672E+0002   2.63788421630859E+0002   2.63459716796875E+0002   2.62937103271484E+0002   2.62224609375000E+0002   2.61352416992188E+0002   2.60369110107422E+0002   2.59330291748047E+0002   2.58289062500000E+0002   2.57291381835938E+0002   2.56374328613281E+0002   2.55566329956055E+0002   2.54887359619141E+0002   2.54349166870117E+0002   2.53956115722656E+0002   2.53706787109375E+0002   2.53596237182617E+0002   2.53618377685547E+0002   2.53767486572266E+0002   2.54037979125977E+0002   2.54420410156250E+0002   2.54890350341797E+0002   2.55387039184570E+0002   2.55779403686523E+0002   2.55812637329102E+0002   2.55004547119141E+0002   2.52394180297852E+0002   2.52924285888672E+0002   2.61311584472656E+0002   2.67155273437500E+0002   2.71405456542969E+0002   2.74411956787109E+0002   2.76271362304688E+0002   2.76978515625000E+0002   2.76501190185547E+0002   2.74810546875000E+0002   2.71880279541016E+0002   2.67702117919922E+0002   2.62576690673828E+0002   2.58586029052734E+0002   2.59194641113281E+0002   2.62050994873047E+0002   2.64543121337891E+0002   2.66327056884766E+0002   2.67556121826172E+0002   2.68394256591797E+0002   2.68958709716797E+0002   2.69328826904297E+0002   2.69558258056641E+0002   2.69684265136719E+0002   2.69733184814453E+0002   2.69724182128906E+0002   2.69671691894531E+0002   2.69586791992188E+0002   2.69478393554688E+0002   2.69353973388672E+0002   2.69220336914063E+0002   2.69086669921875E+0002   2.69000000000000E+0002   2.69000000000000E+0002   2.69000000000000E+0002   2.69000000000000E+0002   2.69000000000000E+0002   2.69000000000000E+0002   2.69000000000000E+0002   2.69000000000000E+0002   2.69000000000000E+0002   2.69000000000000E+0002   2.69000000000000E+0002   2.69000000000000E+0002   2.69000000000000E+0002
   2.69000000000000E+0002   2.69000000000000E+0002   2.69000000000000E+0002   2.69000000000000E+0002   2.69000000000000E+0002   2.69000000000000E+0002   2.69000000000000E+0002   2.69000000000000E+0002   2.69000000000000E+0002   2.69000000000000E+0002   2.69000000000000E+0002   2.69000000000000E+0002   2.69000000000000E+0002   2.69000000000000E+0002   2.69000000000000E+0002   2.69000000000000E+0002   2.69000000000000E+0002   2.69000000000000E+0002   2.69000000000000E+0002   2.69000000000000E+0002   2.69000000000000E+0002   2.69000000000000E+0002   2.69000000000000E+0002   2.69000000000000E+0002   2.69000000000000E+0002   2.69000000000000E+0002   2.69000000000000E+0002   2.69000000000000E+0002   2.69000000000000E+0002   2.69000000000000E+0002   2.69000000000000E+0002   2.69000000000000E+0002   2.69000000000000E+0002   2.69000000000000E+0002   2.69000000000000E+0002   2.69000000000000E+0002   2.69000000000000E+0002   2.69000000000000E+0002   2.69000000000000E+0002   2.69000000000000E+0002   2.69000000000000E+0002   2.69000000000000E+0002   2.69000000000000E+0002   2.69000000000000E+0002   2.69000000000000E+0002   2.69000000000000E+0002   2.69000000000000E+0002   2.69000000000000E+0002   2.69000000000000E+0002   2.69000000000000E+0002   2.69000000000000E+0002   2.69000000000000E+0002   2.69000000000000E+0002   2.69000000000000E+0002   2.69000000000000E+0002   2.69000000000000E+0002   2.69000000000000E+0002   2.69000000000000E+0002   2.69000000000000E+0002   2.69000000000000E+0002   2.69000000000000E+0002   2.69000000000000E+0002   2.69000000000000E+0002   2.69000000000000E+0002   2.69000000000000E+0002   2.69000000000000E+0002   2.69221252441406E+0002   2.69469604492188E+0002   2.69864288330078E+0002   2.70381713867188E+0002   2.70913757324219E+0002   2.71442504882813E+0002   2.71972839355469E+0002   2.72480102539063E+0002   2.72956054687500E+0002   2.73394805908203E+0002   2.73793060302734E+0002   2.74150451660156E+0002   2.74468688964844E+0002   2.74751281738281E+0002   2.75003204345703E+0002   2.75230529785156E+0002   2.75439666748047E+0002   2.75636718750000E+0002   2.75826843261719E+0002   2.76013519287109E+0002   2.76197753906250E+0002   2.76377685546875E+0002   2.76548126220703E+0002   2.76701293945313E+0002   2.76827819824219E+0002   2.76919067382813E+0002   2.76969238281250E+0002   2.76976684570313E+0002   2.76943298339844E+0002   2.76872589111328E+0002   2.76766876220703E+0002   2.76625396728516E+0002   2.76443145751953E+0002   2.76211303710938E+0002   2.75918945312500E+0002   2.75555572509766E+0002   2.75113983154297E+0002   2.74592254638672E+0002   2.73994384765625E+0002   2.73329284667969E+0002   2.72609527587891E+0002   2.71849945068359E+0002   2.71066711425781E+0002   2.70276641845703E+0002   2.69496215820313E+0002   2.68739837646484E+0002   2.68017761230469E+0002   2.67333343505859E+0002   2.66680572509766E+0002   2.66042541503906E+0002   2.65391357421875E+0002   2.64689483642578E+0002   2.63892456054688E+0002   2.62952209472656E+0002   2.61821685791016E+0002   2.60459747314453E+0002   2.58836395263672E+0002   2.56937164306641E+0002   2.54765487670898E+0002   2.52342224121094E+0002   2.49702667236328E+0002   2.46891464233398E+0002   2.43956558227539E+0002   2.40942031860352E+0002   2.37879638671875E+0002   2.34778945922852E+0002   2.31617874145508E+0002   2.28341278076172E+0002   2.24892013549805E+0002   2.21357421875000E+0002   2.18431594848633E+0002   2.17980392456055E+0002   2.21316543579102E+0002   2.26852569580078E+0002   2.32714477539063E+0002   2.38202270507813E+0002   2.43178756713867E+0002   2.47638076782227E+0002   2.51568649291992E+0002   2.54923385620117E+0002   2.57632019042969E+0002   2.59640991210938E+0002   2.60962158203125E+0002   2.61697631835938E+0002   2.62017730712891E+0002   2.62108276367188E+0002   2.62121917724609E+0002   2.62154754638672E+0002   2.62247070312500E+0002   2.62399871826172E+0002   2.62596466064453E+0002   2.62819976806641E+0002   2.63059783935547E+0002   2.63308868408203E+0002   2.63557067871094E+0002   2.63785064697266E+0002   2.63959808349609E+0002   2.64032196044922E+0002   2.63939575195313E+0002   2.63618408203125E+0002   2.63026702880859E+0002   2.62166046142578E+0002   2.61084747314453E+0002   2.59860015869141E+0002   2.58573883056641E+0002   2.57298065185547E+0002   2.56089538574219E+0002   2.54991851806641E+0002   2.54037368774414E+0002   2.53248092651367E+0002   2.52635452270508E+0002   2.52200775146484E+0002   2.51937881469727E+0002   2.51837081909180E+0002   2.51889389038086E+0002   2.52090332031250E+0002   2.52442871093750E+0002   2.52956924438477E+0002   2.53639221191406E+0002   2.54467300415039E+0002   2.55350021362305E+0002   2.56095123291016E+0002   2.56440460205078E+0002   2.56525054931641E+0002   2.59064727783203E+0002   2.64978149414063E+0002   2.70661346435547E+0002   2.75256805419922E+0002   2.78713775634766E+0002   2.80984191894531E+0002   2.81989288330078E+0002   2.81682006835938E+0002   2.80100128173828E+0002   2.77390106201172E+0002   2.73847930908203E+0002   2.70091491699219E+0002   2.67275268554688E+0002   2.66371673583984E+0002   2.66899993896484E+0002   2.67839691162109E+0002   2.68686370849609E+0002   2.69321563720703E+0002   2.69757690429688E+0002   2.70034423828125E+0002   2.70189453125000E+0002   2.70252624511719E+0002   2.70246429443359E+0002   2.70187744140625E+0002   2.70089263916016E+0002   2.69960876464844E+0002   2.69810394287109E+0002   2.69644378662109E+0002   2.69468688964844E+0002   2.69289245605469E+0002   2.69114807128906E+0002   2.69000000000000E+0002   2.69000000000000E+0002   2.69000000000000E+0002   2.69000000000000E+0002   2.69000000000000E+0002   2.69000000000000E+0002   2.69000000000000E+0002   2.69000000000000E+0002   2.69000000000000E+0002   2.69000000000000E+0002   2.69000000000000E+0002   2.69000000000000E+0002   2.69000000000000E+0002
   2.69000000000000E+0002   2.69000000000000E+0002   2.69000000000000E+0002   2.69000000000000E+0002   2.69000000000000E+0002   2.69000000000000E+0002   2.69000000000000E+0002   2.69000000000000E+0002   2.69000000000000E+0002   2.69000000000000E+0002   2.69000000000000E+0002   2.69000000000000E+0002   2.69000000000000E+0002   2.69000000000000E+0002   2.69000000000000E+0002   2.69000000000000E+0002   2.69000000000000E+0002   2.69000000000000E+0002   2.69000000000000E+0002   2.69000000000000E+0002   2.69000000000000E+0002   2.69000000000000E+0002   2.69000000000000E+0002   2.69000000000000E+0002   2.69000000000000E+0002   2.69000000000000E+0002   2.69000000000000E+0002   2.69000000000000E+0002   2.69000000000000E+0002   2.69000000000000E+0002   2.69000000000000E+0002   2.69000000000000E+0002   2.69000000000000E+0002   2.69000000000000E+0002   2.69000000000000E+0002   2.69000000000000E+0002   2.69000000000000E+0002   2.69000000000000E+0002   2.69000000000000E+0002   2.69000000000000E+0002   2.69000000000000E+0002   2.69000000000000E+0002   2.69000000000000E+0002   2.69000000000000E+0002   2.69000000000000E+0002   2.69000000000000E+0002   2.69000000000000E+0002   2.69000000000000E+0002   2.69000000000000E+0002   2.69000000000000E+0002   2.69000000000000E+0002   2.69000000000000E+0002   2.69000000000000E+0002   2.69000000000000E+0002   2.69000000000000E+0002   2.69000000000000E+0002   2.69000000000000E+0002   2.69000000000000E+0002   2.69000000000000E+0002   2.69000000000000E+0002   2.69000000000000E+0002   2.69049346923828E+0002   2.69262176513672E+0002   2.69432189941406E+0002   2.69636291503906E+0002   2.69956573486328E+0002   2.70365356445313E+0002   2.70797027587891E+0002   2.71254272460938E+0002   2.71759002685547E+0002   2.72278045654297E+0002   2.72790618896484E+0002   2.73288055419922E+0002   2.73759399414063E+0002   2.74196197509766E+0002   2.74593261718750E+0002   2.74947845458984E+0002   2.75259948730469E+0002   2.75531921386719E+0002   2.75768280029297E+0002   2.75975311279297E+0002   2.76160614013672E+0002   2.76332366943359E+0002   2.76498657226563E+0002   2.76666534423828E+0002   2.76841064453125E+0002   2.77024108886719E+0002   2.77213378906250E+0002   2.77401672363281E+0002   2.77576965332031E+0002   2.77724334716797E+0002   2.77829528808594E+0002   2.77883483886719E+0002   2.77885223388672E+0002   2.77840820312500E+0002   2.77759124755859E+0002   2.77646911621094E+0002   2.77504943847656E+0002   2.77326629638672E+0002   2.77098327636719E+0002   2.76802185058594E+0002   2.76420288085938E+0002   2.75940155029297E+0002   2.75358093261719E+0002   2.74679870605469E+0002   2.73918395996094E+0002   2.73090789794922E+0002   2.72216430664063E+0002   2.71316284179688E+0002   2.70412597656250E+0002   2.69528503417969E+0002   2.68685974121094E+0002   2.67902893066406E+0002   2.67188598632813E+0002   2.66539703369141E+0002   2.65937316894531E+0002   2.65346740722656E+0002   2.64719329833984E+0002   2.63996154785156E+0002   2.63112365722656E+0002   2.62002807617188E+0002   2.60609008789063E+0002   2.58887023925781E+0002   2.56814819335938E+0002   2.54396331787109E+0002   2.51660690307617E+0002   2.48657089233398E+0002   2.45447265625000E+0002   2.42097091674805E+0002   2.38667495727539E+0002   2.35202316284180E+0002   2.31710678100586E+0002   2.28141571044922E+0002   2.24351013183594E+0002   2.20066818237305E+0002   2.14905380249023E+0002   2.08909423828125E+0002   2.06111785888672E+0002   2.12678649902344E+0002   2.21712310791016E+0002   2.29617294311523E+0002   2.36352005004883E+0002   2.42216232299805E+0002   2.47401824951172E+0002   2.51970443725586E+0002   2.55868972778320E+0002   2.58962463378906E+0002   2.61113922119141E+0002   2.62301910400391E+0002   2.62689941406250E+0002   2.62574340820313E+0002   2.62261779785156E+0002   2.61976959228516E+0002   2.61834503173828E+0002   2.61854461669922E+0002   2.61998962402344E+0002   2.62215393066406E+0002   2.62468963623047E+0002   2.62749542236328E+0002   2.63058502197266E+0002   2.63393585205078E+0002   2.63738800048828E+0002   2.64057373046875E+0002   2.64284210205078E+0002   2.64321655273438E+0002   2.64053680419922E+0002   2.63391998291016E+0002   2.62331604003906E+0002   2.60960144042969E+0002   2.59409790039063E+0002   2.57804351806641E+0002   2.56237487792969E+0002   2.54775115966797E+0002   2.53464584350586E+0002   2.52341522216797E+0002   2.51430603027344E+0002   2.50742614746094E+0002   2.50273178100586E+0002   2.50007080078125E+0002   2.49925659179688E+0002   2.50013214111328E+0002   2.50263259887695E+0002   2.50686950683594E+0002   2.51322296142578E+0002   2.52233718872070E+0002   2.53481613159180E+0002   2.55061599731445E+0002   2.56879364013672E+0002   2.58868530273438E+0002   2.61321319580078E+0002   2.65036193847656E+0002   2.70090301513672E+0002   2.75431640625000E+0002   2.80263732910156E+0002   2.84200927734375E+0002   2.86967712402344E+0002   2.88326141357422E+0002   2.88155242919922E+0002   2.86545227050781E+0002   2.83807159423828E+0002   2.80419036865234E+0002   2.76989654541016E+0002   2.74181610107422E+0002   2.72415344238281E+0002   2.71595642089844E+0002   2.71329071044922E+0002   2.71285278320313E+0002   2.71291870117188E+0002   2.71280456542969E+0002   2.71230621337891E+0002   2.71140747070313E+0002   2.71015411376953E+0002   2.70860473632813E+0002   2.70681640625000E+0002   2.70483978271484E+0002   2.70271911621094E+0002   2.70049438476563E+0002   2.69820343017578E+0002   2.69588623046875E+0002   2.69359802246094E+0002   2.69146270751953E+0002   2.69000000000000E+0002   2.69000000000000E+0002   2.69000000000000E+0002   2.69000000000000E+0002   2.69000000000000E+0002   2.69000000000000E+0002   2.69000000000000E+0002   2.69000000000000E+0002   2.69000000000000E+0002   2.69000000000000E+0002   2.69000000000000E+0002   2.69000000000000E+0002   2.69000000000000E+0002
   2.69000000000000E+0002   2.69000000000000E+0002   2.69000000000000E+0002   2.69000000000000E+0002   2.69000000000000E+0002   2.69000000000000E+0002   2.69000000000000E+0002   2.69000000000000E+0002   2.69000000000000E+0002   2.69000000000000E+0002   2.69000000000000E+0002   2.69000000000000E+0002   2.69000000000000E+0002   2.69000000000000E+0002   2.69000000000000E+0002   2.69000000000000E+0002   2.69000000000000E+0002   2.69000000000000E+0002   2.69000000000000E+0002   2.69000000000000E+0002   2.69000000000000E+0002   2.69000000000000E+0002   2.69000000000000E+0002   2.69000000000000E+0002   2.69000000000000E+0002   2.69000000000000E+0002   2.69000000000000E+0002   2.69000000000000E+0002   2.69000000000000E+0002   2.69000000000000E+0002   2.69000000000000E+0002   2.69000000000000E+0002   2.69000000000000E+0002   2.69000000000000E+0002   2.69000000000000E+0002   2.69000000000000E+0002   2.69000000000000E+0002   2.69000000000000E+0002   2.69000000000000E+0002   2.69000000000000E+0002   2.69000000000000E+0002   2.69000000000000E+0002   2.69000000000000E+0002   2.69000000000000E+0002   2.69000000000000E+0002   2.69000000000000E+0002   2.69000000000000E+0002   2.69000000000000E+0002   2.69000000000000E+0002   2.69000000000000E+0002   2.69000000000000E+0002   2.69000000000000E+0002   2.69000000000000E+0002   2.69000000000000E+0002   2.69000000000000E+0002   2.69110198974609E+0002   2.69231933593750E+0002   2.69371551513672E+0002   2.69559326171875E+0002   2.69715454101563E+0002   2.69868347167969E+0002   2.70081146240234E+0002   2.70349548339844E+0002   2.70637115478516E+0002   2.70948303222656E+0002   2.71320404052734E+0002   2.71745056152344E+0002   2.72200866699219E+0002   2.72678192138672E+0002   2.73174224853516E+0002   2.73675506591797E+0002   2.74167144775391E+0002   2.74637725830078E+0002   2.75077484130859E+0002   2.75478546142578E+0002   2.75835571289063E+0002   2.76145996093750E+0002   2.76410186767578E+0002   2.76631225585938E+0002   2.76814910888672E+0002   2.76969329833984E+0002   2.77104217529297E+0002   2.77230346679688E+0002   2.77358673095703E+0002   2.77499114990234E+0002   2.77659362792969E+0002   2.77843322753906E+0002   2.78049194335938E+0002   2.78267578125000E+0002   2.78480621337891E+0002   2.78663848876953E+0002   2.78792480468750E+0002   2.78851043701172E+0002   2.78840301513672E+0002   2.78775085449219E+0002   2.78675140380859E+0002   2.78555328369141E+0002   2.78419616699219E+0002   2.78259216308594E+0002   2.78053131103516E+0002   2.77771881103516E+0002   2.77384735107422E+0002   2.76869781494141E+0002   2.76221191406250E+0002   2.75449218750000E+0002   2.74573944091797E+0002   2.73619018554688E+0002   2.72608947753906E+0002   2.71569488525391E+0002   2.70528900146484E+0002   2.69518554687500E+0002   2.68571289062500E+0002   2.67717102050781E+0002   2.66975799560547E+0002   2.66349609375000E+0002   2.65817993164063E+0002   2.65337249755859E+0002   2.64843994140625E+0002   2.64260375976563E+0002   2.63499298095703E+0002   2.62470611572266E+0002   2.61090118408203E+0002   2.59292266845703E+0002   2.57043060302734E+0002   2.54347702026367E+0002   2.51249145507813E+0002   2.47818466186523E+0002   2.44142669677734E+0002   2.40314437866211E+0002   2.36423110961914E+0002   2.32542205810547E+0002   2.28706283569336E+0002   2.24871643066406E+0002   2.20856613159180E+0002   2.16248580932617E+0002   2.10222991943359E+0002   2.01113052368164E+0002   1.87727584838867E+0002   2.06030822753906E+0002   2.18506912231445E+0002   2.27801986694336E+0002   2.35373168945313E+0002   2.41915924072266E+0002   2.47763183593750E+0002   2.53024368286133E+0002   2.57611175537109E+0002   2.61244934082031E+0002   2.63572631835938E+0002   2.64454589843750E+0002   2.64178680419922E+0002   2.63308288574219E+0002   2.62366241455078E+0002   2.61672241210938E+0002   2.61340728759766E+0002   2.61333526611328E+0002   2.61527893066406E+0002   2.61800018310547E+0002   2.62091613769531E+0002   2.62409271240234E+0002   2.62779388427734E+0002   2.63216339111328E+0002   2.63713867187500E+0002   2.64239624023438E+0002   2.64718902587891E+0002   2.65008148193359E+0002   2.64890808105469E+0002   2.64165802001953E+0002   2.62809875488281E+0002   2.61008636474609E+0002   2.59007446289063E+0002   2.56990936279297E+0002   2.55069366455078E+0002   2.53307113647461E+0002   2.51748550415039E+0002   2.50431747436523E+0002   2.49388153076172E+0002   2.48629943847656E+0002   2.48142028808594E+0002   2.47892349243164E+0002   2.47846923828125E+0002   2.47977691650391E+0002   2.48268051147461E+0002   2.48726760864258E+0002   2.49416824340820E+0002   2.50488723754883E+0002   2.52157424926758E+0002   2.54553741455078E+0002   2.57595458984375E+0002   2.61127716064453E+0002   2.65171508789063E+0002   2.69895324707031E+0002   2.75250183105469E+0002   2.80839935302734E+0002   2.86189758300781E+0002   2.90859893798828E+0002   2.94371582031250E+0002   2.96220336914063E+0002   2.96097351074219E+0002   2.94141082763672E+0002   2.90903289794922E+0002   2.87078735351563E+0002   2.83296905517578E+0002   2.80033325195313E+0002   2.77537353515625E+0002   2.75799316406250E+0002   2.74640594482422E+0002   2.73855468750000E+0002   2.73288970947266E+0002   2.72844726562500E+0002   2.72467803955078E+0002   2.72127746582031E+0002   2.71807708740234E+0002   2.71498260498047E+0002   2.71194274902344E+0002   2.70893035888672E+0002   2.70593383789063E+0002   2.70295288085938E+0002   2.69999511718750E+0002   2.69707977294922E+0002   2.69424865722656E+0002   2.69162017822266E+0002   2.69000000000000E+0002   2.69000000000000E+0002   2.69000000000000E+0002   2.69000000000000E+0002   2.69000000000000E+0002   2.69000000000000E+0002   2.69000000000000E+0002   2.69000000000000E+0002   2.69000000000000E+0002   2.69000000000000E+0002   2.69000000000000E+0002   2.69000000000000E+0002   2.69000000000000E+0002
   2.69000000000000E+0002   2.69000000000000E+0002   2.69000000000000E+0002   2.69000000000000E+0002   2.69000000000000E+0002   2.69000000000000E+0002   2.69000000000000E+0002   2.69000000000000E+0002   2.69000000000000E+0002   2.69000000000000E+0002   2.69000000000000E+0002   2.69000000000000E+0002   2.69000000000000E+0002   2.69000000000000E+0002   2.69000000000000E+0002   2.69000000000000E+0002   2.69000000000000E+0002   2.69000000000000E+0002   2.69000000000000E+0002   2.69000000000000E+0002   2.69000000000000E+0002   2.69000000000000E+0002   2.69000000000000E+0002   2.69000000000000E+0002   2.69000000000000E+0002   2.69000000000000E+0002   2.69000000000000E+0002   2.69000000000000E+0002   2.69000000000000E+0002   2.69000000000000E+0002   2.69000000000000E+0002   2.69000000000000E+0002   2.69000000000000E+0002   2.69000000000000E+0002   2.69000000000000E+0002   2.69000000000000E+0002   2.69000000000000E+0002   2.69000000000000E+0002   2.69000000000000E+0002   2.69000000000000E+0002   2.69000000000000E+0002   2.69000000000000E+0002   2.69000000000000E+0002   2.69000000000000E+0002   2.69000000000000E+0002   2.69000000000000E+0002   2.69000000000000E+0002   2.69000000000000E+0002   2.69000000000000E+0002   2.69000000000000E+0002   2.69000000000000E+0002   2.69118713378906E+0002   2.69306060791016E+0002   2.69523223876953E+0002   2.69726013183594E+0002   2.69901916503906E+0002   2.70096649169922E+0002   2.70305755615234E+0002   2.70531646728516E+0002   2.70760772705078E+0002   2.71000213623047E+0002   2.71272735595703E+0002   2.71581878662109E+0002   2.71920623779297E+0002   2.72289886474609E+0002   2.72697692871094E+0002   2.73141754150391E+0002   2.73612426757813E+0002   2.74100219726563E+0002   2.74596496582031E+0002   2.75090118408203E+0002   2.75568725585938E+0002   2.76020721435547E+0002   2.76435852050781E+0002   2.76805938720703E+0002   2.77125244140625E+0002   2.77391052246094E+0002   2.77604034423828E+0002   2.77768280029297E+0002   2.77891143798828E+0002   2.77983001708984E+0002   2.78056549072266E+0002   2.78126037597656E+0002   2.78206207275391E+0002   2.78311218261719E+0002   2.78453033447266E+0002   2.78639373779297E+0002   2.78870910644531E+0002   2.79137359619141E+0002   2.79413543701172E+0002   2.79658996582031E+0002   2.79827758789063E+0002   2.79889923095703E+0002   2.79850158691406E+0002   2.79742797851563E+0002   2.79608947753906E+0002   2.79477325439453E+0002   2.79356842041016E+0002   2.79235778808594E+0002   2.79082489013672E+0002   2.78848510742188E+0002   2.78479339599609E+0002   2.77935302734375E+0002   2.77208892822266E+0002   2.76322113037109E+0002   2.75309051513672E+0002   2.74202484130859E+0002   2.73031311035156E+0002   2.71824432373047E+0002   2.70615325927734E+0002   2.69445129394531E+0002   2.68362030029297E+0002   2.67415466308594E+0002   2.66644073486328E+0002   2.66061096191406E+0002   2.65644622802734E+0002   2.65337890625000E+0002   2.65057434082031E+0002   2.64701385498047E+0002   2.64154632568359E+0002   2.63293060302734E+0002   2.61993774414063E+0002   2.60155487060547E+0002   2.57723663330078E+0002   2.54706802368164E+0002   2.51172210693359E+0002   2.47225753784180E+0002   2.42990081787109E+0002   2.38592681884766E+0002   2.34162658691406E+0002   2.29825454711914E+0002   2.25680816650391E+0002   2.21753784179688E+0002   2.17925552368164E+0002   2.13870117187500E+0002   2.09054199218750E+0002   2.03228881835938E+0002   2.00552597045898E+0002   2.08566268920898E+0002   2.18846054077148E+0002   2.27727935791016E+0002   2.35397155761719E+0002   2.42282287597656E+0002   2.48676345825195E+0002   2.54708160400391E+0002   2.60263214111328E+0002   2.64825958251953E+0002   2.67505767822266E+0002   2.67767425537109E+0002   2.66219909667969E+0002   2.64062622070313E+0002   2.62182189941406E+0002   2.60976562500000E+0002   2.60504089355469E+0002   2.60604339599609E+0002   2.60983489990234E+0002   2.61369293212891E+0002   2.61685516357422E+0002   2.62011383056641E+0002   2.62428863525391E+0002   2.62973846435547E+0002   2.63652923583984E+0002   2.64453308105469E+0002   2.65319885253906E+0002   2.66080413818359E+0002   2.66337615966797E+0002   2.65577941894531E+0002   2.63717529296875E+0002   2.61232208251953E+0002   2.58602935791016E+0002   2.56073791503906E+0002   2.53738662719727E+0002   2.51635253906250E+0002   2.49791473388672E+0002   2.48247909545898E+0002   2.47058059692383E+0002   2.46246444702148E+0002   2.45774047851563E+0002   2.45574981689453E+0002   2.45594055175781E+0002   2.45787063598633E+0002   2.46115264892578E+0002   2.46557174682617E+0002   2.47160858154297E+0002   2.48166610717773E+0002   2.50105117797852E+0002   2.53427902221680E+0002   2.57897033691406E+0002   2.62967864990234E+0002   2.68385742187500E+0002   2.74142059326172E+0002   2.80228179931641E+0002   2.86519470214844E+0002   2.92785552978516E+0002   2.98649871826172E+0002   3.03435241699219E+0002   3.06124816894531E+0002   3.05905456542969E+0002   3.03009979248047E+0002   2.98560058593750E+0002   2.93673645019531E+0002   2.89061645507813E+0002   2.85089080810547E+0002   2.81889038085938E+0002   2.79432495117188E+0002   2.77594024658203E+0002   2.76219360351563E+0002   2.75171295166016E+0002   2.74345825195313E+0002   2.73670349121094E+0002   2.73095947265625E+0002   2.72590026855469E+0002   2.72131011962891E+0002   2.71704406738281E+0002   2.71300628662109E+0002   2.70913482666016E+0002   2.70539062500000E+0002   2.70175292968750E+0002   2.69821929931641E+0002   2.69481628417969E+0002   2.69166900634766E+0002   2.69000000000000E+0002   2.69000000000000E+0002   2.69000000000000E+0002   2.69000000000000E+0002   2.69000000000000E+0002   2.69000000000000E+0002   2.69000000000000E+0002   2.69000000000000E+0002   2.69000000000000E+0002   2.69000000000000E+0002   2.69000000000000E+0002   2.69000000000000E+0002   2.69000000000000E+0002
   2.69000000000000E+0002   2.69000000000000E+0002   2.69000000000000E+0002   2.69000000000000E+0002   2.69000000000000E+0002   2.69000000000000E+0002   2.69000000000000E+0002   2.69000000000000E+0002   2.69000000000000E+0002   2.69000000000000E+0002   2.69000000000000E+0002   2.69000000000000E+0002   2.69000000000000E+0002   2.69000000000000E+0002   2.69000000000000E+0002   2.69000000000000E+0002   2.69000000000000E+0002   2.69000000000000E+0002   2.69000000000000E+0002   2.69000000000000E+0002   2.69000000000000E+0002   2.69000000000000E+0002   2.69000000000000E+0002   2.69000000000000E+0002   2.69000000000000E+0002   2.69000000000000E+0002   2.69000000000000E+0002   2.69000000000000E+0002   2.69000000000000E+0002   2.69000000000000E+0002   2.69000000000000E+0002   2.69000000000000E+0002   2.69000000000000E+0002   2.69000000000000E+0002   2.69000000000000E+0002   2.69000000000000E+0002   2.69000000000000E+0002   2.69000000000000E+0002   2.69000000000000E+0002   2.69000000000000E+0002   2.69000000000000E+0002   2.69000000000000E+0002   2.69000000000000E+0002   2.69000000000000E+0002   2.69000000000000E+0002   2.69000000000000E+0002   2.69000000000000E+0002   2.69000000000000E+0002   2.69021148681641E+0002   2.69257080078125E+0002   2.69512756347656E+0002   2.69773529052734E+0002   2.70034454345703E+0002   2.70295288085938E+0002   2.70547393798828E+0002   2.70790374755859E+0002   2.71037414550781E+0002   2.71294555664063E+0002   2.71563629150391E+0002   2.71844573974609E+0002   2.72142181396484E+0002   2.72465026855469E+0002   2.72817291259766E+0002   2.73199005126953E+0002   2.73610626220703E+0002   2.74052886962891E+0002   2.74523010253906E+0002   2.75014282226563E+0002   2.75518005371094E+0002   2.76024322509766E+0002   2.76521820068359E+0002   2.76998291015625E+0002   2.77441436767578E+0002   2.77840087890625E+0002   2.78184844970703E+0002   2.78469055175781E+0002   2.78689575195313E+0002   2.78847229003906E+0002   2.78947174072266E+0002   2.78998779296875E+0002   2.79015289306641E+0002   2.79013092041016E+0002   2.79010894775391E+0002   2.79028533935547E+0002   2.79085815429688E+0002   2.79200958251953E+0002   2.79388336181641E+0002   2.79654937744141E+0002   2.79993957519531E+0002   2.80374542236328E+0002   2.80731353759766E+0002   2.80973266601563E+0002   2.81033447265625E+0002   2.80926635742188E+0002   2.80733520507813E+0002   2.80536651611328E+0002   2.80384521484375E+0002   2.80290985107422E+0002   2.80240905761719E+0002   2.80190093994141E+0002   2.80060852050781E+0002   2.79752319335938E+0002   2.79186218261719E+0002   2.78357147216797E+0002   2.77319854736328E+0002   2.76136535644531E+0002   2.74850372314453E+0002   2.73490203857422E+0002   2.72082977294922E+0002   2.70664245605469E+0002   2.69285156250000E+0002   2.68014892578125E+0002   2.66934844970703E+0002   2.66118316650391E+0002   2.65600585937500E+0002   2.65357421875000E+0002   2.65309600830078E+0002   2.65344329833984E+0002   2.65331329345703E+0002   2.65124389648438E+0002   2.64556030273438E+0002   2.63443634033203E+0002   2.61622314453125E+0002   2.58998657226563E+0002   2.55589248657227E+0002   2.51509155273438E+0002   2.46922592163086E+0002   2.41999572753906E+0002   2.36903823852539E+0002   2.31806869506836E+0002   2.26906280517578E+0002   2.22417510986328E+0002   2.18510894775391E+0002   2.15212066650391E+0002   2.12367355346680E+0002   2.09828216552734E+0002   2.08060501098633E+0002   2.08975646972656E+0002   2.14041427612305E+0002   2.21381042480469E+0002   2.28968917846680E+0002   2.36203964233398E+0002   2.43117843627930E+0002   2.49906936645508E+0002   2.56771392822266E+0002   2.63737640380859E+0002   2.70145416259766E+0002   2.73839477539063E+0002   2.72775665283203E+0002   2.68685119628906E+0002   2.64415161132813E+0002   2.61256652832031E+0002   2.59505859375000E+0002   2.59058013916016E+0002   2.59569671630859E+0002   2.60432312011719E+0002   2.61000335693359E+0002   2.61245910644531E+0002   2.61505249023438E+0002   2.61943939208984E+0002   2.62593475341797E+0002   2.63462615966797E+0002   2.64575347900391E+0002   2.65960021972656E+0002   2.67541473388672E+0002   2.68733551025391E+0002   2.68047515869141E+0002   2.65135162353516E+0002   2.61516815185547E+0002   2.58063751220703E+0002   2.54951675415039E+0002   2.52174713134766E+0002   2.49707717895508E+0002   2.47542739868164E+0002   2.45716918945313E+0002   2.44350402832031E+0002   2.43530487060547E+0002   2.43140457153320E+0002   2.43042984008789E+0002   2.43168533325195E+0002   2.43464553833008E+0002   2.43862823486328E+0002   2.44271911621094E+0002   2.44615295410156E+0002   2.45058364868164E+0002   2.46724990844727E+0002   2.51283813476563E+0002   2.57750640869141E+0002   2.64541259765625E+0002   2.71282104492188E+0002   2.78056091308594E+0002   2.84997955322266E+0002   2.92204376220703E+0002   2.99713134765625E+0002   3.07383758544922E+0002   3.14470245361328E+0002   3.18937713623047E+0002   3.18361114501953E+0002   3.13291320800781E+0002   3.06525817871094E+0002   2.99923126220703E+0002   2.94148620605469E+0002   2.89348144531250E+0002   2.85484588623047E+0002   2.82446289062500E+0002   2.80088836669922E+0002   2.78263305664063E+0002   2.76836608886719E+0002   2.75700988769531E+0002   2.74774505615234E+0002   2.73997375488281E+0002   2.73326690673828E+0002   2.72732116699219E+0002   2.72192230224609E+0002   2.71692047119141E+0002   2.71221191406250E+0002   2.70772613525391E+0002   2.70341796875000E+0002   2.69926727294922E+0002   2.69529510498047E+0002   2.69166961669922E+0002   2.69000000000000E+0002   2.69000000000000E+0002   2.69000000000000E+0002   2.69000000000000E+0002   2.69000000000000E+0002   2.69000000000000E+0002   2.69000000000000E+0002   2.69000000000000E+0002   2.69000000000000E+0002   2.69000000000000E+0002   2.69000000000000E+0002   2.69000000000000E+0002   2.69000000000000E+0002
   2.69000000000000E+0002   2.69000000000000E+0002   2.69000000000000E+0002   2.69000000000000E+0002   2.69000000000000E+0002   2.69000000000000E+0002   2.69000000000000E+0002   2.69000000000000E+0002   2.69000000000000E+0002   2.69000000000000E+0002   2.69000000000000E+0002   2.69000000000000E+0002   2.69000000000000E+0002   2.69000000000000E+0002   2.69000000000000E+0002   2.69000000000000E+0002   2.69000000000000E+0002   2.69000000000000E+0002   2.69000000000000E+0002   2.69000000000000E+0002   2.69000000000000E+0002   2.69000000000000E+0002   2.69000000000000E+0002   2.69000000000000E+0002   2.69000000000000E+0002   2.69000000000000E+0002   2.69000000000000E+0002   2.69000000000000E+0002   2.69000000000000E+0002   2.69000000000000E+0002   2.69000000000000E+0002   2.69000000000000E+0002   2.69000000000000E+0002   2.69000000000000E+0002   2.69000000000000E+0002   2.69000000000000E+0002   2.69000000000000E+0002   2.69000000000000E+0002   2.69000000000000E+0002   2.69000000000000E+0002   2.69000000000000E+0002   2.69000000000000E+0002   2.69000000000000E+0002   2.69000000000000E+0002   2.69000000000000E+0002   2.69000000000000E+0002   2.69000000000000E+0002   2.69301605224609E+0002   2.69581634521484E+0002   2.69895477294922E+0002   2.70208953857422E+0002   2.70516632080078E+0002   2.70818511962891E+0002   2.71115325927734E+0002   2.71406921386719E+0002   2.71695556640625E+0002   2.71987091064453E+0002   2.72286743164063E+0002   2.72597991943359E+0002   2.72923767089844E+0002   2.73268188476563E+0002   2.73636077880859E+0002   2.74030731201172E+0002   2.74453582763672E+0002   2.74904815673828E+0002   2.75383300781250E+0002   2.75885589599609E+0002   2.76405426025391E+0002   2.76934265136719E+0002   2.77461578369141E+0002   2.77975158691406E+0002   2.78461608886719E+0002   2.78907196044922E+0002   2.79298736572266E+0002   2.79624877929688E+0002   2.79877288818359E+0002   2.80051727294922E+0002   2.80148895263672E+0002   2.80175079345703E+0002   2.80142059326172E+0002   2.80066650390625E+0002   2.79969848632813E+0002   2.79875915527344E+0002   2.79810974121094E+0002   2.79801971435547E+0002   2.79875427246094E+0002   2.80055694580078E+0002   2.80361999511719E+0002   2.80801147460938E+0002   2.81348937988281E+0002   2.81912780761719E+0002   2.82303680419922E+0002   2.82344512939453E+0002   2.82080810546875E+0002   2.81718048095703E+0002   2.81412384033203E+0002   2.81228057861328E+0002   2.81176269531250E+0002   2.81239349365234E+0002   2.81367004394531E+0002   2.81447631835938E+0002   2.81286071777344E+0002   2.80701080322266E+0002   2.79707214355469E+0002   2.78456726074219E+0002   2.77063262939453E+0002   2.75571807861328E+0002   2.73997589111328E+0002   2.72355773925781E+0002   2.70677093505859E+0002   2.69019378662109E+0002   2.67477874755859E+0002   2.66186035156250E+0002   2.65285430908203E+0002   2.64857940673828E+0002   2.64871063232422E+0002   2.65197265625000E+0002   2.65676635742188E+0002   2.66151000976563E+0002   2.66451110839844E+0002   2.66362884521484E+0002   2.65611145019531E+0002   2.63907073974609E+0002   2.61072875976563E+0002   2.57147277832031E+0002   2.52350753784180E+0002   2.46953369140625E+0002   2.41183059692383E+0002   2.35222366333008E+0002   2.29262283325195E+0002   2.23575378417969E+0002   2.18556610107422E+0002   2.14640014648438E+0002   2.12062515258789E+0002   2.10717544555664E+0002   2.10388153076172E+0002   2.11194931030273E+0002   2.13705764770508E+0002   2.18225509643555E+0002   2.24175262451172E+0002   2.30709762573242E+0002   2.37367080688477E+0002   2.44078643798828E+0002   2.51024566650391E+0002   2.58570800781250E+0002   2.67233154296875E+0002   2.77179870605469E+0002   2.84477874755859E+0002   2.79849822998047E+0002   2.70647857666016E+0002   2.63418426513672E+0002   2.58843566894531E+0002   2.56684814453125E+0002   2.56572753906250E+0002   2.58036315917969E+0002   2.60103851318359E+0002   2.60828857421875E+0002   2.60676269531250E+0002   2.60780334472656E+0002   2.61241088867188E+0002   2.61994720458984E+0002   2.63026824951172E+0002   2.64399749755859E+0002   2.66273803710938E+0002   2.68924835205078E+0002   2.72353393554688E+0002   2.72258880615234E+0002   2.66660736083984E+0002   2.61442535400391E+0002   2.57140808105469E+0002   2.53488159179688E+0002   2.50303253173828E+0002   2.47488174438477E+0002   2.44986602783203E+0002   2.42782455444336E+0002   2.41121002197266E+0002   2.40439743041992E+0002   2.40241363525391E+0002   2.40293426513672E+0002   2.40570892333984E+0002   2.41037521362305E+0002   2.41606750488281E+0002   2.42110458374023E+0002   2.42248748779297E+0002   2.41581741333008E+0002   2.40971893310547E+0002   2.48193328857422E+0002   2.57740478515625E+0002   2.66276367187500E+0002   2.74164550781250E+0002   2.81801055908203E+0002   2.89496063232422E+0002   2.97553405761719E+0002   3.06341705322266E+0002   3.16282867431641E+0002   3.27354370117188E+0002   3.36385803222656E+0002   3.34755401611328E+0002   3.24547180175781E+0002   3.13991516113281E+0002   3.05233673095703E+0002   2.98227050781250E+0002   2.92657470703125E+0002   2.88249755859375E+0002   2.84779266357422E+0002   2.82055084228516E+0002   2.79913085937500E+0002   2.78215393066406E+0002   2.76850677490234E+0002   2.75732208251953E+0002   2.74794433593750E+0002   2.73988739013672E+0002   2.73279541015625E+0002   2.72641082763672E+0002   2.72054718017578E+0002   2.71507141113281E+0002   2.70989013671875E+0002   2.70494018554688E+0002   2.70018890380859E+0002   2.69565856933594E+0002   2.69157257080078E+0002   2.69000000000000E+0002   2.69000000000000E+0002   2.69000000000000E+0002   2.69000000000000E+0002   2.69000000000000E+0002   2.69000000000000E+0002   2.69000000000000E+0002   2.69000000000000E+0002   2.69000000000000E+0002   2.69000000000000E+0002   2.69000000000000E+0002   2.69000000000000E+0002   2.69000000000000E+0002
   2.69000000000000E+0002   2.69000000000000E+0002   2.69000000000000E+0002   2.69000000000000E+0002   2.69000000000000E+0002   2.69000000000000E+0002   2.69000000000000E+0002   2.69000000000000E+0002   2.69000000000000E+0002   2.69000000000000E+0002   2.69000000000000E+0002   2.69000000000000E+0002   2.69000000000000E+0002   2.69000000000000E+0002   2.69000000000000E+0002   2.69000000000000E+0002   2.69000000000000E+0002   2.69000000000000E+0002   2.69000000000000E+0002   2.69000000000000E+0002   2.69000000000000E+0002   2.69000000000000E+0002   2.69000000000000E+0002   2.69000000000000E+0002   2.69000000000000E+0002   2.69000000000000E+0002   2.69000000000000E+0002   2.69000000000000E+0002   2.69000000000000E+0002   2.69000000000000E+0002   2.69000000000000E+0002   2.69000000000000E+0002   2.69000000000000E+0002   2.69000000000000E+0002   2.69000000000000E+0002   2.69000000000000E+0002   2.69000000000000E+0002   2.69000000000000E+0002   2.69000000000000E+0002   2.69000000000000E+0002   2.69000000000000E+0002   2.69000000000000E+0002   2.69000000000000E+0002   2.69000000000000E+0002   2.69000000000000E+0002   2.69132080078125E+0002   2.69490356445313E+0002   2.69874084472656E+0002   2.70237579345703E+0002   2.70594177246094E+0002   2.70943756103516E+0002   2.71285491943359E+0002   2.71620422363281E+0002   2.71950195312500E+0002   2.72276733398438E+0002   2.72602966308594E+0002   2.72932952880859E+0002   2.73271087646484E+0002   2.73621276855469E+0002   2.73987274169922E+0002   2.74372985839844E+0002   2.74782135009766E+0002   2.75217620849609E+0002   2.75681060791016E+0002   2.76172515869141E+0002   2.76690399169922E+0002   2.77230926513672E+0002   2.77787780761719E+0002   2.78352111816406E+0002   2.78912567138672E+0002   2.79455657958984E+0002   2.79966033935547E+0002   2.80427307128906E+0002   2.80823303222656E+0002   2.81139404296875E+0002   2.81364410400391E+0002   2.81492004394531E+0002   2.81522430419922E+0002   2.81463043212891E+0002   2.81328430175781E+0002   2.81139862060547E+0002   2.80924133300781E+0002   2.80712066650391E+0002   2.80537353515625E+0002   2.80435333251953E+0002   2.80442199707031E+0002   2.80594818115234E+0002   2.80930358886719E+0002   2.81483978271484E+0002   2.82273010253906E+0002   2.83223968505859E+0002   2.83969940185547E+0002   2.83934295654297E+0002   2.83290344238281E+0002   2.82618957519531E+0002   2.82155609130859E+0002   2.81933685302734E+0002   2.81940582275391E+0002   2.82159149169922E+0002   2.82560852050781E+0002   2.83039398193359E+0002   2.83231475830078E+0002   2.82602386474609E+0002   2.81277252197266E+0002   2.79715637207031E+0002   2.78081146240234E+0002   2.76375579833984E+0002   2.74575164794922E+0002   2.72670135498047E+0002   2.70676208496094E+0002   2.68646728515625E+0002   2.66698547363281E+0002   2.65043945312500E+0002   2.63968048095703E+0002   2.63666778564453E+0002   2.64073516845703E+0002   2.64936279296875E+0002   2.66013488769531E+0002   2.67136108398438E+0002   2.68150390625000E+0002   2.68819946289063E+0002   2.68735046386719E+0002   2.67344207763672E+0002   2.64254455566406E+0002   2.59570892333984E+0002   2.53777481079102E+0002   2.47345764160156E+0002   2.40558029174805E+0002   2.33557556152344E+0002   2.26477508544922E+0002   2.19609939575195E+0002   2.13597290039063E+0002   2.09409530639648E+0002   2.07705245971680E+0002   2.08171478271484E+0002   2.10013412475586E+0002   2.12783447265625E+0002   2.16474960327148E+0002   2.21128387451172E+0002   2.26550521850586E+0002   2.32420959472656E+0002   2.38520645141602E+0002   2.44829788208008E+0002   2.51543960571289E+0002   2.59129058837891E+0002   2.68518951416016E+0002   2.81636596679688E+0002   3.02212738037109E+0002   2.84522338867188E+0002   2.69187408447266E+0002   2.59539001464844E+0002   2.53968185424805E+0002   2.51790832519531E+0002   2.52402862548828E+0002   2.55242309570313E+0002   2.60119934082031E+0002   2.60324554443359E+0002   2.59529144287109E+0002   2.59654449462891E+0002   2.60246917724609E+0002   2.61126464843750E+0002   2.62260009765625E+0002   2.63721343994141E+0002   2.65714080810547E+0002   2.68669403076172E+0002   2.73394439697266E+0002   2.74116516113281E+0002   2.66205657958984E+0002   2.60271392822266E+0002   2.55554870605469E+0002   2.51562713623047E+0002   2.48067825317383E+0002   2.44964935302734E+0002   2.42187728881836E+0002   2.39644760131836E+0002   2.37274856567383E+0002   2.37166381835938E+0002   2.37135681152344E+0002   2.37320632934570E+0002   2.37778015136719E+0002   2.38498062133789E+0002   2.39406402587891E+0002   2.40332443237305E+0002   2.40937347412109E+0002   2.40599395751953E+0002   2.39323791503906E+0002   2.48420471191406E+0002   2.59309692382813E+0002   2.68723419189453E+0002   2.77303527832031E+0002   2.85490814208984E+0002   2.93639831542969E+0002   3.02165100097656E+0002   3.11691131591797E+0002   3.23281158447266E+0002   3.38821838378906E+0002   3.60048858642578E+0002   3.54285247802734E+0002   3.33621124267578E+0002   3.19140808105469E+0002   3.08708587646484E+0002   3.00862487792969E+0002   2.94809356689453E+0002   2.90082183837891E+0002   2.86370086669922E+0002   2.83443634033203E+0002   2.81123107910156E+0002   2.79265441894531E+0002   2.77757659912109E+0002   2.76512023925781E+0002   2.75461547851563E+0002   2.74555847167969E+0002   2.73757476806641E+0002   2.73038696289063E+0002   2.72379241943359E+0002   2.71764251708984E+0002   2.71183074951172E+0002   2.70628265380859E+0002   2.70095947265625E+0002   2.69588958740234E+0002   2.69136993408203E+0002   2.69000000000000E+0002   2.69000000000000E+0002   2.69000000000000E+0002   2.69000000000000E+0002   2.69000000000000E+0002   2.69000000000000E+0002   2.69000000000000E+0002   2.69000000000000E+0002   2.69000000000000E+0002   2.69000000000000E+0002   2.69000000000000E+0002   2.69000000000000E+0002   2.69000000000000E+0002
   2.69000000000000E+0002   2.69000000000000E+0002   2.69000000000000E+0002   2.69000000000000E+0002   2.69000000000000E+0002   2.69000000000000E+0002   2.69000000000000E+0002   2.69000000000000E+0002   2.69000000000000E+0002   2.69000000000000E+0002   2.69000000000000E+0002   2.69000000000000E+0002   2.69000000000000E+0002   2.69000000000000E+0002   2.69000000000000E+0002   2.69000000000000E+0002   2.69000000000000E+0002   2.69000000000000E+0002   2.69000000000000E+0002   2.69000000000000E+0002   2.69000000000000E+0002   2.69000000000000E+0002   2.69000000000000E+0002   2.69000000000000E+0002   2.69000000000000E+0002   2.69000000000000E+0002   2.69000000000000E+0002   2.69000000000000E+0002   2.69000000000000E+0002   2.69000000000000E+0002   2.69000000000000E+0002   2.69000000000000E+0002   2.69000000000000E+0002   2.69000000000000E+0002   2.69000000000000E+0002   2.69000000000000E+0002   2.69000000000000E+0002   2.69000000000000E+0002   2.69000000000000E+0002   2.69000000000000E+0002   2.69000000000000E+0002   2.69000000000000E+0002   2.69000000000000E+0002   2.69000000000000E+0002   2.69243591308594E+0002   2.69661682128906E+0002   2.70094421386719E+0002   2.70518035888672E+0002   2.70923767089844E+0002   2.71314849853516E+0002   2.71694976806641E+0002   2.72066284179688E+0002   2.72430847167969E+0002   2.72790863037109E+0002   2.73148895263672E+0002   2.73507965087891E+0002   2.73871765136719E+0002   2.74244323730469E+0002   2.74629669189453E+0002   2.75031829833984E+0002   2.75454803466797E+0002   2.75902160644531E+0002   2.76376861572266E+0002   2.76880615234375E+0002   2.77413757324219E+0002   2.77974700927734E+0002   2.78559692382813E+0002   2.79162384033203E+0002   2.79773498535156E+0002   2.80380737304688E+0002   2.80968780517578E+0002   2.81519561767578E+0002   2.82013000488281E+0002   2.82428283691406E+0002   2.82745910644531E+0002   2.82949951171875E+0002   2.83030731201172E+0002   2.82987060546875E+0002   2.82827301025391E+0002   2.82569671630859E+0002   2.82240997314453E+0002   2.81875183105469E+0002   2.81511138916016E+0002   2.81191162109375E+0002   2.80959777832031E+0002   2.80863189697266E+0002   2.80950286865234E+0002   2.81276245117188E+0002   2.81910614013672E+0002   2.82950439453125E+0002   2.84505554199219E+0002   2.86253631591797E+0002   2.85890563964844E+0002   2.84351440429688E+0002   2.83260345458984E+0002   2.82646423339844E+0002   2.82408630371094E+0002   2.82489746093750E+0002   2.82877746582031E+0002   2.83602722167969E+0002   2.84712249755859E+0002   2.85859680175781E+0002   2.84988250732422E+0002   2.82935333251953E+0002   2.81005798339844E+0002   2.79163116455078E+0002   2.77275878906250E+0002   2.75261291503906E+0002   2.73079803466797E+0002   2.70722961425781E+0002   2.68215911865234E+0002   2.65658874511719E+0002   2.63344207763672E+0002   2.61869323730469E+0002   2.61774536132813E+0002   2.62850585937500E+0002   2.64485382080078E+0002   2.66310394287109E+0002   2.68213104248047E+0002   2.70152038574219E+0002   2.71969390869141E+0002   2.73126617431641E+0002   2.72496093750000E+0002   2.69024688720703E+0002   2.63047027587891E+0002   2.55785079956055E+0002   2.48063400268555E+0002   2.40143402099609E+0002   2.32004913330078E+0002   2.23568252563477E+0002   2.14938964843750E+0002   2.06931015014648E+0002   2.01708053588867E+0002   2.01278228759766E+0002   2.04440841674805E+0002   2.08857391357422E+0002   2.13508834838867E+0002   2.18284362792969E+0002   2.23281539916992E+0002   2.28522949218750E+0002   2.33947525024414E+0002   2.39500900268555E+0002   2.45210372924805E+0002   2.51228378295898E+0002   2.57875213623047E+0002   2.65675323486328E+0002   2.74999206542969E+0002   2.81830352783203E+0002   2.74045471191406E+0002   2.61393890380859E+0002   2.51535156250000E+0002   2.45692276000977E+0002   2.44120941162109E+0002   2.46007125854492E+0002   2.49986633300781E+0002   2.54522430419922E+0002   2.56646423339844E+0002   2.57297485351563E+0002   2.58053863525391E+0002   2.58976745605469E+0002   2.60016601562500E+0002   2.61178497314453E+0002   2.62520355224609E+0002   2.64143035888672E+0002   2.66115142822266E+0002   2.67931610107422E+0002   2.67052429199219E+0002   2.62710449218750E+0002   2.57781921386719E+0002   2.53246795654297E+0002   2.49150222778320E+0002   2.45446350097656E+0002   2.42120376586914E+0002   2.39179687500000E+0002   2.36660003662109E+0002   2.34815628051758E+0002   2.34008804321289E+0002   2.33833801269531E+0002   2.34073364257813E+0002   2.34715103149414E+0002   2.35758743286133E+0002   2.37174331665039E+0002   2.38880783081055E+0002   2.40754913330078E+0002   2.42840744018555E+0002   2.46336517333984E+0002   2.53509323120117E+0002   2.62792999267578E+0002   2.72051757812500E+0002   2.80842346191406E+0002   2.89231872558594E+0002   2.97434234619141E+0002   3.05813385009766E+0002   3.14975036621094E+0002   3.25919097900391E+0002   3.40155670166016E+0002   3.57096160888672E+0002   3.52442047119141E+0002   3.34106842041016E+0002   3.20009429931641E+0002   3.09608032226563E+0002   3.01732513427734E+0002   2.95653900146484E+0002   2.90910736083984E+0002   2.87182891845703E+0002   2.84232147216797E+0002   2.81875213623047E+0002   2.79969787597656E+0002   2.78405975341797E+0002   2.77099426269531E+0002   2.75985992431641E+0002   2.75017272949219E+0002   2.74156982421875E+0002   2.73377929687500E+0002   2.72660003662109E+0002   2.71988220214844E+0002   2.71351623535156E+0002   2.70742523193359E+0002   2.70156768798828E+0002   2.69598510742188E+0002   2.69106140136719E+0002   2.69000000000000E+0002   2.69000000000000E+0002   2.69000000000000E+0002   2.69000000000000E+0002   2.69000000000000E+0002   2.69000000000000E+0002   2.69000000000000E+0002   2.69000000000000E+0002   2.69000000000000E+0002   2.69000000000000E+0002   2.69000000000000E+0002   2.69000000000000E+0002   2.69000000000000E+0002
   2.69000000000000E+0002   2.69000000000000E+0002   2.69000000000000E+0002   2.69000000000000E+0002   2.69000000000000E+0002   2.69000000000000E+0002   2.69000000000000E+0002   2.69000000000000E+0002   2.69000000000000E+0002   2.69000000000000E+0002   2.69000000000000E+0002   2.69000000000000E+0002   2.69000000000000E+0002   2.69000000000000E+0002   2.69000000000000E+0002   2.69000000000000E+0002   2.69000000000000E+0002   2.69000000000000E+0002   2.69000000000000E+0002   2.69000000000000E+0002   2.69000000000000E+0002   2.69000000000000E+0002   2.69000000000000E+0002   2.69000000000000E+0002   2.69000000000000E+0002   2.69000000000000E+0002   2.69000000000000E+0002   2.69000000000000E+0002   2.69000000000000E+0002   2.69000000000000E+0002   2.69000000000000E+0002   2.69000000000000E+0002   2.69000000000000E+0002   2.69000000000000E+0002   2.69000000000000E+0002   2.69000000000000E+0002   2.69000000000000E+0002   2.69000000000000E+0002   2.69000000000000E+0002   2.69000000000000E+0002   2.69000000000000E+0002   2.69000000000000E+0002   2.69000000000000E+0002   2.69320037841797E+0002   2.69793975830078E+0002   2.70275573730469E+0002   2.70745025634766E+0002   2.71197052001953E+0002   2.71631256103516E+0002   2.72050231933594E+0002   2.72457244873047E+0002   2.72855255126953E+0002   2.73246765136719E+0002   2.73634277343750E+0002   2.74020538330078E+0002   2.74408630371094E+0002   2.74802154541016E+0002   2.75205017089844E+0002   2.75621429443359E+0002   2.76055755615234E+0002   2.76512237548828E+0002   2.76994842529297E+0002   2.77506896972656E+0002   2.78050628662109E+0002   2.78626861572266E+0002   2.79234558105469E+0002   2.79870361328125E+0002   2.80528076171875E+0002   2.81198272705078E+0002   2.81867614746094E+0002   2.82518798828125E+0002   2.83130310058594E+0002   2.83677001953125E+0002   2.84131591796875E+0002   2.84467041015625E+0002   2.84660156250000E+0002   2.84695587158203E+0002   2.84569366455078E+0002   2.84290924072266E+0002   2.83883087158203E+0002   2.83380126953125E+0002   2.82825012207031E+0002   2.82266448974609E+0002   2.81756683349609E+0002   2.81349792480469E+0002   2.81101196289063E+0002   2.81068237304688E+0002   2.81314605712891E+0002   2.81922241210938E+0002   2.83021392822266E+0002   2.84857818603516E+0002   2.87863830566406E+0002   2.86843780517578E+0002   2.84618316650391E+0002   2.83383575439453E+0002   2.82760345458984E+0002   2.82568847656250E+0002   2.82735229492188E+0002   2.83251770019531E+0002   2.84177764892578E+0002   2.85682952880859E+0002   2.88091156005859E+0002   2.86714111328125E+0002   2.84183563232422E+0002   2.82176788330078E+0002   2.80291198730469E+0002   2.78308807373047E+0002   2.76119018554688E+0002   2.73670471191406E+0002   2.70934600830078E+0002   2.67880279541016E+0002   2.64490783691406E+0002   2.60964019775391E+0002   2.58451232910156E+0002   2.58836914062500E+0002   2.61217498779297E+0002   2.63914428710938E+0002   2.66545776367188E+0002   2.69230957031250E+0002   2.72186401367188E+0002   2.75565185546875E+0002   2.79021087646484E+0002   2.80385467529297E+0002   2.76104675292969E+0002   2.67524993896484E+0002   2.58096435546875E+0002   2.48920715332031E+0002   2.39937210083008E+0002   2.30789962768555E+0002   2.21018814086914E+0002   2.10141677856445E+0002   1.98285781860352E+0002   1.89566970825195E+0002   1.92003875732422E+0002   2.00086181640625E+0002   2.07706405639648E+0002   2.14167678833008E+0002   2.19870605468750E+0002   2.25185745239258E+0002   2.30320892333984E+0002   2.35362701416016E+0002   2.40345336914063E+0002   2.45302963256836E+0002   2.50291320800781E+0002   2.55362854003906E+0002   2.60412017822266E+0002   2.64597564697266E+0002   2.65223937988281E+0002   2.59495941162109E+0002   2.49528656005859E+0002   2.39465484619141E+0002   2.33139617919922E+0002   2.33094894409180E+0002   2.37608627319336E+0002   2.43457427978516E+0002   2.48696411132813E+0002   2.52342147827148E+0002   2.54620895385742E+0002   2.56248168945313E+0002   2.57590240478516E+0002   2.58789947509766E+0002   2.59919525146484E+0002   2.61020812988281E+0002   2.62087310791016E+0002   2.62967651367188E+0002   2.63146911621094E+0002   2.61770629882813E+0002   2.58674774169922E+0002   2.54678024291992E+0002   2.50468978881836E+0002   2.46345733642578E+0002   2.42450714111328E+0002   2.38898529052734E+0002   2.35803009033203E+0002   2.33283508300781E+0002   2.31483245849609E+0002   2.30478363037109E+0002   2.30164840698242E+0002   2.30430130004883E+0002   2.31247909545898E+0002   2.32641983032227E+0002   2.34651062011719E+0002   2.37309143066406E+0002   2.40665603637695E+0002   2.44914047241211E+0002   2.50573211669922E+0002   2.58068695068359E+0002   2.66854644775391E+0002   2.75964508056641E+0002   2.84814514160156E+0002   2.93185028076172E+0002   3.01083862304688E+0002   3.08712585449219E+0002   3.16447570800781E+0002   3.24708740234375E+0002   3.33342285156250E+0002   3.39464385986328E+0002   3.36931091308594E+0002   3.27273864746094E+0002   3.16854034423828E+0002   3.07970214843750E+0002   3.00826446533203E+0002   2.95179870605469E+0002   2.90735748291016E+0002   2.87227233886719E+0002   2.84433593750000E+0002   2.82181091308594E+0002   2.80336791992188E+0002   2.78800384521484E+0002   2.77496276855469E+0002   2.76367706298828E+0002   2.75371826171875E+0002   2.74476348876953E+0002   2.73656951904297E+0002   2.72895263671875E+0002   2.72177612304688E+0002   2.71493743896484E+0002   2.70836486816406E+0002   2.70202026367188E+0002   2.69595886230469E+0002   2.69069183349609E+0002   2.69000000000000E+0002   2.69000000000000E+0002   2.69000000000000E+0002   2.69000000000000E+0002   2.69000000000000E+0002   2.69000000000000E+0002   2.69000000000000E+0002   2.69000000000000E+0002   2.69000000000000E+0002   2.69000000000000E+0002   2.69000000000000E+0002   2.69000000000000E+0002   2.69000000000000E+0002
   2.69000000000000E+0002   2.69000000000000E+0002   2.69000000000000E+0002   2.69000000000000E+0002   2.69000000000000E+0002   2.69000000000000E+0002   2.69000000000000E+0002   2.69000000000000E+0002   2.69000000000000E+0002   2.69000000000000E+0002   2.69000000000000E+0002   2.69000000000000E+0002   2.69000000000000E+0002   2.69000000000000E+0002   2.69000000000000E+0002   2.69000000000000E+0002   2.69000000000000E+0002   2.69000000000000E+0002   2.69000000000000E+0002   2.69000000000000E+0002   2.69000000000000E+0002   2.69000000000000E+0002   2.69000000000000E+0002   2.69000000000000E+0002   2.69000000000000E+0002   2.69000000000000E+0002   2.69000000000000E+0002   2.69000000000000E+0002   2.69000000000000E+0002   2.69000000000000E+0002   2.69000000000000E+0002   2.69000000000000E+0002   2.69000000000000E+0002   2.69000000000000E+0002   2.69000000000000E+0002   2.69000000000000E+0002   2.69000000000000E+0002   2.69000000000000E+0002   2.69000000000000E+0002   2.69000000000000E+0002   2.69000000000000E+0002   2.69000000000000E+0002   2.69352050781250E+0002   2.69880432128906E+0002   2.70413574218750E+0002   2.70929443359375E+0002   2.71424346923828E+0002   2.71899200439453E+0002   2.72356262207031E+0002   2.72798522949219E+0002   2.73229187011719E+0002   2.73651123046875E+0002   2.74066925048828E+0002   2.74479187011719E+0002   2.74890563964844E+0002   2.75304107666016E+0002   2.75723297119141E+0002   2.76152252197266E+0002   2.76595367431641E+0002   2.77057495117188E+0002   2.77543457031250E+0002   2.78057952880859E+0002   2.78605041503906E+0002   2.79187835693359E+0002   2.79808135986328E+0002   2.80465850830078E+0002   2.81158538818359E+0002   2.81880706787109E+0002   2.82623138427734E+0002   2.83372009277344E+0002   2.84107910156250E+0002   2.84805450439453E+0002   2.85433135986328E+0002   2.85954620361328E+0002   2.86331787109375E+0002   2.86529968261719E+0002   2.86524414062500E+0002   2.86306182861328E+0002   2.85885894775391E+0002   2.85293029785156E+0002   2.84572326660156E+0002   2.83778839111328E+0002   2.82973327636719E+0002   2.82219421386719E+0002   2.81581695556641E+0002   2.81124114990234E+0002   2.80908599853516E+0002   2.80994628906250E+0002   2.81441711425781E+0002   2.82309875488281E+0002   2.83607452392578E+0002   2.84887359619141E+0002   2.84761566162109E+0002   2.83709594726563E+0002   2.82879150390625E+0002   2.82447753906250E+0002   2.82377990722656E+0002   2.82636322021484E+0002   2.83216705322266E+0002   2.84132110595703E+0002   2.85353820800781E+0002   2.86436340332031E+0002   2.86114776611328E+0002   2.84755096435547E+0002   2.83215759277344E+0002   2.81523895263672E+0002   2.79556457519531E+0002   2.77238739013672E+0002   2.74548980712891E+0002   2.71471343994141E+0002   2.67932128906250E+0002   2.63725341796875E+0002   2.58465545654297E+0002   2.52750701904297E+0002   2.54967193603516E+0002   2.59764465332031E+0002   2.63526000976563E+0002   2.66748931884766E+0002   2.69961761474609E+0002   2.73681793212891E+0002   2.78567779541016E+0002   2.85446868896484E+0002   2.92817474365234E+0002   2.85745452880859E+0002   2.71804931640625E+0002   2.59874328613281E+0002   2.49520904541016E+0002   2.39878692626953E+0002   2.30214263916016E+0002   2.19739105224609E+0002   2.07312179565430E+0002   1.90946655273438E+0002   1.69500106811523E+0002   1.82748535156250E+0002   1.97776672363281E+0002   2.07986541748047E+0002   2.15609924316406E+0002   2.21827896118164E+0002   2.27254302978516E+0002   2.32206237792969E+0002   2.36838653564453E+0002   2.41218551635742E+0002   2.45361938476563E+0002   2.49234634399414E+0002   2.52701492309570E+0002   2.55385803222656E+0002   2.56420959472656E+0002   2.54375564575195E+0002   2.48056304931641E+0002   2.37561309814453E+0002   2.24397903442383E+0002   2.14663162231445E+0002   2.18386199951172E+0002   2.28527511596680E+0002   2.37576400756836E+0002   2.44391525268555E+0002   2.49176773071289E+0002   2.52421096801758E+0002   2.54672668457031E+0002   2.56331176757813E+0002   2.57627349853516E+0002   2.58679290771484E+0002   2.59525085449219E+0002   2.60117401123047E+0002   2.60286163330078E+0002   2.59714233398438E+0002   2.58064544677734E+0002   2.55281356811523E+0002   2.51657943725586E+0002   2.47569015502930E+0002   2.43307891845703E+0002   2.39114166259766E+0002   2.35225708007813E+0002   2.31872909545898E+0002   2.29229110717773E+0002   2.27376449584961E+0002   2.26305770874023E+0002   2.25948562622070E+0002   2.26247909545898E+0002   2.27210327148438E+0002   2.28913085937500E+0002   2.31486801147461E+0002   2.35080734252930E+0002   2.39820571899414E+0002   2.45796997070313E+0002   2.53067581176758E+0002   2.61534027099609E+0002   2.70785675048828E+0002   2.80224792480469E+0002   2.89306976318359E+0002   2.97640686035156E+0002   3.05027801513672E+0002   3.11498382568359E+0002   3.17250427246094E+0002   3.22401641845703E+0002   3.26508666992188E+0002   3.28083740234375E+0002   3.25464843750000E+0002   3.19216339111328E+0002   3.11650299072266E+0002   3.04485473632813E+0002   2.98405670166016E+0002   2.93506195068359E+0002   2.89632751464844E+0002   2.86564758300781E+0002   2.84100830078125E+0002   2.82084197998047E+0002   2.80400054931641E+0002   2.78965484619141E+0002   2.77719940185547E+0002   2.76618499755859E+0002   2.75627319335938E+0002   2.74720672607422E+0002   2.73878997802734E+0002   2.73087158203125E+0002   2.72333801269531E+0002   2.71610412597656E+0002   2.70911193847656E+0002   2.70234039306641E+0002   2.69585968017578E+0002   2.69038574218750E+0002   2.69000000000000E+0002   2.69000000000000E+0002   2.69000000000000E+0002   2.69000000000000E+0002   2.69000000000000E+0002   2.69000000000000E+0002   2.69000000000000E+0002   2.69000000000000E+0002   2.69000000000000E+0002   2.69000000000000E+0002   2.69000000000000E+0002   2.69000000000000E+0002   2.69000000000000E+0002
   2.69000000000000E+0002   2.69000000000000E+0002   2.69000000000000E+0002   2.69000000000000E+0002   2.69000000000000E+0002   2.69000000000000E+0002   2.69000000000000E+0002   2.69000000000000E+0002   2.69000000000000E+0002   2.69000000000000E+0002   2.69000000000000E+0002   2.69000000000000E+0002   2.69000000000000E+0002   2.69000000000000E+0002   2.69000000000000E+0002   2.69000000000000E+0002   2.69000000000000E+0002   2.69000000000000E+0002   2.69000000000000E+0002   2.69000000000000E+0002   2.69000000000000E+0002   2.69000000000000E+0002   2.69000000000000E+0002   2.69000000000000E+0002   2.69000000000000E+0002   2.69000000000000E+0002   2.69000000000000E+0002   2.69000000000000E+0002   2.69000000000000E+0002   2.69000000000000E+0002   2.69000000000000E+0002   2.69000000000000E+0002   2.69000000000000E+0002   2.69000000000000E+0002   2.69000000000000E+0002   2.69000000000000E+0002   2.69000000000000E+0002   2.69000000000000E+0002   2.69000000000000E+0002   2.69000000000000E+0002   2.69000000000000E+0002   2.69339569091797E+0002   2.69923278808594E+0002   2.70510620117188E+0002   2.71075164794922E+0002   2.71613403320313E+0002   2.72127502441406E+0002   2.72620758056641E+0002   2.73096740722656E+0002   2.73558776855469E+0002   2.74010009765625E+0002   2.74453216552734E+0002   2.74890777587891E+0002   2.75325073242188E+0002   2.75758544921875E+0002   2.76193969726563E+0002   2.76634857177734E+0002   2.77085327148438E+0002   2.77550354003906E+0002   2.78035339355469E+0002   2.78546081542969E+0002   2.79088287353516E+0002   2.79667236328125E+0002   2.80287292480469E+0002   2.80951629638672E+0002   2.81661712646484E+0002   2.82416595458984E+0002   2.83212310791016E+0002   2.84040740966797E+0002   2.84888275146484E+0002   2.85734313964844E+0002   2.86549621582031E+0002   2.87295135498047E+0002   2.87922454833984E+0002   2.88377136230469E+0002   2.88606262207031E+0002   2.88569122314453E+0002   2.88248321533203E+0002   2.87656005859375E+0002   2.86832458496094E+0002   2.85838287353516E+0002   2.84745086669922E+0002   2.83628723144531E+0002   2.82565917968750E+0002   2.81633087158203E+0002   2.80904357910156E+0002   2.80446533203125E+0002   2.80311035156250E+0002   2.80523498535156E+0002   2.81064788818359E+0002   2.81814331054688E+0002   2.82445587158203E+0002   2.82565673828125E+0002   2.82261993408203E+0002   2.81923889160156E+0002   2.81768676757813E+0002   2.81861114501953E+0002   2.82215820312500E+0002   2.82832427978516E+0002   2.83685119628906E+0002   2.84661193847656E+0002   2.85450836181641E+0002   2.85654907226563E+0002   2.85239501953125E+0002   2.84367736816406E+0002   2.83035034179688E+0002   2.81161193847656E+0002   2.78730895996094E+0002   2.75807556152344E+0002   2.72458526611328E+0002   2.68662475585938E+0002   2.64221862792969E+0002   2.58676025390625E+0002   2.52212249755859E+0002   2.54861587524414E+0002   2.59927459716797E+0002   2.63743927001953E+0002   2.66974670410156E+0002   2.70192352294922E+0002   2.73965881347656E+0002   2.79091369628906E+0002   2.86932525634766E+0002   2.98836364746094E+0002   2.88803588867188E+0002   2.72424530029297E+0002   2.59883056640625E+0002   2.49390472412109E+0002   2.39832000732422E+0002   2.30430252075195E+0002   2.20441223144531E+0002   2.08939407348633E+0002   1.94929168701172E+0002   1.82115768432617E+0002   1.88826156616211E+0002   2.01249572753906E+0002   2.10930358886719E+0002   2.18427108764648E+0002   2.24544265747070E+0002   2.29775436401367E+0002   2.34398513793945E+0002   2.38559814453125E+0002   2.42320541381836E+0002   2.45674285888672E+0002   2.48537429809570E+0002   2.50707504272461E+0002   2.51787521362305E+0002   2.51110031127930E+0002   2.47771926879883E+0002   2.40829833984375E+0002   2.29280471801758E+0002   2.11320251464844E+0002   1.86437927246094E+0002   2.04065277099609E+0002   2.22367523193359E+0002   2.34209579467773E+0002   2.42145019531250E+0002   2.47518615722656E+0002   2.51156799316406E+0002   2.53652252197266E+0002   2.55414489746094E+0002   2.56696197509766E+0002   2.57630859375000E+0002   2.58258087158203E+0002   2.58527862548828E+0002   2.58295776367188E+0002   2.57346557617188E+0002   2.55491043090820E+0002   2.52688293457031E+0002   2.49064392089844E+0002   2.44826766967773E+0002   2.40205566406250E+0002   2.35479049682617E+0002   2.31018707275391E+0002   2.27234436035156E+0002   2.24389709472656E+0002   2.22499053955078E+0002   2.21441101074219E+0002   2.21100540161133E+0002   2.21425018310547E+0002   2.22451568603516E+0002   2.24328018188477E+0002   2.27311859130859E+0002   2.31719284057617E+0002   2.37769943237305E+0002   2.45416671752930E+0002   2.54369552612305E+0002   2.64235748291016E+0002   2.74572448730469E+0002   2.84876129150391E+0002   2.94576263427734E+0002   3.03074554443359E+0002   3.09908874511719E+0002   3.14975830078125E+0002   3.18519012451172E+0002   3.20791290283203E+0002   3.21682556152344E+0002   3.20665893554688E+0002   3.17307220458984E+0002   3.11971099853516E+0002   3.05758331298828E+0002   2.99798828125000E+0002   2.94763732910156E+0002   2.90799285888672E+0002   2.87730468750000E+0002   2.85307098388672E+0002   2.83328247070313E+0002   2.81660125732422E+0002   2.80217437744141E+0002   2.78944152832031E+0002   2.77801330566406E+0002   2.76760314941406E+0002   2.75799194335938E+0002   2.74900848388672E+0002   2.74051727294922E+0002   2.73241119384766E+0002   2.72460693359375E+0002   2.71704223632813E+0002   2.70968048095703E+0002   2.70253662109375E+0002   2.69580291748047E+0002   2.69000000000000E+0002   2.69000000000000E+0002   2.69000000000000E+0002   2.69000000000000E+0002   2.69000000000000E+0002   2.69000000000000E+0002   2.69000000000000E+0002   2.69000000000000E+0002   2.69000000000000E+0002   2.69000000000000E+0002   2.69000000000000E+0002   2.69000000000000E+0002   2.69000000000000E+0002   2.69000000000000E+0002
   2.69000000000000E+0002   2.69000000000000E+0002   2.69000000000000E+0002   2.69000000000000E+0002   2.69000000000000E+0002   2.69000000000000E+0002   2.69000000000000E+0002   2.69000000000000E+0002   2.69000000000000E+0002   2.69000000000000E+0002   2.69000000000000E+0002   2.69000000000000E+0002   2.69000000000000E+0002   2.69000000000000E+0002   2.69000000000000E+0002   2.69000000000000E+0002   2.69000000000000E+0002   2.69000000000000E+0002   2.69000000000000E+0002   2.69000000000000E+0002   2.69000000000000E+0002   2.69000000000000E+0002   2.69000000000000E+0002   2.69000000000000E+0002   2.69000000000000E+0002   2.69000000000000E+0002   2.69000000000000E+0002   2.69000000000000E+0002   2.69000000000000E+0002   2.69000000000000E+0002   2.69000000000000E+0002   2.69000000000000E+0002   2.69000000000000E+0002   2.69000000000000E+0002   2.69000000000000E+0002   2.69000000000000E+0002   2.69000000000000E+0002   2.69000000000000E+0002   2.69000000000000E+0002   2.69000000000000E+0002   2.69287933349609E+0002   2.69928100585938E+0002   2.70573150634766E+0002   2.71188995361328E+0002   2.71771789550781E+0002   2.72324798583984E+0002   2.72852691650391E+0002   2.73360137939453E+0002   2.73851348876953E+0002   2.74329895019531E+0002   2.74798919677734E+0002   2.75260894775391E+0002   2.75717956542969E+0002   2.76171905517578E+0002   2.76624633789063E+0002   2.77078552246094E+0002   2.77536895751953E+0002   2.78004028320313E+0002   2.78485382080078E+0002   2.78987426757813E+0002   2.79517181396484E+0002   2.80081787109375E+0002   2.80688079833984E+0002   2.81342132568359E+0002   2.82049041748047E+0002   2.82812225341797E+0002   2.83633178710938E+0002   2.84510345458984E+0002   2.85438018798828E+0002   2.86404541015625E+0002   2.87389770507813E+0002   2.88361938476563E+0002   2.89274200439453E+0002   2.90062957763672E+0002   2.90649993896484E+0002   2.90952667236328E+0002   2.90902465820313E+0002   2.90466613769531E+0002   2.89660644531250E+0002   2.88544158935547E+0002   2.87203735351563E+0002   2.85734619140625E+0002   2.84230590820313E+0002   2.82782165527344E+0002   2.81479339599609E+0002   2.80411254882813E+0002   2.79657714843750E+0002   2.79270965576172E+0002   2.79254516601563E+0002   2.79546600341797E+0002   2.80009796142578E+0002   2.80444213867188E+0002   2.80685668945313E+0002   2.80739654541016E+0002   2.80743835449219E+0002   2.80830657958984E+0002   2.81078796386719E+0002   2.81528167724609E+0002   2.82192901611328E+0002   2.83054351806641E+0002   2.84035186767578E+0002   2.84980743408203E+0002   2.85707855224609E+0002   2.86079864501953E+0002   2.85949096679688E+0002   2.85091186523438E+0002   2.83330444335938E+0002   2.80712402343750E+0002   2.77476501464844E+0002   2.73873687744141E+0002   2.70039245605469E+0002   2.66001953125000E+0002   2.61917816162109E+0002   2.58965179443359E+0002   2.59325988769531E+0002   2.61850830078125E+0002   2.64607452392578E+0002   2.67227752685547E+0002   2.69883483886719E+0002   2.72887176513672E+0002   2.76594757080078E+0002   2.81019836425781E+0002   2.83717041015625E+0002   2.78543182373047E+0002   2.68118591308594E+0002   2.57733215332031E+0002   2.48326248168945E+0002   2.39628372192383E+0002   2.31232330322266E+0002   2.22750335693359E+0002   2.13952926635742E+0002   2.05424163818359E+0002   2.00269897460938E+0002   2.02375442504883E+0002   2.09062576293945E+0002   2.16235366821289E+0002   2.22619415283203E+0002   2.28124328613281E+0002   2.32886901855469E+0002   2.37039916992188E+0002   2.40671127319336E+0002   2.43817184448242E+0002   2.46457153320313E+0002   2.48497192382813E+0002   2.49744155883789E+0002   2.49873504638672E+0002   2.48412185668945E+0002   2.44762008666992E+0002   2.38237655639648E+0002   2.28015350341797E+0002   2.13291931152344E+0002   1.99307327270508E+0002   2.08627090454102E+0002   2.23774154663086E+0002   2.34834579467773E+0002   2.42437072753906E+0002   2.47564132690430E+0002   2.51001220703125E+0002   2.53338424682617E+0002   2.54960937500000E+0002   2.56099578857422E+0002   2.56877655029297E+0002   2.57332580566406E+0002   2.57422393798828E+0002   2.57015045166016E+0002   2.55896499633789E+0002   2.53878524780273E+0002   2.50916030883789E+0002   2.47080047607422E+0002   2.42476333618164E+0002   2.37236618041992E+0002   2.31613922119141E+0002   2.26152725219727E+0002   2.21662414550781E+0002   2.18627578735352E+0002   2.16838363647461E+0002   2.15908676147461E+0002   2.15637039184570E+0002   2.15952453613281E+0002   2.16896789550781E+0002   2.18688842773438E+0002   2.21747756958008E+0002   2.26717742919922E+0002   2.34130035400391E+0002   2.43756469726563E+0002   2.54778030395508E+0002   2.66472076416016E+0002   2.78384552001953E+0002   2.90113098144531E+0002   3.01041625976563E+0002   3.10199829101563E+0002   3.16582580566406E+0002   3.19941619873047E+0002   3.20954711914063E+0002   3.20421203613281E+0002   3.18666259765625E+0002   3.15605438232422E+0002   3.11136779785156E+0002   3.05522583007813E+0002   2.99510375976563E+0002   2.94107391357422E+0002   2.90016754150391E+0002   2.87201934814453E+0002   2.85200286865234E+0002   2.83619201660156E+0002   2.82253662109375E+0002   2.81015563964844E+0002   2.79868225097656E+0002   2.78794036865234E+0002   2.77781982421875E+0002   2.76822967529297E+0002   2.75908905029297E+0002   2.75032287597656E+0002   2.74186401367188E+0002   2.73365325927734E+0002   2.72564239501953E+0002   2.71779388427734E+0002   2.71008941650391E+0002   2.70256042480469E+0002   2.69542205810547E+0002   2.69000000000000E+0002   2.69000000000000E+0002   2.69000000000000E+0002   2.69000000000000E+0002   2.69000000000000E+0002   2.69000000000000E+0002   2.69000000000000E+0002   2.69000000000000E+0002   2.69000000000000E+0002   2.69000000000000E+0002   2.69000000000000E+0002   2.69000000000000E+0002   2.69000000000000E+0002   2.69000000000000E+0002
   2.69000000000000E+0002   2.69000000000000E+0002   2.69000000000000E+0002   2.69000000000000E+0002   2.69000000000000E+0002   2.69000000000000E+0002   2.69000000000000E+0002   2.69000000000000E+0002   2.69000000000000E+0002   2.69000000000000E+0002   2.69000000000000E+0002   2.69000000000000E+0002   2.69000000000000E+0002   2.69000000000000E+0002   2.69000000000000E+0002   2.69000000000000E+0002   2.69000000000000E+0002   2.69000000000000E+0002   2.69000000000000E+0002   2.69000000000000E+0002   2.69000000000000E+0002   2.69000000000000E+0002   2.69000000000000E+0002   2.69000000000000E+0002   2.69000000000000E+0002   2.69000000000000E+0002   2.69000000000000E+0002   2.69000000000000E+0002   2.69000000000000E+0002   2.69000000000000E+0002   2.69000000000000E+0002   2.69000000000000E+0002   2.69000000000000E+0002   2.69000000000000E+0002   2.69000000000000E+0002   2.69000000000000E+0002   2.69000000000000E+0002   2.69000000000000E+0002   2.69000000000000E+0002   2.69216583251953E+0002   2.69907409667969E+0002   2.70612426757813E+0002   2.71281768798828E+0002   2.71910034179688E+0002   2.72501495361328E+0002   2.73062377929688E+0002   2.73598724365234E+0002   2.74115905761719E+0002   2.74618560791016E+0002   2.75110504150391E+0002   2.75594757080078E+0002   2.76073516845703E+0002   2.76548248291016E+0002   2.77019989013672E+0002   2.77489715576172E+0002   2.77958923339844E+0002   2.78430389404297E+0002   2.78908599853516E+0002   2.79399810791016E+0002   2.79911865234375E+0002   2.80453399658203E+0002   2.81033508300781E+0002   2.81660949707031E+0002   2.82343933105469E+0002   2.83089752197266E+0002   2.83904571533203E+0002   2.84792877197266E+0002   2.85756835937500E+0002   2.86795043945313E+0002   2.87900177001953E+0002   2.89055816650391E+0002   2.90231109619141E+0002   2.91373962402344E+0002   2.92403839111328E+0002   2.93208984375000E+0002   2.93657440185547E+0002   2.93629302978516E+0002   2.93062072753906E+0002   2.91979705810547E+0002   2.90480682373047E+0002   2.88697174072266E+0002   2.86758422851563E+0002   2.84776824951172E+0002   2.82853240966797E+0002   2.81090057373047E+0002   2.79599792480469E+0002   2.78494476318359E+0002   2.77849670410156E+0002   2.77661590576172E+0002   2.77835174560547E+0002   2.78214508056641E+0002   2.78635711669922E+0002   2.78986236572266E+0002   2.79244506835938E+0002   2.79463958740234E+0002   2.79722869873047E+0002   2.80090545654297E+0002   2.80619171142578E+0002   2.81343963623047E+0002   2.82280334472656E+0002   2.83416717529297E+0002   2.84709960937500E+0002   2.86081848144531E+0002   2.87375366210938E+0002   2.88235260009766E+0002   2.88062011718750E+0002   2.86365356445313E+0002   2.83292419433594E+0002   2.79482055664063E+0002   2.75503204345703E+0002   2.71656433105469E+0002   2.68102264404297E+0002   2.65101043701172E+0002   2.63226348876953E+0002   2.63003723144531E+0002   2.64094360351563E+0002   2.65729522705078E+0002   2.67473815917969E+0002   2.69223693847656E+0002   2.71008056640625E+0002   2.72785003662109E+0002   2.74071960449219E+0002   2.73436737060547E+0002   2.69290252685547E+0002   2.62278137207031E+0002   2.54322372436523E+0002   2.46506454467773E+0002   2.39122100830078E+0002   2.32157135009766E+0002   2.25563232421875E+0002   2.19482681274414E+0002   2.14587768554688E+0002   2.12249496459961E+0002   2.13484817504883E+0002   2.17495178222656E+0002   2.22613830566406E+0002   2.27747222900391E+0002   2.32451370239258E+0002   2.36602096557617E+0002   2.40195236206055E+0002   2.43258361816406E+0002   2.45807922363281E+0002   2.47823059082031E+0002   2.49226379394531E+0002   2.49868972778320E+0002   2.49522674560547E+0002   2.47888687133789E+0002   2.44633987426758E+0002   2.39468948364258E+0002   2.32357833862305E+0002   2.24336349487305E+0002   2.19562850952148E+0002   2.22926620483398E+0002   2.31114074707031E+0002   2.39120391845703E+0002   2.45213150024414E+0002   2.49270904541016E+0002   2.51915802001953E+0002   2.53725067138672E+0002   2.54986724853516E+0002   2.55862503051758E+0002   2.56446990966797E+0002   2.56767486572266E+0002   2.56801544189453E+0002   2.56442810058594E+0002   2.55360412597656E+0002   2.53216308593750E+0002   2.50012542724609E+0002   2.45863708496094E+0002   2.40786712646484E+0002   2.34731430053711E+0002   2.27741577148438E+0002   2.20451126098633E+0002   2.14731445312500E+0002   2.11823806762695E+0002   2.10527694702148E+0002   2.09881378173828E+0002   2.09735107421875E+0002   2.10011138916016E+0002   2.10657791137695E+0002   2.11982803344727E+0002   2.14468460083008E+0002   2.19348449707031E+0002   2.28360809326172E+0002   2.40850585937500E+0002   2.54611618041992E+0002   2.68510467529297E+0002   2.82334625244141E+0002   2.96038269042969E+0002   3.09147216796875E+0002   3.20069000244141E+0002   3.26278381347656E+0002   3.27125244140625E+0002   3.24770904541016E+0002   3.21161224365234E+0002   3.16923034667969E+0002   3.11992065429688E+0002   3.06185516357422E+0002   2.99548767089844E+0002   2.92688812255859E+0002   2.87077087402344E+0002   2.84026306152344E+0002   2.82870758056641E+0002   2.82304077148438E+0002   2.81740661621094E+0002   2.81061096191406E+0002   2.80283538818359E+0002   2.79446838378906E+0002   2.78582153320313E+0002   2.77709655761719E+0002   2.76840820312500E+0002   2.75981323242188E+0002   2.75133178710938E+0002   2.74296356201172E+0002   2.73469818115234E+0002   2.72652099609375E+0002   2.71841949462891E+0002   2.71039093017578E+0002   2.70247222900391E+0002   2.69489257812500E+0002   2.69000000000000E+0002   2.69000000000000E+0002   2.69000000000000E+0002   2.69000000000000E+0002   2.69000000000000E+0002   2.69000000000000E+0002   2.69000000000000E+0002   2.69000000000000E+0002   2.69000000000000E+0002   2.69000000000000E+0002   2.69000000000000E+0002   2.69000000000000E+0002   2.69000000000000E+0002   2.69000000000000E+0002
   2.69000000000000E+0002   2.69000000000000E+0002   2.69000000000000E+0002   2.69000000000000E+0002   2.69000000000000E+0002   2.69000000000000E+0002   2.69000000000000E+0002   2.69000000000000E+0002   2.69000000000000E+0002   2.69000000000000E+0002   2.69000000000000E+0002   2.69000000000000E+0002   2.69000000000000E+0002   2.69000000000000E+0002   2.69000000000000E+0002   2.69000000000000E+0002   2.69000000000000E+0002   2.69000000000000E+0002   2.69000000000000E+0002   2.69000000000000E+0002   2.69000000000000E+0002   2.69000000000000E+0002   2.69000000000000E+0002   2.69000000000000E+0002   2.69000000000000E+0002   2.69000000000000E+0002   2.69000000000000E+0002   2.69000000000000E+0002   2.69000000000000E+0002   2.69000000000000E+0002   2.69000000000000E+0002   2.69000000000000E+0002   2.69000000000000E+0002   2.69000000000000E+0002   2.69000000000000E+0002   2.69000000000000E+0002   2.69000000000000E+0002   2.69000000000000E+0002   2.69192962646484E+0002   2.69904418945313E+0002   2.70650756835938E+0002   2.71370391845703E+0002   2.72043121337891E+0002   2.72671600341797E+0002   2.73263031005859E+0002   2.73824859619141E+0002   2.74363952636719E+0002   2.74886138916016E+0002   2.75396392822266E+0002   2.75898681640625E+0002   2.76395965576172E+0002   2.76890045166016E+0002   2.77381530761719E+0002   2.77870208740234E+0002   2.78355468750000E+0002   2.78837310791016E+0002   2.79317474365234E+0002   2.79800445556641E+0002   2.80293609619141E+0002   2.80806793212891E+0002   2.81351013183594E+0002   2.81937774658203E+0002   2.82578155517578E+0002   2.83282684326172E+0002   2.84061248779297E+0002   2.84923004150391E+0002   2.85876281738281E+0002   2.86928222656250E+0002   2.88083618164063E+0002   2.89342956542969E+0002   2.90698577880859E+0002   2.92127716064453E+0002   2.93580780029297E+0002   2.94964447021484E+0002   2.96124328613281E+0002   2.96846160888672E+0002   2.96907745361328E+0002   2.96182922363281E+0002   2.94718597412109E+0002   2.92699249267578E+0002   2.90341888427734E+0002   2.87822753906250E+0002   2.85265747070313E+0002   2.82766784667969E+0002   2.80430328369141E+0002   2.78400665283203E+0002   2.76860717773438E+0002   2.75959106445313E+0002   2.75698608398438E+0002   2.75915588378906E+0002   2.76381652832031E+0002   2.76907775878906E+0002   2.77385803222656E+0002   2.77787048339844E+0002   2.78140167236328E+0002   2.78502380371094E+0002   2.78938232421875E+0002   2.79510284423828E+0002   2.80277648925781E+0002   2.81297821044922E+0002   2.82630157470703E+0002   2.84339111328125E+0002   2.86479949951172E+0002   2.89005340576172E+0002   2.91464904785156E+0002   2.92547760009766E+0002   2.90742614746094E+0002   2.86509063720703E+0002   2.81575164794922E+0002   2.76970458984375E+0002   2.73009826660156E+0002   2.69772155761719E+0002   2.67353668212891E+0002   2.65918029785156E+0002   2.65532867431641E+0002   2.65973449707031E+0002   2.66826782226563E+0002   2.67740447998047E+0002   2.68513031005859E+0002   2.69033477783203E+0002   2.69144042968750E+0002   2.68470153808594E+0002   2.66385925292969E+0002   2.62431060791016E+0002   2.56884185791016E+0002   2.50561569213867E+0002   2.44190948486328E+0002   2.38188873291016E+0002   2.32749572753906E+0002   2.27992080688477E+0002   2.24114547729492E+0002   2.21520828247070E+0002   2.20754287719727E+0002   2.22086929321289E+0002   2.25147521972656E+0002   2.29149063110352E+0002   2.33369644165039E+0002   2.37353744506836E+0002   2.40880294799805E+0002   2.43878524780273E+0002   2.46352706909180E+0002   2.48323455810547E+0002   2.49788528442383E+0002   2.50702209472656E+0002   2.50969421386719E+0002   2.50452606201172E+0002   2.48995391845703E+0002   2.46472625732422E+0002   2.42890258789063E+0002   2.38593383789063E+0002   2.34642227172852E+0002   2.32963088989258E+0002   2.34990814208984E+0002   2.39880432128906E+0002   2.45585311889648E+0002   2.50096755981445E+0002   2.52333206176758E+0002   2.53651184082031E+0002   2.54695770263672E+0002   2.55443267822266E+0002   2.55963272094727E+0002   2.56325408935547E+0002   2.56529724121094E+0002   2.56563751220703E+0002   2.56566375732422E+0002   2.55899887084961E+0002   2.53568328857422E+0002   2.50012298583984E+0002   2.45561294555664E+0002   2.40099411010742E+0002   2.33309341430664E+0002   2.24707580566406E+0002   2.14085617065430E+0002   2.05671142578125E+0002   2.04546188354492E+0002   2.04342468261719E+0002   2.03982055664063E+0002   2.03972122192383E+0002   2.04292175292969E+0002   2.04301376342773E+0002   2.04853454589844E+0002   2.05817443847656E+0002   2.08437042236328E+0002   2.19791168212891E+0002   2.37341186523438E+0002   2.54564300537109E+0002   2.70665863037109E+0002   2.86315368652344E+0002   3.02248626708984E+0002   3.18796875000000E+0002   3.34145111083984E+0002   3.41012908935547E+0002   3.36808959960938E+0002   3.29402191162109E+0002   3.22367309570313E+0002   3.15840850830078E+0002   3.09291473388672E+0002   3.02181823730469E+0002   2.94099884033203E+0002   2.85096466064453E+0002   2.77683074951172E+0002   2.76587768554688E+0002   2.78291320800781E+0002   2.79523773193359E+0002   2.80008666992188E+0002   2.79971618652344E+0002   2.79609802246094E+0002   2.79051788330078E+0002   2.78376708984375E+0002   2.77632720947266E+0002   2.76848754882813E+0002   2.76042053222656E+0002   2.75222595214844E+0002   2.74396057128906E+0002   2.73565582275391E+0002   2.72732879638672E+0002   2.71899108886719E+0002   2.71065917968750E+0002   2.70239074707031E+0002   2.69449584960938E+0002   2.69000000000000E+0002   2.69000000000000E+0002   2.69000000000000E+0002   2.69000000000000E+0002   2.69000000000000E+0002   2.69000000000000E+0002   2.69000000000000E+0002   2.69000000000000E+0002   2.69000000000000E+0002   2.69000000000000E+0002   2.69000000000000E+0002   2.69000000000000E+0002   2.69000000000000E+0002   2.69000000000000E+0002
   2.69000000000000E+0002   2.69000000000000E+0002   2.69000000000000E+0002   2.69000000000000E+0002   2.69000000000000E+0002   2.69000000000000E+0002   2.69000000000000E+0002   2.69000000000000E+0002   2.69000000000000E+0002   2.69000000000000E+0002   2.69000000000000E+0002   2.69000000000000E+0002   2.69000000000000E+0002   2.69000000000000E+0002   2.69000000000000E+0002   2.69000000000000E+0002   2.69000000000000E+0002   2.69000000000000E+0002   2.69000000000000E+0002   2.69000000000000E+0002   2.69000000000000E+0002   2.69000000000000E+0002   2.69000000000000E+0002   2.69000000000000E+0002   2.69000000000000E+0002   2.69000000000000E+0002   2.69000000000000E+0002   2.69000000000000E+0002   2.69000000000000E+0002   2.69000000000000E+0002   2.69000000000000E+0002   2.69000000000000E+0002   2.69000000000000E+0002   2.69000000000000E+0002   2.69000000000000E+0002   2.69000000000000E+0002   2.69000000000000E+0002   2.69147979736328E+0002   2.69883850097656E+0002   2.70705322265625E+0002   2.71477386474609E+0002   2.72191558837891E+0002   2.72853607177734E+0002   2.73471710205078E+0002   2.74054504394531E+0002   2.74610198974609E+0002   2.75145965576172E+0002   2.75668151855469E+0002   2.76182006835938E+0002   2.76691711425781E+0002   2.77200225830078E+0002   2.77708953857422E+0002   2.78217559814453E+0002   2.78723937988281E+0002   2.79224975585938E+0002   2.79717803955078E+0002   2.80202239990234E+0002   2.80682434082031E+0002   2.81167633056641E+0002   2.81670684814453E+0002   2.82206054687500E+0002   2.82788299560547E+0002   2.83431091308594E+0002   2.84147308349609E+0002   2.84949401855469E+0002   2.85849670410156E+0002   2.86860717773438E+0002   2.87995452880859E+0002   2.89266937255859E+0002   2.90687011718750E+0002   2.92263397216797E+0002   2.93992706298828E+0002   2.95845123291016E+0002   2.97734344482422E+0002   2.99467773437500E+0002   3.00700592041016E+0002   3.00991363525391E+0002   3.00055816650391E+0002   2.98008148193359E+0002   2.95242736816406E+0002   2.92136932373047E+0002   2.88919738769531E+0002   2.85698577880859E+0002   2.82527587890625E+0002   2.79478271484375E+0002   2.76720184326172E+0002   2.74579711914063E+0002   2.73414672851563E+0002   2.73261749267578E+0002   2.73762237548828E+0002   2.74504943847656E+0002   2.75241088867188E+0002   2.75870574951172E+0002   2.76381164550781E+0002   2.76807525634766E+0002   2.77207427978516E+0002   2.77648925781250E+0002   2.78205535888672E+0002   2.78958282470703E+0002   2.80002838134766E+0002   2.81463348388672E+0002   2.83513610839844E+0002   2.86399291992188E+0002   2.90414825439453E+0002   2.95556762695313E+0002   2.99661285400391E+0002   2.97148284912109E+0002   2.89968170166016E+0002   2.83141540527344E+0002   2.77742095947266E+0002   2.73648559570313E+0002   2.70657867431641E+0002   2.68650207519531E+0002   2.67554626464844E+0002   2.67249481201172E+0002   2.67482849121094E+0002   2.67901702880859E+0002   2.68165649414063E+0002   2.68042633056641E+0002   2.67413208007813E+0002   2.66183288574219E+0002   2.64187255859375E+0002   2.61202209472656E+0002   2.57124969482422E+0002   2.52155761718750E+0002   2.46759796142578E+0002   2.41461059570313E+0002   2.36680053710938E+0002   2.32679229736328E+0002   2.29596588134766E+0002   2.27539489746094E+0002   2.26662857055664E+0002   2.27133880615234E+0002   2.28974182128906E+0002   2.31931823730469E+0002   2.35536331176758E+0002   2.39274658203125E+0002   2.42739547729492E+0002   2.45698516845703E+0002   2.48087493896484E+0002   2.49945770263672E+0002   2.51336822509766E+0002   2.52296676635742E+0002   2.52816894531250E+0002   2.52850021362305E+0002   2.52327636718750E+0002   2.51190505981445E+0002   2.49436569213867E+0002   2.47196517944336E+0002   2.44841018676758E+0002   2.43067077636719E+0002   2.42763412475586E+0002   2.44485748291016E+0002   2.48034896850586E+0002   2.52798980712891E+0002   2.57183502197266E+0002   2.55956176757813E+0002   2.55933197021484E+0002   2.56238037109375E+0002   2.56355834960938E+0002   2.56540069580078E+0002   2.56619995117188E+0002   2.56701232910156E+0002   2.56552947998047E+0002   2.57187133789063E+0002   2.58022613525391E+0002   2.54767333984375E+0002   2.50795593261719E+0002   2.46237487792969E+0002   2.40734771728516E+0002   2.33808288574219E+0002   2.24648071289063E+0002   2.11693893432617E+0002   1.98775558471680E+0002   2.01827117919922E+0002   2.01155960083008E+0002   2.01513656616211E+0002   2.01261428833008E+0002   2.00870620727539E+0002   2.00478225708008E+0002   2.00666351318359E+0002   1.99721145629883E+0002   1.94219009399414E+0002   2.10972213745117E+0002   2.36142074584961E+0002   2.55982803344727E+0002   2.73306915283203E+0002   2.89920043945313E+0002   3.07341369628906E+0002   3.27407958984375E+0002   3.52105041503906E+0002   3.63549194335938E+0002   3.46284149169922E+0002   3.32779541015625E+0002   3.22897521972656E+0002   3.14766510009766E+0002   3.07178497314453E+0002   2.99262145996094E+0002   2.90163482666016E+0002   2.78659851074219E+0002   2.63825378417969E+0002   2.69681335449219E+0002   2.74997497558594E+0002   2.77620544433594E+0002   2.78809509277344E+0002   2.79200378417969E+0002   2.79125640869141E+0002   2.78769104003906E+0002   2.78237213134766E+0002   2.77593902587891E+0002   2.76878326416016E+0002   2.76114807128906E+0002   2.75318664550781E+0002   2.74499511718750E+0002   2.73663604736328E+0002   2.72815216064453E+0002   2.71957794189453E+0002   2.71095550537109E+0002   2.70237426757813E+0002   2.69416839599609E+0002   2.69000000000000E+0002   2.69000000000000E+0002   2.69000000000000E+0002   2.69000000000000E+0002   2.69000000000000E+0002   2.69000000000000E+0002   2.69000000000000E+0002   2.69000000000000E+0002   2.69000000000000E+0002   2.69000000000000E+0002   2.69000000000000E+0002   2.69000000000000E+0002   2.69000000000000E+0002   2.69000000000000E+0002
   2.69000000000000E+0002   2.69000000000000E+0002   2.69000000000000E+0002   2.69000000000000E+0002   2.69000000000000E+0002   2.69000000000000E+0002   2.69000000000000E+0002   2.69000000000000E+0002   2.69000000000000E+0002   2.69000000000000E+0002   2.69000000000000E+0002   2.69000000000000E+0002   2.69000000000000E+0002   2.69000000000000E+0002   2.69000000000000E+0002   2.69000000000000E+0002   2.69000000000000E+0002   2.69000000000000E+0002   2.69000000000000E+0002   2.69000000000000E+0002   2.69000000000000E+0002   2.69000000000000E+0002   2.69000000000000E+0002   2.69000000000000E+0002   2.69000000000000E+0002   2.69000000000000E+0002   2.69000000000000E+0002   2.69000000000000E+0002   2.69000000000000E+0002   2.69000000000000E+0002   2.69000000000000E+0002   2.69000000000000E+0002   2.69000000000000E+0002   2.69000000000000E+0002   2.69000000000000E+0002   2.69000000000000E+0002   2.69000000000000E+0002   2.69909667968750E+0002   2.70797668457031E+0002   2.71624694824219E+0002   2.72379730224609E+0002   2.73070983886719E+0002   2.73710083007813E+0002   2.74307617187500E+0002   2.74873199462891E+0002   2.75415313720703E+0002   2.75941467285156E+0002   2.76458343505859E+0002   2.76971527099609E+0002   2.77485687255859E+0002   2.78003997802734E+0002   2.78527679443359E+0002   2.79055541992188E+0002   2.79583068847656E+0002   2.80103027343750E+0002   2.80607452392578E+0002   2.81091979980469E+0002   2.81560028076172E+0002   2.82024017333984E+0002   2.82502166748047E+0002   2.83014099121094E+0002   2.83578125000000E+0002   2.84210479736328E+0002   2.84926086425781E+0002   2.85739440917969E+0002   2.86665679931641E+0002   2.87721466064453E+0002   2.88925842285156E+0002   2.90301025390625E+0002   2.91872985839844E+0002   2.93671020507813E+0002   2.95724761962891E+0002   2.98052001953125E+0002   3.00622924804688E+0002   3.03264923095703E+0002   3.05475128173828E+0002   3.06319030761719E+0002   3.05037719726563E+0002   3.01973266601563E+0002   2.98083618164063E+0002   2.94017761230469E+0002   2.90010772705078E+0002   2.86085083007813E+0002   2.82188842773438E+0002   2.78284118652344E+0002   2.74485198974609E+0002   2.71345062255859E+0002   2.69866516113281E+0002   2.70229278564453E+0002   2.71424896240234E+0002   2.72667877197266E+0002   2.73697143554688E+0002   2.74481994628906E+0002   2.75063018798828E+0002   2.75502655029297E+0002   2.75871551513672E+0002   2.76245452880859E+0002   2.76706848144531E+0002   2.77351257324219E+0002   2.78298736572266E+0002   2.79715118408203E+0002   2.81849304199219E+0002   2.85103210449219E+0002   2.90170013427734E+0002   2.98291381835938E+0002   3.10612518310547E+0002   3.04509033203125E+0002   2.91602539062500E+0002   2.82997955322266E+0002   2.77171630859375E+0002   2.73194305419922E+0002   2.70573394775391E+0002   2.69034454345703E+0002   2.68386627197266E+0002   2.68417022705078E+0002   2.68812774658203E+0002   2.69149810791016E+0002   2.68993652343750E+0002   2.68076049804688E+0002   2.66368957519531E+0002   2.63957855224609E+0002   2.60885803222656E+0002   2.57135345458984E+0002   2.52729553222656E+0002   2.47842941284180E+0002   2.42834014892578E+0002   2.38186218261719E+0002   2.34373504638672E+0002   2.31692459106445E+0002   2.30195404052734E+0002   2.29803329467773E+0002   2.30451858520508E+0002   2.32115341186523E+0002   2.34723968505859E+0002   2.38075454711914E+0002   2.41813247680664E+0002   2.45482406616211E+0002   2.48656936645508E+0002   2.51100234985352E+0002   2.52827484130859E+0002   2.53998977661133E+0002   2.54772766113281E+0002   2.55237380981445E+0002   2.55414810180664E+0002   2.55287277221680E+0002   2.54826675415039E+0002   2.54025527954102E+0002   2.52933090209961E+0002   2.51697692871094E+0002   2.50603607177734E+0002   2.50063110351563E+0002   2.50503112792969E+0002   2.52156707763672E+0002   2.54933349609375E+0002   2.58459655761719E+0002   2.61144073486328E+0002   2.60294128417969E+0002   2.59642974853516E+0002   2.59359527587891E+0002   2.59014953613281E+0002   2.58714721679688E+0002   2.58459564208984E+0002   2.58258819580078E+0002   2.57968688964844E+0002   2.58320892333984E+0002   2.58520019531250E+0002   2.55775787353516E+0002   2.52083755493164E+0002   2.47832031250000E+0002   2.42772125244141E+0002   2.36569976806641E+0002   2.28850097656250E+0002   2.19762466430664E+0002   2.12708450317383E+0002   2.10884155273438E+0002   2.10257705688477E+0002   2.09603485107422E+0002   2.09310409545898E+0002   2.09213348388672E+0002   2.08591659545898E+0002   2.08535217285156E+0002   2.08192153930664E+0002   2.07759796142578E+0002   2.20713348388672E+0002   2.41533294677734E+0002   2.60048034667969E+0002   2.76663238525391E+0002   2.92697784423828E+0002   3.09527923583984E+0002   3.28908020019531E+0002   3.52570007324219E+0002   3.63002288818359E+0002   3.45864196777344E+0002   3.31959869384766E+0002   3.21643249511719E+0002   3.13172332763672E+0002   3.05411041259766E+0002   2.97561889648438E+0002   2.88931060791016E+0002   2.78979370117188E+0002   2.70082183837891E+0002   2.71105926513672E+0002   2.74837524414063E+0002   2.77182495117188E+0002   2.78391021728516E+0002   2.78878723144531E+0002   2.78912933349609E+0002   2.78655426025391E+0002   2.78205352783203E+0002   2.77625030517578E+0002   2.76954376220703E+0002   2.76219360351563E+0002   2.75437164306641E+0002   2.74619415283203E+0002   2.73774078369141E+0002   2.72907104492188E+0002   2.72023803710938E+0002   2.71131103515625E+0002   2.70245178222656E+0002   2.69424255371094E+0002   2.69000000000000E+0002   2.69000000000000E+0002   2.69000000000000E+0002   2.69000000000000E+0002   2.69000000000000E+0002   2.69000000000000E+0002   2.69000000000000E+0002   2.69000000000000E+0002   2.69000000000000E+0002   2.69000000000000E+0002   2.69000000000000E+0002   2.69000000000000E+0002   2.69000000000000E+0002   2.69000000000000E+0002
   2.69000000000000E+0002   2.69000000000000E+0002   2.69000000000000E+0002   2.69000000000000E+0002   2.69000000000000E+0002   2.69000000000000E+0002   2.69000000000000E+0002   2.69000000000000E+0002   2.69000000000000E+0002   2.69000000000000E+0002   2.69000000000000E+0002   2.69000000000000E+0002   2.69000000000000E+0002   2.69000000000000E+0002   2.69000000000000E+0002   2.69000000000000E+0002   2.69000000000000E+0002   2.69000000000000E+0002   2.69000000000000E+0002   2.69000000000000E+0002   2.69000000000000E+0002   2.69000000000000E+0002   2.69000000000000E+0002   2.69000000000000E+0002   2.69000000000000E+0002   2.69000000000000E+0002   2.69000000000000E+0002   2.69000000000000E+0002   2.69000000000000E+0002   2.69000000000000E+0002   2.69000000000000E+0002   2.69000000000000E+0002   2.69000000000000E+0002   2.69000000000000E+0002   2.69000000000000E+0002   2.69241271972656E+0002   2.70070800781250E+0002   2.70997009277344E+0002   2.71858367919922E+0002   2.72641876220703E+0002   2.73353363037109E+0002   2.74004913330078E+0002   2.74608703613281E+0002   2.75175628662109E+0002   2.75715301513672E+0002   2.76236236572266E+0002   2.76746154785156E+0002   2.77251983642578E+0002   2.77759918212891E+0002   2.78275207519531E+0002   2.78801879882813E+0002   2.79341735839844E+0002   2.79893218994141E+0002   2.80449401855469E+0002   2.80996948242188E+0002   2.81518127441406E+0002   2.81999450683594E+0002   2.82442382812500E+0002   2.82866241455078E+0002   2.83299468994141E+0002   2.83769653320313E+0002   2.84299316406250E+0002   2.84906555175781E+0002   2.85607208251953E+0002   2.86416839599609E+0002   2.87352508544922E+0002   2.88434143066406E+0002   2.89686065673828E+0002   2.91138977050781E+0002   2.92832885742188E+0002   2.94821014404297E+0002   2.97174682617188E+0002   2.99987152099609E+0002   3.03361724853516E+0002   3.07323394775391E+0002   3.11420074462891E+0002   3.13714752197266E+0002   3.11658020019531E+0002   3.06561431884766E+0002   3.00987884521484E+0002   2.95795623779297E+0002   2.91007171630859E+0002   2.86445922851563E+0002   2.81892059326172E+0002   2.77104034423828E+0002   2.71887725830078E+0002   2.66719787597656E+0002   2.64672241210938E+0002   2.66698730468750E+0002   2.69203521728516E+0002   2.71095916748047E+0002   2.72412078857422E+0002   2.73301391601563E+0002   2.73887695312500E+0002   2.74269348144531E+0002   2.74531707763672E+0002   2.74756408691406E+0002   2.75028991699219E+0002   2.75447998046875E+0002   2.76137512207031E+0002   2.77267791748047E+0002   2.79089294433594E+0002   2.81990997314453E+0002   2.86594848632813E+0002   2.93788726806641E+0002   3.02662261962891E+0002   2.98456878662109E+0002   2.87729187011719E+0002   2.79963439941406E+0002   2.74767425537109E+0002   2.71406188964844E+0002   2.69418548583984E+0002   2.68524047851563E+0002   2.68521972656250E+0002   2.69193084716797E+0002   2.70183227539063E+0002   2.70898071289063E+0002   2.70601898193359E+0002   2.68894622802734E+0002   2.66001861572266E+0002   2.62370178222656E+0002   2.58261169433594E+0002   2.53743850708008E+0002   2.48843063354492E+0002   2.43675857543945E+0002   2.38557220458984E+0002   2.34063873291016E+0002   2.30912826538086E+0002   2.29520217895508E+0002   2.29709930419922E+0002   2.31044830322266E+0002   2.33225006103516E+0002   2.36132751464844E+0002   2.39706008911133E+0002   2.43812362670898E+0002   2.48151779174805E+0002   2.52200363159180E+0002   2.55331085205078E+0002   2.57224731445313E+0002   2.58109222412109E+0002   2.58431610107422E+0002   2.58504516601563E+0002   2.58458038330078E+0002   2.58315795898438E+0002   2.58060882568359E+0002   2.57675750732422E+0002   2.57169281005859E+0002   2.56598846435547E+0002   2.56088470458984E+0002   2.55832351684570E+0002   2.56065887451172E+0002   2.56989074707031E+0002   2.58659729003906E+0002   2.60905181884766E+0002   2.63236846923828E+0002   2.64729614257813E+0002   2.64806823730469E+0002   2.64215759277344E+0002   2.63484893798828E+0002   2.62700988769531E+0002   2.61945251464844E+0002   2.61281005859375E+0002   2.60703643798828E+0002   2.60194091796875E+0002   2.59758453369141E+0002   2.58860656738281E+0002   2.56805389404297E+0002   2.53829574584961E+0002   2.50214614868164E+0002   2.45959594726563E+0002   2.40988082885742E+0002   2.35347579956055E+0002   2.29596343994141E+0002   2.25103134155273E+0002   2.22695663452148E+0002   2.21562973022461E+0002   2.20945312500000E+0002   2.20691421508789E+0002   2.20710952758789E+0002   2.20956085205078E+0002   2.21749114990234E+0002   2.23437301635742E+0002   2.27596481323242E+0002   2.37341629028320E+0002   2.51446594238281E+0002   2.66287475585938E+0002   2.80637878417969E+0002   2.94669219970703E+0002   3.08893066406250E+0002   3.23540832519531E+0002   3.36780334472656E+0002   3.41685577392578E+0002   3.35894989013672E+0002   3.26950531005859E+0002   3.18505157470703E+0002   3.10891479492188E+0002   3.03756225585938E+0002   2.96721923828125E+0002   2.89568023681641E+0002   2.82598541259766E+0002   2.77466705322266E+0002   2.76036956787109E+0002   2.76880035400391E+0002   2.77974395751953E+0002   2.78691833496094E+0002   2.78999603271484E+0002   2.78983551025391E+0002   2.78728820800781E+0002   2.78300292968750E+0002   2.77744293212891E+0002   2.77093322753906E+0002   2.76370147705078E+0002   2.75590728759766E+0002   2.74766601562500E+0002   2.73906158447266E+0002   2.73016082763672E+0002   2.72102447509766E+0002   2.71173126220703E+0002   2.70245544433594E+0002   2.69378112792969E+0002   2.69000000000000E+0002   2.69000000000000E+0002   2.69000000000000E+0002   2.69000000000000E+0002   2.69000000000000E+0002   2.69000000000000E+0002   2.69000000000000E+0002   2.69000000000000E+0002   2.69000000000000E+0002   2.69000000000000E+0002   2.69000000000000E+0002   2.69000000000000E+0002   2.69000000000000E+0002   2.69000000000000E+0002
   2.69000000000000E+0002   2.69000000000000E+0002   2.69000000000000E+0002   2.69000000000000E+0002   2.69000000000000E+0002   2.69000000000000E+0002   2.69000000000000E+0002   2.69000000000000E+0002   2.69000000000000E+0002   2.69000000000000E+0002   2.69000000000000E+0002   2.69000000000000E+0002   2.69000000000000E+0002   2.69000000000000E+0002   2.69000000000000E+0002   2.69000000000000E+0002   2.69000000000000E+0002   2.69000000000000E+0002   2.69000000000000E+0002   2.69000000000000E+0002   2.69000000000000E+0002   2.69000000000000E+0002   2.69000000000000E+0002   2.69000000000000E+0002   2.69000000000000E+0002   2.69000000000000E+0002   2.69000000000000E+0002   2.69000000000000E+0002   2.69000000000000E+0002   2.69000000000000E+0002   2.69000000000000E+0002   2.69000000000000E+0002   2.69000000000000E+0002   2.69000000000000E+0002   2.69609924316406E+0002   2.70466339111328E+0002   2.71390899658203E+0002   2.72247558593750E+0002   2.73030273437500E+0002   2.73741333007813E+0002   2.74389984130859E+0002   2.74987365722656E+0002   2.75544342041016E+0002   2.76070861816406E+0002   2.76576019287109E+0002   2.77068084716797E+0002   2.77554809570313E+0002   2.78043395996094E+0002   2.78540710449219E+0002   2.79053039550781E+0002   2.79585968017578E+0002   2.80143218994141E+0002   2.80724792480469E+0002   2.81322998046875E+0002   2.81916809082031E+0002   2.82470092773438E+0002   2.82947174072266E+0002   2.83344268798828E+0002   2.83698089599609E+0002   2.84058502197266E+0002   2.84464813232422E+0002   2.84942565917969E+0002   2.85509246826172E+0002   2.86179565429688E+0002   2.86968658447266E+0002   2.87894134521484E+0002   2.88977600097656E+0002   2.90246734619141E+0002   2.91738006591797E+0002   2.93501434326172E+0002   2.95608367919922E+0002   2.98165466308594E+0002   3.01339630126953E+0002   3.05402313232422E+0002   3.10789916992188E+0002   3.17985839843750E+0002   3.24790893554688E+0002   3.20090911865234E+0002   3.10894104003906E+0002   3.03307434082031E+0002   2.97124206542969E+0002   2.91767211914063E+0002   2.86799438476563E+0002   2.81851776123047E+0002   2.76508789062500E+0002   2.70143188476563E+0002   2.61654449462891E+0002   2.57723541259766E+0002   2.64077545166016E+0002   2.67853607177734E+0002   2.70139129638672E+0002   2.71556060791016E+0002   2.72421630859375E+0002   2.72915405273438E+0002   2.73154876708984E+0002   2.73230224609375E+0002   2.73221435546875E+0002   2.73208740234375E+0002   2.73281219482422E+0002   2.73547058105469E+0002   2.74146545410156E+0002   2.75267211914063E+0002   2.77149444580078E+0002   2.80023742675781E+0002   2.83724060058594E+0002   2.86371704101563E+0002   2.84457397460938E+0002   2.79206359863281E+0002   2.74177001953125E+0002   2.70527954101563E+0002   2.68262145996094E+0002   2.67180816650391E+0002   2.67116577148438E+0002   2.67955871582031E+0002   2.69585693359375E+0002   2.71735626220703E+0002   2.73606842041016E+0002   2.73620605468750E+0002   2.70831298828125E+0002   2.66282226562500E+0002   2.61207336425781E+0002   2.56032104492188E+0002   2.50750534057617E+0002   2.45260253906250E+0002   2.39524505615234E+0002   2.33737411499023E+0002   2.28639160156250E+0002   2.25684494018555E+0002   2.25812606811523E+0002   2.28159698486328E+0002   2.31492416381836E+0002   2.35285247802734E+0002   2.39473281860352E+0002   2.44122558593750E+0002   2.49258819580078E+0002   2.54708007812500E+0002   2.59804046630859E+0002   2.63251159667969E+0002   2.64313140869141E+0002   2.63881988525391E+0002   2.63067016601563E+0002   2.62334228515625E+0002   2.61767028808594E+0002   2.61329254150391E+0002   2.60969055175781E+0002   2.60654510498047E+0002   2.60388702392578E+0002   2.60218017578125E+0002   2.60235198974609E+0002   2.60570007324219E+0002   2.61358947753906E+0002   2.62689727783203E+0002   2.64526947021484E+0002   2.66639312744141E+0002   2.68563323974609E+0002   2.69715454101563E+0002   2.69790771484375E+0002   2.69018249511719E+0002   2.67816986083984E+0002   2.66499267578125E+0002   2.65252685546875E+0002   2.64163757324219E+0002   2.63235260009766E+0002   2.62408294677734E+0002   2.61539276123047E+0002   2.60336273193359E+0002   2.58534484863281E+0002   2.56126464843750E+0002   2.53220855712891E+0002   2.49891311645508E+0002   2.46207916259766E+0002   2.42346466064453E+0002   2.38704864501953E+0002   2.35833358764648E+0002   2.34008239746094E+0002   2.33009979248047E+0002   2.32513595581055E+0002   2.32392044067383E+0002   2.32673217773438E+0002   2.33496215820313E+0002   2.35147949218750E+0002   2.38110382080078E+0002   2.43236938476563E+0002   2.51303314208984E+0002   2.61806854248047E+0002   2.73361175537109E+0002   2.84999298095703E+0002   2.96372680664063E+0002   3.07342132568359E+0002   3.17430877685547E+0002   3.25134765625000E+0002   3.28113616943359E+0002   3.25857177734375E+0002   3.20576568603516E+0002   3.14366912841797E+0002   3.08114166259766E+0002   3.02028625488281E+0002   2.96118438720703E+0002   2.90454711914063E+0002   2.85394165039063E+0002   2.81650970458984E+0002   2.79726837158203E+0002   2.79210876464844E+0002   2.79286376953125E+0002   2.79431152343750E+0002   2.79446716308594E+0002   2.79290283203125E+0002   2.78973175048828E+0002   2.78520477294922E+0002   2.77956939697266E+0002   2.77303436279297E+0002   2.76576385498047E+0002   2.75788574218750E+0002   2.74949829101563E+0002   2.74067962646484E+0002   2.73149475097656E+0002   2.72200408935547E+0002   2.71228179931641E+0002   2.70248443603516E+0002   2.69322052001953E+0002   2.69000000000000E+0002   2.69000000000000E+0002   2.69000000000000E+0002   2.69000000000000E+0002   2.69000000000000E+0002   2.69000000000000E+0002   2.69000000000000E+0002   2.69000000000000E+0002   2.69000000000000E+0002   2.69000000000000E+0002   2.69000000000000E+0002   2.69000000000000E+0002   2.69000000000000E+0002   2.69000000000000E+0002
   2.69000000000000E+0002   2.69000000000000E+0002   2.69000000000000E+0002   2.69000000000000E+0002   2.69000000000000E+0002   2.69000000000000E+0002   2.69000000000000E+0002   2.69000000000000E+0002   2.69000000000000E+0002   2.69000000000000E+0002   2.69000000000000E+0002   2.69000000000000E+0002   2.69000000000000E+0002   2.69000000000000E+0002   2.69000000000000E+0002   2.69000000000000E+0002   2.69000000000000E+0002   2.69000000000000E+0002   2.69000000000000E+0002   2.69000000000000E+0002   2.69000000000000E+0002   2.69000000000000E+0002   2.69000000000000E+0002   2.69000000000000E+0002   2.69000000000000E+0002   2.69000000000000E+0002   2.69000000000000E+0002   2.69000000000000E+0002   2.69000000000000E+0002   2.69000000000000E+0002   2.69000000000000E+0002   2.69269317626953E+0002   2.69774871826172E+0002   2.70476287841797E+0002   2.71283569335938E+0002   2.72084991455078E+0002   2.72871948242188E+0002   2.73608825683594E+0002   2.74286285400391E+0002   2.74907318115234E+0002   2.75479187011719E+0002   2.76010559082031E+0002   2.76510406494141E+0002   2.76987396240234E+0002   2.77449737548828E+0002   2.77905242919922E+0002   2.78361511230469E+0002   2.78826019287109E+0002   2.79306304931641E+0002   2.79810028076172E+0002   2.80345092773438E+0002   2.80918945312500E+0002   2.81536895751953E+0002   2.82196411132813E+0002   2.82872833251953E+0002   2.83498138427734E+0002   2.83976379394531E+0002   2.84286560058594E+0002   2.84518493652344E+0002   2.84768341064453E+0002   2.85086975097656E+0002   2.85496337890625E+0002   2.86008331298828E+0002   2.86633544921875E+0002   2.87384796142578E+0002   2.88278717041016E+0002   2.89336853027344E+0002   2.90587402343750E+0002   2.92068237304688E+0002   2.93831695556641E+0002   2.95953857421875E+0002   2.98550903320313E+0002   3.01811553955078E+0002   3.06063842773438E+0002   3.11920806884766E+0002   3.20599945068359E+0002   3.33753936767578E+0002   3.24202819824219E+0002   3.12388549804688E+0002   3.04076385498047E+0002   2.97618896484375E+0002   2.92142456054688E+0002   2.87131072998047E+0002   2.82204467773438E+0002   2.76993621826172E+0002   2.71082916259766E+0002   2.64485595703125E+0002   2.61832519531250E+0002   2.65123657226563E+0002   2.68106079101563E+0002   2.70050262451172E+0002   2.71241119384766E+0002   2.71906799316406E+0002   2.72193878173828E+0002   2.72203186035156E+0002   2.72012939453125E+0002   2.71691864013672E+0002   2.71306304931641E+0002   2.70926116943359E+0002   2.70630004882813E+0002   2.70510498046875E+0002   2.70674072265625E+0002   2.71220031738281E+0002   2.72155151367188E+0002   2.73172058105469E+0002   2.73409759521484E+0002   2.72003540039063E+0002   2.69366333007813E+0002   2.66728637695313E+0002   2.64854431152344E+0002   2.63934417724609E+0002   2.63933441162109E+0002   2.64803588867188E+0002   2.66564880371094E+0002   2.69324554443359E+0002   2.73204467773438E+0002   2.77719848632813E+0002   2.79238494873047E+0002   2.74044311523438E+0002   2.66779541015625E+0002   2.60040649414063E+0002   2.53887557983398E+0002   2.47976943969727E+0002   2.41968490600586E+0002   2.35557693481445E+0002   2.28547592163086E+0002   2.21445358276367E+0002   2.17523559570313E+0002   2.20272827148438E+0002   2.25922149658203E+0002   2.31593963623047E+0002   2.36978530883789E+0002   2.42345626831055E+0002   2.48011978149414E+0002   2.54270034790039E+0002   2.61319732666016E+0002   2.68715820312500E+0002   2.73409790039063E+0002   2.72527374267578E+0002   2.69784393310547E+0002   2.67527801513672E+0002   2.65973236083984E+0002   2.64942993164063E+0002   2.64268188476563E+0002   2.63837280273438E+0002   2.63591979980469E+0002   2.63521087646484E+0002   2.63656341552734E+0002   2.64066772460938E+0002   2.64846527099609E+0002   2.66089782714844E+0002   2.67848236083984E+0002   2.70066894531250E+0002   2.72499420166016E+0002   2.74638732910156E+0002   2.75814514160156E+0002   2.75609954833984E+0002   2.74231109619141E+0002   2.72270172119141E+0002   2.70241485595703E+0002   2.68422973632813E+0002   2.66909729003906E+0002   2.65684631347656E+0002   2.64652069091797E+0002   2.63640136718750E+0002   2.62425933837891E+0002   2.60847930908203E+0002   2.58894439697266E+0002   2.56646057128906E+0002   2.54199371337891E+0002   2.51668823242188E+0002   2.49227462768555E+0002   2.47119293212891E+0002   2.45573562622070E+0002   2.44637435913086E+0002   2.44131347656250E+0002   2.43860763549805E+0002   2.43840148925781E+0002   2.44269485473633E+0002   2.45408294677734E+0002   2.47538772583008E+0002   2.50989761352539E+0002   2.56111328125000E+0002   2.63042572021484E+0002   2.71423706054688E+0002   2.80527221679688E+0002   2.89671325683594E+0002   2.98403503417969E+0002   3.06378875732422E+0002   3.13102172851563E+0002   3.17755096435547E+0002   3.19489898681641E+0002   3.18199523925781E+0002   3.14720214843750E+0002   3.10117492675781E+0002   3.05129425048828E+0002   3.00139343261719E+0002   2.95339050292969E+0002   2.90889068603516E+0002   2.87029296875000E+0002   2.84060974121094E+0002   2.82142089843750E+0002   2.81111907958984E+0002   2.80614044189453E+0002   2.80331573486328E+0002   2.80075866699219E+0002   2.79759948730469E+0002   2.79353118896484E+0002   2.78850799560547E+0002   2.78258850097656E+0002   2.77586425781250E+0002   2.76842956542969E+0002   2.76036987304688E+0002   2.75175964355469E+0002   2.74266479492188E+0002   2.73314331054688E+0002   2.72325317382813E+0002   2.71306793212891E+0002   2.70275756835938E+0002   2.69305664062500E+0002   2.69000000000000E+0002   2.69000000000000E+0002   2.69000000000000E+0002   2.69000000000000E+0002   2.69000000000000E+0002   2.69000000000000E+0002   2.69000000000000E+0002   2.69000000000000E+0002   2.69000000000000E+0002   2.69000000000000E+0002   2.69000000000000E+0002   2.69000000000000E+0002   2.69000000000000E+0002   2.69000000000000E+0002
   2.69000000000000E+0002   2.69000000000000E+0002   2.69000000000000E+0002   2.69000000000000E+0002   2.69000000000000E+0002   2.69000000000000E+0002   2.69000000000000E+0002   2.69000000000000E+0002   2.69000000000000E+0002   2.69000000000000E+0002   2.69000000000000E+0002   2.69000000000000E+0002   2.69000000000000E+0002   2.69000000000000E+0002   2.69000000000000E+0002   2.69000000000000E+0002   2.69000000000000E+0002   2.69000000000000E+0002   2.69000000000000E+0002   2.69000000000000E+0002   2.69000000000000E+0002   2.69000000000000E+0002   2.69000000000000E+0002   2.69000000000000E+0002   2.69322082519531E+0002   2.69437683105469E+0002   2.69682342529297E+0002   2.69935455322266E+0002   2.70203308105469E+0002   2.70518066406250E+0002   2.70934844970703E+0002   2.71380218505859E+0002   2.71884796142578E+0002   2.72492187500000E+0002   2.73147949218750E+0002   2.73804840087891E+0002   2.74441192626953E+0002   2.75042877197266E+0002   2.75603637695313E+0002   2.76124298095703E+0002   2.76609405517578E+0002   2.77065399169922E+0002   2.77499359130859E+0002   2.77918548583984E+0002   2.78330200195313E+0002   2.78741607666016E+0002   2.79160003662109E+0002   2.79592926025391E+0002   2.80048492431641E+0002   2.80535675048828E+0002   2.81065002441406E+0002   2.81649078369141E+0002   2.82302795410156E+0002   2.83040557861328E+0002   2.83857879638672E+0002   2.84658630371094E+0002   2.85165771484375E+0002   2.85284881591797E+0002   2.85304565429688E+0002   2.85402526855469E+0002   2.85616302490234E+0002   2.85947265625000E+0002   2.86394592285156E+0002   2.86962097167969E+0002   2.87659118652344E+0002   2.88500183105469E+0002   2.89505157470703E+0002   2.90700164794922E+0002   2.92119445800781E+0002   2.93809295654297E+0002   2.95834411621094E+0002   2.98288726806641E+0002   3.01312561035156E+0002   3.05113769531250E+0002   3.09954040527344E+0002   3.15802398681641E+0002   3.20136108398438E+0002   3.16959411621094E+0002   3.09708892822266E+0002   3.02931396484375E+0002   2.97146331787109E+0002   2.92065124511719E+0002   2.87382934570313E+0002   2.82855041503906E+0002   2.78302825927734E+0002   2.73718872070313E+0002   2.69696044921875E+0002   2.67782226562500E+0002   2.68304473876953E+0002   2.69617706298828E+0002   2.70735992431641E+0002   2.71447082519531E+0002   2.71765625000000E+0002   2.71747314453125E+0002   2.71449615478516E+0002   2.70926239013672E+0002   2.70227294921875E+0002   2.69399963378906E+0002   2.68489227294922E+0002   2.67538513183594E+0002   2.66589691162109E+0002   2.65679443359375E+0002   2.64827270507813E+0002   2.64006530761719E+0002   2.63106994628906E+0002   2.61965301513672E+0002   2.60567871093750E+0002   2.59226715087891E+0002   2.58360473632813E+0002   2.58179534912109E+0002   2.58684722900391E+0002   2.59825134277344E+0002   2.61609008789063E+0002   2.64161437988281E+0002   2.67791687011719E+0002   2.73144165039063E+0002   2.81490875244141E+0002   2.89783355712891E+0002   2.76522674560547E+0002   2.66111083984375E+0002   2.58181610107422E+0002   2.51489364624023E+0002   2.45307617187500E+0002   2.39110031127930E+0002   2.32356460571289E+0002   2.24281188964844E+0002   2.13709487915039E+0002   2.03984970092773E+0002   2.14344635009766E+0002   2.24395477294922E+0002   2.32123046875000E+0002   2.38708770751953E+0002   2.44914382934570E+0002   2.51281875610352E+0002   2.58337066650391E+0002   2.66795928955078E+0002   2.77778015136719E+0002   2.87835235595703E+0002   2.80386840820313E+0002   2.74629638671875E+0002   2.71186187744141E+0002   2.69078491210938E+0002   2.67769561767578E+0002   2.66971069335938E+0002   2.66527374267578E+0002   2.66362121582031E+0002   2.66453826904297E+0002   2.66824035644531E+0002   2.67529510498047E+0002   2.68652832031250E+0002   2.70287139892578E+0002   2.72509979248047E+0002   2.75331085205078E+0002   2.78575103759766E+0002   2.81640502929688E+0002   2.83319488525391E+0002   2.82589324951172E+0002   2.79958221435547E+0002   2.76734375000000E+0002   2.73744812011719E+0002   2.71276550292969E+0002   2.69362060546875E+0002   2.67932922363281E+0002   2.66860992431641E+0002   2.65940399169922E+0002   2.64889862060547E+0002   2.63535430908203E+0002   2.61948852539063E+0002   2.60269195556641E+0002   2.58603424072266E+0002   2.57062133789063E+0002   2.55791915893555E+0002   2.54962371826172E+0002   2.54682342529297E+0002   2.54847671508789E+0002   2.55065307617188E+0002   2.54998138427734E+0002   2.54863723754883E+0002   2.55190475463867E+0002   2.56380767822266E+0002   2.58678558349609E+0002   2.62249542236328E+0002   2.67173706054688E+0002   2.73344573974609E+0002   2.80384613037109E+0002   2.87718688964844E+0002   2.94778381347656E+0002   3.01151733398438E+0002   3.06559875488281E+0002   3.10719207763672E+0002   3.13268157958984E+0002   3.13902496337891E+0002   3.12632476806641E+0002   3.09858764648438E+0002   3.06171325683594E+0002   3.02111022949219E+0002   2.98058471679688E+0002   2.94234802246094E+0002   2.90771728515625E+0002   2.87789978027344E+0002   2.85408599853516E+0002   2.83676879882813E+0002   2.82517883300781E+0002   2.81761199951172E+0002   2.81225982666016E+0002   2.80775268554688E+0002   2.80324829101563E+0002   2.79830169677734E+0002   2.79271209716797E+0002   2.78641204833984E+0002   2.77940338134766E+0002   2.77171844482422E+0002   2.76340270996094E+0002   2.75450592041016E+0002   2.74507781982422E+0002   2.73516998291016E+0002   2.72483856201172E+0002   2.71416595458984E+0002   2.70333435058594E+0002   2.69308471679688E+0002   2.69000000000000E+0002   2.69000000000000E+0002   2.69000000000000E+0002   2.69000000000000E+0002   2.69000000000000E+0002   2.69000000000000E+0002   2.69000000000000E+0002   2.69000000000000E+0002   2.69000000000000E+0002   2.69000000000000E+0002   2.69000000000000E+0002   2.69000000000000E+0002   2.69000000000000E+0002   2.69000000000000E+0002
   2.69000000000000E+0002   2.69000000000000E+0002   2.69000000000000E+0002   2.69000000000000E+0002   2.69000000000000E+0002   2.69000000000000E+0002   2.69000000000000E+0002   2.69000000000000E+0002   2.69000000000000E+0002   2.69000000000000E+0002   2.69000000000000E+0002   2.69000000000000E+0002   2.69000000000000E+0002   2.69000000000000E+0002   2.69000000000000E+0002   2.69000000000000E+0002   2.69000000000000E+0002   2.69000000000000E+0002   2.69000000000000E+0002   2.69000000000000E+0002   2.69485626220703E+0002   2.69911437988281E+0002   2.70349456787109E+0002   2.70855865478516E+0002   2.71286163330078E+0002   2.71614471435547E+0002   2.71940155029297E+0002   2.72256011962891E+0002   2.72570800781250E+0002   2.72904174804688E+0002   2.73272521972656E+0002   2.73669433593750E+0002   2.74099670410156E+0002   2.74571624755859E+0002   2.75068878173828E+0002   2.75569213867188E+0002   2.76057067871094E+0002   2.76523162841797E+0002   2.76963348388672E+0002   2.77377685546875E+0002   2.77769134521484E+0002   2.78142395019531E+0002   2.78503082275391E+0002   2.78857177734375E+0002   2.79210998535156E+0002   2.79571014404297E+0002   2.79944030761719E+0002   2.80337371826172E+0002   2.80759246826172E+0002   2.81219451904297E+0002   2.81730438232422E+0002   2.82309020996094E+0002   2.82980102539063E+0002   2.83782409667969E+0002   2.84774841308594E+0002   2.85979187011719E+0002   2.86655364990234E+0002   2.86261688232422E+0002   2.85972381591797E+0002   2.85912231445313E+0002   2.86027465820313E+0002   2.86282440185547E+0002   2.86661437988281E+0002   2.87161956787109E+0002   2.87790222167969E+0002   2.88558715820313E+0002   2.89484802246094E+0002   2.90590515136719E+0002   2.91902984619141E+0002   2.93456054687500E+0002   2.95292144775391E+0002   2.97464172363281E+0002   3.00031738281250E+0002   3.03035278320313E+0002   3.06390808105469E+0002   3.09566223144531E+0002   3.11091735839844E+0002   3.09447021484375E+0002   3.05374298095703E+0002   3.00596771240234E+0002   2.95946197509766E+0002   2.91592864990234E+0002   2.87491912841797E+0002   2.83567138671875E+0002   2.79794647216797E+0002   2.76297454833984E+0002   2.73457244873047E+0002   2.71782867431641E+0002   2.71325653076172E+0002   2.71542083740234E+0002   2.71881011962891E+0002   2.72055999755859E+0002   2.71962677001953E+0002   2.71579833984375E+0002   2.70921264648438E+0002   2.70014617919922E+0002   2.68890747070313E+0002   2.67576782226563E+0002   2.66092010498047E+0002   2.64444305419922E+0002   2.62627014160156E+0002   2.60616851806641E+0002   2.58379516601563E+0002   2.55898880004883E+0002   2.53259674072266E+0002   2.50781326293945E+0002   2.49042190551758E+0002   2.48539199829102E+0002   2.49262542724609E+0002   2.50812118530273E+0002   2.52811477661133E+0002   2.55091049194336E+0002   2.57667205810547E+0002   2.60699493408203E+0002   2.64496643066406E+0002   2.69557434082031E+0002   2.76276947021484E+0002   2.80020538330078E+0002   2.71807556152344E+0002   2.62617645263672E+0002   2.55062408447266E+0002   2.48588989257813E+0002   2.42653793334961E+0002   2.36802444458008E+0002   2.30534820556641E+0002   2.23146697998047E+0002   2.13760055541992E+0002   2.06449981689453E+0002   2.15587188720703E+0002   2.25721771240234E+0002   2.33838439941406E+0002   2.40811203002930E+0002   2.47318344116211E+0002   2.53865768432617E+0002   2.60946899414063E+0002   2.69183319091797E+0002   2.79200286865234E+0002   2.86762756347656E+0002   2.81957733154297E+0002   2.76805633544922E+0002   2.73487823486328E+0002   2.71401580810547E+0002   2.70101165771484E+0002   2.69330322265625E+0002   2.68947540283203E+0002   2.68882354736328E+0002   2.69113922119141E+0002   2.69660888671875E+0002   2.70576354980469E+0002   2.71945373535156E+0002   2.73883666992188E+0002   2.76537017822266E+0002   2.80071960449219E+0002   2.84597320556641E+0002   2.89726989746094E+0002   2.93129608154297E+0002   2.91231170654297E+0002   2.85989990234375E+0002   2.80821899414063E+0002   2.76676239013672E+0002   2.73559661865234E+0002   2.71319854736328E+0002   2.69806671142578E+0002   2.68880645751953E+0002   2.68333892822266E+0002   2.67646301269531E+0002   2.66416992187500E+0002   2.65073120117188E+0002   2.63875488281250E+0002   2.62889709472656E+0002   2.62191070556641E+0002   2.61908660888672E+0002   2.62214202880859E+0002   2.63252868652344E+0002   2.64907379150391E+0002   2.66263885498047E+0002   2.66138244628906E+0002   2.65341339111328E+0002   2.65211730957031E+0002   2.66242187500000E+0002   2.68547790527344E+0002   2.72143920898438E+0002   2.76959167480469E+0002   2.82755920410156E+0002   2.89060974121094E+0002   2.95214019775391E+0002   3.00590179443359E+0002   3.04851776123047E+0002   3.07953765869141E+0002   3.09924346923828E+0002   3.10716247558594E+0002   3.10254516601563E+0002   3.08571655273438E+0002   3.05884185791016E+0002   3.02566162109375E+0002   2.99060577392578E+0002   2.95740020751953E+0002   2.92777282714844E+0002   2.90183441162109E+0002   2.87948852539063E+0002   2.86094146728516E+0002   2.84632049560547E+0002   2.83527618408203E+0002   2.82698974609375E+0002   2.82046539306641E+0002   2.81481475830078E+0002   2.80938049316406E+0002   2.80373718261719E+0002   2.79763671875000E+0002   2.79094970703125E+0002   2.78362060546875E+0002   2.77563873291016E+0002   2.76701690673828E+0002   2.75778350830078E+0002   2.74797424316406E+0002   2.73763153076172E+0002   2.72681152343750E+0002   2.71561187744141E+0002   2.70429565429688E+0002   2.69389648437500E+0002   2.69000000000000E+0002   2.69000000000000E+0002   2.69000000000000E+0002   2.69000000000000E+0002   2.69000000000000E+0002   2.69000000000000E+0002   2.69000000000000E+0002   2.69000000000000E+0002   2.69000000000000E+0002   2.69000000000000E+0002   2.69000000000000E+0002   2.69000000000000E+0002   2.69000000000000E+0002   2.69000000000000E+0002
   2.69000000000000E+0002   2.69000000000000E+0002   2.69000000000000E+0002   2.69000000000000E+0002   2.69000000000000E+0002   2.69000000000000E+0002   2.69000000000000E+0002   2.69000000000000E+0002   2.69000000000000E+0002   2.69000000000000E+0002   2.69000000000000E+0002   2.69000000000000E+0002   2.69000000000000E+0002   2.69000000000000E+0002   2.69000000000000E+0002   2.69000000000000E+0002   2.69000000000000E+0002   2.69092651367188E+0002   2.69737060546875E+0002   2.70490631103516E+0002   2.71264953613281E+0002   2.71959136962891E+0002   2.72568847656250E+0002   2.73136291503906E+0002   2.73633361816406E+0002   2.74053344726563E+0002   2.74422912597656E+0002   2.74757324218750E+0002   2.75068634033203E+0002   2.75370758056641E+0002   2.75675079345703E+0002   2.75987274169922E+0002   2.76312133789063E+0002   2.76652160644531E+0002   2.77002502441406E+0002   2.77354064941406E+0002   2.77698822021484E+0002   2.78031524658203E+0002   2.78349945068359E+0002   2.78654418945313E+0002   2.78947265625000E+0002   2.79232086181641E+0002   2.79513397216797E+0002   2.79796142578125E+0002   2.80085632324219E+0002   2.80387542724609E+0002   2.80707916259766E+0002   2.81053497314453E+0002   2.81432067871094E+0002   2.81853149414063E+0002   2.82329223632813E+0002   2.82877807617188E+0002   2.83525756835938E+0002   2.84318420410156E+0002   2.85338836669922E+0002   2.86734375000000E+0002   2.87615936279297E+0002   2.86789459228516E+0002   2.86373168945313E+0002   2.86243743896484E+0002   2.86300476074219E+0002   2.86495269775391E+0002   2.86808105468750E+0002   2.87235107421875E+0002   2.87781921386719E+0002   2.88460357666016E+0002   2.89285644531250E+0002   2.90275146484375E+0002   2.91447387695313E+0002   2.92821350097656E+0002   2.94414733886719E+0002   2.96239593505859E+0002   2.98288696289063E+0002   3.00500549316406E+0002   3.02681884765625E+0002   3.04391418457031E+0002   3.04942077636719E+0002   3.03835113525391E+0002   3.01287384033203E+0002   2.97964660644531E+0002   2.94402374267578E+0002   2.90860961914063E+0002   2.87433929443359E+0002   2.84158020019531E+0002   2.81086517333984E+0002   2.78341033935547E+0002   2.76121520996094E+0002   2.74609619140625E+0002   2.73793670654297E+0002   2.73435272216797E+0002   2.73230895996094E+0002   2.72948944091797E+0002   2.72455352783203E+0002   2.71690399169922E+0002   2.70641357421875E+0002   2.69319641113281E+0002   2.67742889404297E+0002   2.65922485351563E+0002   2.63855255126953E+0002   2.61516845703125E+0002   2.58854858398438E+0002   2.55783569335938E+0002   2.52191925048828E+0002   2.47999710083008E+0002   2.43336700439453E+0002   2.38917419433594E+0002   2.36268707275391E+0002   2.36635620117188E+0002   2.39400985717773E+0002   2.43055084228516E+0002   2.46695556640625E+0002   2.50083328247070E+0002   2.53286239624023E+0002   2.56476989746094E+0002   2.59840484619141E+0002   2.63425903320313E+0002   2.66595550537109E+0002   2.67014739990234E+0002   2.63001525878906E+0002   2.56910552978516E+0002   2.50796310424805E+0002   2.45146591186523E+0002   2.39911026000977E+0002   2.34906738281250E+0002   2.29908493041992E+0002   2.24769699096680E+0002   2.20025802612305E+0002   2.18465118408203E+0002   2.22711212158203E+0002   2.29702423095703E+0002   2.36760696411133E+0002   2.43376739501953E+0002   2.49680145263672E+0002   2.55912384033203E+0002   2.62317657470703E+0002   2.69021850585938E+0002   2.75498626708984E+0002   2.79412017822266E+0002   2.78964538574219E+0002   2.76656768798828E+0002   2.74513488769531E+0002   2.72949340820313E+0002   2.71916290283203E+0002   2.71311584472656E+0002   2.71057830810547E+0002   2.71112182617188E+0002   2.71464294433594E+0002   2.72134429931641E+0002   2.73174468994141E+0002   2.74672698974609E+0002   2.76765441894531E+0002   2.79662933349609E+0002   2.83704193115234E+0002   2.89459777832031E+0002   2.97780822753906E+0002   3.07121002197266E+0002   3.01204254150391E+0002   2.90992248535156E+0002   2.83661651611328E+0002   2.78536682128906E+0002   2.74961547851563E+0002   2.72549865722656E+0002   2.71075439453125E+0002   2.70417999267578E+0002   2.70551239013672E+0002   2.70771911621094E+0002   2.69163085937500E+0002   2.67995544433594E+0002   2.67267456054688E+0002   2.66896697998047E+0002   2.66910400390625E+0002   2.67430450439453E+0002   2.68673828125000E+0002   2.70963775634766E+0002   2.74649871826172E+0002   2.78616180419922E+0002   2.77316040039063E+0002   2.74804779052734E+0002   2.73983795166016E+0002   2.74810028076172E+0002   2.77114837646484E+0002   2.80793609619141E+0002   2.85720275878906E+0002   2.91613220214844E+0002   2.97870635986328E+0002   3.03507171630859E+0002   3.07536346435547E+0002   3.09692901611328E+0002   3.10443023681641E+0002   3.10289184570313E+0002   3.09427703857422E+0002   3.07852813720703E+0002   3.05538757324219E+0002   3.02557464599609E+0002   2.99155822753906E+0002   2.95815093994141E+0002   2.93062042236328E+0002   2.90969329833984E+0002   2.89252349853516E+0002   2.87731109619141E+0002   2.86381256103516E+0002   2.85223541259766E+0002   2.84260589599609E+0002   2.83463745117188E+0002   2.82784484863281E+0002   2.82170166015625E+0002   2.81575195312500E+0002   2.80964996337891E+0002   2.80316009521484E+0002   2.79613586425781E+0002   2.78849517822266E+0002   2.78020050048828E+0002   2.77124450683594E+0002   2.76163879394531E+0002   2.75140747070313E+0002   2.74058502197266E+0002   2.72921905517578E+0002   2.71739959716797E+0002   2.70537322998047E+0002   2.69403747558594E+0002   2.69000000000000E+0002   2.69000000000000E+0002   2.69000000000000E+0002   2.69000000000000E+0002   2.69000000000000E+0002   2.69000000000000E+0002   2.69000000000000E+0002   2.69000000000000E+0002   2.69000000000000E+0002   2.69000000000000E+0002   2.69000000000000E+0002   2.69000000000000E+0002   2.69000000000000E+0002   2.69000000000000E+0002
   2.69000000000000E+0002   2.69000000000000E+0002   2.69000000000000E+0002   2.69000000000000E+0002   2.69000000000000E+0002   2.69000000000000E+0002   2.69000000000000E+0002   2.69000000000000E+0002   2.69000000000000E+0002   2.69000000000000E+0002   2.69000000000000E+0002   2.69000000000000E+0002   2.69000000000000E+0002   2.69000000000000E+0002   2.69000000000000E+0002   2.69000000000000E+0002   2.69714111328125E+0002   2.70651336669922E+0002   2.71608398437500E+0002   2.72540008544922E+0002   2.73421203613281E+0002   2.74224060058594E+0002   2.74939849853516E+0002   2.75574493408203E+0002   2.76125061035156E+0002   2.76592224121094E+0002   2.76986541748047E+0002   2.77320922851563E+0002   2.77607971191406E+0002   2.77860565185547E+0002   2.78090515136719E+0002   2.78307342529297E+0002   2.78518432617188E+0002   2.78728637695313E+0002   2.78939086914063E+0002   2.79148284912109E+0002   2.79354095458984E+0002   2.79555053710938E+0002   2.79751037597656E+0002   2.79943115234375E+0002   2.80133544921875E+0002   2.80325408935547E+0002   2.80522338867188E+0002   2.80728393554688E+0002   2.80947967529297E+0002   2.81185699462891E+0002   2.81446746826172E+0002   2.81736877441406E+0002   2.82062774658203E+0002   2.82432617187500E+0002   2.82856750488281E+0002   2.83348968505859E+0002   2.83928070068359E+0002   2.84618438720703E+0002   2.85438201904297E+0002   2.86307617187500E+0002   2.86781555175781E+0002   2.86660766601563E+0002   2.86464508056641E+0002   2.86389282226563E+0002   2.86437988281250E+0002   2.86592071533203E+0002   2.86842102050781E+0002   2.87189270019531E+0002   2.87642608642578E+0002   2.88215454101563E+0002   2.88922424316406E+0002   2.89777069091797E+0002   2.90789916992188E+0002   2.91966278076172E+0002   2.93302734375000E+0002   2.94781219482422E+0002   2.96357147216797E+0002   2.97936248779297E+0002   2.99340362548828E+0002   3.00286132812500E+0002   3.00443084716797E+0002   2.99609954833984E+0002   2.97864685058594E+0002   2.95494171142578E+0002   2.92802307128906E+0002   2.90004089355469E+0002   2.87228424072266E+0002   2.84559844970703E+0002   2.82077972412109E+0002   2.79880401611328E+0002   2.78074859619141E+0002   2.76731201171875E+0002   2.75820159912109E+0002   2.75202087402344E+0002   2.74680084228516E+0002   2.74067138671875E+0002   2.73227264404297E+0002   2.72088836669922E+0002   2.70634887695313E+0002   2.68878387451172E+0002   2.66836212158203E+0002   2.64511596679688E+0002   2.61885101318359E+0002   2.58907379150391E+0002   2.55487731933594E+0002   2.51476135253906E+0002   2.46646011352539E+0002   2.40709884643555E+0002   2.33486236572266E+0002   2.25647415161133E+0002   2.20598052978516E+0002   2.22625350952148E+0002   2.28999496459961E+0002   2.35488800048828E+0002   2.40895675659180E+0002   2.45278930664063E+0002   2.48916671752930E+0002   2.52048538208008E+0002   2.54798751831055E+0002   2.57071289062500E+0002   2.58365234375000E+0002   2.57809600830078E+0002   2.55018295288086E+0002   2.50726501464844E+0002   2.45941940307617E+0002   2.41261047363281E+0002   2.36931259155273E+0002   2.33029571533203E+0002   2.29584976196289E+0002   2.26742309570313E+0002   2.25057571411133E+0002   2.25609481811523E+0002   2.28983154296875E+0002   2.34286956787109E+0002   2.40274108886719E+0002   2.46283737182617E+0002   2.52113845825195E+0002   2.57756652832031E+0002   2.63235809326172E+0002   2.68441436767578E+0002   2.72890899658203E+0002   2.75700408935547E+0002   2.76447570800781E+0002   2.75849029541016E+0002   2.74850494384766E+0002   2.73948608398438E+0002   2.73304870605469E+0002   2.72946838378906E+0002   2.72865051269531E+0002   2.73049285888672E+0002   2.73501770019531E+0002   2.74243835449219E+0002   2.75321685791016E+0002   2.76815765380859E+0002   2.78857086181641E+0002   2.81659362792969E+0002   2.85584930419922E+0002   2.91280426025391E+0002   2.99894226074219E+0002   3.11298065185547E+0002   3.03368316650391E+0002   2.91941223144531E+0002   2.84175689697266E+0002   2.78851470947266E+0002   2.75214324951172E+0002   2.72852630615234E+0002   2.71525848388672E+0002   2.71089996337891E+0002   2.71438293457031E+0002   2.71809936523438E+0002   2.71007263183594E+0002   2.70448547363281E+0002   2.70309356689453E+0002   2.70531524658203E+0002   2.71135833740234E+0002   2.72236450195313E+0002   2.74058898925781E+0002   2.76998168945313E+0002   2.81762145996094E+0002   2.89074432373047E+0002   2.85497344970703E+0002   2.82028656005859E+0002   2.81046600341797E+0002   2.81896118164063E+0002   2.84300872802734E+0002   2.88166290283203E+0002   2.93446716308594E+0002   2.99986785888672E+0002   3.07179565429688E+0002   3.13385162353516E+0002   3.16333587646484E+0002   3.15823364257813E+0002   3.13727752685547E+0002   3.11311065673828E+0002   3.08845458984375E+0002   3.06206481933594E+0002   3.03207336425781E+0002   2.99721130371094E+0002   2.95791839599609E+0002   2.92031280517578E+0002   2.89792755126953E+0002   2.88886199951172E+0002   2.88174530029297E+0002   2.87354095458984E+0002   2.86474151611328E+0002   2.85615539550781E+0002   2.84824554443359E+0002   2.84110839843750E+0002   2.83458984375000E+0002   2.82841644287109E+0002   2.82229400634766E+0002   2.81596496582031E+0002   2.80922912597656E+0002   2.80194641113281E+0002   2.79402832031250E+0002   2.78542694091797E+0002   2.77612396240234E+0002   2.76612152099609E+0002   2.75543670654297E+0002   2.74409606933594E+0002   2.73213592529297E+0002   2.71962066650391E+0002   2.70672668457031E+0002   2.69426666259766E+0002   2.69000000000000E+0002   2.69000000000000E+0002   2.69000000000000E+0002   2.69000000000000E+0002   2.69000000000000E+0002   2.69000000000000E+0002   2.69000000000000E+0002   2.69000000000000E+0002   2.69000000000000E+0002   2.69000000000000E+0002   2.69000000000000E+0002   2.69000000000000E+0002   2.69000000000000E+0002   2.69000000000000E+0002
   2.69000000000000E+0002   2.69000000000000E+0002   2.69000000000000E+0002   2.69000000000000E+0002   2.69000000000000E+0002   2.69000000000000E+0002   2.69000000000000E+0002   2.69000000000000E+0002   2.69000000000000E+0002   2.69000000000000E+0002   2.69000000000000E+0002   2.69000000000000E+0002   2.69000000000000E+0002   2.69000000000000E+0002   2.69354034423828E+0002   2.70383941650391E+0002   2.71455230712891E+0002   2.72580352783203E+0002   2.73683227539063E+0002   2.74735015869141E+0002   2.75717376708984E+0002   2.76614318847656E+0002   2.77415771484375E+0002   2.78117614746094E+0002   2.78717498779297E+0002   2.79216552734375E+0002   2.79621063232422E+0002   2.79941253662109E+0002   2.80189422607422E+0002   2.80379119873047E+0002   2.80523956298828E+0002   2.80636505126953E+0002   2.80727722167969E+0002   2.80806182861328E+0002   2.80877929687500E+0002   2.80946655273438E+0002   2.81014739990234E+0002   2.81083984375000E+0002   2.81156250000000E+0002   2.81233612060547E+0002   2.81318511962891E+0002   2.81413726806641E+0002   2.81522216796875E+0002   2.81647216796875E+0002   2.81792144775391E+0002   2.81960632324219E+0002   2.82156677246094E+0002   2.82384735107422E+0002   2.82649932861328E+0002   2.82958282470703E+0002   2.83316802978516E+0002   2.83733489990234E+0002   2.84215972900391E+0002   2.84765930175781E+0002   2.85361175537109E+0002   2.85914642333984E+0002   2.86270660400391E+0002   2.86383056640625E+0002   2.86388244628906E+0002   2.86404113769531E+0002   2.86470489501953E+0002   2.86594451904297E+0002   2.86780120849609E+0002   2.87037933349609E+0002   2.87383941650391E+0002   2.87836242675781E+0002   2.88411041259766E+0002   2.89119903564453E+0002   2.89967529296875E+0002   2.90948669433594E+0002   2.92044158935547E+0002   2.93216674804688E+0002   2.94405944824219E+0002   2.95521118164063E+0002   2.96430664062500E+0002   2.96964843750000E+0002   2.96954681396484E+0002   2.96305145263672E+0002   2.95047424316406E+0002   2.93318176269531E+0002   2.91290100097656E+0002   2.89116485595703E+0002   2.86915557861328E+0002   2.84779815673828E+0002   2.82790954589844E+0002   2.81027404785156E+0002   2.79555847167969E+0002   2.78407348632813E+0002   2.77549835205078E+0002   2.76878234863281E+0002   2.76230133056641E+0002   2.75422973632813E+0002   2.74306213378906E+0002   2.72806793212891E+0002   2.70930664062500E+0002   2.68720062255859E+0002   2.66207977294922E+0002   2.63397735595703E+0002   2.60259796142578E+0002   2.56730804443359E+0002   2.52701232910156E+0002   2.47981002807617E+0002   2.42237213134766E+0002   2.34907058715820E+0002   2.25098464965820E+0002   2.11792755126953E+0002   1.99024963378906E+0002   2.06575149536133E+0002   2.19670852661133E+0002   2.29307754516602E+0002   2.36175491333008E+0002   2.41218994140625E+0002   2.45034378051758E+0002   2.47958724975586E+0002   2.50131301879883E+0002   2.51498458862305E+0002   2.51817123413086E+0002   2.50784713745117E+0002   2.48345046997070E+0002   2.44858718872070E+0002   2.40899993896484E+0002   2.36991821289063E+0002   2.33516006469727E+0002   2.30721893310547E+0002   2.28768112182617E+0002   2.27812835693359E+0002   2.28123504638672E+0002   2.30032608032227E+0002   2.33610092163086E+0002   2.38438186645508E+0002   2.43875885009766E+0002   2.49408493041992E+0002   2.54739822387695E+0002   2.59735656738281E+0002   2.64329498291016E+0002   2.68409301757813E+0002   2.71729156494141E+0002   2.73977325439453E+0002   2.75058258056641E+0002   2.75254882812500E+0002   2.75009368896484E+0002   2.74662811279297E+0002   2.74400878906250E+0002   2.74305633544922E+0002   2.74408355712891E+0002   2.74721221923828E+0002   2.75253784179688E+0002   2.76022796630859E+0002   2.77060394287109E+0002   2.78423217773438E+0002   2.80205108642578E+0002   2.82552856445313E+0002   2.85677764892578E+0002   2.89807861328125E+0002   2.94762115478516E+0002   2.98049896240234E+0002   2.94977264404297E+0002   2.88286315917969E+0002   2.82161346435547E+0002   2.77489959716797E+0002   2.74206756591797E+0002   2.72129272460938E+0002   2.71079437255859E+0002   2.70874969482422E+0002   2.71259857177734E+0002   2.71772583007813E+0002   2.72089263916016E+0002   2.72437255859375E+0002   2.72994628906250E+0002   2.73796447753906E+0002   2.74879272460938E+0002   2.76334808349609E+0002   2.78323608398438E+0002   2.81056121826172E+0002   2.84590484619141E+0002   2.87701934814453E+0002   2.87680358886719E+0002   2.86457427978516E+0002   2.86254364013672E+0002   2.87435913085938E+0002   2.90028228759766E+0002   2.94099914550781E+0002   2.99814208984375E+0002   3.07402984619141E+0002   3.16857208251953E+0002   3.26111267089844E+0002   3.28181182861328E+0002   3.22923980712891E+0002   3.17035461425781E+0002   3.12292144775391E+0002   3.08422698974609E+0002   3.04931915283203E+0002   3.01399536132813E+0002   2.97468322753906E+0002   2.92773925781250E+0002   2.87269531250000E+0002   2.85877044677734E+0002   2.86995544433594E+0002   2.87292724609375E+0002   2.87048034667969E+0002   2.86541900634766E+0002   2.85934356689453E+0002   2.85307403564453E+0002   2.84694305419922E+0002   2.84098785400391E+0002   2.83508697509766E+0002   2.82905364990234E+0002   2.82269714355469E+0002   2.81585327148438E+0002   2.80839874267578E+0002   2.80024963378906E+0002   2.79135833740234E+0002   2.78170471191406E+0002   2.77128936767578E+0002   2.76012603759766E+0002   2.74823883056641E+0002   2.73565856933594E+0002   2.72243682861328E+0002   2.70873596191406E+0002   2.69537750244141E+0002   2.69000000000000E+0002   2.69000000000000E+0002   2.69000000000000E+0002   2.69000000000000E+0002   2.69000000000000E+0002   2.69000000000000E+0002   2.69000000000000E+0002   2.69000000000000E+0002   2.69000000000000E+0002   2.69000000000000E+0002   2.69000000000000E+0002   2.69000000000000E+0002   2.69000000000000E+0002   2.69000000000000E+0002
   2.69000000000000E+0002   2.69000000000000E+0002   2.69000000000000E+0002   2.69000000000000E+0002   2.69000000000000E+0002   2.69000000000000E+0002   2.69000000000000E+0002   2.69000000000000E+0002   2.69000000000000E+0002   2.69000000000000E+0002   2.69000000000000E+0002   2.69000000000000E+0002   2.69000000000000E+0002   2.69497497558594E+0002   2.70723114013672E+0002   2.72049316406250E+0002   2.73348663330078E+0002   2.74622528076172E+0002   2.75854339599609E+0002   2.77024353027344E+0002   2.78115051269531E+0002   2.79110626220703E+0002   2.79998138427734E+0002   2.80768341064453E+0002   2.81415710449219E+0002   2.81939239501953E+0002   2.82343078613281E+0002   2.82636169433594E+0002   2.82831359863281E+0002   2.82944030761719E+0002   2.82990692138672E+0002   2.82987640380859E+0002   2.82949981689453E+0002   2.82890563964844E+0002   2.82819854736328E+0002   2.82745758056641E+0002   2.82674316406250E+0002   2.82610015869141E+0002   2.82556457519531E+0002   2.82516632080078E+0002   2.82493255615234E+0002   2.82488769531250E+0002   2.82505645751953E+0002   2.82546173095703E+0002   2.82612823486328E+0002   2.82708099365234E+0002   2.82834686279297E+0002   2.82995605468750E+0002   2.83194122314453E+0002   2.83433898925781E+0002   2.83718597412109E+0002   2.84051055908203E+0002   2.84431213378906E+0002   2.84850708007813E+0002   2.85283905029297E+0002   2.85679626464844E+0002   2.85978576660156E+0002   2.86163879394531E+0002   2.86275207519531E+0002   2.86360534667969E+0002   2.86444335937500E+0002   2.86535949707031E+0002   2.86646881103516E+0002   2.86798522949219E+0002   2.87018615722656E+0002   2.87333770751953E+0002   2.87764373779297E+0002   2.88322326660156E+0002   2.89009246826172E+0002   2.89813293457031E+0002   2.90704132080078E+0002   2.91629425048828E+0002   2.92520263671875E+0002   2.93301574707031E+0002   2.93890991210938E+0002   2.94194274902344E+0002   2.94121429443359E+0002   2.93620544433594E+0002   2.92702026367188E+0002   2.91433898925781E+0002   2.89915679931641E+0002   2.88251403808594E+0002   2.86535980224609E+0002   2.84853088378906E+0002   2.83278045654297E+0002   2.81877838134766E+0002   2.80704498291016E+0002   2.79781066894531E+0002   2.79084106445313E+0002   2.78525970458984E+0002   2.77941131591797E+0002   2.77097412109375E+0002   2.75776977539063E+0002   2.73903076171875E+0002   2.71556213378906E+0002   2.68856658935547E+0002   2.65872161865234E+0002   2.62606414794922E+0002   2.59019256591797E+0002   2.55043945312500E+0002   2.50586410522461E+0002   2.45482910156250E+0002   2.39397430419922E+0002   2.31678390502930E+0002   2.21152969360352E+0002   2.05696380615234E+0002   1.84095794677734E+0002   1.99162994384766E+0002   2.15518554687500E+0002   2.26084671020508E+0002   2.33272232055664E+0002   2.38358581542969E+0002   2.42013671875000E+0002   2.44585479736328E+0002   2.46222137451172E+0002   2.46927215576172E+0002   2.46611221313477E+0002   2.45187820434570E+0002   2.42705551147461E+0002   2.39423461914063E+0002   2.35773239135742E+0002   2.32267044067383E+0002   2.29405929565430E+0002   2.27580291748047E+0002   2.26992309570313E+0002   2.27679382324219E+0002   2.29619506835938E+0002   2.32776199340820E+0002   2.37018859863281E+0002   2.42045883178711E+0002   2.47435058593750E+0002   2.52764434814453E+0002   2.57711181640625E+0002   2.62103210449219E+0002   2.65897003173828E+0002   2.69085662841797E+0002   2.71620452880859E+0002   2.73431304931641E+0002   2.74526794433594E+0002   2.75051727294922E+0002   2.75230590820313E+0002   2.75271942138672E+0002   2.75321258544922E+0002   2.75463256835938E+0002   2.75741210937500E+0002   2.76174682617188E+0002   2.76771728515625E+0002   2.77537139892578E+0002   2.78479583740234E+0002   2.79619201660156E+0002   2.80994354248047E+0002   2.82660247802734E+0002   2.84659088134766E+0002   2.86907318115234E+0002   2.88897918701172E+0002   2.89360473632813E+0002   2.87126190185547E+0002   2.82938995361328E+0002   2.78467895507813E+0002   2.74701965332031E+0002   2.71987731933594E+0002   2.70374298095703E+0002   2.69768676757813E+0002   2.69988342285156E+0002   2.70777679443359E+0002   2.71842559814453E+0002   2.72981933593750E+0002   2.74168243408203E+0002   2.75431793212891E+0002   2.76787963867188E+0002   2.78259185791016E+0002   2.79901306152344E+0002   2.81798583984375E+0002   2.84001953125000E+0002   2.86350738525391E+0002   2.88232025146484E+0002   2.89054748535156E+0002   2.89328887939453E+0002   2.89991455078125E+0002   2.91561065673828E+0002   2.94285491943359E+0002   2.98389892578125E+0002   3.04230590820313E+0002   3.12467041015625E+0002   3.24363433837891E+0002   3.41706512451172E+0002   3.43040466308594E+0002   3.28283996582031E+0002   3.18713012695313E+0002   3.12326629638672E+0002   3.07624450683594E+0002   3.03712249755859E+0002   3.00010375976563E+0002   2.96077331542969E+0002   2.91482330322266E+0002   2.86066436767578E+0002   2.84964935302734E+0002   2.86425689697266E+0002   2.87000213623047E+0002   2.86999572753906E+0002   2.86702362060547E+0002   2.86265686035156E+0002   2.85771850585938E+0002   2.85257659912109E+0002   2.84732238769531E+0002   2.84189025878906E+0002   2.83614196777344E+0002   2.82992309570313E+0002   2.82309539794922E+0002   2.81555114746094E+0002   2.80721801757813E+0002   2.79805603027344E+0002   2.78805023193359E+0002   2.77720642089844E+0002   2.76554290771484E+0002   2.75308654785156E+0002   2.73987152099609E+0002   2.72595306396484E+0002   2.71148529052734E+0002   2.69713500976563E+0002   2.69000000000000E+0002   2.69000000000000E+0002   2.69000000000000E+0002   2.69000000000000E+0002   2.69000000000000E+0002   2.69000000000000E+0002   2.69000000000000E+0002   2.69000000000000E+0002   2.69000000000000E+0002   2.69000000000000E+0002   2.69000000000000E+0002   2.69000000000000E+0002   2.69000000000000E+0002   2.69000000000000E+0002
   2.69000000000000E+0002   2.69000000000000E+0002   2.69000000000000E+0002   2.69000000000000E+0002   2.69000000000000E+0002   2.69000000000000E+0002   2.69000000000000E+0002   2.69000000000000E+0002   2.69000000000000E+0002   2.69000000000000E+0002   2.69000000000000E+0002   2.69000000000000E+0002   2.69549957275391E+0002   2.70895751953125E+0002   2.72363250732422E+0002   2.73849029541016E+0002   2.75309661865234E+0002   2.76730865478516E+0002   2.78100036621094E+0002   2.79400146484375E+0002   2.80612487792969E+0002   2.81718292236328E+0002   2.82700195312500E+0002   2.83543945312500E+0002   2.84239746093750E+0002   2.84783325195313E+0002   2.85177154541016E+0002   2.85430053710938E+0002   2.85556579589844E+0002   2.85575347900391E+0002   2.85507202148438E+0002   2.85373321533203E+0002   2.85193695068359E+0002   2.84985961914063E+0002   2.84764862060547E+0002   2.84542083740234E+0002   2.84326629638672E+0002   2.84125244140625E+0002   2.83942871093750E+0002   2.83783203125000E+0002   2.83649047851563E+0002   2.83542510986328E+0002   2.83465362548828E+0002   2.83419036865234E+0002   2.83404907226563E+0002   2.83424255371094E+0002   2.83478454589844E+0002   2.83568878173828E+0002   2.83697082519531E+0002   2.83864471435547E+0002   2.84072082519531E+0002   2.84319488525391E+0002   2.84603332519531E+0002   2.84914398193359E+0002   2.85234588623047E+0002   2.85537628173828E+0002   2.85798889160156E+0002   2.86009857177734E+0002   2.86178894042969E+0002   2.86313903808594E+0002   2.86409973144531E+0002   2.86459289550781E+0002   2.86473449707031E+0002   2.86490020751953E+0002   2.86556884765625E+0002   2.86714294433594E+0002   2.86988647460938E+0002   2.87393432617188E+0002   2.87930267333984E+0002   2.88586242675781E+0002   2.89324432373047E+0002   2.90072662353516E+0002   2.90739593505859E+0002   2.91268463134766E+0002   2.91635620117188E+0002   2.91804595947266E+0002   2.91725555419922E+0002   2.91362182617188E+0002   2.90710083007813E+0002   2.89799285888672E+0002   2.88684997558594E+0002   2.87435424804688E+0002   2.86122497558594E+0002   2.84817443847656E+0002   2.83588195800781E+0002   2.82497009277344E+0002   2.81595550537109E+0002   2.80917205810547E+0002   2.80464019775391E+0002   2.80180511474609E+0002   2.79895965576172E+0002   2.79251647949219E+0002   2.77807159423828E+0002   2.75459899902344E+0002   2.72514923095703E+0002   2.69263732910156E+0002   2.65809570312500E+0002   2.62132995605469E+0002   2.58165374755859E+0002   2.53834854125977E+0002   2.49100601196289E+0002   2.43934661865234E+0002   2.38159255981445E+0002   2.31288894653320E+0002   2.22699966430664E+0002   2.12459518432617E+0002   2.04975585937500E+0002   2.08868591308594E+0002   2.18190734863281E+0002   2.26322021484375E+0002   2.32437515258789E+0002   2.36893615722656E+0002   2.40047454833984E+0002   2.42122589111328E+0002   2.43223892211914E+0002   2.43368133544922E+0002   2.42524642944336E+0002   2.40675140380859E+0002   2.37885330200195E+0002   2.34364608764648E+0002   2.30502975463867E+0002   2.26886520385742E+0002   2.24238250732422E+0002   2.23185073852539E+0002   2.23948348999023E+0002   2.26311401367188E+0002   2.29902709960938E+0002   2.34420913696289E+0002   2.39636871337891E+0002   2.45299758911133E+0002   2.51070724487305E+0002   2.56523590087891E+0002   2.61252197265625E+0002   2.65065856933594E+0002   2.68051147460938E+0002   2.70398986816406E+0002   2.72236145019531E+0002   2.73612213134766E+0002   2.74567626953125E+0002   2.75182708740234E+0002   2.75573913574219E+0002   2.75861236572266E+0002   2.76141723632813E+0002   2.76481018066406E+0002   2.76916625976563E+0002   2.77463989257813E+0002   2.78121917724609E+0002   2.78876281738281E+0002   2.79704498291016E+0002   2.80582183837891E+0002   2.81489562988281E+0002   2.82408294677734E+0002   2.83290283203125E+0002   2.83982025146484E+0002   2.84125122070313E+0002   2.83187622070313E+0002   2.80860687255859E+0002   2.77498779296875E+0002   2.73903076171875E+0002   2.70802368164063E+0002   2.68642272949219E+0002   2.67595581054688E+0002   2.67616149902344E+0002   2.68507843017578E+0002   2.70002410888672E+0002   2.71834655761719E+0002   2.73806488037109E+0002   2.75806518554688E+0002   2.77774444580078E+0002   2.79669128417969E+0002   2.81472198486328E+0002   2.83204071044922E+0002   2.84916259765625E+0002   2.86638885498047E+0002   2.88297027587891E+0002   2.89694610595703E+0002   2.90722106933594E+0002   2.91600738525391E+0002   2.92748138427734E+0002   2.94520721435547E+0002   2.97176940917969E+0002   3.00969635009766E+0002   3.06259399414063E+0002   3.13648254394531E+0002   3.24087707519531E+0002   3.37458221435547E+0002   3.38134582519531E+0002   3.26117584228516E+0002   3.16980529785156E+0002   3.10687072753906E+0002   3.06067138671875E+0002   3.02305328369141E+0002   2.98875091552734E+0002   2.95444366455078E+0002   2.91899688720703E+0002   2.88735046386719E+0002   2.87272186279297E+0002   2.87222106933594E+0002   2.87328460693359E+0002   2.87244049072266E+0002   2.86994262695313E+0002   2.86647827148438E+0002   2.86252441406250E+0002   2.85829833984375E+0002   2.85382385253906E+0002   2.84900726318359E+0002   2.84370361328125E+0002   2.83776367187500E+0002   2.83105957031250E+0002   2.82349792480469E+0002   2.81502014160156E+0002   2.80559997558594E+0002   2.79523590087891E+0002   2.78394500732422E+0002   2.77175598144531E+0002   2.75870452880859E+0002   2.74483367919922E+0002   2.73021423339844E+0002   2.71504058837891E+0002   2.70011840820313E+0002   2.69000000000000E+0002   2.69000000000000E+0002   2.69000000000000E+0002   2.69000000000000E+0002   2.69000000000000E+0002   2.69000000000000E+0002   2.69000000000000E+0002   2.69000000000000E+0002   2.69000000000000E+0002   2.69000000000000E+0002   2.69000000000000E+0002   2.69000000000000E+0002   2.69000000000000E+0002   2.69000000000000E+0002
   2.69000000000000E+0002   2.69000000000000E+0002   2.69000000000000E+0002   2.69000000000000E+0002   2.69000000000000E+0002   2.69000000000000E+0002   2.69000000000000E+0002   2.69000000000000E+0002   2.69000000000000E+0002   2.69000000000000E+0002   2.69000000000000E+0002   2.69448425292969E+0002   2.70870239257813E+0002   2.72452239990234E+0002   2.74080749511719E+0002   2.75712493896484E+0002   2.77323608398438E+0002   2.78897613525391E+0002   2.80418121337891E+0002   2.81865692138672E+0002   2.83217956542969E+0002   2.84451080322266E+0002   2.85541625976563E+0002   2.86468902587891E+0002   2.87217315673828E+0002   2.87778564453125E+0002   2.88153259277344E+0002   2.88351135253906E+0002   2.88390045166016E+0002   2.88293762207031E+0002   2.88089324951172E+0002   2.87804443359375E+0002   2.87465118408203E+0002   2.87094268798828E+0002   2.86711090087891E+0002   2.86330718994141E+0002   2.85964630126953E+0002   2.85621215820313E+0002   2.85306396484375E+0002   2.85024169921875E+0002   2.84777130126953E+0002   2.84566833496094E+0002   2.84394195556641E+0002   2.84259704589844E+0002   2.84163513183594E+0002   2.84105621337891E+0002   2.84085968017578E+0002   2.84104400634766E+0002   2.84160766601563E+0002   2.84254669189453E+0002   2.84385192871094E+0002   2.84550415039063E+0002   2.84746398925781E+0002   2.84966461181641E+0002   2.85200653076172E+0002   2.85437896728516E+0002   2.85669982910156E+0002   2.85894958496094E+0002   2.86111541748047E+0002   2.86302764892578E+0002   2.86422821044922E+0002   2.86419647216797E+0002   2.86296752929688E+0002   2.86128295898438E+0002   2.86001556396484E+0002   2.85975463867188E+0002   2.86080474853516E+0002   2.86329925537109E+0002   2.86727478027344E+0002   2.87267333984375E+0002   2.87920898437500E+0002   2.88589355468750E+0002   2.89088806152344E+0002   2.89384521484375E+0002   2.89572601318359E+0002   2.89664184570313E+0002   2.89619140625000E+0002   2.89398101806641E+0002   2.88980743408203E+0002   2.88369934082031E+0002   2.87590026855469E+0002   2.86682464599609E+0002   2.85700683593750E+0002   2.84705078125000E+0002   2.83758666992188E+0002   2.82923431396484E+0002   2.82258209228516E+0002   2.81817687988281E+0002   2.81650085449219E+0002   2.81780853271484E+0002   2.82123321533203E+0002   2.82159057617188E+0002   2.80706176757813E+0002   2.77527618408203E+0002   2.73716949462891E+0002   2.69846435546875E+0002   2.65960266113281E+0002   2.61951263427734E+0002   2.57685882568359E+0002   2.53053466796875E+0002   2.48062484741211E+0002   2.42990325927734E+0002   2.38054565429688E+0002   2.32823303222656E+0002   2.26977874755859E+0002   2.21249435424805E+0002   2.17950210571289E+0002   2.19232299804688E+0002   2.23750747680664E+0002   2.28865936279297E+0002   2.33292755126953E+0002   2.36718063354492E+0002   2.39142761230469E+0002   2.40618759155273E+0002   2.41173233032227E+0002   2.40796493530273E+0002   2.39455780029297E+0002   2.37124984741211E+0002   2.33826141357422E+0002   2.29685989379883E+0002   2.25032562255859E+0002   2.20561492919922E+0002   2.17451873779297E+0002   2.16944976806641E+0002   2.19323654174805E+0002   2.23757858276367E+0002   2.29285522460938E+0002   2.35369445800781E+0002   2.41793182373047E+0002   2.48421798706055E+0002   2.55004119873047E+0002   2.61011566162109E+0002   2.65722961425781E+0002   2.68841979980469E+0002   2.70809631347656E+0002   2.72199523925781E+0002   2.73306884765625E+0002   2.74218017578125E+0002   2.74952423095703E+0002   2.75535705566406E+0002   2.76015655517578E+0002   2.76451385498047E+0002   2.76898406982422E+0002   2.77398803710938E+0002   2.77977447509766E+0002   2.78640563964844E+0002   2.79374053955078E+0002   2.80140869140625E+0002   2.80880493164063E+0002   2.81515502929688E+0002   2.81967742919922E+0002   2.82171386718750E+0002   2.82059722900391E+0002   2.81522369384766E+0002   2.80374908447266E+0002   2.78416870117188E+0002   2.75605468750000E+0002   2.72209564208984E+0002   2.68769958496094E+0002   2.65911621093750E+0002   2.64147430419922E+0002   2.63726165771484E+0002   2.64581115722656E+0002   2.66422271728516E+0002   2.68895355224609E+0002   2.71695434570313E+0002   2.74604553222656E+0002   2.77475189208984E+0002   2.80191680908203E+0002   2.82647064208984E+0002   2.84760559082031E+0002   2.86520080566406E+0002   2.87995269775391E+0002   2.89287475585938E+0002   2.90459197998047E+0002   2.91521850585938E+0002   2.92509307861328E+0002   2.93551574707031E+0002   2.94847595214844E+0002   2.96590301513672E+0002   2.98943115234375E+0002   3.02071655273438E+0002   3.06175018310547E+0002   3.11443267822266E+0002   3.17709259033203E+0002   3.23084350585938E+0002   3.23093841552734E+0002   3.17884552001953E+0002   3.12063354492188E+0002   3.07365722656250E+0002   3.03682556152344E+0002   3.00596832275391E+0002   2.97783843994141E+0002   2.95071502685547E+0002   2.92483062744141E+0002   2.90308044433594E+0002   2.88923706054688E+0002   2.88268096923828E+0002   2.87937438964844E+0002   2.87667572021484E+0002   2.87381195068359E+0002   2.87075195312500E+0002   2.86757141113281E+0002   2.86425048828125E+0002   2.86066009521484E+0002   2.85661102294922E+0002   2.85190612792969E+0002   2.84637420654297E+0002   2.83988800048828E+0002   2.83236602783203E+0002   2.82376922607422E+0002   2.81409088134766E+0002   2.80335052490234E+0002   2.79158355712891E+0002   2.77883453369141E+0002   2.76515228271484E+0002   2.75058959960938E+0002   2.73521911621094E+0002   2.71920806884766E+0002   2.70312316894531E+0002   2.69000000000000E+0002   2.69000000000000E+0002   2.69000000000000E+0002   2.69000000000000E+0002   2.69000000000000E+0002   2.69000000000000E+0002   2.69000000000000E+0002   2.69000000000000E+0002   2.69000000000000E+0002   2.69000000000000E+0002   2.69000000000000E+0002   2.69000000000000E+0002   2.69000000000000E+0002   2.69000000000000E+0002
   2.69000000000000E+0002   2.69000000000000E+0002   2.69000000000000E+0002   2.69000000000000E+0002   2.69000000000000E+0002   2.69000000000000E+0002   2.69000000000000E+0002   2.69000000000000E+0002   2.69000000000000E+0002   2.69000000000000E+0002   2.69281311035156E+0002   2.70678436279297E+0002   2.72310333251953E+0002   2.74050872802734E+0002   2.75826965332031E+0002   2.77609436035156E+0002   2.79379425048828E+0002   2.81119445800781E+0002   2.82809814453125E+0002   2.84426940917969E+0002   2.85942993164063E+0002   2.87327087402344E+0002   2.88547332763672E+0002   2.89574096679688E+0002   2.90383636474609E+0002   2.90961975097656E+0002   2.91307647705078E+0002   2.91432281494141E+0002   2.91359252929688E+0002   2.91120391845703E+0002   2.90751678466797E+0002   2.90289459228516E+0002   2.89767333984375E+0002   2.89214294433594E+0002   2.88653930664063E+0002   2.88104522705078E+0002   2.87579498291016E+0002   2.87088287353516E+0002   2.86637145996094E+0002   2.86229797363281E+0002   2.85868316650391E+0002   2.85553405761719E+0002   2.85284881591797E+0002   2.85062072753906E+0002   2.84883819580078E+0002   2.84748748779297E+0002   2.84655334472656E+0002   2.84601959228516E+0002   2.84586853027344E+0002   2.84608062744141E+0002   2.84663330078125E+0002   2.84750000000000E+0002   2.84864715576172E+0002   2.85003753662109E+0002   2.85163787841797E+0002   2.85343811035156E+0002   2.85547637939453E+0002   2.85784271240234E+0002   2.86060089111328E+0002   2.86351837158203E+0002   2.86555877685547E+0002   2.86499420166016E+0002   2.86156646728516E+0002   2.85714294433594E+0002   2.85339050292969E+0002   2.85102325439453E+0002   2.85026092529297E+0002   2.85116546630859E+0002   2.85377563476563E+0002   2.85816802978516E+0002   2.86446960449219E+0002   2.87219665527344E+0002   2.87581726074219E+0002   2.87557495117188E+0002   2.87592193603516E+0002   2.87659515380859E+0002   2.87691650390625E+0002   2.87634155273438E+0002   2.87448303222656E+0002   2.87112426757813E+0002   2.86624633789063E+0002   2.86004852294922E+0002   2.85292968750000E+0002   2.84543304443359E+0002   2.83817321777344E+0002   2.83178924560547E+0002   2.82694580078125E+0002   2.82439544677734E+0002   2.82512268066406E+0002   2.83059448242188E+0002   2.84288177490234E+0002   2.86093719482422E+0002   2.84959442138672E+0002   2.79790924072266E+0002   2.74834167480469E+0002   2.70410369873047E+0002   2.66227539062500E+0002   2.62030883789063E+0002   2.57602325439453E+0002   2.52732864379883E+0002   2.47297088623047E+0002   2.42005645751953E+0002   2.38484115600586E+0002   2.35265502929688E+0002   2.31703506469727E+0002   2.28480346679688E+0002   2.26716232299805E+0002   2.27147430419922E+0002   2.29375717163086E+0002   2.32347015380859E+0002   2.35217117309570E+0002   2.37554702758789E+0002   2.39183120727539E+0002   2.40030059814453E+0002   2.40049362182617E+0002   2.39189254760742E+0002   2.37384475708008E+0002   2.34560272216797E+0002   2.30644546508789E+0002   2.25599044799805E+0002   2.19529647827148E+0002   2.13054519653320E+0002   2.08116683959961E+0002   2.07845779418945E+0002   2.12809219360352E+0002   2.20269836425781E+0002   2.28190063476563E+0002   2.35995788574219E+0002   2.43720062255859E+0002   2.51514160156250E+0002   2.59381286621094E+0002   2.66707794189453E+0002   2.71753967285156E+0002   2.73645446777344E+0002   2.74032592773438E+0002   2.74230499267578E+0002   2.74559204101563E+0002   2.75000793457031E+0002   2.75491546630859E+0002   2.75993408203125E+0002   2.76500396728516E+0002   2.77027679443359E+0002   2.77598693847656E+0002   2.78235198974609E+0002   2.78950347900391E+0002   2.79742736816406E+0002   2.80588287353516E+0002   2.81428710937500E+0002   2.82159332275391E+0002   2.82632049560547E+0002   2.82692474365234E+0002   2.82238464355469E+0002   2.81233520507813E+0002   2.79653533935547E+0002   2.77440277099609E+0002   2.74531890869141E+0002   2.70962005615234E+0002   2.66966125488281E+0002   2.63036804199219E+0002   2.59889984130859E+0002   2.58266235351563E+0002   2.58554046630859E+0002   2.60559020996094E+0002   2.63718750000000E+0002   2.67477416992188E+0002   2.71458099365234E+0002   2.75443969726563E+0002   2.79295562744141E+0002   2.82869445800781E+0002   2.85973663330078E+0002   2.88412170410156E+0002   2.90120025634766E+0002   2.91242401123047E+0002   2.92036102294922E+0002   2.92720367431641E+0002   2.93427276611328E+0002   2.94240020751953E+0002   2.95235931396484E+0002   2.96488494873047E+0002   2.98046234130859E+0002   2.99935180664063E+0002   3.02188018798828E+0002   3.04836547851563E+0002   3.07795532226563E+0002   3.10604980468750E+0002   3.12166809082031E+0002   3.11341339111328E+0002   3.08616699218750E+0002   3.05581970214844E+0002   3.02966430664063E+0002   3.00714355468750E+0002   2.98641235351563E+0002   2.96630371093750E+0002   2.94652343750000E+0002   2.92774597167969E+0002   2.91151519775391E+0002   2.89927246093750E+0002   2.89099700927734E+0002   2.88539916992188E+0002   2.88124267578125E+0002   2.87790222167969E+0002   2.87513122558594E+0002   2.87274139404297E+0002   2.87046264648438E+0002   2.86795440673828E+0002   2.86487640380859E+0002   2.86094299316406E+0002   2.85594665527344E+0002   2.84975860595703E+0002   2.84231506347656E+0002   2.83360321044922E+0002   2.82364685058594E+0002   2.81249359130859E+0002   2.80020507812500E+0002   2.78684844970703E+0002   2.77248962402344E+0002   2.75719146728516E+0002   2.74101928710938E+0002   2.72407684326172E+0002   2.70670166015625E+0002   2.69086853027344E+0002   2.69000000000000E+0002   2.69000000000000E+0002   2.69000000000000E+0002   2.69000000000000E+0002   2.69000000000000E+0002   2.69000000000000E+0002   2.69000000000000E+0002   2.69000000000000E+0002   2.69000000000000E+0002   2.69000000000000E+0002   2.69000000000000E+0002   2.69000000000000E+0002   2.69000000000000E+0002
   2.69000000000000E+0002   2.69000000000000E+0002   2.69000000000000E+0002   2.69000000000000E+0002   2.69000000000000E+0002   2.69000000000000E+0002   2.69000000000000E+0002   2.69000000000000E+0002   2.69000000000000E+0002   2.69000000000000E+0002   2.70136718750000E+0002   2.71898529052734E+0002   2.73749053955078E+0002   2.75648620605469E+0002   2.77578735351563E+0002   2.79523193359375E+0002   2.81466522216797E+0002   2.83390960693359E+0002   2.85274414062500E+0002   2.87088867187500E+0002   2.88799896240234E+0002   2.90367309570313E+0002   2.91747619628906E+0002   2.92898193359375E+0002   2.93783294677734E+0002   2.94380371093750E+0002   2.94685058593750E+0002   2.94712463378906E+0002   2.94495056152344E+0002   2.94076904296875E+0002   2.93507049560547E+0002   2.92833618164063E+0002   2.92099578857422E+0002   2.91340728759766E+0002   2.90585021972656E+0002   2.89853271484375E+0002   2.89160034179688E+0002   2.88514923095703E+0002   2.87923736572266E+0002   2.87389404296875E+0002   2.86912811279297E+0002   2.86493438720703E+0002   2.86129821777344E+0002   2.85819824218750E+0002   2.85560882568359E+0002   2.85350189208984E+0002   2.85184692382813E+0002   2.85061248779297E+0002   2.84976562500000E+0002   2.84927276611328E+0002   2.84910003662109E+0002   2.84921386718750E+0002   2.84958709716797E+0002   2.85020385742188E+0002   2.85107635498047E+0002   2.85226623535156E+0002   2.85391632080078E+0002   2.85627716064453E+0002   2.85969787597656E+0002   2.86439086914063E+0002   2.86909912109375E+0002   2.86839141845703E+0002   2.86062316894531E+0002   2.85201690673828E+0002   2.84526885986328E+0002   2.84065460205078E+0002   2.83804321289063E+0002   2.83732513427734E+0002   2.83847717285156E+0002   2.84160400390625E+0002   2.84704559326172E+0002   2.85544860839844E+0002   2.85795410156250E+0002   2.85566375732422E+0002   2.85567230224609E+0002   2.85689971923828E+0002   2.85855651855469E+0002   2.86001098632813E+0002   2.86069061279297E+0002   2.86010345458984E+0002   2.85794494628906E+0002   2.85421539306641E+0002   2.84924102783203E+0002   2.84358062744141E+0002   2.83788482666016E+0002   2.83281280517578E+0002   2.82904083251953E+0002   2.82736816406250E+0002   2.82893463134766E+0002   2.83566467285156E+0002   2.85120819091797E+0002   2.88244323730469E+0002   2.87702728271484E+0002   2.80680450439453E+0002   2.75279479980469E+0002   2.70719299316406E+0002   2.66509796142578E+0002   2.62346466064453E+0002   2.57985687255859E+0002   2.53158691406250E+0002   2.47460128784180E+0002   2.40109863281250E+0002   2.39844543457031E+0002   2.38356369018555E+0002   2.36279022216797E+0002   2.34375793457031E+0002   2.33286178588867E+0002   2.33347091674805E+0002   2.34421401977539E+0002   2.36044296264648E+0002   2.37727172851563E+0002   2.39119537353516E+0002   2.40009185791016E+0002   2.40267745971680E+0002   2.39802398681641E+0002   2.38525085449219E+0002   2.36333297729492E+0002   2.33093994140625E+0002   2.28621795654297E+0002   2.22647064208984E+0002   2.14802276611328E+0002   2.04875244140625E+0002   1.94835052490234E+0002   1.94079010009766E+0002   2.04734252929688E+0002   2.16775878906250E+0002   2.27346084594727E+0002   2.36727951049805E+0002   2.45545227050781E+0002   2.54384216308594E+0002   2.63803253173828E+0002   2.73922363281250E+0002   2.80525573730469E+0002   2.79196655273438E+0002   2.77129425048828E+0002   2.76051300048828E+0002   2.75685852050781E+0002   2.75737304687500E+0002   2.76024414062500E+0002   2.76449249267578E+0002   2.76966003417969E+0002   2.77559783935547E+0002   2.78232025146484E+0002   2.78990539550781E+0002   2.79842254638672E+0002   2.80785614013672E+0002   2.81798522949219E+0002   2.82815032958984E+0002   2.83688201904297E+0002   2.84161743164063E+0002   2.83934814453125E+0002   2.82849456787109E+0002   2.80968017578125E+0002   2.78410095214844E+0002   2.75211181640625E+0002   2.71338836669922E+0002   2.66788635253906E+0002   2.61707244873047E+0002   2.56561126708984E+0002   2.52336502075195E+0002   2.50426010131836E+0002   2.51654907226563E+0002   2.55423828125000E+0002   2.60465789794922E+0002   2.65870147705078E+0002   2.71229064941406E+0002   2.76414123535156E+0002   2.81377227783203E+0002   2.85999572753906E+0002   2.89966827392578E+0002   2.92808898925781E+0002   2.94302551269531E+0002   2.94794036865234E+0002   2.94869323730469E+0002   2.94945343017578E+0002   2.95222778320313E+0002   2.95783294677734E+0002   2.96654388427734E+0002   2.97814056396484E+0002   2.99165863037109E+0002   3.00557250976563E+0002   3.01880218505859E+0002   3.03100494384766E+0002   3.04088409423828E+0002   3.04439697265625E+0002   3.03560516357422E+0002   3.01377838134766E+0002   2.99326660156250E+0002   2.98571807861328E+0002   2.98213928222656E+0002   2.97587371826172E+0002   2.96640472412109E+0002   2.95464385986328E+0002   2.94159881591797E+0002   2.92833862304688E+0002   2.91598144531250E+0002   2.90539581298828E+0002   2.89686462402344E+0002   2.89018493652344E+0002   2.88508636474609E+0002   2.88143920898438E+0002   2.87911712646484E+0002   2.87779144287109E+0002   2.87690643310547E+0002   2.87582977294922E+0002   2.87401153564453E+0002   2.87105590820313E+0002   2.86672241210938E+0002   2.86089355468750E+0002   2.85353851318359E+0002   2.84468597412109E+0002   2.83440185546875E+0002   2.82277282714844E+0002   2.80989532470703E+0002   2.79586517333984E+0002   2.78077209472656E+0002   2.76469421386719E+0002   2.74770202636719E+0002   2.72989044189453E+0002   2.71156433105469E+0002   2.69429016113281E+0002   2.69000000000000E+0002   2.69000000000000E+0002   2.69000000000000E+0002   2.69000000000000E+0002   2.69000000000000E+0002   2.69000000000000E+0002   2.69000000000000E+0002   2.69000000000000E+0002   2.69000000000000E+0002   2.69000000000000E+0002   2.69000000000000E+0002   2.69000000000000E+0002   2.69000000000000E+0002
   2.69000000000000E+0002   2.69000000000000E+0002   2.69000000000000E+0002   2.69000000000000E+0002   2.69000000000000E+0002   2.69000000000000E+0002   2.69000000000000E+0002   2.69000000000000E+0002   2.69000000000000E+0002   2.69499572753906E+0002   2.71218505859375E+0002   2.73158081054688E+0002   2.75171051025391E+0002   2.77228057861328E+0002   2.79320465087891E+0002   2.81439331054688E+0002   2.83572387695313E+0002   2.85702758789063E+0002   2.87807006835938E+0002   2.89853271484375E+0002   2.91799804687500E+0002   2.93594787597656E+0002   2.95178741455078E+0002   2.96489959716797E+0002   2.97474029541016E+0002   2.98094604492188E+0002   2.98342620849609E+0002   2.98239440917969E+0002   2.97832397460938E+0002   2.97184844970703E+0002   2.96365081787109E+0002   2.95437103271484E+0002   2.94455352783203E+0002   2.93462768554688E+0002   2.92491149902344E+0002   2.91562652587891E+0002   2.90691772460938E+0002   2.89887176513672E+0002   2.89153167724609E+0002   2.88490997314453E+0002   2.87899902343750E+0002   2.87377655029297E+0002   2.86921112060547E+0002   2.86526489257813E+0002   2.86189727783203E+0002   2.85906402587891E+0002   2.85671966552734E+0002   2.85481719970703E+0002   2.85330871582031E+0002   2.85214538574219E+0002   2.85128021240234E+0002   2.85067077636719E+0002   2.85028717041016E+0002   2.85012207031250E+0002   2.85020904541016E+0002   2.85065002441406E+0002   2.85165374755859E+0002   2.85360198974609E+0002   2.85717041015625E+0002   2.86354949951172E+0002   2.87436676025391E+0002   2.87607788085938E+0002   2.85797821044922E+0002   2.84442657470703E+0002   2.83490661621094E+0002   2.82827301025391E+0002   2.82394012451172E+0002   2.82162536621094E+0002   2.82120605468750E+0002   2.82264526367188E+0002   2.82585937500000E+0002   2.83000244140625E+0002   2.83226593017578E+0002   2.83279235839844E+0002   2.83413024902344E+0002   2.83676727294922E+0002   2.84039703369141E+0002   2.84446044921875E+0002   2.84818939208984E+0002   2.85069915771484E+0002   2.85126525878906E+0002   2.84965911865234E+0002   2.84624725341797E+0002   2.84175933837891E+0002   2.83697143554688E+0002   2.83255004882813E+0002   2.82907653808594E+0002   2.82716918945313E+0002   2.82762542724609E+0002   2.83148773193359E+0002   2.83948394775391E+0002   2.84736267089844E+0002   2.83333007812500E+0002   2.79242675781250E+0002   2.74811187744141E+0002   2.70676605224609E+0002   2.66749786376953E+0002   2.62860626220703E+0002   2.58843780517578E+0002   2.54540313720703E+0002   2.49884033203125E+0002   2.45657623291016E+0002   2.43562774658203E+0002   2.42171188354492E+0002   2.40724914550781E+0002   2.39455093383789E+0002   2.38667312622070E+0002   2.38519012451172E+0002   2.38947982788086E+0002   2.39722198486328E+0002   2.40556747436523E+0002   2.41202392578125E+0002   2.41472320556641E+0002   2.41229949951172E+0002   2.40365005493164E+0002   2.38770721435547E+0002   2.36322372436523E+0002   2.32851028442383E+0002   2.28099639892578E+0002   2.21635910034180E+0002   2.12666213989258E+0002   1.99631759643555E+0002   1.79624908447266E+0002   1.75436645507813E+0002   1.99076873779297E+0002   2.15482757568359E+0002   2.27801147460938E+0002   2.38030105590820E+0002   2.47327987670898E+0002   2.56546203613281E+0002   2.66600555419922E+0002   2.78925750732422E+0002   2.89714904785156E+0002   2.82464416503906E+0002   2.78832366943359E+0002   2.77114929199219E+0002   2.76401367187500E+0002   2.76248046875000E+0002   2.76427124023438E+0002   2.76817871093750E+0002   2.77357086181641E+0002   2.78014404296875E+0002   2.78778869628906E+0002   2.79651275634766E+0002   2.80639007568359E+0002   2.81751220703125E+0002   2.82988586425781E+0002   2.84315093994141E+0002   2.85581634521484E+0002   2.86378753662109E+0002   2.86035827636719E+0002   2.84230255126953E+0002   2.81343261718750E+0002   2.77788024902344E+0002   2.73657562255859E+0002   2.68849304199219E+0002   2.63208190917969E+0002   2.56642700195313E+0002   2.49371612548828E+0002   2.42617843627930E+0002   2.39453109741211E+0002   2.42351776123047E+0002   2.49226104736328E+0002   2.56983337402344E+0002   2.64365509033203E+0002   2.71188262939453E+0002   2.77590118408203E+0002   2.83747253417969E+0002   2.89698547363281E+0002   2.95027191162109E+0002   2.98550323486328E+0002   2.99427764892578E+0002   2.98673217773438E+0002   2.97645446777344E+0002   2.96944274902344E+0002   2.96724884033203E+0002   2.97005523681641E+0002   2.97764526367188E+0002   2.98919921875000E+0002   3.00227844238281E+0002   3.01234893798828E+0002   3.01632568359375E+0002   3.01525573730469E+0002   3.00949157714844E+0002   2.99552368164063E+0002   2.96694244384766E+0002   2.91989593505859E+0002   2.89087677001953E+0002   2.91754241943359E+0002   2.93927795410156E+0002   2.94818511962891E+0002   2.94874786376953E+0002   2.94430816650391E+0002   2.93694152832031E+0002   2.92804290771484E+0002   2.91863494873047E+0002   2.90944305419922E+0002   2.90092956542969E+0002   2.89345764160156E+0002   2.88750457763672E+0002   2.88363098144531E+0002   2.88208129882813E+0002   2.88240020751953E+0002   2.88356506347656E+0002   2.88447845458984E+0002   2.88431121826172E+0002   2.88256744384766E+0002   2.87900848388672E+0002   2.87356384277344E+0002   2.86626525878906E+0002   2.85720367431641E+0002   2.84650299072266E+0002   2.83430084228516E+0002   2.82073699951172E+0002   2.80594451904297E+0002   2.79004180908203E+0002   2.77313079833984E+0002   2.75529846191406E+0002   2.73664642333984E+0002   2.71742797851563E+0002   2.69873321533203E+0002   2.69000000000000E+0002   2.69000000000000E+0002   2.69000000000000E+0002   2.69000000000000E+0002   2.69000000000000E+0002   2.69000000000000E+0002   2.69000000000000E+0002   2.69000000000000E+0002   2.69000000000000E+0002   2.69000000000000E+0002   2.69000000000000E+0002   2.69000000000000E+0002   2.69000000000000E+0002
   2.69000000000000E+0002   2.69000000000000E+0002   2.69000000000000E+0002   2.69000000000000E+0002   2.69000000000000E+0002   2.69000000000000E+0002   2.69000000000000E+0002   2.69000000000000E+0002   2.69000000000000E+0002   2.70370239257813E+0002   2.72322418212891E+0002   2.74408813476563E+0002   2.76565551757813E+0002   2.78776702880859E+0002   2.81036987304688E+0002   2.83341125488281E+0002   2.85680145263672E+0002   2.88039398193359E+0002   2.90395965576172E+0002   2.92715698242188E+0002   2.94949829101563E+0002   2.97032867431641E+0002   2.98883636474609E+0002   3.00411926269531E+0002   3.01532867431641E+0002   3.02186523437500E+0002   3.02355804443359E+0002   3.02072967529297E+0002   3.01410888671875E+0002   3.00464202880859E+0002   2.99329620361328E+0002   2.98092376708984E+0002   2.96820068359375E+0002   2.95562255859375E+0002   2.94352844238281E+0002   2.93213439941406E+0002   2.92156585693359E+0002   2.91188354492188E+0002   2.90310363769531E+0002   2.89521301269531E+0002   2.88818023681641E+0002   2.88196075439453E+0002   2.87650329589844E+0002   2.87175292968750E+0002   2.86765045166016E+0002   2.86413696289063E+0002   2.86115020751953E+0002   2.85862823486328E+0002   2.85650665283203E+0002   2.85472045898438E+0002   2.85320617675781E+0002   2.85190582275391E+0002   2.85077545166016E+0002   2.84979888916016E+0002   2.84900482177734E+0002   2.84849456787109E+0002   2.84847656250000E+0002   2.84932403564453E+0002   2.85167480468750E+0002   2.85657928466797E+0002   2.86493041992188E+0002   2.86437042236328E+0002   2.84693847656250E+0002   2.83245208740234E+0002   2.82164550781250E+0002   2.81361389160156E+0002   2.80783569335938E+0002   2.80403747558594E+0002   2.80205413818359E+0002   2.80173156738281E+0002   2.80279144287109E+0002   2.80461029052734E+0002   2.80639282226563E+0002   2.80825256347656E+0002   2.81111114501953E+0002   2.81558410644531E+0002   2.82175598144531E+0002   2.82920471191406E+0002   2.83690795898438E+0002   2.84329711914063E+0002   2.84683380126953E+0002   2.84694335937500E+0002   2.84431457519531E+0002   2.84020538330078E+0002   2.83567077636719E+0002   2.83134063720703E+0002   2.82756530761719E+0002   2.82461517333984E+0002   2.82275268554688E+0002   2.82201782226563E+0002   2.82134033203125E+0002   2.81657318115234E+0002   2.80070190429688E+0002   2.77260162353516E+0002   2.73878662109375E+0002   2.70400115966797E+0002   2.66950012207031E+0002   2.63506683349609E+0002   2.60016174316406E+0002   2.56457122802734E+0002   2.52951675415039E+0002   2.49926101684570E+0002   2.47781860351563E+0002   2.46262466430664E+0002   2.45028244018555E+0002   2.44041107177734E+0002   2.43381607055664E+0002   2.43094192504883E+0002   2.43128967285156E+0002   2.43351531982422E+0002   2.43588409423828E+0002   2.43670196533203E+0002   2.43452316284180E+0002   2.42815307617188E+0002   2.41654174804688E+0002   2.39863845825195E+0002   2.37322113037109E+0002   2.33866546630859E+0002   2.29257186889648E+0002   2.23110092163086E+0002   2.14786544799805E+0002   2.03329238891602E+0002   1.89046081542969E+0002   1.87597717285156E+0002   2.03866699218750E+0002   2.18597717285156E+0002   2.30344329833984E+0002   2.40239105224609E+0002   2.49176284790039E+0002   2.57816619873047E+0002   2.66664886474609E+0002   2.75577362060547E+0002   2.81087005615234E+0002   2.80368438720703E+0002   2.78431335449219E+0002   2.77171417236328E+0002   2.76572631835938E+0002   2.76438995361328E+0002   2.76626220703125E+0002   2.77042968750000E+0002   2.77633056640625E+0002   2.78363677978516E+0002   2.79218872070313E+0002   2.80196899414063E+0002   2.81309783935547E+0002   2.82584777832031E+0002   2.84066040039063E+0002   2.85806793212891E+0002   2.87798889160156E+0002   2.89604431152344E+0002   2.89534515380859E+0002   2.86530456542969E+0002   2.82271026611328E+0002   2.77695709228516E+0002   2.72771392822266E+0002   2.67205902099609E+0002   2.60617065429688E+0002   2.52523300170898E+0002   2.42384674072266E+0002   2.30457519531250E+0002   2.22909606933594E+0002   2.30199218750000E+0002   2.42917282104492E+0002   2.54138442993164E+0002   2.63488830566406E+0002   2.71576782226563E+0002   2.78982849121094E+0002   2.86213378906250E+0002   2.93708465576172E+0002   3.01441131591797E+0002   3.06744445800781E+0002   3.05733428955078E+0002   3.02514739990234E+0002   2.99986694335938E+0002   2.98432373046875E+0002   2.97718444824219E+0002   2.97736572265625E+0002   2.98436920166016E+0002   2.99775726318359E+0002   3.01485107421875E+0002   3.02465637207031E+0002   3.01757873535156E+0002   3.00309722900391E+0002   2.98578948974609E+0002   2.96199462890625E+0002   2.92431945800781E+0002   2.86159667968750E+0002   2.81317352294922E+0002   2.87653533935547E+0002   2.91169860839844E+0002   2.92897247314453E+0002   2.93598754882813E+0002   2.93682373046875E+0002   2.93377502441406E+0002   2.92822265625000E+0002   2.92104278564453E+0002   2.91281433105469E+0002   2.90400573730469E+0002   2.89527923583984E+0002   2.88785186767578E+0002   2.88343811035156E+0002   2.88313934326172E+0002   2.88620147705078E+0002   2.89055175781250E+0002   2.89427520751953E+0002   2.89623443603516E+0002   2.89592285156250E+0002   2.89319671630859E+0002   2.88809783935547E+0002   2.88075988769531E+0002   2.87136291503906E+0002   2.86010559082031E+0002   2.84718902587891E+0002   2.83280578613281E+0002   2.81713165283203E+0002   2.80032104492188E+0002   2.78250335693359E+0002   2.76378753662109E+0002   2.74428314208984E+0002   2.72419525146484E+0002   2.70426147460938E+0002   2.69000000000000E+0002   2.69000000000000E+0002   2.69000000000000E+0002   2.69000000000000E+0002   2.69000000000000E+0002   2.69000000000000E+0002   2.69000000000000E+0002   2.69000000000000E+0002   2.69000000000000E+0002   2.69000000000000E+0002   2.69000000000000E+0002   2.69000000000000E+0002   2.69000000000000E+0002
   2.69000000000000E+0002   2.69000000000000E+0002   2.69000000000000E+0002   2.69000000000000E+0002   2.69000000000000E+0002   2.69000000000000E+0002   2.69000000000000E+0002   2.69000000000000E+0002   2.69455474853516E+0002   2.71300018310547E+0002   2.73402893066406E+0002   2.75619659423828E+0002   2.77914367675781E+0002   2.80278320312500E+0002   2.82709838867188E+0002   2.85207366943359E+0002   2.87766387939453E+0002   2.90376800537109E+0002   2.93019378662109E+0002   2.95660858154297E+0002   2.98248077392578E+0002   3.00701385498047E+0002   3.02911529541016E+0002   3.04745208740234E+0002   3.06066070556641E+0002   3.06771118164063E+0002   3.06827850341797E+0002   3.06289062500000E+0002   3.05273956298828E+0002   3.03929168701172E+0002   3.02393707275391E+0002   3.00779632568359E+0002   2.99167663574219E+0002   2.97611267089844E+0002   2.96143005371094E+0002   2.94780639648438E+0002   2.93532073974609E+0002   2.92398803710938E+0002   2.91378295898438E+0002   2.90465698242188E+0002   2.89654663085938E+0002   2.88938201904297E+0002   2.88308898925781E+0002   2.87759185791016E+0002   2.87281524658203E+0002   2.86868225097656E+0002   2.86511627197266E+0002   2.86203887939453E+0002   2.85936920166016E+0002   2.85702453613281E+0002   2.85492034912109E+0002   2.85297485351563E+0002   2.85111785888672E+0002   2.84930389404297E+0002   2.84753295898438E+0002   2.84586944580078E+0002   2.84446197509766E+0002   2.84354949951172E+0002   2.84342407226563E+0002   2.84416168212891E+0002   2.84441406250000E+0002   2.83963745117188E+0002   2.82859924316406E+0002   2.81636871337891E+0002   2.80558227539063E+0002   2.79671661376953E+0002   2.78976165771484E+0002   2.78463226318359E+0002   2.78121093750000E+0002   2.77932495117188E+0002   2.77872528076172E+0002   2.77910217285156E+0002   2.78027069091797E+0002   2.78246978759766E+0002   2.78634490966797E+0002   2.79260589599609E+0002   2.80171539306641E+0002   2.81354583740234E+0002   2.82684234619141E+0002   2.83878997802734E+0002   2.84592559814453E+0002   2.84694427490234E+0002   2.84374603271484E+0002   2.83896911621094E+0002   2.83410766601563E+0002   2.82955963134766E+0002   2.82522521972656E+0002   2.82092468261719E+0002   2.81650787353516E+0002   2.81163360595703E+0002   2.80524688720703E+0002   2.79515899658203E+0002   2.77893646240234E+0002   2.75627349853516E+0002   2.72936614990234E+0002   2.70062408447266E+0002   2.67136871337891E+0002   2.64206726074219E+0002   2.61290039062500E+0002   2.58428344726563E+0002   2.55736434936523E+0002   2.53406234741211E+0002   2.51573425292969E+0002   2.50186157226563E+0002   2.49116867065430E+0002   2.48297210693359E+0002   2.47709930419922E+0002   2.47334869384766E+0002   2.47117767333984E+0002   2.46969100952148E+0002   2.46780471801758E+0002   2.46442337036133E+0002   2.45854019165039E+0002   2.44924896240234E+0002   2.43569931030273E+0002   2.41702346801758E+0002   2.39224731445313E+0002   2.36018249511719E+0002   2.31931625366211E+0002   2.26781539916992E+0002   2.20423538208008E+0002   2.13150665283203E+0002   2.07136505126953E+0002   2.07548416137695E+0002   2.15299285888672E+0002   2.25290466308594E+0002   2.34790802001953E+0002   2.43389266967773E+0002   2.51286590576172E+0002   2.58726379394531E+0002   2.65762481689453E+0002   2.71897216796875E+0002   2.75855316162109E+0002   2.77100219726563E+0002   2.76920471191406E+0002   2.76504852294922E+0002   2.76276794433594E+0002   2.76314544677734E+0002   2.76600646972656E+0002   2.77098236083984E+0002   2.77771240234375E+0002   2.78590637207031E+0002   2.79538208007813E+0002   2.80609954833984E+0002   2.81820556640625E+0002   2.83211334228516E+0002   2.84866394042969E+0002   2.86945373535156E+0002   2.89743133544922E+0002   2.93638275146484E+0002   2.95361511230469E+0002   2.89189666748047E+0002   2.83251068115234E+0002   2.77894134521484E+0002   2.72509735107422E+0002   2.66577423095703E+0002   2.59551513671875E+0002   2.50671401977539E+0002   2.38624008178711E+0002   2.20834106445313E+0002   1.95512588500977E+0002   2.20145080566406E+0002   2.39763504028320E+0002   2.53425292968750E+0002   2.63902496337891E+0002   2.72641082763672E+0002   2.80529998779297E+0002   2.88298217773438E+0002   2.96801391601563E+0002   3.07374481201172E+0002   3.19734344482422E+0002   3.11338195800781E+0002   3.04989807128906E+0002   3.01244567871094E+0002   2.99070373535156E+0002   2.97984252929688E+0002   2.97780639648438E+0002   2.98416717529297E+0002   2.99989410400391E+0002   3.02718109130859E+0002   3.04991180419922E+0002   3.01952056884766E+0002   2.99168395996094E+0002   2.96807281494141E+0002   2.94272888183594E+0002   2.91109497070313E+0002   2.87469818115234E+0002   2.85852935791016E+0002   2.87880706787109E+0002   2.90336212158203E+0002   2.91997802734375E+0002   2.92924774169922E+0002   2.93311187744141E+0002   2.93304321289063E+0002   2.92998626708984E+0002   2.92448608398438E+0002   2.91681274414063E+0002   2.90714874267578E+0002   2.89603759765625E+0002   2.88534057617188E+0002   2.87908477783203E+0002   2.88088500976563E+0002   2.88895080566406E+0002   2.89838623046875E+0002   2.90596771240234E+0002   2.91049316406250E+0002   2.91172363281250E+0002   2.90977294921875E+0002   2.90487762451172E+0002   2.89731719970703E+0002   2.88738311767578E+0002   2.87536590576172E+0002   2.86154083251953E+0002   2.84616149902344E+0002   2.82945251464844E+0002   2.81160675048828E+0002   2.79278442382813E+0002   2.77311737060547E+0002   2.75272552490234E+0002   2.73177917480469E+0002   2.71077484130859E+0002   2.69192108154297E+0002   2.69000000000000E+0002   2.69000000000000E+0002   2.69000000000000E+0002   2.69000000000000E+0002   2.69000000000000E+0002   2.69000000000000E+0002   2.69000000000000E+0002   2.69000000000000E+0002   2.69000000000000E+0002   2.69000000000000E+0002   2.69000000000000E+0002   2.69000000000000E+0002
   2.69000000000000E+0002   2.69000000000000E+0002   2.69000000000000E+0002   2.69000000000000E+0002   2.69000000000000E+0002   2.69000000000000E+0002   2.69000000000000E+0002   2.69000000000000E+0002   2.70206481933594E+0002   2.72201416015625E+0002   2.74427917480469E+0002   2.76768951416016E+0002   2.79198608398438E+0002   2.81713562011719E+0002   2.84316558837891E+0002   2.87011291503906E+0002   2.89799835205078E+0002   2.92679840087891E+0002   2.95640472412109E+0002   2.98655792236328E+0002   3.01674896240234E+0002   3.04608215332031E+0002   3.07314147949219E+0002   3.09595581054688E+0002   3.11226013183594E+0002   3.12017578125000E+0002   3.11905548095703E+0002   3.10984893798828E+0002   3.09464202880859E+0002   3.07579589843750E+0002   3.05530883789063E+0002   3.03460052490234E+0002   3.01456176757813E+0002   2.99569763183594E+0002   2.97825653076172E+0002   2.96233001708984E+0002   2.94791595458984E+0002   2.93496063232422E+0002   2.92338165283203E+0002   2.91308380126953E+0002   2.90396697998047E+0002   2.89593139648438E+0002   2.88887817382813E+0002   2.88271087646484E+0002   2.87733581542969E+0002   2.87266082763672E+0002   2.86859344482422E+0002   2.86504089355469E+0002   2.86190643310547E+0002   2.85908843994141E+0002   2.85647766113281E+0002   2.85395996093750E+0002   2.85142395019531E+0002   2.84877716064453E+0002   2.84596679687500E+0002   2.84300140380859E+0002   2.83995361328125E+0002   2.83692840576172E+0002   2.83396209716797E+0002   2.83077545166016E+0002   2.82638671875000E+0002   2.81932708740234E+0002   2.80941375732422E+0002   2.79826812744141E+0002   2.78748107910156E+0002   2.77788696289063E+0002   2.76985321044922E+0002   2.76350891113281E+0002   2.75881317138672E+0002   2.75560058593750E+0002   2.75365478515625E+0002   2.75281707763672E+0002   2.75312927246094E+0002   2.75497741699219E+0002   2.75913543701172E+0002   2.76667327880859E+0002   2.77872955322266E+0002   2.79600189208984E+0002   2.81760223388672E+0002   2.83888488769531E+0002   2.85110809326172E+0002   2.85075714111328E+0002   2.84428985595703E+0002   2.83755126953125E+0002   2.83212799072266E+0002   2.82754669189453E+0002   2.82285461425781E+0002   2.81730895996094E+0002   2.81055725097656E+0002   2.80240661621094E+0002   2.79241455078125E+0002   2.77972930908203E+0002   2.76353088378906E+0002   2.74378631591797E+0002   2.72139587402344E+0002   2.69756286621094E+0002   2.67322723388672E+0002   2.64898284912109E+0002   2.62527160644531E+0002   2.60263854980469E+0002   2.58188964843750E+0002   2.56396881103516E+0002   2.54946563720703E+0002   2.53824966430664E+0002   2.52971572875977E+0002   2.52322021484375E+0002   2.51820587158203E+0002   2.51411956787109E+0002   2.51035400390625E+0002   2.50626953125000E+0002   2.50123886108398E+0002   2.49466552734375E+0002   2.48597564697266E+0002   2.47460128784180E+0002   2.45996612548828E+0002   2.44147628784180E+0002   2.41851654052734E+0002   2.39047195434570E+0002   2.35684265136719E+0002   2.31764266967773E+0002   2.27455947875977E+0002   2.23369979858398E+0002   2.20917053222656E+0002   2.21864578247070E+0002   2.26459091186523E+0002   2.33109893798828E+0002   2.40281585693359E+0002   2.47256454467773E+0002   2.53817993164063E+0002   2.59903625488281E+0002   2.65386047363281E+0002   2.69932556152344E+0002   2.73092132568359E+0002   2.74757720947266E+0002   2.75386718750000E+0002   2.75571197509766E+0002   2.75694915771484E+0002   2.75937530517578E+0002   2.76363403320313E+0002   2.76979217529297E+0002   2.77764801025391E+0002   2.78691772460938E+0002   2.79736389160156E+0002   2.80888122558594E+0002   2.82156707763672E+0002   2.83581115722656E+0002   2.85246215820313E+0002   2.87317199707031E+0002   2.90103668212891E+0002   2.94041870117188E+0002   2.95873260498047E+0002   2.89453369140625E+0002   2.83447418212891E+0002   2.78095794677734E+0002   2.72785186767578E+0002   2.67019927978516E+0002   2.60308654785156E+0002   2.52027160644531E+0002   2.41301010131836E+0002   2.27477249145508E+0002   2.17057312011719E+0002   2.27803482055664E+0002   2.43395462036133E+0002   2.55956497192383E+0002   2.66028442382813E+0002   2.74538940429688E+0002   2.82195831298828E+0002   2.89615509033203E+0002   2.97461090087891E+0002   3.06288665771484E+0002   3.13110137939453E+0002   3.09664459228516E+0002   3.04502746582031E+0002   3.00908386230469E+0002   2.98637390136719E+0002   2.97384155273438E+0002   2.96995086669922E+0002   2.97440490722656E+0002   2.98809631347656E+0002   3.01267547607422E+0002   3.03142608642578E+0002   3.00241699218750E+0002   2.97461853027344E+0002   2.95213531494141E+0002   2.93104248046875E+0002   2.90972473144531E+0002   2.89130096435547E+0002   2.88432434082031E+0002   2.89200866699219E+0002   2.90598632812500E+0002   2.91876251220703E+0002   2.92790344238281E+0002   2.93326751708984E+0002   2.93524108886719E+0002   2.93415069580078E+0002   2.93009277343750E+0002   2.92287963867188E+0002   2.91205718994141E+0002   2.89719940185547E+0002   2.87950836181641E+0002   2.86709136962891E+0002   2.87320800781250E+0002   2.89140777587891E+0002   2.90862518310547E+0002   2.92091735839844E+0002   2.92811279296875E+0002   2.93072692871094E+0002   2.92930145263672E+0002   2.92432525634766E+0002   2.91624694824219E+0002   2.90548461914063E+0002   2.89243011474609E+0002   2.87744232177734E+0002   2.86084167480469E+0002   2.84290496826172E+0002   2.82386566162109E+0002   2.80391510009766E+0002   2.78320739746094E+0002   2.76187591552734E+0002   2.74007537841797E+0002   2.71814575195313E+0002   2.69741607666016E+0002   2.69000000000000E+0002   2.69000000000000E+0002   2.69000000000000E+0002   2.69000000000000E+0002   2.69000000000000E+0002   2.69000000000000E+0002   2.69000000000000E+0002   2.69000000000000E+0002   2.69000000000000E+0002   2.69000000000000E+0002   2.69000000000000E+0002   2.69000000000000E+0002
   2.69000000000000E+0002   2.69000000000000E+0002   2.69000000000000E+0002   2.69000000000000E+0002   2.69000000000000E+0002   2.69000000000000E+0002   2.69000000000000E+0002   2.69000000000000E+0002   2.70782836914063E+0002   2.73011260986328E+0002   2.75374847412109E+0002   2.77839660644531E+0002   2.80400421142578E+0002   2.83061553955078E+0002   2.85831512451172E+0002   2.88720825195313E+0002   2.91740478515625E+0002   2.94899780273438E+0002   2.98202697753906E+0002   3.01640472412109E+0002   3.05178100585938E+0002   3.08731353759766E+0002   3.12132690429688E+0002   3.15098358154297E+0002   3.17240539550781E+0002   3.18189910888672E+0002   3.17805847167969E+0002   3.16280334472656E+0002   3.14008880615234E+0002   3.11382690429688E+0002   3.08680877685547E+0002   3.06066925048828E+0002   3.03623107910156E+0002   3.01383361816406E+0002   2.99355346679688E+0002   2.97533233642578E+0002   2.95904876708984E+0002   2.94455505371094E+0002   2.93169830322266E+0002   2.92032928466797E+0002   2.91030670166016E+0002   2.90149871826172E+0002   2.89378143310547E+0002   2.88703796386719E+0002   2.88115692138672E+0002   2.87603088378906E+0002   2.87155517578125E+0002   2.86762359619141E+0002   2.86412658691406E+0002   2.86094390869141E+0002   2.85794158935547E+0002   2.85496551513672E+0002   2.85184783935547E+0002   2.84842376708984E+0002   2.84456665039063E+0002   2.84022064208984E+0002   2.83540771484375E+0002   2.83017944335938E+0002   2.82451751708984E+0002   2.81820312500000E+0002   2.81075897216797E+0002   2.80169860839844E+0002   2.79106018066406E+0002   2.77954803466797E+0002   2.76808502197266E+0002   2.75745544433594E+0002   2.74822937011719E+0002   2.74071838378906E+0002   2.73492492675781E+0002   2.73061370849609E+0002   2.72750030517578E+0002   2.72542907714844E+0002   2.72450683593750E+0002   2.72521942138672E+0002   2.72856109619141E+0002   2.73615264892578E+0002   2.75022308349609E+0002   2.77319854736328E+0002   2.80648803710938E+0002   2.84586181640625E+0002   2.86762268066406E+0002   2.85810913085938E+0002   2.84366973876953E+0002   2.83433532714844E+0002   2.82918670654297E+0002   2.82565856933594E+0002   2.82138610839844E+0002   2.81490386962891E+0002   2.80592620849609E+0002   2.79488464355469E+0002   2.78217864990234E+0002   2.76783843994141E+0002   2.75172393798828E+0002   2.73389556884766E+0002   2.71475982666016E+0002   2.69491973876953E+0002   2.67496459960938E+0002   2.65538818359375E+0002   2.63663604736328E+0002   2.61919219970703E+0002   2.60360992431641E+0002   2.59041809082031E+0002   2.57991363525391E+0002   2.57201141357422E+0002   2.56626586914063E+0002   2.56199340820313E+0002   2.55837371826172E+0002   2.55456207275391E+0002   2.54985015869141E+0002   2.54379852294922E+0002   2.53621810913086E+0002   2.52702423095703E+0002   2.51609405517578E+0002   2.50321105957031E+0002   2.48808395385742E+0002   2.47039901733398E+0002   2.44989013671875E+0002   2.42643661499023E+0002   2.40025619506836E+0002   2.37231002807617E+0002   2.34506256103516E+0002   2.32348464965820E+0002   2.31512466430664E+0002   2.32689544677734E+0002   2.35954101562500E+0002   2.40685333251953E+0002   2.46083404541016E+0002   2.51567092895508E+0002   2.56809478759766E+0002   2.61624572753906E+0002   2.65852966308594E+0002   2.69304504394531E+0002   2.71811920166016E+0002   2.73374053955078E+0002   2.74212066650391E+0002   2.74650054931641E+0002   2.74972198486328E+0002   2.75367370605469E+0002   2.75931854248047E+0002   2.76689331054688E+0002   2.77617889404297E+0002   2.78677520751953E+0002   2.79830688476563E+0002   2.81053894042969E+0002   2.82343231201172E+0002   2.83718200683594E+0002   2.85224761962891E+0002   2.86928802490234E+0002   2.88847412109375E+0002   2.90573852539063E+0002   2.90382232666016E+0002   2.87182220458984E+0002   2.82797241210938E+0002   2.78235076904297E+0002   2.73508270263672E+0002   2.68395507812500E+0002   2.62635345458984E+0002   2.55989089965820E+0002   2.48452423095703E+0002   2.41121444702148E+0002   2.37909576416016E+0002   2.42539352416992E+0002   2.51684646606445E+0002   2.61173675537109E+0002   2.69723541259766E+0002   2.77282928466797E+0002   2.84090301513672E+0002   2.90428802490234E+0002   2.96490600585938E+0002   3.01952728271484E+0002   3.05118041992188E+0002   3.04451171875000E+0002   3.01802459716797E+0002   2.99176513671875E+0002   2.97190521240234E+0002   2.95931793212891E+0002   2.95382537841797E+0002   2.95517425537109E+0002   2.96282226562500E+0002   2.97389251708984E+0002   2.97813446044922E+0002   2.96733886718750E+0002   2.95078948974609E+0002   2.93497802734375E+0002   2.92064758300781E+0002   2.90811157226563E+0002   2.89928253173828E+0002   2.89704986572266E+0002   2.90209045410156E+0002   2.91152130126953E+0002   2.92171447753906E+0002   2.93045196533203E+0002   2.93680969238281E+0002   2.94046722412109E+0002   2.94123931884766E+0002   2.93882049560547E+0002   2.93259429931641E+0002   2.92139801025391E+0002   2.90314605712891E+0002   2.87467498779297E+0002   2.84087371826172E+0002   2.86069580078125E+0002   2.89858276367188E+0002   2.92469696044922E+0002   2.94113891601563E+0002   2.95033752441406E+0002   2.95376678466797E+0002   2.95237548828125E+0002   2.94687164306641E+0002   2.93785583496094E+0002   2.92587280273438E+0002   2.91142120361328E+0002   2.89494964599609E+0002   2.87684997558594E+0002   2.85745330810547E+0002   2.83703216552734E+0002   2.81580413818359E+0002   2.79394378662109E+0002   2.77159759521484E+0002   2.74892608642578E+0002   2.72623901367188E+0002   2.70456390380859E+0002   2.69000000000000E+0002   2.69000000000000E+0002   2.69000000000000E+0002   2.69000000000000E+0002   2.69000000000000E+0002   2.69000000000000E+0002   2.69000000000000E+0002   2.69000000000000E+0002   2.69000000000000E+0002   2.69000000000000E+0002   2.69000000000000E+0002   2.69000000000000E+0002
   2.69000000000000E+0002   2.69000000000000E+0002   2.69000000000000E+0002   2.69000000000000E+0002   2.69000000000000E+0002   2.69000000000000E+0002   2.69000000000000E+0002   2.69345397949219E+0002   2.71401733398438E+0002   2.73759338378906E+0002   2.76239898681641E+0002   2.78820190429688E+0002   2.81503845214844E+0002   2.84301361083984E+0002   2.87227294921875E+0002   2.90299835205078E+0002   2.93540618896484E+0002   2.96974151611328E+0002   3.00625915527344E+0002   3.04517028808594E+0002   3.08650817871094E+0002   3.12982818603516E+0002   3.17358276367188E+0002   3.21407653808594E+0002   3.24462768554688E+0002   3.25728912353516E+0002   3.24858337402344E+0002   3.22301849365234E+0002   3.18879364013672E+0002   3.15238494873047E+0002   3.11728637695313E+0002   3.08495635986328E+0002   3.05581695556641E+0002   3.02983093261719E+0002   3.00678131103516E+0002   2.98639373779297E+0002   2.96839080810547E+0002   2.95251342773438E+0002   2.93852844238281E+0002   2.92622955322266E+0002   2.91543334960938E+0002   2.90597686767578E+0002   2.89771209716797E+0002   2.89050323486328E+0002   2.88422302246094E+0002   2.87875122070313E+0002   2.87397186279297E+0002   2.86977081298828E+0002   2.86602905273438E+0002   2.86261627197266E+0002   2.85937591552734E+0002   2.85611267089844E+0002   2.85258300781250E+0002   2.84851470947266E+0002   2.84366729736328E+0002   2.83791107177734E+0002   2.83126220703125E+0002   2.82381927490234E+0002   2.81564636230469E+0002   2.80668060302734E+0002   2.79673980712891E+0002   2.78566650390625E+0002   2.77353149414063E+0002   2.76071258544922E+0002   2.74781524658203E+0002   2.73559082031250E+0002   2.72485412597656E+0002   2.71618621826172E+0002   2.70956024169922E+0002   2.70445831298828E+0002   2.70034729003906E+0002   2.69695465087891E+0002   2.69433471679688E+0002   2.69294586181641E+0002   2.69386840820313E+0002   2.69922363281250E+0002   2.71261871337891E+0002   2.73889007568359E+0002   2.78309173583984E+0002   2.85127105712891E+0002   2.90179321289063E+0002   2.85797546386719E+0002   2.83532470703125E+0002   2.82644897460938E+0002   2.82453796386719E+0002   2.82457000732422E+0002   2.82224487304688E+0002   2.81503326416016E+0002   2.80327667236328E+0002   2.78891143798828E+0002   2.77351165771484E+0002   2.75772979736328E+0002   2.74166809082031E+0002   2.72532287597656E+0002   2.70880676269531E+0002   2.69236541748047E+0002   2.67631195068359E+0002   2.66097869873047E+0002   2.64671417236328E+0002   2.63389617919922E+0002   2.62292053222656E+0002   2.61413238525391E+0002   2.60771728515625E+0002   2.60358978271484E+0002   2.60132293701172E+0002   2.60010162353516E+0002   2.59874572753906E+0002   2.59593994140625E+0002   2.59071746826172E+0002   2.58286224365234E+0002   2.57279571533203E+0002   2.56109863281250E+0002   2.54815078735352E+0002   2.53406112670898E+0002   2.51876693725586E+0002   2.50216979980469E+0002   2.48426345825195E+0002   2.46525436401367E+0002   2.44571411132813E+0002   2.42682617187500E+0002   2.41073501586914E+0002   2.40075149536133E+0002   2.40085174560547E+0002   2.41403411865234E+0002   2.44038543701172E+0002   2.47678726196289E+0002   2.51858291625977E+0002   2.56145324707031E+0002   2.60229431152344E+0002   2.63916809082031E+0002   2.67081359863281E+0002   2.69625793457031E+0002   2.71492523193359E+0002   2.72710266113281E+0002   2.73416290283203E+0002   2.73823242187500E+0002   2.74159912109375E+0002   2.74616149902344E+0002   2.75300415039063E+0002   2.76226226806641E+0002   2.77341064453125E+0002   2.78572357177734E+0002   2.79858245849609E+0002   2.81157287597656E+0002   2.82447784423828E+0002   2.83724639892578E+0002   2.84990051269531E+0002   2.86225128173828E+0002   2.87309356689453E+0002   2.87863067626953E+0002   2.87235351562500E+0002   2.85144042968750E+0002   2.82057830810547E+0002   2.78484130859375E+0002   2.74607269287109E+0002   2.70425292968750E+0002   2.65902984619141E+0002   2.61100402832031E+0002   2.56381103515625E+0002   2.52753494262695E+0002   2.51904785156250E+0002   2.54877624511719E+0002   2.60707397460938E+0002   2.67622253417969E+0002   2.74474670410156E+0002   2.80789093017578E+0002   2.86432250976563E+0002   2.91397277832031E+0002   2.95637695312500E+0002   2.98858856201172E+0002   3.00462646484375E+0002   3.00163726806641E+0002   2.98594879150391E+0002   2.96680114746094E+0002   2.94990539550781E+0002   2.93765197753906E+0002   2.93076080322266E+0002   2.92908843994141E+0002   2.93158355712891E+0002   2.93557067871094E+0002   2.93666259765625E+0002   2.93229827880859E+0002   2.92450347900391E+0002   2.91619842529297E+0002   2.90887756347656E+0002   2.90344055175781E+0002   2.90099090576172E+0002   2.90258728027344E+0002   2.90829956054688E+0002   2.91685852050781E+0002   2.92643341064453E+0002   2.93550018310547E+0002   2.94307800292969E+0002   2.94855987548828E+0002   2.95147460937500E+0002   2.95128875732422E+0002   2.94721099853516E+0002   2.93791076660156E+0002   2.92098815917969E+0002   2.89208435058594E+0002   2.84989593505859E+0002   2.87838867187500E+0002   2.92246917724609E+0002   2.95096008300781E+0002   2.96860321044922E+0002   2.97828857421875E+0002   2.98160003662109E+0002   2.97954864501953E+0002   2.97292175292969E+0002   2.96242523193359E+0002   2.94872161865234E+0002   2.93242279052734E+0002   2.91407501220703E+0002   2.89414550781250E+0002   2.87301788330078E+0002   2.85099822998047E+0002   2.82832519531250E+0002   2.80518188476563E+0002   2.78171813964844E+0002   2.75808776855469E+0002   2.73456054687500E+0002   2.71192749023438E+0002   2.69286102294922E+0002   2.69000000000000E+0002   2.69000000000000E+0002   2.69000000000000E+0002   2.69000000000000E+0002   2.69000000000000E+0002   2.69000000000000E+0002   2.69000000000000E+0002   2.69000000000000E+0002   2.69000000000000E+0002   2.69000000000000E+0002   2.69000000000000E+0002
   2.69000000000000E+0002   2.69000000000000E+0002   2.69000000000000E+0002   2.69000000000000E+0002   2.69000000000000E+0002   2.69000000000000E+0002   2.69000000000000E+0002   2.69808532714844E+0002   2.71996429443359E+0002   2.74442871093750E+0002   2.77018859863281E+0002   2.79701263427734E+0002   2.82494842529297E+0002   2.85413574218750E+0002   2.88477172851563E+0002   2.91711181640625E+0002   2.95148223876953E+0002   2.98829620361328E+0002   3.02807067871094E+0002   3.07142974853516E+0002   3.11905609130859E+0002   3.17147186279297E+0002   3.22829376220703E+0002   3.28613159179688E+0002   3.33439025878906E+0002   3.35429992675781E+0002   3.33550170898438E+0002   3.29089721679688E+0002   3.23891845703125E+0002   3.18922821044922E+0002   3.14481323242188E+0002   3.10597778320313E+0002   3.07222045898438E+0002   3.04288391113281E+0002   3.01734741210938E+0002   2.99507415771484E+0002   2.97561157226563E+0002   2.95858337402344E+0002   2.94367675781250E+0002   2.93063018798828E+0002   2.91922302246094E+0002   2.90926513671875E+0002   2.90058837890625E+0002   2.89304077148438E+0002   2.88648132324219E+0002   2.88077911376953E+0002   2.87581024169922E+0002   2.87145599365234E+0002   2.86759857177734E+0002   2.86410827636719E+0002   2.86082397460938E+0002   2.85751770019531E+0002   2.85385620117188E+0002   2.84939819335938E+0002   2.84369598388672E+0002   2.83650329589844E+0002   2.82789794921875E+0002   2.81815887451172E+0002   2.80753417968750E+0002   2.79611755371094E+0002   2.78387115478516E+0002   2.77072875976563E+0002   2.75670806884766E+0002   2.74197845458984E+0002   2.72691619873047E+0002   2.71227020263672E+0002   2.69938629150391E+0002   2.68960937500000E+0002   2.68273345947266E+0002   2.67738403320313E+0002   2.67253784179688E+0002   2.66777557373047E+0002   2.66303833007813E+0002   2.65855895996094E+0002   2.65508972167969E+0002   2.65468414306641E+0002   2.66232086181641E+0002   2.68624786376953E+0002   2.73188201904297E+0002   2.79553070068359E+0002   2.83719085693359E+0002   2.82303588867188E+0002   2.81186004638672E+0002   2.81133880615234E+0002   2.81771881103516E+0002   2.82574676513672E+0002   2.82810516357422E+0002   2.81960876464844E+0002   2.80291503906250E+0002   2.78371063232422E+0002   2.76510284423828E+0002   2.74787506103516E+0002   2.73191162109375E+0002   2.71693908691406E+0002   2.70278564453125E+0002   2.68942352294922E+0002   2.67694091796875E+0002   2.66550689697266E+0002   2.65535156250000E+0002   2.64675445556641E+0002   2.64002075195313E+0002   2.63543304443359E+0002   2.63317749023438E+0002   2.63324005126953E+0002   2.63525634765625E+0002   2.63828277587891E+0002   2.64057495117188E+0002   2.63981079101563E+0002   2.63427429199219E+0002   2.62411529541016E+0002   2.61093841552734E+0002   2.59636505126953E+0002   2.58131652832031E+0002   2.56610992431641E+0002   2.55076950073242E+0002   2.53528747558594E+0002   2.51980331420898E+0002   2.50471252441406E+0002   2.49070129394531E+0002   2.47880264282227E+0002   2.47054321289063E+0002   2.46796356201172E+0002   2.47320404052734E+0002   2.48765533447266E+0002   2.51110794067383E+0002   2.54151077270508E+0002   2.57550842285156E+0002   2.60945922851563E+0002   2.64054260253906E+0002   2.66731445312500E+0002   2.68930450439453E+0002   2.70633819580078E+0002   2.71835723876953E+0002   2.72566680908203E+0002   2.72919921875000E+0002   2.73060974121094E+0002   2.73217071533203E+0002   2.73624176025391E+0002   2.74419860839844E+0002   2.75574005126953E+0002   2.76951477050781E+0002   2.78416687011719E+0002   2.79876159667969E+0002   2.81271820068359E+0002   2.82567077636719E+0002   2.83738067626953E+0002   2.84764068603516E+0002   2.85603515625000E+0002   2.86149475097656E+0002   2.86192382812500E+0002   2.85482513427734E+0002   2.83929016113281E+0002   2.81687591552734E+0002   2.78992126464844E+0002   2.76003631591797E+0002   2.72812469482422E+0002   2.69511810302734E+0002   2.66290435791016E+0002   2.63537445068359E+0002   2.61906280517578E+0002   2.62152862548828E+0002   2.64638549804688E+0002   2.68972747802734E+0002   2.74306091308594E+0002   2.79832031250000E+0002   2.84988281250000E+0002   2.89440582275391E+0002   2.93021942138672E+0002   2.95650451660156E+0002   2.97233001708984E+0002   2.97662658691406E+0002   2.96993743896484E+0002   2.95571990966797E+0002   2.93876556396484E+0002   2.92293487548828E+0002   2.91046752929688E+0002   2.90230163574219E+0002   2.89842834472656E+0002   2.89799591064453E+0002   2.89931304931641E+0002   2.90031250000000E+0002   2.89978210449219E+0002   2.89807037353516E+0002   2.89626708984375E+0002   2.89531005859375E+0002   2.89589660644531E+0002   2.89863159179688E+0002   2.90392578125000E+0002   2.91170898437500E+0002   2.92132843017578E+0002   2.93179290771484E+0002   2.94211151123047E+0002   2.95146759033203E+0002   2.95921112060547E+0002   2.96477539062500E+0002   2.96758514404297E+0002   2.96696929931641E+0002   2.96209014892578E+0002   2.95206665039063E+0002   2.93742034912109E+0002   2.92710052490234E+0002   2.93971923828125E+0002   2.96575653076172E+0002   2.98842956542969E+0002   3.00399414062500E+0002   3.01256744384766E+0002   3.01477447509766E+0002   3.01128875732422E+0002   3.00283569335938E+0002   2.99019409179688E+0002   2.97415374755859E+0002   2.95545959472656E+0002   2.93476867675781E+0002   2.91262573242188E+0002   2.88946289062500E+0002   2.86561004638672E+0002   2.84131256103516E+0002   2.81674957275391E+0002   2.79205657958984E+0002   2.76735046386719E+0002   2.74277984619141E+0002   2.71865051269531E+0002   2.69644927978516E+0002   2.69000000000000E+0002   2.69000000000000E+0002   2.69000000000000E+0002   2.69000000000000E+0002   2.69000000000000E+0002   2.69000000000000E+0002   2.69000000000000E+0002   2.69000000000000E+0002   2.69000000000000E+0002   2.69000000000000E+0002   2.69000000000000E+0002
   2.69000000000000E+0002   2.69000000000000E+0002   2.69000000000000E+0002   2.69000000000000E+0002   2.69000000000000E+0002   2.69000000000000E+0002   2.69000000000000E+0002   2.70246887207031E+0002   2.72510803222656E+0002   2.75040832519531E+0002   2.77702819824219E+0002   2.80474578857422E+0002   2.83362152099609E+0002   2.86382049560547E+0002   2.89557830810547E+0002   2.92920928955078E+0002   2.96513183593750E+0002   3.00390869140625E+0002   3.04630767822266E+0002   3.09339172363281E+0002   3.14664398193359E+0002   3.20808959960938E+0002   3.28014160156250E+0002   3.36371643066406E+0002   3.44843139648438E+0002   3.48853851318359E+0002   3.44385864257813E+0002   3.36235992431641E+0002   3.28510955810547E+0002   3.22025421142578E+0002   3.16660980224609E+0002   3.12189239501953E+0002   3.08420989990234E+0002   3.05215057373047E+0002   3.02466461181641E+0002   3.00095581054688E+0002   2.98040863037109E+0002   2.96254089355469E+0002   2.94697174072266E+0002   2.93339660644531E+0002   2.92156707763672E+0002   2.91127471923828E+0002   2.90233764648438E+0002   2.89459136962891E+0002   2.88788391113281E+0002   2.88207458496094E+0002   2.87703369140625E+0002   2.87264312744141E+0002   2.86879547119141E+0002   2.86538269042969E+0002   2.86227294921875E+0002   2.85924896240234E+0002   2.85590484619141E+0002   2.85153442382813E+0002   2.84524566650391E+0002   2.83651611328125E+0002   2.82563995361328E+0002   2.81334472656250E+0002   2.80018371582031E+0002   2.78637451171875E+0002   2.77190887451172E+0002   2.75669158935547E+0002   2.74062744140625E+0002   2.72365844726563E+0002   2.70580963134766E+0002   2.68751251220703E+0002   2.67094726562500E+0002   2.66034179687500E+0002   2.65469940185547E+0002   2.64998107910156E+0002   2.64471893310547E+0002   2.63862335205078E+0002   2.63157745361328E+0002   2.62341857910156E+0002   2.61397033691406E+0002   2.60366027832031E+0002   2.59709869384766E+0002   2.61183990478516E+0002   2.65765716552734E+0002   2.71144287109375E+0002   2.74967041015625E+0002   2.76593902587891E+0002   2.77541809082031E+0002   2.78860290527344E+0002   2.80807037353516E+0002   2.83119903564453E+0002   2.84436187744141E+0002   2.83108001708984E+0002   2.80373046875000E+0002   2.77730407714844E+0002   2.75512268066406E+0002   2.73672271728516E+0002   2.72117858886719E+0002   2.70775909423828E+0002   2.69599090576172E+0002   2.68561431884766E+0002   2.67653106689453E+0002   2.66876495361328E+0002   2.66243652343750E+0002   2.65774749755859E+0002   2.65496002197266E+0002   2.65436981201172E+0002   2.65626098632813E+0002   2.66082794189453E+0002   2.66799346923828E+0002   2.67696197509766E+0002   2.68533355712891E+0002   2.68853057861328E+0002   2.68245727539063E+0002   2.66819213867188E+0002   2.65026397705078E+0002   2.63197570800781E+0002   2.61458587646484E+0002   2.59828704833984E+0002   2.58294342041016E+0002   2.56846221923828E+0002   2.55501708984375E+0002   2.54317001342773E+0002   2.53368743896484E+0002   2.52726303100586E+0002   2.52473403930664E+0002   2.52727691650391E+0002   2.53611587524414E+0002   2.55199554443359E+0002   2.57467407226563E+0002   2.60256134033203E+0002   2.63254730224609E+0002   2.66047790527344E+0002   2.68316589355469E+0002   2.70020477294922E+0002   2.71272125244141E+0002   2.72147094726563E+0002   2.72659545898438E+0002   2.72813323974609E+0002   2.72650024414063E+0002   2.72296142578125E+0002   2.72022613525391E+0002   2.72231506347656E+0002   2.73179687500000E+0002   2.74710754394531E+0002   2.76486572265625E+0002   2.78274200439453E+0002   2.79961425781250E+0002   2.81488677978516E+0002   2.82810913085938E+0002   2.83892272949219E+0002   2.84710357666016E+0002   2.85245971679688E+0002   2.85456481933594E+0002   2.85261383056641E+0002   2.84575592041016E+0002   2.83377380371094E+0002   2.81737213134766E+0002   2.79773742675781E+0002   2.77601379394531E+0002   2.75325866699219E+0002   2.73081542968750E+0002   2.71080932617188E+0002   2.69648529052734E+0002   2.69199859619141E+0002   2.70119628906250E+0002   2.72558837890625E+0002   2.76307281494141E+0002   2.80862884521484E+0002   2.85601989746094E+0002   2.89917572021484E+0002   2.93328643798828E+0002   2.95582733154297E+0002   2.96674530029297E+0002   2.96743530273438E+0002   2.95967987060547E+0002   2.94557189941406E+0002   2.92777923583984E+0002   2.90921569824219E+0002   2.89235076904297E+0002   2.87881683349609E+0002   2.86939300537109E+0002   2.86412414550781E+0002   2.86243621826172E+0002   2.86329223632813E+0002   2.86553131103516E+0002   2.86835357666016E+0002   2.87157135009766E+0002   2.87541137695313E+0002   2.88019439697266E+0002   2.88620208740234E+0002   2.89366363525391E+0002   2.90270721435547E+0002   2.91325714111328E+0002   2.92498046875000E+0002   2.93734252929688E+0002   2.94971984863281E+0002   2.96148590087891E+0002   2.97204101562500E+0002   2.98081817626953E+0002   2.98729339599609E+0002   2.99102722167969E+0002   2.99178619384766E+0002   2.98991851806641E+0002   2.98739349365234E+0002   2.98911682128906E+0002   2.99985473632813E+0002   3.01698944091797E+0002   3.03391876220703E+0002   3.04653625488281E+0002   3.05324645996094E+0002   3.05365814208984E+0002   3.04800720214844E+0002   3.03694122314453E+0002   3.02135406494141E+0002   3.00222381591797E+0002   2.98047454833984E+0002   2.95689453125000E+0002   2.93210845947266E+0002   2.90658386230469E+0002   2.88065673828125E+0002   2.85455963134766E+0002   2.82845123291016E+0002   2.80243682861328E+0002   2.77659301757813E+0002   2.75099914550781E+0002   2.72587249755859E+0002   2.70230834960938E+0002   2.69000000000000E+0002   2.69000000000000E+0002   2.69000000000000E+0002   2.69000000000000E+0002   2.69000000000000E+0002   2.69000000000000E+0002   2.69000000000000E+0002   2.69000000000000E+0002   2.69000000000000E+0002   2.69000000000000E+0002   2.69000000000000E+0002
   2.69000000000000E+0002   2.69000000000000E+0002   2.69000000000000E+0002   2.69000000000000E+0002   2.69000000000000E+0002   2.69000000000000E+0002   2.69000000000000E+0002   2.70455963134766E+0002   2.72911407470703E+0002   2.75543395996094E+0002   2.78286773681641E+0002   2.81135131835938E+0002   2.84098724365234E+0002   2.87196075439453E+0002   2.90452880859375E+0002   2.93903869628906E+0002   2.97596038818359E+0002   3.01594573974609E+0002   3.05992279052734E+0002   3.10925689697266E+0002   3.16604309082031E+0002   3.23365356445313E+0002   3.31777801513672E+0002   3.42814117431641E+0002   3.57700500488281E+0002   3.69311187744141E+0002   3.56019622802734E+0002   3.41936187744141E+0002   3.31668975830078E+0002   3.23971313476563E+0002   3.17949310302734E+0002   3.13083587646484E+0002   3.09062988281250E+0002   3.05688354492188E+0002   3.02823394775391E+0002   3.00369812011719E+0002   2.98254302978516E+0002   2.96421234130859E+0002   2.94828186035156E+0002   2.93442352294922E+0002   2.92237823486328E+0002   2.91193206787109E+0002   2.90289825439453E+0002   2.89510467529297E+0002   2.88839019775391E+0002   2.88260375976563E+0002   2.87760833740234E+0002   2.87328826904297E+0002   2.86955291748047E+0002   2.86633972167969E+0002   2.86359741210938E+0002   2.86122344970703E+0002   2.85887329101563E+0002   2.85553375244141E+0002   2.84925537109375E+0002   2.83862915039063E+0002   2.82469055175781E+0002   2.80930694580078E+0002   2.79343566894531E+0002   2.77727142333984E+0002   2.76069824218750E+0002   2.74350952148438E+0002   2.72547393798828E+0002   2.70631500244141E+0002   2.68561340332031E+0002   2.66268554687500E+0002   2.63811462402344E+0002   2.62819152832031E+0002   2.62697052001953E+0002   2.62341613769531E+0002   2.61778686523438E+0002   2.61042755126953E+0002   2.60125244140625E+0002   2.58974395751953E+0002   2.57468963623047E+0002   2.55351058959961E+0002   2.52205093383789E+0002   2.51225128173828E+0002   2.58054595947266E+0002   2.63861511230469E+0002   2.68048767089844E+0002   2.70949554443359E+0002   2.73298950195313E+0002   2.75837036132813E+0002   2.79141021728516E+0002   2.83724670410156E+0002   2.88226623535156E+0002   2.84672363281250E+0002   2.79958038330078E+0002   2.76574798583984E+0002   2.74121612548828E+0002   2.72272735595703E+0002   2.70835815429688E+0002   2.69696075439453E+0002   2.68782958984375E+0002   2.68053131103516E+0002   2.67482055664063E+0002   2.67059844970703E+0002   2.66789276123047E+0002   2.66684448242188E+0002   2.66770050048828E+0002   2.67080963134766E+0002   2.67662048339844E+0002   2.68567871093750E+0002   2.69855651855469E+0002   2.71543731689453E+0002   2.73430267333984E+0002   2.74622589111328E+0002   2.73821960449219E+0002   2.71494445800781E+0002   2.68936401367188E+0002   2.66645996093750E+0002   2.64670104980469E+0002   2.62951690673828E+0002   2.61430969238281E+0002   2.60070526123047E+0002   2.58875610351563E+0002   2.57934387207031E+0002   2.57373809814453E+0002   2.57194580078125E+0002   2.57388702392578E+0002   2.58022674560547E+0002   2.59182617187500E+0002   2.60930145263672E+0002   2.63270904541016E+0002   2.66109802246094E+0002   2.69136016845703E+0002   2.71675170898438E+0002   2.73123016357422E+0002   2.73726226806641E+0002   2.73970336914063E+0002   2.74018920898438E+0002   2.73848266601563E+0002   2.73393218994141E+0002   2.72605987548828E+0002   2.71513946533203E+0002   2.70399505615234E+0002   2.70109130859375E+0002   2.71405639648438E+0002   2.73665069580078E+0002   2.76042755126953E+0002   2.78242889404297E+0002   2.80208496093750E+0002   2.81910797119141E+0002   2.83296478271484E+0002   2.84308654785156E+0002   2.84932189941406E+0002   2.85201843261719E+0002   2.85160217285156E+0002   2.84823150634766E+0002   2.84188293457031E+0002   2.83267211914063E+0002   2.82102752685547E+0002   2.80759155273438E+0002   2.79305541992188E+0002   2.77821411132813E+0002   2.76429229736328E+0002   2.75327148437500E+0002   2.74786254882813E+0002   2.75104156494141E+0002   2.76523620605469E+0002   2.79138397216797E+0002   2.82827636718750E+0002   2.87241271972656E+0002   2.91808898925781E+0002   2.95777832031250E+0002   2.98401763916016E+0002   2.99313018798828E+0002   2.98709136962891E+0002   2.97088256835938E+0002   2.94907226562500E+0002   2.92483612060547E+0002   2.90045837402344E+0002   2.87778472900391E+0002   2.85827728271484E+0002   2.84292785644531E+0002   2.83221710205078E+0002   2.82613861083984E+0002   2.82427093505859E+0002   2.82590148925781E+0002   2.83022369384766E+0002   2.83655120849609E+0002   2.84442993164063E+0002   2.85359069824219E+0002   2.86384521484375E+0002   2.87504272460938E+0002   2.88708618164063E+0002   2.89994476318359E+0002   2.91360443115234E+0002   2.92798522949219E+0002   2.94288055419922E+0002   2.95794647216797E+0002   2.97272003173828E+0002   2.98665557861328E+0002   2.99917755126953E+0002   3.00978057861328E+0002   3.01817657470703E+0002   3.02448547363281E+0002   3.02947784423828E+0002   3.03482116699219E+0002   3.04284912109375E+0002   3.05498016357422E+0002   3.06991302490234E+0002   3.08438110351563E+0002   3.09522888183594E+0002   3.10033752441406E+0002   3.09867492675781E+0002   3.09018280029297E+0002   3.07557922363281E+0002   3.05604583740234E+0002   3.03288848876953E+0002   3.00729125976563E+0002   2.98020019531250E+0002   2.95230773925781E+0002   2.92409088134766E+0002   2.89586059570313E+0002   2.86781158447266E+0002   2.84005798339844E+0002   2.81266418457031E+0002   2.78566558837891E+0002   2.75910308837891E+0002   2.73312469482422E+0002   2.70844421386719E+0002   2.69000000000000E+0002   2.69000000000000E+0002   2.69000000000000E+0002   2.69000000000000E+0002   2.69000000000000E+0002   2.69000000000000E+0002   2.69000000000000E+0002   2.69000000000000E+0002   2.69000000000000E+0002   2.69000000000000E+0002   2.69000000000000E+0002
   2.69000000000000E+0002   2.69000000000000E+0002   2.69000000000000E+0002   2.69000000000000E+0002   2.69000000000000E+0002   2.69000000000000E+0002   2.69000000000000E+0002   2.70701660156250E+0002   2.73248596191406E+0002   2.75961120605469E+0002   2.78773162841797E+0002   2.81683044433594E+0002   2.84703063964844E+0002   2.87852111816406E+0002   2.91155853271484E+0002   2.94648529052734E+0002   2.98376892089844E+0002   3.02405914306641E+0002   3.06828857421875E+0002   3.11784057617188E+0002   3.17486267089844E+0002   3.24286621093750E+0002   3.32794311523438E+0002   3.44120239257813E+0002   3.60150268554688E+0002   3.75158111572266E+0002   3.58037078857422E+0002   3.42836547851563E+0002   3.32169189453125E+0002   3.24260314941406E+0002   3.18103790283203E+0002   3.13147827148438E+0002   3.09068298339844E+0002   3.05657836914063E+0002   3.02772888183594E+0002   3.00308837890625E+0002   2.98187408447266E+0002   2.96350006103516E+0002   2.94753112792969E+0002   2.93364501953125E+0002   2.92159484863281E+0002   2.91117980957031E+0002   2.90221954345703E+0002   2.89454071044922E+0002   2.88797119140625E+0002   2.88234497070313E+0002   2.87751251220703E+0002   2.87335235595703E+0002   2.86979034423828E+0002   2.86681610107422E+0002   2.86450347900391E+0002   2.86300872802734E+0002   2.86243103027344E+0002   2.86198760986328E+0002   2.85743896484375E+0002   2.84359741210938E+0002   2.82475097656250E+0002   2.80556365966797E+0002   2.78691680908203E+0002   2.76856018066406E+0002   2.75010070800781E+0002   2.73117309570313E+0002   2.71144134521484E+0002   2.69054595947266E+0002   2.66799255371094E+0002   2.64295288085938E+0002   2.61512084960938E+0002   2.60454315185547E+0002   2.60330566406250E+0002   2.59909332275391E+0002   2.59257354736328E+0002   2.58400634765625E+0002   2.57320190429688E+0002   2.55958023071289E+0002   2.54192825317383E+0002   2.51786407470703E+0002   2.48458236694336E+0002   2.47365997314453E+0002   2.53056762695313E+0002   2.58278808593750E+0002   2.62391723632813E+0002   2.65746398925781E+0002   2.68781768798828E+0002   2.71980224609375E+0002   2.75872863769531E+0002   2.81151519775391E+0002   2.87157897949219E+0002   2.82709869384766E+0002   2.77770690917969E+0002   2.74446350097656E+0002   2.72131683349609E+0002   2.70469390869141E+0002   2.69262512207031E+0002   2.68393737792969E+0002   2.67786560058594E+0002   2.67388458251953E+0002   2.67164154052734E+0002   2.67093505859375E+0002   2.67170928955078E+0002   2.67405334472656E+0002   2.67820373535156E+0002   2.68456085205078E+0002   2.69372833251953E+0002   2.70661193847656E+0002   2.72460876464844E+0002   2.74987335205078E+0002   2.78478179931641E+0002   2.82037139892578E+0002   2.80370330810547E+0002   2.76012969970703E+0002   2.72465270996094E+0002   2.69755554199219E+0002   2.67621887207031E+0002   2.65880523681641E+0002   2.64415466308594E+0002   2.63151916503906E+0002   2.62046783447266E+0002   2.61199371337891E+0002   2.61049560546875E+0002   2.61316406250000E+0002   2.61869659423828E+0002   2.62787963867188E+0002   2.64156341552734E+0002   2.66048339843750E+0002   2.68527923583984E+0002   2.71643798828125E+0002   2.75289093017578E+0002   2.78301971435547E+0002   2.78569488525391E+0002   2.77645355224609E+0002   2.76816131591797E+0002   2.76100433349609E+0002   2.75324493408203E+0002   2.74321075439453E+0002   2.72926116943359E+0002   2.70957244873047E+0002   2.68345520019531E+0002   2.66578765869141E+0002   2.69059143066406E+0002   2.72718322753906E+0002   2.75835540771484E+0002   2.78453369140625E+0002   2.80712402343750E+0002   2.82643493652344E+0002   2.84156372070313E+0002   2.85115692138672E+0002   2.85502441406250E+0002   2.85458801269531E+0002   2.85152618408203E+0002   2.84682647705078E+0002   2.84090698242188E+0002   2.83401794433594E+0002   2.82645507812500E+0002   2.81853179931641E+0002   2.81044464111328E+0002   2.80235534667969E+0002   2.79498138427734E+0002   2.79017456054688E+0002   2.79058959960938E+0002   2.79885498046875E+0002   2.81699768066406E+0002   2.84607788085938E+0002   2.88584503173828E+0002   2.93417358398438E+0002   2.98572326660156E+0002   3.02988952636719E+0002   3.05224975585938E+0002   3.04550018310547E+0002   3.01710571289063E+0002   2.97950012207031E+0002   2.94067474365234E+0002   2.90414093017578E+0002   2.87135070800781E+0002   2.84309631347656E+0002   2.81995330810547E+0002   2.80231567382813E+0002   2.79033508300781E+0002   2.78388702392578E+0002   2.78258178710938E+0002   2.78582946777344E+0002   2.79293975830078E+0002   2.80321807861328E+0002   2.81600921630859E+0002   2.83067382812500E+0002   2.84655975341797E+0002   2.86304779052734E+0002   2.87969604492188E+0002   2.89636840820313E+0002   2.91320800781250E+0002   2.93045135498047E+0002   2.94822875976563E+0002   2.96645019531250E+0002   2.98478607177734E+0002   3.00269165039063E+0002   3.01948944091797E+0002   3.03454406738281E+0002   3.04753356933594E+0002   3.05871185302734E+0002   3.06899505615234E+0002   3.07977630615234E+0002   3.09240631103516E+0002   3.10736328125000E+0002   3.12360443115234E+0002   3.13874481201172E+0002   3.14986602783203E+0002   3.15436492919922E+0002   3.15064880371094E+0002   3.13854064941406E+0002   3.11915985107422E+0002   3.09433410644531E+0002   3.06594940185547E+0002   3.03555816650391E+0002   3.00427001953125E+0002   2.97280395507813E+0002   2.94159149169922E+0002   2.91087127685547E+0002   2.88076019287109E+0002   2.85130401611328E+0002   2.82250793457031E+0002   2.79436218261719E+0002   2.76687011718750E+0002   2.74012084960938E+0002   2.71455078125000E+0002   2.69273040771484E+0002   2.69000000000000E+0002   2.69000000000000E+0002   2.69000000000000E+0002   2.69000000000000E+0002   2.69000000000000E+0002   2.69000000000000E+0002   2.69000000000000E+0002   2.69000000000000E+0002   2.69000000000000E+0002   2.69000000000000E+0002
   2.69000000000000E+0002   2.69000000000000E+0002   2.69000000000000E+0002   2.69000000000000E+0002   2.69000000000000E+0002   2.69000000000000E+0002   2.69000000000000E+0002   2.70913696289063E+0002   2.73533691406250E+0002   2.76303955078125E+0002   2.79167999267578E+0002   2.82123016357422E+0002   2.85179687500000E+0002   2.88355010986328E+0002   2.91671844482422E+0002   2.95160491943359E+0002   2.98861511230469E+0002   3.02830383300781E+0002   3.07144409179688E+0002   3.11913696289063E+0002   3.17297607421875E+0002   3.23526611328125E+0002   3.30909881591797E+0002   3.39694854736328E+0002   3.49051055908203E+0002   3.53611938476563E+0002   3.47906677246094E+0002   3.38421875000000E+0002   3.29855865478516E+0002   3.22823730468750E+0002   3.17082305908203E+0002   3.12351074218750E+0002   3.08413909912109E+0002   3.05107727050781E+0002   3.02305786132813E+0002   2.99908508300781E+0002   2.97838989257813E+0002   2.96040069580078E+0002   2.94471069335938E+0002   2.93103759765625E+0002   2.91917938232422E+0002   2.90897308349609E+0002   2.90026000976563E+0002   2.89286834716797E+0002   2.88661102294922E+0002   2.88129760742188E+0002   2.87675109863281E+0002   2.87282928466797E+0002   2.86945251464844E+0002   2.86663879394531E+0002   2.86456420898438E+0002   2.86366424560547E+0002   2.86481262207031E+0002   2.86938873291016E+0002   2.87330505371094E+0002   2.85024139404297E+0002   2.82391082763672E+0002   2.80101287841797E+0002   2.78006256103516E+0002   2.75995178222656E+0002   2.73997528076172E+0002   2.71964233398438E+0002   2.69857360839844E+0002   2.67646789550781E+0002   2.65316589355469E+0002   2.62906433105469E+0002   2.60681335449219E+0002   2.59217864990234E+0002   2.58407653808594E+0002   2.57722381591797E+0002   2.56940704345703E+0002   2.55979034423828E+0002   2.54791732788086E+0002   2.53343078613281E+0002   2.51606094360352E+0002   2.49627182006836E+0002   2.47862564086914E+0002   2.47849334716797E+0002   2.50422241210938E+0002   2.53982131958008E+0002   2.57515716552734E+0002   2.60850585937500E+0002   2.64081634521484E+0002   2.67392913818359E+0002   2.70963928222656E+0002   2.74688629150391E+0002   2.77132263183594E+0002   2.76180603027344E+0002   2.73615020751953E+0002   2.71278381347656E+0002   2.69496734619141E+0002   2.68218627929688E+0002   2.67356353759766E+0002   2.66833251953125E+0002   2.66583801269531E+0002   2.66552429199219E+0002   2.66695007324219E+0002   2.66981445312500E+0002   2.67398010253906E+0002   2.67948150634766E+0002   2.68653228759766E+0002   2.69554351806641E+0002   2.70717620849609E+0002   2.72247039794922E+0002   2.74315155029297E+0002   2.77232666015625E+0002   2.81608215332031E+0002   2.88526947021484E+0002   2.84912261962891E+0002   2.78973937988281E+0002   2.75064544677734E+0002   2.72284973144531E+0002   2.70187744140625E+0002   2.68539154052734E+0002   2.67205780029297E+0002   2.66100769042969E+0002   2.65150207519531E+0002   2.64322387695313E+0002   2.64603363037109E+0002   2.65189422607422E+0002   2.65989685058594E+0002   2.67101684570313E+0002   2.68603363037109E+0002   2.70570922851563E+0002   2.73106506347656E+0002   2.76396972656250E+0002   2.80844390869141E+0002   2.86864227294922E+0002   2.83753265380859E+0002   2.81140014648438E+0002   2.79497650146484E+0002   2.78237487792969E+0002   2.77029327392578E+0002   2.75645416259766E+0002   2.73863861083984E+0002   2.71365905761719E+0002   2.67549224853516E+0002   2.61340118408203E+0002   2.67900909423828E+0002   2.72687072753906E+0002   2.76170288085938E+0002   2.79011260986328E+0002   2.81516967773438E+0002   2.83764251708984E+0002   2.85559295654297E+0002   2.86492523193359E+0002   2.86479431152344E+0002   2.85951965332031E+0002   2.85294555664063E+0002   2.84660095214844E+0002   2.84090393066406E+0002   2.83603057861328E+0002   2.83219360351563E+0002   2.82955383300781E+0002   2.82780853271484E+0002   2.82585296630859E+0002   2.82311950683594E+0002   2.82177185058594E+0002   2.82533935546875E+0002   2.83662750244141E+0002   2.85760559082031E+0002   2.88976257324219E+0002   2.93421905517578E+0002   2.99133026123047E+0002   3.05843994140625E+0002   3.12220550537109E+0002   3.14930847167969E+0002   3.11763153076172E+0002   3.05414855957031E+0002   2.98817718505859E+0002   2.92955932617188E+0002   2.87957855224609E+0002   2.83766662597656E+0002   2.80326202392578E+0002   2.77608123779297E+0002   2.75599700927734E+0002   2.74287414550781E+0002   2.73645629882813E+0002   2.73632049560547E+0002   2.74189270019531E+0002   2.75249206542969E+0002   2.76737091064453E+0002   2.78570495605469E+0002   2.80653045654297E+0002   2.82868896484375E+0002   2.85093353271484E+0002   2.87231811523438E+0002   2.89262878417969E+0002   2.91237915039063E+0002   2.93234191894531E+0002   2.95308868408203E+0002   2.97480102539063E+0002   2.99725372314453E+0002   3.01983184814453E+0002   3.04158538818359E+0002   3.06145996093750E+0002   3.07881072998047E+0002   3.09392852783203E+0002   3.10805572509766E+0002   3.12281005859375E+0002   3.13945648193359E+0002   3.15830993652344E+0002   3.17836151123047E+0002   3.19719451904297E+0002   3.21128112792969E+0002   3.21682495117188E+0002   3.21120788574219E+0002   3.19426116943359E+0002   3.16816864013672E+0002   3.13610717773438E+0002   3.10093414306641E+0002   3.06465454101563E+0002   3.02846954345703E+0002   2.99301513671875E+0002   2.95858032226563E+0002   2.92526062011719E+0002   2.89304901123047E+0002   2.86189025878906E+0002   2.83171264648438E+0002   2.80244995117188E+0002   2.77406738281250E+0002   2.74663116455078E+0002   2.72056457519531E+0002   2.69793762207031E+0002   2.69000000000000E+0002   2.69000000000000E+0002   2.69000000000000E+0002   2.69000000000000E+0002   2.69000000000000E+0002   2.69000000000000E+0002   2.69000000000000E+0002   2.69000000000000E+0002   2.69000000000000E+0002   2.69000000000000E+0002
   2.69000000000000E+0002   2.69000000000000E+0002   2.69000000000000E+0002   2.69000000000000E+0002   2.69000000000000E+0002   2.69000000000000E+0002   2.69000000000000E+0002   2.71123870849609E+0002   2.73766754150391E+0002   2.76575439453125E+0002   2.79477783203125E+0002   2.82463409423828E+0002   2.85538940429688E+0002   2.88717712402344E+0002   2.92017761230469E+0002   2.95462432861328E+0002   2.99081756591797E+0002   3.02914794921875E+0002   3.07012115478516E+0002   3.11438140869141E+0002   3.16269500732422E+0002   3.21578186035156E+0002   3.27362579345703E+0002   3.33322906494141E+0002   3.38333282470703E+0002   3.40152557373047E+0002   3.37468963623047E+0002   3.31946258544922E+0002   3.25796722412109E+0002   3.20069366455078E+0002   3.15054809570313E+0002   3.10766998291016E+0002   3.07133911132813E+0002   3.04057739257813E+0002   3.01437805175781E+0002   2.99183685302734E+0002   2.97222686767578E+0002   2.95502349853516E+0002   2.93988708496094E+0002   2.92662109375000E+0002   2.91511291503906E+0002   2.90527099609375E+0002   2.89697662353516E+0002   2.89006072998047E+0002   2.88430969238281E+0002   2.87948944091797E+0002   2.87537445068359E+0002   2.87177642822266E+0002   2.86857360839844E+0002   2.86575378417969E+0002   2.86347869873047E+0002   2.86220001220703E+0002   2.86285858154297E+0002   2.86708068847656E+0002   2.87159912109375E+0002   2.84623168945313E+0002   2.81843933105469E+0002   2.79440124511719E+0002   2.77238342285156E+0002   2.75123016357422E+0002   2.73022216796875E+0002   2.70886199951172E+0002   2.68677795410156E+0002   2.66371887207031E+0002   2.63970428466797E+0002   2.61548339843750E+0002   2.59329589843750E+0002   2.57630462646484E+0002   2.56508300781250E+0002   2.55670822143555E+0002   2.54815521240234E+0002   2.53786819458008E+0002   2.52528549194336E+0002   2.51035827636719E+0002   2.49359161376953E+0002   2.47673553466797E+0002   2.46414199829102E+0002   2.46259979248047E+0002   2.47553665161133E+0002   2.49938629150391E+0002   2.52893386840820E+0002   2.56071502685547E+0002   2.59291839599609E+0002   2.62474792480469E+0002   2.65535125732422E+0002   2.68185211181641E+0002   2.69770874023438E+0002   2.69802490234375E+0002   2.68764373779297E+0002   2.67465057373047E+0002   2.66344177246094E+0002   2.65551239013672E+0002   2.65112121582031E+0002   2.65000457763672E+0002   2.65164825439453E+0002   2.65544891357422E+0002   2.66084686279297E+0002   2.66742218017578E+0002   2.67494506835938E+0002   2.68339172363281E+0002   2.69293823242188E+0002   2.70395874023438E+0002   2.71704254150391E+0002   2.73304779052734E+0002   2.75319946289063E+0002   2.77907226562500E+0002   2.81118164062500E+0002   2.83865356445313E+0002   2.82853759765625E+0002   2.79517395019531E+0002   2.76498565673828E+0002   2.74141021728516E+0002   2.72315155029297E+0002   2.70889343261719E+0002   2.69773559570313E+0002   2.68911346435547E+0002   2.68284698486328E+0002   2.67990020751953E+0002   2.68226562500000E+0002   2.68870422363281E+0002   2.69800262451172E+0002   2.71026031494141E+0002   2.72586242675781E+0002   2.74528747558594E+0002   2.76921936035156E+0002   2.79873474121094E+0002   2.83455566406250E+0002   2.86516082763672E+0002   2.85592010498047E+0002   2.83496673583984E+0002   2.81784851074219E+0002   2.80327301025391E+0002   2.78911041259766E+0002   2.77364349365234E+0002   2.75528625488281E+0002   2.73241668701172E+0002   2.70501983642578E+0002   2.68756713867188E+0002   2.70795013427734E+0002   2.74131408691406E+0002   2.77153045654297E+0002   2.79877899169922E+0002   2.82516998291016E+0002   2.85211700439453E+0002   2.87720642089844E+0002   2.88749450683594E+0002   2.87837036132813E+0002   2.86497467041016E+0002   2.85387542724609E+0002   2.84567413330078E+0002   2.84007965087891E+0002   2.83698791503906E+0002   2.83660858154297E+0002   2.83932220458984E+0002   2.84490173339844E+0002   2.84997955322266E+0002   2.84947601318359E+0002   2.84800384521484E+0002   2.85214874267578E+0002   2.86461181640625E+0002   2.88695953369141E+0002   2.92098205566406E+0002   2.96928405761719E+0002   3.03588226318359E+0002   3.12615356445313E+0002   3.23801696777344E+0002   3.29906280517578E+0002   3.20817413330078E+0002   3.08659088134766E+0002   2.98745544433594E+0002   2.90937713623047E+0002   2.84691772460938E+0002   2.79651123046875E+0002   2.75622528076172E+0002   2.72510772705078E+0002   2.70269439697266E+0002   2.68867858886719E+0002   2.68271606445313E+0002   2.68433319091797E+0002   2.69291748046875E+0002   2.70775238037109E+0002   2.72804046630859E+0002   2.75286041259766E+0002   2.78100524902344E+0002   2.81073120117188E+0002   2.83975128173828E+0002   2.86608612060547E+0002   2.88944213867188E+0002   2.91126861572266E+0002   2.93336639404297E+0002   2.95690887451172E+0002   2.98234039306641E+0002   3.00952270507813E+0002   3.03774261474609E+0002   3.06557678222656E+0002   3.09100677490234E+0002   3.11243225097656E+0002   3.13015747070313E+0002   3.14640960693359E+0002   3.16379455566406E+0002   3.18408447265625E+0002   3.20782287597656E+0002   3.23411956787109E+0002   3.26026306152344E+0002   3.28131713867188E+0002   3.29073760986328E+0002   3.28336822509766E+0002   3.25916809082031E+0002   3.22299957275391E+0002   3.18080322265625E+0002   3.13687591552734E+0002   3.09355895996094E+0002   3.05188201904297E+0002   3.01217498779297E+0002   2.97443847656250E+0002   2.93853485107422E+0002   2.90428253173828E+0002   2.87149749755859E+0002   2.84001403808594E+0002   2.80969665527344E+0002   2.78045745849609E+0002   2.75231201171875E+0002   2.72559295654297E+0002   2.70178985595703E+0002   2.69000000000000E+0002   2.69000000000000E+0002   2.69000000000000E+0002   2.69000000000000E+0002   2.69000000000000E+0002   2.69000000000000E+0002   2.69000000000000E+0002   2.69000000000000E+0002   2.69000000000000E+0002   2.69000000000000E+0002
   2.69000000000000E+0002   2.69000000000000E+0002   2.69000000000000E+0002   2.69000000000000E+0002   2.69000000000000E+0002   2.69000000000000E+0002   2.69000000000000E+0002   2.71246002197266E+0002   2.73926696777344E+0002   2.76776214599609E+0002   2.79710479736328E+0002   2.82715820312500E+0002   2.85795928955078E+0002   2.88960021972656E+0002   2.92220214843750E+0002   2.95591217041016E+0002   2.99090240478516E+0002   3.02737152099609E+0002   3.06553039550781E+0002   3.10556030273438E+0002   3.14749359130859E+0002   3.19091674804688E+0002   3.23430694580078E+0002   3.27380004882813E+0002   3.30195953369141E+0002   3.30947479248047E+0002   3.29227844238281E+0002   3.25618438720703E+0002   3.21131500244141E+0002   3.16546051025391E+0002   3.12284240722656E+0002   3.08523559570313E+0002   3.05296630859375E+0002   3.02553375244141E+0002   3.00207153320313E+0002   2.98169281005859E+0002   2.96369018554688E+0002   2.94760345458984E+0002   2.93320709228516E+0002   2.92045104980469E+0002   2.90937530517578E+0002   2.90001220703125E+0002   2.89230682373047E+0002   2.88608489990234E+0002   2.88107910156250E+0002   2.87698181152344E+0002   2.87349182128906E+0002   2.87034484863281E+0002   2.86733764648438E+0002   2.86435882568359E+0002   2.86143249511719E+0002   2.85874298095703E+0002   2.85651489257813E+0002   2.85416595458984E+0002   2.84735778808594E+0002   2.83035888671875E+0002   2.80811737060547E+0002   2.78567108154297E+0002   2.76385772705078E+0002   2.74238586425781E+0002   2.72083709716797E+0002   2.69882629394531E+0002   2.67600708007813E+0002   2.65208282470703E+0002   2.62688720703125E+0002   2.60068572998047E+0002   2.57515319824219E+0002   2.55508834838867E+0002   2.54402267456055E+0002   2.53692382812500E+0002   2.52887359619141E+0002   2.51834075927734E+0002   2.50509979248047E+0002   2.48937774658203E+0002   2.47188919067383E+0002   2.45429199218750E+0002   2.43974884033203E+0002   2.43272613525391E+0002   2.43718048095703E+0002   2.45416412353516E+0002   2.48094528198242E+0002   2.51273376464844E+0002   2.54537139892578E+0002   2.57627258300781E+0002   2.60364227294922E+0002   2.62534851074219E+0002   2.63881439208984E+0002   2.64295867919922E+0002   2.64000885009766E+0002   2.63401000976563E+0002   2.62838867187500E+0002   2.62520446777344E+0002   2.62536010742188E+0002   2.62890258789063E+0002   2.63531066894531E+0002   2.64380096435547E+0002   2.65359954833984E+0002   2.66411682128906E+0002   2.67502014160156E+0002   2.68623382568359E+0002   2.69790313720703E+0002   2.71034942626953E+0002   2.72402770996094E+0002   2.73947174072266E+0002   2.75715179443359E+0002   2.77697967529297E+0002   2.79673095703125E+0002   2.80927490234375E+0002   2.80612182617188E+0002   2.79039703369141E+0002   2.77157073974609E+0002   2.75452758789063E+0002   2.74045745849609E+0002   2.72934478759766E+0002   2.72095275878906E+0002   2.71513153076172E+0002   2.71199005126953E+0002   2.71204010009766E+0002   2.71579681396484E+0002   2.72302124023438E+0002   2.73321441650391E+0002   2.74617431640625E+0002   2.76188232421875E+0002   2.78035003662109E+0002   2.80150634765625E+0002   2.82483062744141E+0002   2.84784667968750E+0002   2.86294403076172E+0002   2.86235198974609E+0002   2.85141906738281E+0002   2.83778472900391E+0002   2.82374389648438E+0002   2.80925140380859E+0002   2.79378540039063E+0002   2.77693145751953E+0002   2.75897949218750E+0002   2.74262939453125E+0002   2.73542297363281E+0002   2.74382995605469E+0002   2.76270721435547E+0002   2.78486541748047E+0002   2.80820587158203E+0002   2.83375793457031E+0002   2.86439971923828E+0002   2.90433471679688E+0002   2.92270660400391E+0002   2.88985504150391E+0002   2.86663848876953E+0002   2.85166015625000E+0002   2.84213897705078E+0002   2.83678985595703E+0002   2.83524108886719E+0002   2.83776794433594E+0002   2.84530120849609E+0002   2.85946258544922E+0002   2.87788146972656E+0002   2.87335754394531E+0002   2.86716186523438E+0002   2.87034606933594E+0002   2.88271301269531E+0002   2.90473083496094E+0002   2.93804382324219E+0002   2.98591430664063E+0002   3.05450897216797E+0002   3.15604064941406E+0002   3.31642852783203E+0002   3.53535552978516E+0002   3.25807159423828E+0002   3.08467071533203E+0002   2.96412322998047E+0002   2.87358703613281E+0002   2.80238525390625E+0002   2.74537017822266E+0002   2.70009094238281E+0002   2.66545196533203E+0002   2.64098388671875E+0002   2.62640625000000E+0002   2.62137237548828E+0002   2.62536071777344E+0002   2.63767944335938E+0002   2.65753906250000E+0002   2.68412292480469E+0002   2.71656677246094E+0002   2.75369659423828E+0002   2.79331695556641E+0002   2.83129302978516E+0002   2.86288116455078E+0002   2.88762390136719E+0002   2.90966217041016E+0002   2.93278533935547E+0002   2.95873413085938E+0002   2.98802368164063E+0002   3.02059692382813E+0002   3.05582031250000E+0002   3.09181884765625E+0002   3.12462799072266E+0002   3.14982910156250E+0002   3.16770050048828E+0002   3.18337371826172E+0002   3.20163269042969E+0002   3.22501525878906E+0002   3.25444671630859E+0002   3.28954528808594E+0002   3.32783325195313E+0002   3.36267456054688E+0002   3.38171203613281E+0002   3.37259399414063E+0002   3.33568878173828E+0002   3.28328033447266E+0002   3.22679473876953E+0002   3.17196350097656E+0002   3.12070404052734E+0002   3.07327117919922E+0002   3.02934356689453E+0002   2.98845703125000E+0002   2.95015838623047E+0002   2.91405242919922E+0002   2.87980926513672E+0002   2.84716186523438E+0002   2.81589843750000E+0002   2.78586578369141E+0002   2.75698822021484E+0002   2.72935638427734E+0002   2.70373626708984E+0002   2.69000000000000E+0002   2.69000000000000E+0002   2.69000000000000E+0002   2.69000000000000E+0002   2.69000000000000E+0002   2.69000000000000E+0002   2.69000000000000E+0002   2.69000000000000E+0002   2.69000000000000E+0002   2.69000000000000E+0002
   2.69000000000000E+0002   2.69000000000000E+0002   2.69000000000000E+0002   2.69000000000000E+0002   2.69000000000000E+0002   2.69000000000000E+0002   2.69000000000000E+0002   2.71233184814453E+0002   2.74015502929688E+0002   2.76915527343750E+0002   2.79878143310547E+0002   2.82895233154297E+0002   2.85969604492188E+0002   2.89106658935547E+0002   2.92312377929688E+0002   2.95592376708984E+0002   2.98951141357422E+0002   3.02390136718750E+0002   3.05904571533203E+0002   3.09476257324219E+0002   3.13060302734375E+0002   3.16560760498047E+0002   3.19792327880859E+0002   3.22439178466797E+0002   3.24060455322266E+0002   3.24230560302734E+0002   3.22800872802734E+0002   3.20038726806641E+0002   3.16474700927734E+0002   3.12652038574219E+0002   3.08988098144531E+0002   3.05733398437500E+0002   3.02970611572266E+0002   3.00652648925781E+0002   2.98671813964844E+0002   2.96921783447266E+0002   2.95327819824219E+0002   2.93852386474609E+0002   2.92490356445313E+0002   2.91260040283203E+0002   2.90191070556641E+0002   2.89307708740234E+0002   2.88613922119141E+0002   2.88088775634766E+0002   2.87694274902344E+0002   2.87387359619141E+0002   2.87127532958984E+0002   2.86878784179688E+0002   2.86609313964844E+0002   2.86293243408203E+0002   2.85913696289063E+0002   2.85462249755859E+0002   2.84920257568359E+0002   2.84207580566406E+0002   2.83140411376953E+0002   2.81584289550781E+0002   2.79668609619141E+0002   2.77604034423828E+0002   2.75494720458984E+0002   2.73361663818359E+0002   2.71191986083984E+0002   2.68960815429688E+0002   2.66637084960938E+0002   2.64182373046875E+0002   2.61544250488281E+0002   2.58644256591797E+0002   2.55411239624023E+0002   2.52610153198242E+0002   2.52160980224609E+0002   2.51921005249023E+0002   2.51237380981445E+0002   2.50161560058594E+0002   2.48748535156250E+0002   2.47035247802734E+0002   2.45066711425781E+0002   2.42933120727539E+0002   2.40829421997070E+0002   2.39161056518555E+0002   2.38640914916992E+0002   2.39942474365234E+0002   2.42850051879883E+0002   2.46436859130859E+0002   2.49972915649414E+0002   2.53118118286133E+0002   2.55722686767578E+0002   2.57684936523438E+0002   2.58930938720703E+0002   2.59479949951172E+0002   2.59499267578125E+0002   2.59264709472656E+0002   2.59067962646484E+0002   2.59141174316406E+0002   2.59612091064453E+0002   2.60489715576172E+0002   2.61689880371094E+0002   2.63088073730469E+0002   2.64567871093750E+0002   2.66046905517578E+0002   2.67482208251953E+0002   2.68864990234375E+0002   2.70211212158203E+0002   2.71551879882813E+0002   2.72923095703125E+0002   2.74354034423828E+0002   2.75846862792969E+0002   2.77336730957031E+0002   2.78629852294922E+0002   2.79390533447266E+0002   2.79350860595703E+0002   2.78612548828125E+0002   2.77539733886719E+0002   2.76440826416016E+0002   2.75475616455078E+0002   2.74708831787109E+0002   2.74165313720703E+0002   2.73860382080078E+0002   2.73814636230469E+0002   2.74056213378906E+0002   2.74604339599609E+0002   2.75451263427734E+0002   2.76570800781250E+0002   2.77934509277344E+0002   2.79512023925781E+0002   2.81262054443359E+0002   2.83116729736328E+0002   2.84949279785156E+0002   2.86517242431641E+0002   2.87456329345703E+0002   2.87520385742188E+0002   2.86848724365234E+0002   2.85756408691406E+0002   2.84455291748047E+0002   2.83038146972656E+0002   2.81546112060547E+0002   2.80024139404297E+0002   2.78575225830078E+0002   2.77424163818359E+0002   2.76907196044922E+0002   2.77236114501953E+0002   2.78280151367188E+0002   2.79768859863281E+0002   2.81560333251953E+0002   2.83692901611328E+0002   2.86363494873047E+0002   2.89752716064453E+0002   2.91057312011719E+0002   2.88223144531250E+0002   2.85921417236328E+0002   2.84397521972656E+0002   2.83451171875000E+0002   2.82977722167969E+0002   2.82948059082031E+0002   2.83388854980469E+0002   2.84388397216797E+0002   2.86119079589844E+0002   2.88453826904297E+0002   2.88057464599609E+0002   2.87534759521484E+0002   2.87926452636719E+0002   2.89127990722656E+0002   2.91140960693359E+0002   2.94085510253906E+0002   2.98216522216797E+0002   3.03970672607422E+0002   3.11965728759766E+0002   3.22151641845703E+0002   3.27192718505859E+0002   3.16301513671875E+0002   3.02467224121094E+0002   2.91061584472656E+0002   2.81885528564453E+0002   2.74397735595703E+0002   2.68267944335938E+0002   2.63340820312500E+0002   2.59565124511719E+0002   2.56936767578125E+0002   2.55455734252930E+0002   2.55097702026367E+0002   2.55804183959961E+0002   2.57489624023438E+0002   2.60059265136719E+0002   2.63428558349609E+0002   2.67535491943359E+0002   2.72327667236328E+0002   2.77654174804688E+0002   2.82871826171875E+0002   2.86607727050781E+0002   2.88749572753906E+0002   2.90629699707031E+0002   2.92910278320313E+0002   2.95710906982422E+0002   2.99031311035156E+0002   3.02874359130859E+0002   3.07244567871094E+0002   3.12022277832031E+0002   3.16539520263672E+0002   3.19412384033203E+0002   3.20640777587891E+0002   3.21703125000000E+0002   3.23400451660156E+0002   3.25966247558594E+0002   3.29501037597656E+0002   3.34085601806641E+0002   3.39693267822266E+0002   3.45745910644531E+0002   3.50009918212891E+0002   3.48871551513672E+0002   3.42529846191406E+0002   3.34581451416016E+0002   3.27029052734375E+0002   3.20316650390625E+0002   3.14392303466797E+0002   3.09113250732422E+0002   3.04347381591797E+0002   2.99989746093750E+0002   2.95960021972656E+0002   2.92196960449219E+0002   2.88653656005859E+0002   2.85293884277344E+0002   2.82089691162109E+0002   2.79020111083984E+0002   2.76071563720703E+0002   2.73247406005859E+0002   2.70626190185547E+0002   2.69000000000000E+0002   2.69000000000000E+0002   2.69000000000000E+0002   2.69000000000000E+0002   2.69000000000000E+0002   2.69000000000000E+0002   2.69000000000000E+0002   2.69000000000000E+0002   2.69000000000000E+0002   2.69000000000000E+0002
   2.69000000000000E+0002   2.69000000000000E+0002   2.69000000000000E+0002   2.69000000000000E+0002   2.69000000000000E+0002   2.69000000000000E+0002   2.69000000000000E+0002   2.71247985839844E+0002   2.74076385498047E+0002   2.77013275146484E+0002   2.79996551513672E+0002   2.83018768310547E+0002   2.86080963134766E+0002   2.89184692382813E+0002   2.92330078125000E+0002   2.95514404296875E+0002   2.98730773925781E+0002   3.01965606689453E+0002   3.05194519042969E+0002   3.08375579833984E+0002   3.11438903808594E+0002   3.14272033691406E+0002   3.16703948974609E+0002   3.18500061035156E+0002   3.19390594482422E+0002   3.19152557373047E+0002   3.17719177246094E+0002   3.15239715576172E+0002   3.12046173095703E+0002   3.08571319580078E+0002   3.05257598876953E+0002   3.02433410644531E+0002   3.00193939208984E+0002   2.98418243408203E+0002   2.96912689208984E+0002   2.95525115966797E+0002   2.94173736572266E+0002   2.92835388183594E+0002   2.91530639648438E+0002   2.90313415527344E+0002   2.89256195068359E+0002   2.88421051025391E+0002   2.87826385498047E+0002   2.87438201904297E+0002   2.87193878173828E+0002   2.87030334472656E+0002   2.86895477294922E+0002   2.86744415283203E+0002   2.86532684326172E+0002   2.86214996337891E+0002   2.85753112792969E+0002   2.85124664306641E+0002   2.84315643310547E+0002   2.83295654296875E+0002   2.82011474609375E+0002   2.80437652587891E+0002   2.78625701904297E+0002   2.76665008544922E+0002   2.74620635986328E+0002   2.72519165039063E+0002   2.70360839843750E+0002   2.68130828857422E+0002   2.65803741455078E+0002   2.63341064453125E+0002   2.60679290771484E+0002   2.57699768066406E+0002   2.54170822143555E+0002   2.50455825805664E+0002   2.50819473266602E+0002   2.50718750000000E+0002   2.49994659423828E+0002   2.48827804565430E+0002   2.47290374755859E+0002   2.45397613525391E+0002   2.43133087158203E+0002   2.40461868286133E+0002   2.37370056152344E+0002   2.34080581665039E+0002   2.31822128295898E+0002   2.32973434448242E+0002   2.37121734619141E+0002   2.41767425537109E+0002   2.45840332031250E+0002   2.49155197143555E+0002   2.51720046997070E+0002   2.53556488037109E+0002   2.54692230224609E+0002   2.55202255249023E+0002   2.55246902465820E+0002   2.55078353881836E+0002   2.55010314941406E+0002   2.55345855712891E+0002   2.56267913818359E+0002   2.57762237548828E+0002   2.59654022216797E+0002   2.61721252441406E+0002   2.63783721923828E+0002   2.65731689453125E+0002   2.67519073486328E+0002   2.69145568847656E+0002   2.70638519287109E+0002   2.72037170410156E+0002   2.73378875732422E+0002   2.74686157226563E+0002   2.75951232910156E+0002   2.77117340087891E+0002   2.78066528320313E+0002   2.78646514892578E+0002   2.78761627197266E+0002   2.78459777832031E+0002   2.77904968261719E+0002   2.77274993896484E+0002   2.76699737548828E+0002   2.76258453369141E+0002   2.75998474121094E+0002   2.75951995849609E+0002   2.76145690917969E+0002   2.76601593017578E+0002   2.77331390380859E+0002   2.78330200195313E+0002   2.79576690673828E+0002   2.81036071777344E+0002   2.82658538818359E+0002   2.84372772216797E+0002   2.86076019287109E+0002   2.87622985839844E+0002   2.88823486328125E+0002   2.89481445312500E+0002   2.89492858886719E+0002   2.88915527343750E+0002   2.87910980224609E+0002   2.86641265869141E+0002   2.85226501464844E+0002   2.83755432128906E+0002   2.82312988281250E+0002   2.81009155273438E+0002   2.79994964599609E+0002   2.79433685302734E+0002   2.79415954589844E+0002   2.79903808593750E+0002   2.80786407470703E+0002   2.81973815917969E+0002   2.83429779052734E+0002   2.85107086181641E+0002   2.86657073974609E+0002   2.87008300781250E+0002   2.85829162597656E+0002   2.84292510986328E+0002   2.83045410156250E+0002   2.82221496582031E+0002   2.81839019775391E+0002   2.81906829833984E+0002   2.82439605712891E+0002   2.83448303222656E+0002   2.84867767333984E+0002   2.86262268066406E+0002   2.86926147460938E+0002   2.87300048828125E+0002   2.88001831054688E+0002   2.89185150146484E+0002   2.90894287109375E+0002   2.93198547363281E+0002   2.96210449218750E+0002   3.00033355712891E+0002   3.04514038085938E+0002   3.08425048828125E+0002   3.08417266845703E+0002   3.02250152587891E+0002   2.92854797363281E+0002   2.83332519531250E+0002   2.74727966308594E+0002   2.67218872070313E+0002   2.60810913085938E+0002   2.55528213500977E+0002   2.51437973022461E+0002   2.48623535156250E+0002   2.47141860961914E+0002   2.46989028930664E+0002   2.48091812133789E+0002   2.50328842163086E+0002   2.53568252563477E+0002   2.57706604003906E+0002   2.62704315185547E+0002   2.68621917724609E+0002   2.75635406494141E+0002   2.83569030761719E+0002   2.88037963867188E+0002   2.88514526367188E+0002   2.89746429443359E+0002   2.91992279052734E+0002   2.95025787353516E+0002   2.98734741210938E+0002   3.03131225585938E+0002   3.08352325439453E+0002   3.14644470214844E+0002   3.21753631591797E+0002   3.25001586914063E+0002   3.24183349609375E+0002   3.24278778076172E+0002   3.25736145019531E+0002   3.28454132080078E+0002   3.32481750488281E+0002   3.38068634033203E+0002   3.45684082031250E+0002   3.55797363281250E+0002   3.66299072265625E+0002   3.64643280029297E+0002   3.51938690185547E+0002   3.40008270263672E+0002   3.30427215576172E+0002   3.22627441406250E+0002   3.16068847656250E+0002   3.10390197753906E+0002   3.05356079101563E+0002   3.00809020996094E+0002   2.96639892578125E+0002   2.92770751953125E+0002   2.89144256591797E+0002   2.85717437744141E+0002   2.82457489013672E+0002   2.79339752197266E+0002   2.76348114013672E+0002   2.73484497070313E+0002   2.70820098876953E+0002   2.69000000000000E+0002   2.69000000000000E+0002   2.69000000000000E+0002   2.69000000000000E+0002   2.69000000000000E+0002   2.69000000000000E+0002   2.69000000000000E+0002   2.69000000000000E+0002   2.69000000000000E+0002   2.69000000000000E+0002
   2.69000000000000E+0002   2.69000000000000E+0002   2.69000000000000E+0002   2.69000000000000E+0002   2.69000000000000E+0002   2.69000000000000E+0002   2.69000000000000E+0002   2.71271820068359E+0002   2.74129760742188E+0002   2.77086090087891E+0002   2.80080932617188E+0002   2.83103302001953E+0002   2.86150726318359E+0002   2.89220764160156E+0002   2.92308135986328E+0002   2.95403259277344E+0002   2.98490203857422E+0002   3.01544189453125E+0002   3.04527709960938E+0002   3.07385406494141E+0002   3.10037261962891E+0002   3.12371582031250E+0002   3.14240844726563E+0002   3.15467590332031E+0002   3.15868621826172E+0002   3.15299896240234E+0002   3.13708404541016E+0002   3.11169219970703E+0002   3.07906799316406E+0002   3.04325897216797E+0002   3.01016387939453E+0002   2.98530883789063E+0002   2.96958801269531E+0002   2.95931365966797E+0002   2.95051483154297E+0002   2.94103118896484E+0002   2.93014343261719E+0002   2.91791198730469E+0002   2.90488403320313E+0002   2.89207946777344E+0002   2.88094909667969E+0002   2.87288085937500E+0002   2.86830596923828E+0002   2.86646179199219E+0002   2.86615722656250E+0002   2.86646179199219E+0002   2.86679260253906E+0002   2.86669708251953E+0002   2.86561981201172E+0002   2.86282257080078E+0002   2.85758697509766E+0002   2.84960662841797E+0002   2.83908691406250E+0002   2.82638641357422E+0002   2.81171447753906E+0002   2.79521942138672E+0002   2.77718444824219E+0002   2.75799835205078E+0002   2.73798400878906E+0002   2.71730987548828E+0002   2.69599792480469E+0002   2.67396240234375E+0002   2.65103576660156E+0002   2.62696319580078E+0002   2.60138793945313E+0002   2.57394744873047E+0002   2.54529495239258E+0002   2.52156402587891E+0002   2.51003448486328E+0002   2.50215774536133E+0002   2.49199417114258E+0002   2.47861206054688E+0002   2.46184448242188E+0002   2.44131210327148E+0002   2.41615692138672E+0002   2.38470275878906E+0002   2.34384704589844E+0002   2.28880508422852E+0002   2.22451034545898E+0002   2.24030044555664E+0002   2.31692443847656E+0002   2.37896148681641E+0002   2.42511795043945E+0002   2.45946975708008E+0002   2.48445770263672E+0002   2.50134689331055E+0002   2.51091918945313E+0002   2.51404647827148E+0002   2.51220138549805E+0002   2.50796417236328E+0002   2.50538726806641E+0002   2.50940719604492E+0002   2.52334808349609E+0002   2.54639282226563E+0002   2.57455963134766E+0002   2.60373779296875E+0002   2.63125488281250E+0002   2.65584899902344E+0002   2.67721435546875E+0002   2.69561523437500E+0002   2.71159729003906E+0002   2.72576812744141E+0002   2.73863830566406E+0002   2.75051147460938E+0002   2.76140380859375E+0002   2.77099609375000E+0002   2.77867706298828E+0002   2.78377197265625E+0002   2.78594268798828E+0002   2.78549682617188E+0002   2.78330505371094E+0002   2.78043609619141E+0002   2.77784057617188E+0002   2.77624359130859E+0002   2.77617523193359E+0002   2.77803497314453E+0002   2.78213684082031E+0002   2.78871185302734E+0002   2.79787689208984E+0002   2.80959960937500E+0002   2.82367553710938E+0002   2.83970977783203E+0002   2.85707733154297E+0002   2.87485961914063E+0002   2.89179626464844E+0002   2.90631256103516E+0002   2.91671997070313E+0002   2.92164550781250E+0002   2.92055511474609E+0002   2.91397491455078E+0002   2.90318237304688E+0002   2.88965393066406E+0002   2.87470397949219E+0002   2.85941619873047E+0002   2.84474670410156E+0002   2.83165557861328E+0002   2.82114318847656E+0002   2.81408416748047E+0002   2.81091491699219E+0002   2.81146179199219E+0002   2.81511383056641E+0002   2.82112945556641E+0002   2.82869812011719E+0002   2.83649108886719E+0002   2.84177520751953E+0002   2.84085601806641E+0002   2.83312408447266E+0002   2.82235168457031E+0002   2.81241882324219E+0002   2.80546142578125E+0002   2.80249633789063E+0002   2.80397857666016E+0002   2.80995361328125E+0002   2.81996948242188E+0002   2.83270751953125E+0002   2.84561340332031E+0002   2.85641265869141E+0002   2.86576843261719E+0002   2.87567230224609E+0002   2.88717620849609E+0002   2.90057647705078E+0002   2.91598205566406E+0002   2.93334716796875E+0002   2.95175781250000E+0002   2.96759490966797E+0002   2.97188232421875E+0002   2.95135742187500E+0002   2.89982543945313E+0002   2.82632141113281E+0002   2.74479064941406E+0002   2.66434051513672E+0002   2.58939208984375E+0002   2.52235580444336E+0002   2.46526306152344E+0002   2.42031097412109E+0002   2.38967483520508E+0002   2.37487701416016E+0002   2.37617065429688E+0002   2.39243957519531E+0002   2.42170593261719E+0002   2.46187698364258E+0002   2.51136260986328E+0002   2.56952209472656E+0002   2.63717071533203E+0002   2.71755279541016E+0002   2.81735931396484E+0002   2.87014312744141E+0002   2.86399078369141E+0002   2.87724456787109E+0002   2.90282592773438E+0002   2.93677459716797E+0002   2.97762847900391E+0002   3.02558959960938E+0002   3.08258544921875E+0002   3.15331420898438E+0002   3.24716003417969E+0002   3.28358428955078E+0002   3.25596191406250E+0002   3.25353668212891E+0002   3.26811126708984E+0002   3.29652923583984E+0002   3.33917938232422E+0002   3.39960510253906E+0002   3.48596130371094E+0002   3.61556152343750E+0002   3.82665466308594E+0002   3.79440643310547E+0002   3.57193298339844E+0002   3.42588684082031E+0002   3.31991821289063E+0002   3.23708923339844E+0002   3.16880950927734E+0002   3.11033874511719E+0002   3.05885223388672E+0002   3.01255218505859E+0002   2.97023101806641E+0002   2.93104217529297E+0002   2.89437011718750E+0002   2.85975677490234E+0002   2.82685516357422E+0002   2.79540344238281E+0002   2.76523010253906E+0002   2.73634429931641E+0002   2.70940155029297E+0002   2.69000000000000E+0002   2.69000000000000E+0002   2.69000000000000E+0002   2.69000000000000E+0002   2.69000000000000E+0002   2.69000000000000E+0002   2.69000000000000E+0002   2.69000000000000E+0002   2.69000000000000E+0002   2.69000000000000E+0002
   2.69000000000000E+0002   2.69000000000000E+0002   2.69000000000000E+0002   2.69000000000000E+0002   2.69000000000000E+0002   2.69000000000000E+0002   2.69000000000000E+0002   2.71346008300781E+0002   2.74181182861328E+0002   2.77141845703125E+0002   2.80142822265625E+0002   2.83163696289063E+0002   2.86197723388672E+0002   2.89238800048828E+0002   2.92277465820313E+0002   2.95298858642578E+0002   2.98280548095703E+0002   3.01190277099609E+0002   3.03982666015625E+0002   3.06595642089844E+0002   3.08946746826172E+0002   3.10930206298828E+0002   3.12417755126953E+0002   3.13265655517578E+0002   3.13330261230469E+0002   3.12490509033203E+0002   3.10670471191406E+0002   3.07858703613281E+0002   3.04147430419922E+0002   2.99876770019531E+0002   2.95963134765625E+0002   2.93727996826172E+0002   2.93249023437500E+0002   2.93359222412109E+0002   2.93291137695313E+0002   2.92836090087891E+0002   2.91998016357422E+0002   2.90836303710938E+0002   2.89436981201172E+0002   2.87946014404297E+0002   2.86625823974609E+0002   2.85799957275391E+0002   2.85568267822266E+0002   2.85713043212891E+0002   2.85985565185547E+0002   2.86262054443359E+0002   2.86503173828125E+0002   2.86687225341797E+0002   2.86758453369141E+0002   2.86594268798828E+0002   2.86041198730469E+0002   2.85046264648438E+0002   2.83710876464844E+0002   2.82172943115234E+0002   2.80512664794922E+0002   2.78759033203125E+0002   2.76922943115234E+0002   2.75013580322266E+0002   2.73039337158203E+0002   2.71004821777344E+0002   2.68909759521484E+0002   2.66749664306641E+0002   2.64517272949219E+0002   2.62204772949219E+0002   2.59810638427734E+0002   2.57363220214844E+0002   2.54983093261719E+0002   2.52932586669922E+0002   2.51371032714844E+0002   2.50074401855469E+0002   2.48747055053711E+0002   2.47232650756836E+0002   2.45449142456055E+0002   2.43317550659180E+0002   2.40717300415039E+0002   2.37433609008789E+0002   2.33058105468750E+0002   2.26788284301758E+0002   2.17403305053711E+0002   2.19590301513672E+0002   2.29249404907227E+0002   2.35784378051758E+0002   2.40371414184570E+0002   2.43665206909180E+0002   2.45975601196289E+0002   2.47446456909180E+0002   2.48146514892578E+0002   2.48125122070313E+0002   2.47467559814453E+0002   2.46391845703125E+0002   2.45427062988281E+0002   2.45522155761719E+0002   2.47487228393555E+0002   2.51041671752930E+0002   2.55199813842773E+0002   2.59221557617188E+0002   2.62776611328125E+0002   2.65770446777344E+0002   2.68224639892578E+0002   2.70220092773438E+0002   2.71860260009766E+0002   2.73242919921875E+0002   2.74443450927734E+0002   2.75508026123047E+0002   2.76453125000000E+0002   2.77269287109375E+0002   2.77930053710938E+0002   2.78408111572266E+0002   2.78695007324219E+0002   2.78814331054688E+0002   2.78819671630859E+0002   2.78780090332031E+0002   2.78764923095703E+0002   2.78835266113281E+0002   2.79042480468750E+0002   2.79429626464844E+0002   2.80032745361328E+0002   2.80879486083984E+0002   2.81985656738281E+0002   2.83351501464844E+0002   2.84958862304688E+0002   2.86767669677734E+0002   2.88709289550781E+0002   2.90677337646484E+0002   2.92521057128906E+0002   2.94052307128906E+0002   2.95079040527344E+0002   2.95463562011719E+0002   2.95175720214844E+0002   2.94300415039063E+0002   2.92994018554688E+0002   2.91426757812500E+0002   2.89745788574219E+0002   2.88066772460938E+0002   2.86480804443359E+0002   2.85064636230469E+0002   2.83883972167969E+0002   2.82986724853516E+0002   2.82390991210938E+0002   2.82078491210938E+0002   2.81999938964844E+0002   2.82085235595703E+0002   2.82244689941406E+0002   2.82355895996094E+0002   2.82257720947266E+0002   2.81808502197266E+0002   2.81008605957031E+0002   2.80032104492188E+0002   2.79115600585938E+0002   2.78461029052734E+0002   2.78208343505859E+0002   2.78430419921875E+0002   2.79127716064453E+0002   2.80227844238281E+0002   2.81592742919922E+0002   2.83046295166016E+0002   2.84445922851563E+0002   2.85744750976563E+0002   2.86951171875000E+0002   2.88055694580078E+0002   2.89017578125000E+0002   2.89785583496094E+0002   2.90298248291016E+0002   2.90432861328125E+0002   2.89912384033203E+0002   2.88252563476563E+0002   2.84916046142578E+0002   2.79705413818359E+0002   2.72980804443359E+0002   2.65397399902344E+0002   2.57548553466797E+0002   2.49861770629883E+0002   2.42670593261719E+0002   2.36312881469727E+0002   2.31184722900391E+0002   2.27708740234375E+0002   2.26203628540039E+0002   2.26735809326172E+0002   2.29096984863281E+0002   2.32931640625000E+0002   2.37890472412109E+0002   2.43715698242188E+0002   2.50262786865234E+0002   2.57486755371094E+0002   2.65346221923828E+0002   2.73225463867188E+0002   2.78721008300781E+0002   2.81626007080078E+0002   2.84402954101563E+0002   2.87744567871094E+0002   2.91655517578125E+0002   2.96097900390625E+0002   3.01094024658203E+0002   3.06731811523438E+0002   3.13076202392578E+0002   3.19494232177734E+0002   3.23093048095703E+0002   3.23798828125000E+0002   3.24667419433594E+0002   3.26521606445313E+0002   3.29462860107422E+0002   3.33618682861328E+0002   3.39282073974609E+0002   3.46965850830078E+0002   3.57220825195313E+0002   3.68066406250000E+0002   3.66308807373047E+0002   3.53148773193359E+0002   3.40983337402344E+0002   3.31266448974609E+0002   3.23370697021484E+0002   3.16736114501953E+0002   3.10993774414063E+0002   3.05904663085938E+0002   3.01309173583984E+0002   2.97096862792969E+0002   2.93188507080078E+0002   2.89525726318359E+0002   2.86064483642578E+0002   2.82771026611328E+0002   2.79619781494141E+0002   2.76593933105469E+0002   2.73694274902344E+0002   2.70984558105469E+0002   2.69000000000000E+0002   2.69000000000000E+0002   2.69000000000000E+0002   2.69000000000000E+0002   2.69000000000000E+0002   2.69000000000000E+0002   2.69000000000000E+0002   2.69000000000000E+0002   2.69000000000000E+0002   2.69000000000000E+0002
   2.69000000000000E+0002   2.69000000000000E+0002   2.69000000000000E+0002   2.69000000000000E+0002   2.69000000000000E+0002   2.69000000000000E+0002   2.69000000000000E+0002   2.71362091064453E+0002   2.74206787109375E+0002   2.77181152343750E+0002   2.80190399169922E+0002   2.83211975097656E+0002   2.86237396240234E+0002   2.89258422851563E+0002   2.92262878417969E+0002   2.95232482910156E+0002   2.98140716552734E+0002   3.00950897216797E+0002   3.03613525390625E+0002   3.06063842773438E+0002   3.08219848632813E+0002   3.09981750488281E+0002   3.11233917236328E+0002   3.11850524902344E+0002   3.11703887939453E+0002   3.10672790527344E+0002   3.08643829345703E+0002   3.05500915527344E+0002   3.01114349365234E+0002   2.95447509765625E+0002   2.89505310058594E+0002   2.87442871093750E+0002   2.89326446533203E+0002   2.91129852294922E+0002   2.91965484619141E+0002   2.91963745117188E+0002   2.91310943603516E+0002   2.90132385253906E+0002   2.88512054443359E+0002   2.86571594238281E+0002   2.84696563720703E+0002   2.83734497070313E+0002   2.83986572265625E+0002   2.84699127197266E+0002   2.85371734619141E+0002   2.85917053222656E+0002   2.86376678466797E+0002   2.86798553466797E+0002   2.87164947509766E+0002   2.87283843994141E+0002   2.86763732910156E+0002   2.85451721191406E+0002   2.83691101074219E+0002   2.81816040039063E+0002   2.79942749023438E+0002   2.78077606201172E+0002   2.76199981689453E+0002   2.74291198730469E+0002   2.72339538574219E+0002   2.70338439941406E+0002   2.68284301757813E+0002   2.66175384521484E+0002   2.64012481689453E+0002   2.61801269531250E+0002   2.59558959960938E+0002   2.57327972412109E+0002   2.55191116333008E+0002   2.53254486083984E+0002   2.51559860229492E+0002   2.50022750854492E+0002   2.48501083374023E+0002   2.46875442504883E+0002   2.45056625366211E+0002   2.42961242675781E+0002   2.40485717773438E+0002   2.37483489990234E+0002   2.33764923095703E+0002   2.29277770996094E+0002   2.25297454833984E+0002   2.26082412719727E+0002   2.30913772583008E+0002   2.35714553833008E+0002   2.39515197753906E+0002   2.42351516723633E+0002   2.44335815429688E+0002   2.45526824951172E+0002   2.45929489135742E+0002   2.45507873535156E+0002   2.44206558227539E+0002   2.42037200927734E+0002   2.39447875976563E+0002   2.38288848876953E+0002   2.41175888061523E+0002   2.47037597656250E+0002   2.53195449829102E+0002   2.58584136962891E+0002   2.63009246826172E+0002   2.66505035400391E+0002   2.69189422607422E+0002   2.71232208251953E+0002   2.72813903808594E+0002   2.74085937500000E+0002   2.75153869628906E+0002   2.76079772949219E+0002   2.76891479492188E+0002   2.77593475341797E+0002   2.78177612304688E+0002   2.78635101318359E+0002   2.78967773437500E+0002   2.79194885253906E+0002   2.79353118896484E+0002   2.79490356445313E+0002   2.79658447265625E+0002   2.79907989501953E+0002   2.80286468505859E+0002   2.80838653564453E+0002   2.81606445312500E+0002   2.82625946044922E+0002   2.83921051025391E+0002   2.85498046875000E+0002   2.87344085693359E+0002   2.89425048828125E+0002   2.91676239013672E+0002   2.93985168457031E+0002   2.96171569824219E+0002   2.97983917236328E+0002   2.99143646240234E+0002   2.99451629638672E+0002   2.98892395019531E+0002   2.97633789062500E+0002   2.95924957275391E+0002   2.93995544433594E+0002   2.92015075683594E+0002   2.90096710205078E+0002   2.88315917968750E+0002   2.86726104736328E+0002   2.85365936279297E+0002   2.84258026123047E+0002   2.83402801513672E+0002   2.82774139404297E+0002   2.82321502685547E+0002   2.81975860595703E+0002   2.81653411865234E+0002   2.81257568359375E+0002   2.80690734863281E+0002   2.79889587402344E+0002   2.78871856689453E+0002   2.77752380371094E+0002   2.76714080810547E+0002   2.75962707519531E+0002   2.75680572509766E+0002   2.75975524902344E+0002   2.76844299316406E+0002   2.78180084228516E+0002   2.79817932128906E+0002   2.81586608886719E+0002   2.83345397949219E+0002   2.84990631103516E+0002   2.86426696777344E+0002   2.87532958984375E+0002   2.88168853759766E+0002   2.88216125488281E+0002   2.87606536865234E+0002   2.86287414550781E+0002   2.84147705078125E+0002   2.80988525390625E+0002   2.76603393554688E+0002   2.70930633544922E+0002   2.64134490966797E+0002   2.56534790039063E+0002   2.48480346679688E+0002   2.40290283203125E+0002   2.32286712646484E+0002   2.24884002685547E+0002   2.18681838989258E+0002   2.14449493408203E+0002   2.12848449707031E+0002   2.14013717651367E+0002   2.17487579345703E+0002   2.22588897705078E+0002   2.28746673583984E+0002   2.35586685180664E+0002   2.42885223388672E+0002   2.50484390258789E+0002   2.58154693603516E+0002   2.65368774414063E+0002   2.71371582031250E+0002   2.76120849609375E+0002   2.80354827880859E+0002   2.84616699218750E+0002   2.89106475830078E+0002   2.93884155273438E+0002   2.98968536376953E+0002   3.04335693359375E+0002   3.09810821533203E+0002   3.14820770263672E+0002   3.18493927001953E+0002   3.20844787597656E+0002   3.22825256347656E+0002   3.25132110595703E+0002   3.28074798583984E+0002   3.31826446533203E+0002   3.36524383544922E+0002   3.42193786621094E+0002   3.48303283691406E+0002   3.52600250244141E+0002   3.51314239501953E+0002   3.44670166015625E+0002   3.36442687988281E+0002   3.28671691894531E+0002   3.21784667968750E+0002   3.15715087890625E+0002   3.10311920166016E+0002   3.05437988281250E+0002   3.00984985351563E+0002   2.96869964599609E+0002   2.93029541015625E+0002   2.89414703369141E+0002   2.85987121582031E+0002   2.82716796875000E+0002   2.79580474853516E+0002   2.76562927246094E+0002   2.73666198730469E+0002   2.70956268310547E+0002   2.69000000000000E+0002   2.69000000000000E+0002   2.69000000000000E+0002   2.69000000000000E+0002   2.69000000000000E+0002   2.69000000000000E+0002   2.69000000000000E+0002   2.69000000000000E+0002   2.69000000000000E+0002   2.69000000000000E+0002
   2.69000000000000E+0002   2.69000000000000E+0002   2.69000000000000E+0002   2.69000000000000E+0002   2.69000000000000E+0002   2.69000000000000E+0002   2.69000000000000E+0002   2.71292144775391E+0002   2.74208709716797E+0002   2.77210113525391E+0002   2.80231353759766E+0002   2.83257324218750E+0002   2.86281005859375E+0002   2.89293640136719E+0002   2.92281890869141E+0002   2.95225708007813E+0002   2.98096832275391E+0002   3.00856536865234E+0002   3.03453765869141E+0002   3.05823272705078E+0002   3.07884307861328E+0002   3.09541168212891E+0002   3.10685333251953E+0002   3.11199859619141E+0002   3.10964050292969E+0002   3.09854644775391E+0002   3.07735504150391E+0002   3.04422912597656E+0002   2.99601043701172E+0002   2.92634918212891E+0002   2.82287078857422E+0002   2.80330627441406E+0002   2.86823455810547E+0002   2.90104034423828E+0002   2.91507232666016E+0002   2.91739349365234E+0002   2.91145935058594E+0002   2.89881652832031E+0002   2.87976135253906E+0002   2.85369140625000E+0002   2.82178680419922E+0002   2.80666107177734E+0002   2.82267303466797E+0002   2.83847534179688E+0002   2.84915039062500E+0002   2.85660186767578E+0002   2.86274810791016E+0002   2.86920379638672E+0002   2.87712402343750E+0002   2.88505218505859E+0002   2.88220703125000E+0002   2.86179473876953E+0002   2.83709228515625E+0002   2.81431427001953E+0002   2.79358856201172E+0002   2.77408599853516E+0002   2.75509155273438E+0002   2.73612426757813E+0002   2.71689575195313E+0002   2.69725402832031E+0002   2.67713928222656E+0002   2.65655944824219E+0002   2.63558105468750E+0002   2.61433929443359E+0002   2.59307067871094E+0002   2.57214904785156E+0002   2.55207855224609E+0002   2.53332748413086E+0002   2.51601013183594E+0002   2.49971160888672E+0002   2.48368148803711E+0002   2.46713531494141E+0002   2.44938247680664E+0002   2.42980331420898E+0002   2.40781250000000E+0002   2.38296203613281E+0002   2.35553298950195E+0002   2.32847473144531E+0002   2.31092376708984E+0002   2.31495574951172E+0002   2.33869659423828E+0002   2.36880844116211E+0002   2.39655868530273E+0002   2.41887313842773E+0002   2.43482543945313E+0002   2.44389984130859E+0002   2.44535751342773E+0002   2.43788467407227E+0002   2.41915344238281E+0002   2.38523651123047E+0002   2.33160079956055E+0002   2.27707458496094E+0002   2.33045669555664E+0002   2.43501525878906E+0002   2.52175582885742E+0002   2.58958435058594E+0002   2.64185241699219E+0002   2.68057159423828E+0002   2.70794067382813E+0002   2.72697662353516E+0002   2.74068054199219E+0002   2.75125213623047E+0002   2.76000518798828E+0002   2.76761596679688E+0002   2.77437377929688E+0002   2.78035278320313E+0002   2.78553466796875E+0002   2.78989776611328E+0002   2.79348876953125E+0002   2.79646118164063E+0002   2.79907989501953E+0002   2.80169372558594E+0002   2.80469940185547E+0002   2.80851348876953E+0002   2.81356597900391E+0002   2.82031585693359E+0002   2.82927001953125E+0002   2.84094482421875E+0002   2.85572052001953E+0002   2.87372619628906E+0002   2.89489685058594E+0002   2.91904022216797E+0002   2.94572906494141E+0002   2.97399658203125E+0002   3.00183898925781E+0002   3.02571105957031E+0002   3.04080841064453E+0002   3.04327575683594E+0002   3.03311828613281E+0002   3.01406738281250E+0002   2.99062683105469E+0002   2.96604858398438E+0002   2.94215698242188E+0002   2.91985595703125E+0002   2.89958038330078E+0002   2.88155731201172E+0002   2.86592315673828E+0002   2.85272552490234E+0002   2.84184356689453E+0002   2.83290985107422E+0002   2.82533599853516E+0002   2.81840270996094E+0002   2.81132720947266E+0002   2.80331573486328E+0002   2.79366973876953E+0002   2.78199249267578E+0002   2.76844390869141E+0002   2.75393737792969E+0002   2.74023071289063E+0002   2.72985565185547E+0002   2.72559967041016E+0002   2.72932220458984E+0002   2.74086547851563E+0002   2.75829528808594E+0002   2.77915649414063E+0002   2.80140380859375E+0002   2.82355865478516E+0002   2.84436614990234E+0002   2.86223541259766E+0002   2.87479522705078E+0002   2.87913116455078E+0002   2.87301239013672E+0002   2.85607116699219E+0002   2.82937042236328E+0002   2.79387329101563E+0002   2.74960845947266E+0002   2.69603698730469E+0002   2.63291900634766E+0002   2.56084808349609E+0002   2.48115051269531E+0002   2.39545822143555E+0002   2.30549591064453E+0002   2.21343856811523E+0002   2.12313613891602E+0002   2.04245559692383E+0002   1.98531158447266E+0002   1.96687316894531E+0002   1.99002273559570E+0002   2.04304138183594E+0002   2.11236358642578E+0002   2.18949371337891E+0002   2.27009475708008E+0002   2.35187927246094E+0002   2.43319839477539E+0002   2.51206298828125E+0002   2.58564208984375E+0002   2.65130920410156E+0002   2.70908477783203E+0002   2.76174285888672E+0002   2.81229248046875E+0002   2.86260589599609E+0002   2.91354522705078E+0002   2.96526367187500E+0002   3.01715148925781E+0002   3.06741516113281E+0002   3.11282775878906E+0002   3.15026306152344E+0002   3.17989837646484E+0002   3.20538330078125E+0002   3.23074066162109E+0002   3.25867858886719E+0002   3.29061218261719E+0002   3.32669281005859E+0002   3.36493865966797E+0002   3.39906799316406E+0002   3.41673278808594E+0002   3.40534393310547E+0002   3.36547943115234E+0002   3.31004028320313E+0002   3.25081634521484E+0002   3.19360382080078E+0002   3.14028137207031E+0002   3.09105041503906E+0002   3.04554412841797E+0002   3.00325897216797E+0002   2.96370880126953E+0002   2.92646820068359E+0002   2.89117767333984E+0002   2.85753936767578E+0002   2.82530822753906E+0002   2.79428955078125E+0002   2.76435791015625E+0002   2.73555877685547E+0002   2.70860961914063E+0002   2.69000000000000E+0002   2.69000000000000E+0002   2.69000000000000E+0002   2.69000000000000E+0002   2.69000000000000E+0002   2.69000000000000E+0002   2.69000000000000E+0002   2.69000000000000E+0002   2.69000000000000E+0002   2.69000000000000E+0002
   2.69000000000000E+0002   2.69000000000000E+0002   2.69000000000000E+0002   2.69000000000000E+0002   2.69000000000000E+0002   2.69000000000000E+0002   2.69000000000000E+0002   2.71295013427734E+0002   2.74225677490234E+0002   2.77241607666016E+0002   2.80272583007813E+0002   2.83305725097656E+0002   2.86335083007813E+0002   2.89352264404297E+0002   2.92343902587891E+0002   2.95289978027344E+0002   2.98162261962891E+0002   3.00922241210938E+0002   3.03519195556641E+0002   3.05888549804688E+0002   3.07950744628906E+0002   3.09611846923828E+0002   3.10765899658203E+0002   3.11299468994141E+0002   3.11096832275391E+0002   3.10041931152344E+0002   3.08011322021484E+0002   3.04850128173828E+0002   3.00326416015625E+0002   2.94123992919922E+0002   2.86712890625000E+0002   2.84803802490234E+0002   2.88450500488281E+0002   2.91045806884766E+0002   2.92209503173828E+0002   2.92322052001953E+0002   2.91637603759766E+0002   2.90268920898438E+0002   2.88198303222656E+0002   2.85232849121094E+0002   2.80863189697266E+0002   2.78078643798828E+0002   2.81662200927734E+0002   2.83650604248047E+0002   2.84797088623047E+0002   2.85532440185547E+0002   2.86130859375000E+0002   2.86835479736328E+0002   2.87950531005859E+0002   2.89912414550781E+0002   2.90876037597656E+0002   2.86684844970703E+0002   2.83382537841797E+0002   2.80816009521484E+0002   2.78651580810547E+0002   2.76691711425781E+0002   2.74818542480469E+0002   2.72961914062500E+0002   2.71082397460938E+0002   2.69160675048828E+0002   2.67191070556641E+0002   2.65177581787109E+0002   2.63131774902344E+0002   2.61072204589844E+0002   2.59024291992188E+0002   2.57019500732422E+0002   2.55090835571289E+0002   2.53262832641602E+0002   2.51538818359375E+0002   2.49895401000977E+0002   2.48289962768555E+0002   2.46674041748047E+0002   2.45003356933594E+0002   2.43243576049805E+0002   2.41377822875977E+0002   2.39426834106445E+0002   2.37496353149414E+0002   2.35855850219727E+0002   2.34964691162109E+0002   2.35224716186523E+0002   2.36555404663086E+0002   2.38445465087891E+0002   2.40387847900391E+0002   2.42068649291992E+0002   2.43314453125000E+0002   2.44007003784180E+0002   2.44023544311523E+0002   2.43186370849609E+0002   2.41190460205078E+0002   2.37457962036133E+0002   2.30818557739258E+0002   2.19313064575195E+0002   2.29194107055664E+0002   2.43151016235352E+0002   2.53198730468750E+0002   2.60883941650391E+0002   2.66711303710938E+0002   2.70743194580078E+0002   2.73215728759766E+0002   2.74672912597656E+0002   2.75616851806641E+0002   2.76334747314453E+0002   2.76954742431641E+0002   2.77525238037109E+0002   2.78059539794922E+0002   2.78556793212891E+0002   2.79012329101563E+0002   2.79423492431641E+0002   2.79793670654297E+0002   2.80134124755859E+0002   2.80464111328125E+0002   2.80809509277344E+0002   2.81200805664063E+0002   2.81671508789063E+0002   2.82258453369141E+0002   2.83006042480469E+0002   2.83975952148438E+0002   2.85251373291016E+0002   2.86899597167969E+0002   2.88930572509766E+0002   2.91334899902344E+0002   2.94119354248047E+0002   2.97292388916016E+0002   3.00821868896484E+0002   3.04546997070313E+0002   3.08007751464844E+0002   3.10298339843750E+0002   3.10480865478516E+0002   3.08590820312500E+0002   3.05574127197266E+0002   3.02282226562500E+0002   2.99128265380859E+0002   2.96249298095703E+0002   2.93668762207031E+0002   2.91373779296875E+0002   2.89345886230469E+0002   2.87573394775391E+0002   2.86052520751953E+0002   2.84768524169922E+0002   2.83670684814453E+0002   2.82680969238281E+0002   2.81718383789063E+0002   2.80706390380859E+0002   2.79572967529297E+0002   2.78254669189453E+0002   2.76708007812500E+0002   2.74927246093750E+0002   2.72971923828125E+0002   2.71013214111328E+0002   2.69395599365234E+0002   2.68622467041016E+0002   2.69092132568359E+0002   2.70745086669922E+0002   2.73150756835938E+0002   2.75887084960938E+0002   2.78707153320313E+0002   2.81493103027344E+0002   2.84156677246094E+0002   2.86528381347656E+0002   2.88240692138672E+0002   2.88714996337891E+0002   2.87472747802734E+0002   2.84562988281250E+0002   2.80437744140625E+0002   2.75487152099609E+0002   2.69865051269531E+0002   2.63570220947266E+0002   2.56557891845703E+0002   2.48799911499023E+0002   2.40293884277344E+0002   2.31044906616211E+0002   2.21049484252930E+0002   2.10313018798828E+0002   1.98968338012695E+0002   1.87703475952148E+0002   1.78832321166992E+0002   1.76415557861328E+0002   1.81223144531250E+0002   1.89683380126953E+0002   1.99201721191406E+0002   2.08845504760742E+0002   2.18324890136719E+0002   2.27526855468750E+0002   2.36368148803711E+0002   2.44746902465820E+0002   2.52542953491211E+0002   2.59673461914063E+0002   2.66167205810547E+0002   2.72165435791016E+0002   2.77843109130859E+0002   2.83339172363281E+0002   2.88733062744141E+0002   2.94041351318359E+0002   2.99210052490234E+0002   3.04104919433594E+0002   3.08532165527344E+0002   3.12331512451172E+0002   3.15501007080078E+0002   3.18217926025391E+0002   3.20729827880859E+0002   3.23238311767578E+0002   3.25841308593750E+0002   3.28502136230469E+0002   3.31004302978516E+0002   3.32900573730469E+0002   3.33565399169922E+0002   3.32500305175781E+0002   3.29724090576172E+0002   3.25753234863281E+0002   3.21204162597656E+0002   3.16515594482422E+0002   3.11922119140625E+0002   3.07523620605469E+0002   3.03349029541016E+0002   2.99394348144531E+0002   2.95641998291016E+0002   2.92070068359375E+0002   2.88656585693359E+0002   2.85381195068359E+0002   2.82225830078125E+0002   2.79175598144531E+0002   2.76221374511719E+0002   2.73371429443359E+0002   2.70706848144531E+0002   2.69000000000000E+0002   2.69000000000000E+0002   2.69000000000000E+0002   2.69000000000000E+0002   2.69000000000000E+0002   2.69000000000000E+0002   2.69000000000000E+0002   2.69000000000000E+0002   2.69000000000000E+0002   2.69000000000000E+0002
   2.69000000000000E+0002   2.69000000000000E+0002   2.69000000000000E+0002   2.69000000000000E+0002   2.69000000000000E+0002   2.69000000000000E+0002   2.69000000000000E+0002   2.71336212158203E+0002   2.74265991210938E+0002   2.77280792236328E+0002   2.80316406250000E+0002   2.83358520507813E+0002   2.86400817871094E+0002   2.89435394287109E+0002   2.92450073242188E+0002   2.95426391601563E+0002   2.98338012695313E+0002   3.01148590087891E+0002   3.03809722900391E+0002   3.06258514404297E+0002   3.08416259765625E+0002   3.10188323974609E+0002   3.11466583251953E+0002   3.12135620117188E+0002   3.12081695556641E+0002   3.11202545166016E+0002   3.09414337158203E+0002   3.06657287597656E+0002   3.02926177978516E+0002   2.98441741943359E+0002   2.94232543945313E+0002   2.92316406250000E+0002   2.92746887207031E+0002   2.93610626220703E+0002   2.93973663330078E+0002   2.93688903808594E+0002   2.92798919677734E+0002   2.91346954345703E+0002   2.89334442138672E+0002   2.86744689941406E+0002   2.83849182128906E+0002   2.82395660400391E+0002   2.83260162353516E+0002   2.84363220214844E+0002   2.85093505859375E+0002   2.85540771484375E+0002   2.85880767822266E+0002   2.86317169189453E+0002   2.87109069824219E+0002   2.88477600097656E+0002   2.88640991210938E+0002   2.85311767578125E+0002   2.82233764648438E+0002   2.79795227050781E+0002   2.77746459960938E+0002   2.75894470214844E+0002   2.74115966796875E+0002   2.72337524414063E+0002   2.70519592285156E+0002   2.68645385742188E+0002   2.66713317871094E+0002   2.64732635498047E+0002   2.62720428466797E+0002   2.60700073242188E+0002   2.58699279785156E+0002   2.56747344970703E+0002   2.54870452880859E+0002   2.53085296630859E+0002   2.51393676757813E+0002   2.49781524658203E+0002   2.48223510742188E+0002   2.46691146850586E+0002   2.45160476684570E+0002   2.43619216918945E+0002   2.42075775146484E+0002   2.40574417114258E+0002   2.39217758178711E+0002   2.38183563232422E+0002   2.37694320678711E+0002   2.37901046752930E+0002   2.38754928588867E+0002   2.40020797729492E+0002   2.41412933349609E+0002   2.42695907592773E+0002   2.43699600219727E+0002   2.44292831420898E+0002   2.44350570678711E+0002   2.43722763061523E+0002   2.42204437255859E+0002   2.39537399291992E+0002   2.35708847045898E+0002   2.33033065795898E+0002   2.37913696289063E+0002   2.47437973022461E+0002   2.56593872070313E+0002   2.64575531005859E+0002   2.70987396240234E+0002   2.74956451416016E+0002   2.76572845458984E+0002   2.77094329833984E+0002   2.77357330322266E+0002   2.77627471923828E+0002   2.77952514648438E+0002   2.78322753906250E+0002   2.78718139648438E+0002   2.79120452880859E+0002   2.79516571044922E+0002   2.79899597167969E+0002   2.80269592285156E+0002   2.80633697509766E+0002   2.81005523681641E+0002   2.81404235839844E+0002   2.81852844238281E+0002   2.82376892089844E+0002   2.83004028320313E+0002   2.83767791748047E+0002   2.84729888916016E+0002   2.86039062500000E+0002   2.87854400634766E+0002   2.90124237060547E+0002   2.92801849365234E+0002   2.95939208984375E+0002   2.99631072998047E+0002   3.03981567382813E+0002   3.09026794433594E+0002   3.14418701171875E+0002   3.18552917480469E+0002   3.18623992919922E+0002   3.14799499511719E+0002   3.09877380371094E+0002   3.05302917480469E+0002   3.01355163574219E+0002   2.97978210449219E+0002   2.95065673828125E+0002   2.92524353027344E+0002   2.90284454345703E+0002   2.88306121826172E+0002   2.86595031738281E+0002   2.85167449951172E+0002   2.83945495605469E+0002   2.82803283691406E+0002   2.81646728515625E+0002   2.80402740478516E+0002   2.79002258300781E+0002   2.77376831054688E+0002   2.75461822509766E+0002   2.73205413818359E+0002   2.70593139648438E+0002   2.67723785400391E+0002   2.65009735107422E+0002   2.63437011718750E+0002   2.64079101562500E+0002   2.66710205078125E+0002   2.70196075439453E+0002   2.73803253173828E+0002   2.77313873291016E+0002   2.80736328125000E+0002   2.84121612548828E+0002   2.87412689208984E+0002   2.90171813964844E+0002   2.91230377197266E+0002   2.89286346435547E+0002   2.84651245117188E+0002   2.78692810058594E+0002   2.72223815917969E+0002   2.65432922363281E+0002   2.58256774902344E+0002   2.50573486328125E+0002   2.42263793945313E+0002   2.33213943481445E+0002   2.23293014526367E+0002   2.12317855834961E+0002   2.00012023925781E+0002   1.85981948852539E+0002   1.69925567626953E+0002   1.53773010253906E+0002   1.49793304443359E+0002   1.61025024414063E+0002   1.74524978637695E+0002   1.87196411132813E+0002   1.98947418212891E+0002   2.09925537109375E+0002   2.20222000122070E+0002   2.29870117187500E+0002   2.38866455078125E+0002   2.47195190429688E+0002   2.54860916137695E+0002   2.61916778564453E+0002   2.68464721679688E+0002   2.74626129150391E+0002   2.80508605957031E+0002   2.86184509277344E+0002   2.91679168701172E+0002   2.96959960937500E+0002   3.01926635742188E+0002   3.06419830322266E+0002   3.10280670166016E+0002   3.13461181640625E+0002   3.16084594726563E+0002   3.18367156982422E+0002   3.20490081787109E+0002   3.22530303955078E+0002   3.24442871093750E+0002   3.26056945800781E+0002   3.27088989257813E+0002   3.27211853027344E+0002   3.26198089599609E+0002   3.24054962158203E+0002   3.21019256591797E+0002   3.17420867919922E+0002   3.13550720214844E+0002   3.09609039306641E+0002   3.05712921142578E+0002   3.01921691894531E+0002   2.98259918212891E+0002   2.94732696533203E+0002   2.91335205078125E+0002   2.88057861328125E+0002   2.84889221191406E+0002   2.81817779541016E+0002   2.78833404541016E+0002   2.75930816650391E+0002   2.73122985839844E+0002   2.70504058837891E+0002   2.69000000000000E+0002   2.69000000000000E+0002   2.69000000000000E+0002   2.69000000000000E+0002   2.69000000000000E+0002   2.69000000000000E+0002   2.69000000000000E+0002   2.69000000000000E+0002   2.69000000000000E+0002   2.69000000000000E+0002
   2.69000000000000E+0002   2.69000000000000E+0002   2.69000000000000E+0002   2.69000000000000E+0002   2.69000000000000E+0002   2.69000000000000E+0002   2.69000000000000E+0002   2.71444152832031E+0002   2.74320587158203E+0002   2.77321258544922E+0002   2.80358642578125E+0002   2.83411895751953E+0002   2.86473724365234E+0002   2.89537506103516E+0002   2.92593292236328E+0002   2.95625854492188E+0002   2.98612701416016E+0002   3.01522064208984E+0002   3.04309844970703E+0002   3.06916748046875E+0002   3.09265136718750E+0002   3.11257202148438E+0002   3.12776733398438E+0002   3.13696746826172E+0002   3.13895263671875E+0002   3.13277404785156E+0002   3.11798950195313E+0002   3.09489837646484E+0002   3.06494079589844E+0002   3.03161193847656E+0002   3.00148223876953E+0002   2.98170989990234E+0002   2.97285430908203E+0002   2.96887756347656E+0002   2.96431182861328E+0002   2.95665466308594E+0002   2.94518798828125E+0002   2.92990844726563E+0002   2.91118438720703E+0002   2.89016967773438E+0002   2.87032318115234E+0002   2.85791625976563E+0002   2.85494415283203E+0002   2.85606109619141E+0002   2.85698699951172E+0002   2.85662292480469E+0002   2.85535095214844E+0002   2.85409271240234E+0002   2.85365570068359E+0002   2.85270782470703E+0002   2.84427215576172E+0002   2.82496459960938E+0002   2.80320617675781E+0002   2.78375701904297E+0002   2.76651092529297E+0002   2.75030731201172E+0002   2.73418548583984E+0002   2.71756195068359E+0002   2.70015563964844E+0002   2.68189636230469E+0002   2.66285552978516E+0002   2.64320251464844E+0002   2.62318054199219E+0002   2.60308746337891E+0002   2.58325042724609E+0002   2.56398803710938E+0002   2.54556015014648E+0002   2.52811660766602E+0002   2.51167404174805E+0002   2.49613159179688E+0002   2.48132339477539E+0002   2.46708541870117E+0002   2.45331634521484E+0002   2.44003219604492E+0002   2.42742675781250E+0002   2.41594589233398E+0002   2.40635742187500E+0002   2.39972213745117E+0002   2.39712936401367E+0002   2.39917572021484E+0002   2.40551269531250E+0002   2.41488632202148E+0002   2.42562164306641E+0002   2.43610107421875E+0002   2.44496826171875E+0002   2.45111190795898E+0002   2.45357894897461E+0002   2.45153747558594E+0002   2.44447204589844E+0002   2.43315475463867E+0002   2.42279357910156E+0002   2.42835235595703E+0002   2.46709823608398E+0002   2.53392471313477E+0002   2.61244415283203E+0002   2.69507141113281E+0002   2.77391021728516E+0002   2.81245300292969E+0002   2.80641021728516E+0002   2.79610351562500E+0002   2.79042877197266E+0002   2.78853393554688E+0002   2.78902801513672E+0002   2.79095275878906E+0002   2.79370574951172E+0002   2.79691314697266E+0002   2.80035003662109E+0002   2.80389923095703E+0002   2.80752563476563E+0002   2.81126403808594E+0002   2.81520751953125E+0002   2.81949493408203E+0002   2.82429870605469E+0002   2.82980651855469E+0002   2.83619384765625E+0002   2.84358673095703E+0002   2.85209014892578E+0002   2.86356109619141E+0002   2.88428649902344E+0002   2.90940551757813E+0002   2.93817565917969E+0002   2.97205017089844E+0002   3.01294494628906E+0002   3.06359191894531E+0002   3.12809448242188E+0002   3.21111450195313E+0002   3.30042724609375E+0002   3.29756988525391E+0002   3.21183471679688E+0002   3.13517486572266E+0002   3.07620635986328E+0002   3.02997955322266E+0002   2.99243591308594E+0002   2.96094970703125E+0002   2.93379425048828E+0002   2.90975097656250E+0002   2.88797363281250E+0002   2.86866760253906E+0002   2.85383209228516E+0002   2.84159027099609E+0002   2.82945800781250E+0002   2.81663574218750E+0002   2.80255676269531E+0002   2.78657196044922E+0002   2.76790832519531E+0002   2.74563873291016E+0002   2.71861633300781E+0002   2.68542480468750E+0002   2.64471160888672E+0002   2.59796783447266E+0002   2.56183715820313E+0002   2.57300079345703E+0002   2.62115386962891E+0002   2.67264862060547E+0002   2.71864379882813E+0002   2.76016998291016E+0002   2.79994995117188E+0002   2.84094299316406E+0002   2.88586120605469E+0002   2.93395416259766E+0002   2.96552032470703E+0002   2.93485229492188E+0002   2.85690399169922E+0002   2.77285736083984E+0002   2.69227966308594E+0002   2.61374114990234E+0002   2.53450637817383E+0002   2.45216522216797E+0002   2.36465270996094E+0002   2.26997726440430E+0002   2.16584686279297E+0002   2.04914810180664E+0002   1.91508087158203E+0002   1.75547500610352E+0002   1.55516174316406E+0002   1.28419723510742E+0002   1.19717224121094E+0002   1.42918304443359E+0002   1.60950653076172E+0002   1.76246170043945E+0002   1.89842956542969E+0002   2.02207015991211E+0002   2.13561172485352E+0002   2.24020904541016E+0002   2.33654937744141E+0002   2.42516479492188E+0002   2.50664184570313E+0002   2.58175323486328E+0002   2.65146301269531E+0002   2.71681243896484E+0002   2.77876312255859E+0002   2.83806884765625E+0002   2.89517333984375E+0002   2.95008117675781E+0002   3.00209991455078E+0002   3.04942626953125E+0002   3.08923217773438E+0002   3.11977935791016E+0002   3.14273712158203E+0002   3.16140808105469E+0002   3.17801879882813E+0002   3.19323852539063E+0002   3.20658203125000E+0002   3.21674285888672E+0002   3.22189971923828E+0002   3.22021331787109E+0002   3.21050781250000E+0002   3.19280639648438E+0002   3.16831665039063E+0002   3.13889495849609E+0002   3.10641845703125E+0002   3.07240509033203E+0002   3.03791595458984E+0002   3.00361846923828E+0002   2.96989288330078E+0002   2.93692962646484E+0002   2.90479949951172E+0002   2.87350463867188E+0002   2.84300628662109E+0002   2.81324737548828E+0002   2.78417236328125E+0002   2.75576782226563E+0002   2.72821990966797E+0002   2.70264739990234E+0002   2.69000000000000E+0002   2.69000000000000E+0002   2.69000000000000E+0002   2.69000000000000E+0002   2.69000000000000E+0002   2.69000000000000E+0002   2.69000000000000E+0002   2.69000000000000E+0002   2.69000000000000E+0002   2.69000000000000E+0002
   2.69000000000000E+0002   2.69000000000000E+0002   2.69000000000000E+0002   2.69000000000000E+0002   2.69000000000000E+0002   2.69000000000000E+0002   2.69000000000000E+0002   2.71483886718750E+0002   2.74351226806641E+0002   2.77348663330078E+0002   2.80390594482422E+0002   2.83457672119141E+0002   2.86544403076172E+0002   2.89646820068359E+0002   2.92758636474609E+0002   2.95869445800781E+0002   2.98962951660156E+0002   3.02014495849609E+0002   3.04987731933594E+0002   3.07830078125000E+0002   3.10467010498047E+0002   3.12796508789063E+0002   3.14686828613281E+0002   3.15983642578125E+0002   3.16533630371094E+0002   3.16225524902344E+0002   3.15034790039063E+0002   3.13053100585938E+0002   3.10496856689453E+0002   3.07703643798828E+0002   3.05090118408203E+0002   3.02996032714844E+0002   3.01478973388672E+0002   3.00320159912109E+0002   2.99237854003906E+0002   2.98036895751953E+0002   2.96627197265625E+0002   2.94996337890625E+0002   2.93193145751953E+0002   2.91338775634766E+0002   2.89646820068359E+0002   2.88355773925781E+0002   2.87523803710938E+0002   2.86968292236328E+0002   2.86465179443359E+0002   2.85884185791016E+0002   2.85183227539063E+0002   2.84367248535156E+0002   2.83443634033203E+0002   2.82364929199219E+0002   2.81036499023438E+0002   2.79518585205078E+0002   2.78044311523438E+0002   2.76713287353516E+0002   2.75454254150391E+0002   2.74164855957031E+0002   2.72776306152344E+0002   2.71256561279297E+0002   2.69599121093750E+0002   2.67813690185547E+0002   2.65920166015625E+0002   2.63945648193359E+0002   2.61923400878906E+0002   2.59891784667969E+0002   2.57892364501953E+0002   2.55965042114258E+0002   2.54140899658203E+0002   2.52436019897461E+0002   2.50850112915039E+0002   2.49371475219727E+0002   2.47985290527344E+0002   2.46681045532227E+0002   2.45457260131836E+0002   2.44323760986328E+0002   2.43303161621094E+0002   2.42432312011719E+0002   2.41762222290039E+0002   2.41352493286133E+0002   2.41255599975586E+0002   2.41493728637695E+0002   2.42040969848633E+0002   2.42824401855469E+0002   2.43743026733398E+0002   2.44690277099609E+0002   2.45569229125977E+0002   2.46299530029297E+0002   2.46822525024414E+0002   2.47113647460938E+0002   2.47216125488281E+0002   2.47318084716797E+0002   2.47875457763672E+0002   2.49636184692383E+0002   2.53235824584961E+0002   2.58652893066406E+0002   2.65499206542969E+0002   2.73783416748047E+0002   2.84426208496094E+0002   2.88665649414063E+0002   2.83804260253906E+0002   2.81444335937500E+0002   2.80321319580078E+0002   2.79841156005859E+0002   2.79713928222656E+0002   2.79788177490234E+0002   2.79979888916016E+0002   2.80240875244141E+0002   2.80543640136719E+0002   2.80873657226563E+0002   2.81225280761719E+0002   2.81599456787109E+0002   2.82002136230469E+0002   2.82443481445313E+0002   2.82936676025391E+0002   2.83496704101563E+0002   2.84137634277344E+0002   2.84867187500000E+0002   2.85679107666016E+0002   2.86704711914063E+0002   2.88879455566406E+0002   2.91426635742188E+0002   2.94333068847656E+0002   2.97779174804688E+0002   3.01990966796875E+0002   3.07312957763672E+0002   3.14357360839844E+0002   3.24338043212891E+0002   3.39832824707031E+0002   3.38595306396484E+0002   3.24233428955078E+0002   3.15064239501953E+0002   3.08635253906250E+0002   3.03782897949219E+0002   2.99914398193359E+0002   2.96698852539063E+0002   2.93930572509766E+0002   2.91461547851563E+0002   2.89157379150391E+0002   2.86857818603516E+0002   2.85537902832031E+0002   2.84408905029297E+0002   2.83163726806641E+0002   2.81805603027344E+0002   2.80297485351563E+0002   2.78577758789063E+0002   2.76562622070313E+0002   2.74138977050781E+0002   2.71143432617188E+0002   2.67316345214844E+0002   2.62209045410156E+0002   2.55048217773438E+0002   2.45741653442383E+0002   2.48909072875977E+0002   2.58234924316406E+0002   2.65118347167969E+0002   2.70416320800781E+0002   2.74901031494141E+0002   2.79120330810547E+0002   2.83586639404297E+0002   2.88967163085938E+0002   2.96311431884766E+0002   3.06070831298828E+0002   2.99614471435547E+0002   2.86089691162109E+0002   2.75270965576172E+0002   2.65986541748047E+0002   2.57384277343750E+0002   2.48959167480469E+0002   2.40377655029297E+0002   2.31378616333008E+0002   2.21715515136719E+0002   2.11112976074219E+0002   1.99221481323242E+0002   1.85556915283203E+0002   1.69431259155273E+0002   1.50063323974609E+0002   1.28664962768555E+0002   1.19793952941895E+0002   1.33157165527344E+0002   1.50707443237305E+0002   1.67107223510742E+0002   1.81985473632813E+0002   1.95495864868164E+0002   2.07791336059570E+0002   2.18995681762695E+0002   2.29216735839844E+0002   2.38554428100586E+0002   2.47106872558594E+0002   2.54974777221680E+0002   2.62262084960938E+0002   2.69072357177734E+0002   2.75503112792969E+0002   2.81641510009766E+0002   2.87561492919922E+0002   2.93317871093750E+0002   2.98914245605469E+0002   3.04173645019531E+0002   3.08484649658203E+0002   3.11215576171875E+0002   3.12834197998047E+0002   3.14082336425781E+0002   3.15230590820313E+0002   3.16289916992188E+0002   3.17181304931641E+0002   3.17788818359375E+0002   3.17983428955078E+0002   3.17650268554688E+0002   3.16720367431641E+0002   3.15192993164063E+0002   3.13134765625000E+0002   3.10655761718750E+0002   3.07878265380859E+0002   3.04912689208984E+0002   3.01846313476563E+0002   2.98741699218750E+0002   2.95640594482422E+0002   2.92568725585938E+0002   2.89540649414063E+0002   2.86563232421875E+0002   2.83638488769531E+0002   2.80765502929688E+0002   2.77942718505859E+0002   2.75172668457031E+0002   2.72480529785156E+0002   2.70002532958984E+0002   2.69000000000000E+0002   2.69000000000000E+0002   2.69000000000000E+0002   2.69000000000000E+0002   2.69000000000000E+0002   2.69000000000000E+0002   2.69000000000000E+0002   2.69000000000000E+0002   2.69000000000000E+0002   2.69000000000000E+0002
   2.69000000000000E+0002   2.69000000000000E+0002   2.69000000000000E+0002   2.69000000000000E+0002   2.69000000000000E+0002   2.69000000000000E+0002   2.69000000000000E+0002   2.71441314697266E+0002   2.74349700927734E+0002   2.77354766845703E+0002   2.80402954101563E+0002   2.83484832763672E+0002   2.86599273681641E+0002   2.89746124267578E+0002   2.92923980712891E+0002   2.96128967285156E+0002   2.99353179931641E+0002   3.02582550048828E+0002   3.05792907714844E+0002   3.08944122314453E+0002   3.11970916748047E+0002   3.14770355224609E+0002   3.17189331054688E+0002   3.19022918701172E+0002   3.20043609619141E+0002   3.20074920654297E+0002   3.19082580566406E+0002   3.17215484619141E+0002   3.14765411376953E+0002   3.12084075927734E+0002   3.09499450683594E+0002   3.07232238769531E+0002   3.05334716796875E+0002   3.03707275390625E+0002   3.02186218261719E+0002   3.00631286621094E+0002   2.98967468261719E+0002   2.97188842773438E+0002   2.95346343994141E+0002   2.93535034179688E+0002   2.91875366210938E+0002   2.90464843750000E+0002   2.89310333251953E+0002   2.88313079833984E+0002   2.87329345703125E+0002   2.86234558105469E+0002   2.84945190429688E+0002   2.83414062500000E+0002   2.81630554199219E+0002   2.79670593261719E+0002   2.77804962158203E+0002   2.76422393798828E+0002   2.75587066650391E+0002   2.74978118896484E+0002   2.74295959472656E+0002   2.73404937744141E+0002   2.72269592285156E+0002   2.70897186279297E+0002   2.69312347412109E+0002   2.67547027587891E+0002   2.65636718750000E+0002   2.63619781494141E+0002   2.61538757324219E+0002   2.59442565917969E+0002   2.57386383056641E+0002   2.55425689697266E+0002   2.53603912353516E+0002   2.51939651489258E+0002   2.50425216674805E+0002   2.49038284301758E+0002   2.47757949829102E+0002   2.46575057983398E+0002   2.45494750976563E+0002   2.44533859252930E+0002   2.43716644287109E+0002   2.43071380615234E+0002   2.42628112792969E+0002   2.42415786743164E+0002   2.42455917358398E+0002   2.42753662109375E+0002   2.43290695190430E+0002   2.44024978637695E+0002   2.44897430419922E+0002   2.45841766357422E+0002   2.46793914794922E+0002   2.47700790405273E+0002   2.48530731201172E+0002   2.49289703369141E+0002   2.50047607421875E+0002   2.50975540161133E+0002   2.52372543334961E+0002   2.54618530273438E+0002   2.58008636474609E+0002   2.62608428955078E+0002   2.68339752197266E+0002   2.75159179687500E+0002   2.82491973876953E+0002   2.85602020263672E+0002   2.83715881347656E+0002   2.81958129882813E+0002   2.80961944580078E+0002   2.80487548828125E+0002   2.80331756591797E+0002   2.80368621826172E+0002   2.80523040771484E+0002   2.80750701904297E+0002   2.81026397705078E+0002   2.81336822509766E+0002   2.81676330566406E+0002   2.82044616699219E+0002   2.82445434570313E+0002   2.82885955810547E+0002   2.83376800537109E+0002   2.83932098388672E+0002   2.84569915771484E+0002   2.85315795898438E+0002   2.86226226806641E+0002   2.87476348876953E+0002   2.89287658691406E+0002   2.91581909179688E+0002   2.94319885253906E+0002   2.97602661132813E+0002   3.01599945068359E+0002   3.06555969238281E+0002   3.12813415527344E+0002   3.20649322509766E+0002   3.28510864257813E+0002   3.28366516113281E+0002   3.20905364990234E+0002   3.13745208740234E+0002   3.08089233398438E+0002   3.03607666015625E+0002   2.99947875976563E+0002   2.96864288330078E+0002   2.94188079833984E+0002   2.91794555664063E+0002   2.89588745117188E+0002   2.87582916259766E+0002   2.86067291259766E+0002   2.84798309326172E+0002   2.83495666503906E+0002   2.82095367431641E+0002   2.80547943115234E+0002   2.78789489746094E+0002   2.76736145019531E+0002   2.74274993896484E+0002   2.71242828369141E+0002   2.67381347656250E+0002   2.62248382568359E+0002   2.55104187011719E+0002   2.46054550170898E+0002   2.48972427368164E+0002   2.57984039306641E+0002   2.64677795410156E+0002   2.69785369873047E+0002   2.74050262451172E+0002   2.78006134033203E+0002   2.82148437500000E+0002   2.87101684570313E+0002   2.93743560791016E+0002   3.01575592041016E+0002   2.95567291259766E+0002   2.82564056396484E+0002   2.71604644775391E+0002   2.62070434570313E+0002   2.53232467651367E+0002   2.44632568359375E+0002   2.35957824707031E+0002   2.26951538085938E+0002   2.17362228393555E+0002   2.06914062500000E+0002   1.95288558959961E+0002   1.82122375488281E+0002   1.67077987670898E+0002   1.50218399047852E+0002   1.33215713500977E+0002   1.20274162292480E+0002   1.27097976684570E+0002   1.43072631835938E+0002   1.59787597656250E+0002   1.75560928344727E+0002   1.90014556884766E+0002   2.03115737915039E+0002   2.14954025268555E+0002   2.25661895751953E+0002   2.35378128051758E+0002   2.44234664916992E+0002   2.52354660034180E+0002   2.59853759765625E+0002   2.66841003417969E+0002   2.73419769287109E+0002   2.79690521240234E+0002   2.85758117675781E+0002   2.91745513916016E+0002   2.97806823730469E+0002   3.04040405273438E+0002   3.09476104736328E+0002   3.11254058837891E+0002   3.11570404052734E+0002   3.12061920166016E+0002   3.12729522705078E+0002   3.13416351318359E+0002   3.13985107421875E+0002   3.14317687988281E+0002   3.14311676025391E+0002   3.13887084960938E+0002   3.12998291015625E+0002   3.11642883300781E+0002   3.09859863281250E+0002   3.07717834472656E+0002   3.05298431396484E+0002   3.02681427001953E+0002   2.99935668945313E+0002   2.97115417480469E+0002   2.94260772705078E+0002   2.91399475097656E+0002   2.88549865722656E+0002   2.85722991943359E+0002   2.82924926757813E+0002   2.80158447265625E+0002   2.77425323486328E+0002   2.74731842041016E+0002   2.72110687255859E+0002   2.69734069824219E+0002   2.69000000000000E+0002   2.69000000000000E+0002   2.69000000000000E+0002   2.69000000000000E+0002   2.69000000000000E+0002   2.69000000000000E+0002   2.69000000000000E+0002   2.69000000000000E+0002   2.69000000000000E+0002   2.69000000000000E+0002
   2.69000000000000E+0002   2.69000000000000E+0002   2.69000000000000E+0002   2.69000000000000E+0002   2.69000000000000E+0002   2.69000000000000E+0002   2.69000000000000E+0002   2.71448883056641E+0002   2.74341491699219E+0002   2.77337799072266E+0002   2.80386413574219E+0002   2.83480499267578E+0002   2.86621795654297E+0002   2.89814086914063E+0002   2.93061584472656E+0002   2.96368225097656E+0002   2.99736724853516E+0002   3.03167022705078E+0002   3.06653015136719E+0002   3.10176147460938E+0002   3.13693084716797E+0002   3.17113922119141E+0002   3.20269378662109E+0002   3.22878082275391E+0002   3.24561248779297E+0002   3.24973876953125E+0002   3.24024139404297E+0002   3.21968078613281E+0002   3.19262939453125E+0002   3.16355499267578E+0002   3.13569793701172E+0002   3.11080017089844E+0002   3.08916534423828E+0002   3.06996520996094E+0002   3.05181457519531E+0002   3.03346435546875E+0002   3.01431945800781E+0002   2.99453613281250E+0002   2.97476623535156E+0002   2.95583709716797E+0002   2.93848693847656E+0002   2.92309143066406E+0002   2.90940856933594E+0002   2.89653167724609E+0002   2.88313751220703E+0002   2.86785919189453E+0002   2.84954406738281E+0002   2.82728546142578E+0002   2.80045349121094E+0002   2.76975433349609E+0002   2.74135040283203E+0002   2.72814483642578E+0002   2.72985626220703E+0002   2.73370574951172E+0002   2.73369079589844E+0002   2.72897521972656E+0002   2.72003021240234E+0002   2.70751495361328E+0002   2.69206542968750E+0002   2.67425750732422E+0002   2.65460693359375E+0002   2.63359161376953E+0002   2.61170684814453E+0002   2.58954132080078E+0002   2.56783660888672E+0002   2.54744064331055E+0002   2.52905654907227E+0002   2.51291870117188E+0002   2.49873840332031E+0002   2.48600982666016E+0002   2.47435852050781E+0002   2.46368606567383E+0002   2.45414154052734E+0002   2.44601028442383E+0002   2.43958663940430E+0002   2.43508529663086E+0002   2.43262176513672E+0002   2.43224121093750E+0002   2.43394851684570E+0002   2.43770446777344E+0002   2.44340560913086E+0002   2.45086441040039E+0002   2.45980514526367E+0002   2.46987350463867E+0002   2.48067443847656E+0002   2.49185180664063E+0002   2.50320938110352E+0002   2.51485916137695E+0002   2.52738250732422E+0002   2.54195785522461E+0002   2.56033081054688E+0002   2.58443634033203E+0002   2.61568908691406E+0002   2.65440429687500E+0002   2.69967407226563E+0002   2.74866821289063E+0002   2.79298248291016E+0002   2.81740600585938E+0002   2.82009918212891E+0002   2.81513366699219E+0002   2.81061737060547E+0002   2.80820434570313E+0002   2.80763092041016E+0002   2.80835968017578E+0002   2.80995788574219E+0002   2.81214416503906E+0002   2.81475738525391E+0002   2.81771728515625E+0002   2.82099212646484E+0002   2.82457885742188E+0002   2.82849609375000E+0002   2.83278778076172E+0002   2.83753326416016E+0002   2.84286804199219E+0002   2.84901031494141E+0002   2.85632415771484E+0002   2.86545623779297E+0002   2.87744995117188E+0002   2.89328979492188E+0002   2.91330627441406E+0002   2.93774047851563E+0002   2.96720703125000E+0002   3.00253845214844E+0002   3.04446594238281E+0002   3.09278228759766E+0002   3.14336303710938E+0002   3.18121307373047E+0002   3.18304046630859E+0002   3.15011505126953E+0002   3.10568603515625E+0002   3.06328094482422E+0002   3.02616851806641E+0002   2.99414550781250E+0002   2.96629119873047E+0002   2.94169372558594E+0002   2.91961120605469E+0002   2.89959136962891E+0002   2.88173675537109E+0002   2.86639068603516E+0002   2.85270355224609E+0002   2.83930572509766E+0002   2.82530975341797E+0002   2.81006652832031E+0002   2.79291839599609E+0002   2.77310607910156E+0002   2.74970977783203E+0002   2.72158233642578E+0002   2.68731079101563E+0002   2.64559509277344E+0002   2.59807067871094E+0002   2.56109405517578E+0002   2.56929931640625E+0002   2.61289031982422E+0002   2.65950958251953E+0002   2.70002319335938E+0002   2.73507995605469E+0002   2.76710449218750E+0002   2.79871917724609E+0002   2.83204711914063E+0002   2.86531188964844E+0002   2.87989501953125E+0002   2.83931945800781E+0002   2.75551391601563E+0002   2.66364746093750E+0002   2.57458190917969E+0002   2.48854568481445E+0002   2.40386825561523E+0002   2.31869567871094E+0002   2.23103576660156E+0002   2.13861709594727E+0002   2.03888183593750E+0002   1.92911575317383E+0002   1.80676513671875E+0002   1.67031066894531E+0002   1.52144042968750E+0002   1.36878646850586E+0002   1.23505203247070E+0002   1.21502128601074E+0002   1.36805023193359E+0002   1.53947631835938E+0002   1.70606353759766E+0002   1.85934173583984E+0002   1.99717834472656E+0002   2.12045608520508E+0002   2.23097930908203E+0002   2.33060180664063E+0002   2.42097747802734E+0002   2.50354339599609E+0002   2.57956237792969E+0002   2.65017425537109E+0002   2.71644500732422E+0002   2.77943756103516E+0002   2.84033782958984E+0002   2.90071136474609E+0002   2.96306762695313E+0002   3.03216735839844E+0002   3.11752685546875E+0002   3.10627807617188E+0002   3.09774719238281E+0002   3.09816253662109E+0002   3.10203857421875E+0002   3.10661376953125E+0002   3.11026611328125E+0002   3.11188446044922E+0002   3.11064147949219E+0002   3.10595245361328E+0002   3.09749877929688E+0002   3.08525268554688E+0002   3.06945861816406E+0002   3.05056762695313E+0002   3.02914184570313E+0002   3.00576385498047E+0002   2.98097015380859E+0002   2.95521545410156E+0002   2.92885955810547E+0002   2.90217437744141E+0002   2.87535522460938E+0002   2.84853546142578E+0002   2.82180145263672E+0002   2.79520721435547E+0002   2.76879730224609E+0002   2.74267089843750E+0002   2.71724212646484E+0002   2.69479583740234E+0002   2.69000000000000E+0002   2.69000000000000E+0002   2.69000000000000E+0002   2.69000000000000E+0002   2.69000000000000E+0002   2.69000000000000E+0002   2.69000000000000E+0002   2.69000000000000E+0002   2.69000000000000E+0002   2.69000000000000E+0002
   2.69000000000000E+0002   2.69000000000000E+0002   2.69000000000000E+0002   2.69000000000000E+0002   2.69000000000000E+0002   2.69000000000000E+0002   2.69000000000000E+0002   2.71491058349609E+0002   2.74319274902344E+0002   2.77288177490234E+0002   2.80329223632813E+0002   2.83430206298828E+0002   2.86593627929688E+0002   2.89826873779297E+0002   2.93139923095703E+0002   2.96545196533203E+0002   3.00057495117188E+0002   3.03693817138672E+0002   3.07472045898438E+0002   3.11406585693359E+0002   3.15496978759766E+0002   3.19699737548828E+0002   3.23867462158203E+0002   3.27642211914063E+0002   3.30366027832031E+0002   3.31268737792969E+0002   3.30080535888672E+0002   3.27349182128906E+0002   3.23934173583984E+0002   3.20478607177734E+0002   3.17320648193359E+0002   3.14583099365234E+0002   3.12245422363281E+0002   3.10182189941406E+0002   3.08206176757813E+0002   3.06151702880859E+0002   3.03966461181641E+0002   3.01718719482422E+0002   2.99521728515625E+0002   2.97470062255859E+0002   2.95617950439453E+0002   2.93972503662109E+0002   2.92484985351563E+0002   2.91044799804688E+0002   2.89490173339844E+0002   2.87644836425781E+0002   2.85363037109375E+0002   2.82528961181641E+0002   2.78989807128906E+0002   2.74513519287109E+0002   2.69401580810547E+0002   2.68188293457031E+0002   2.70614410400391E+0002   2.72285980224609E+0002   2.72942474365234E+0002   2.72818450927734E+0002   2.72093688964844E+0002   2.70898406982422E+0002   2.69335540771484E+0002   2.67488098144531E+0002   2.65421356201172E+0002   2.63187286376953E+0002   2.60834259033203E+0002   2.58423553466797E+0002   2.56051239013672E+0002   2.53857040405273E+0002   2.51977584838867E+0002   2.50448440551758E+0002   2.49182250976563E+0002   2.48062088012695E+0002   2.47020660400391E+0002   2.46052001953125E+0002   2.45192657470703E+0002   2.44496292114258E+0002   2.44007003784180E+0002   2.43741119384766E+0002   2.43687576293945E+0002   2.43823226928711E+0002   2.44127944946289E+0002   2.44591476440430E+0002   2.45213317871094E+0002   2.45998550415039E+0002   2.46950256347656E+0002   2.48060409545898E+0002   2.49306106567383E+0002   2.50656875610352E+0002   2.52090103149414E+0002   2.53605926513672E+0002   2.55236068725586E+0002   2.57044464111328E+0002   2.59117462158203E+0002   2.61540557861328E+0002   2.64365905761719E+0002   2.67580780029297E+0002   2.71075256347656E+0002   2.74582946777344E+0002   2.77614471435547E+0002   2.79631195068359E+0002   2.80560638427734E+0002   2.80842071533203E+0002   2.80907073974609E+0002   2.80961914062500E+0002   2.81065155029297E+0002   2.81218627929688E+0002   2.81411682128906E+0002   2.81636688232422E+0002   2.81891113281250E+0002   2.82175567626953E+0002   2.82491210937500E+0002   2.82838439941406E+0002   2.83216949462891E+0002   2.83627075195313E+0002   2.84072387695313E+0002   2.84563446044922E+0002   2.85121337890625E+0002   2.85781524658203E+0002   2.86597381591797E+0002   2.87637756347656E+0002   2.88971038818359E+0002   2.90652160644531E+0002   2.92730102539063E+0002   2.95249786376953E+0002   2.98228027343750E+0002   3.01611022949219E+0002   3.05201721191406E+0002   3.08528717041016E+0002   3.10759979248047E+0002   3.11086578369141E+0002   3.09532836914063E+0002   3.06902770996094E+0002   3.03960327148438E+0002   3.01100921630859E+0002   2.98463500976563E+0002   2.96071044921875E+0002   2.93904846191406E+0002   2.91937530517578E+0002   2.90149414062500E+0002   2.88534362792969E+0002   2.87080200195313E+0002   2.85737609863281E+0002   2.84431793212891E+0002   2.83091705322266E+0002   2.81654296875000E+0002   2.80058227539063E+0002   2.78240386962891E+0002   2.76137969970703E+0002   2.73697143554688E+0002   2.70898529052734E+0002   2.67833709716797E+0002   2.64899597167969E+0002   2.63037048339844E+0002   2.63250335693359E+0002   2.65299682617188E+0002   2.68068756103516E+0002   2.70809967041016E+0002   2.73274719238281E+0002   2.75440917968750E+0002   2.77331329345703E+0002   2.78865295410156E+0002   2.79617858886719E+0002   2.78571380615234E+0002   2.74684082031250E+0002   2.68272857666016E+0002   2.60587280273438E+0002   2.52494522094727E+0002   2.44333374023438E+0002   2.36187469482422E+0002   2.28025604248047E+0002   2.19727478027344E+0002   2.11091369628906E+0002   2.01870178222656E+0002   1.91818038940430E+0002   1.80729339599609E+0002   1.68484695434570E+0002   1.55125061035156E+0002   1.40976669311523E+0002   1.27172378540039E+0002   1.20713005065918E+0002   1.31716949462891E+0002   1.49372726440430E+0002   1.67264328002930E+0002   1.83492996215820E+0002   1.97801315307617E+0002   2.10415618896484E+0002   2.21621231079102E+0002   2.31663406372070E+0002   2.40738983154297E+0002   2.49006637573242E+0002   2.56598175048828E+0002   2.63627624511719E+0002   2.70198242187500E+0002   2.76409851074219E+0002   2.82367706298828E+0002   2.88194305419922E+0002   2.94033142089844E+0002   2.99934692382813E+0002   3.04930053710938E+0002   3.06664550781250E+0002   3.06917358398438E+0002   3.07210479736328E+0002   3.07613098144531E+0002   3.08003326416016E+0002   3.08275146484375E+0002   3.08348937988281E+0002   3.08165618896484E+0002   3.07684814453125E+0002   3.06885345458984E+0002   3.05765838623047E+0002   3.04343383789063E+0002   3.02649414062500E+0002   3.00724243164063E+0002   2.98611419677734E+0002   2.96352935791016E+0002   2.93986236572266E+0002   2.91542816162109E+0002   2.89047790527344E+0002   2.86520507812500E+0002   2.83975158691406E+0002   2.81421783447266E+0002   2.78867645263672E+0002   2.76319305419922E+0002   2.73790191650391E+0002   2.71332183837891E+0002   2.69258300781250E+0002   2.69000000000000E+0002   2.69000000000000E+0002   2.69000000000000E+0002   2.69000000000000E+0002   2.69000000000000E+0002   2.69000000000000E+0002   2.69000000000000E+0002   2.69000000000000E+0002   2.69000000000000E+0002   2.69000000000000E+0002
   2.69000000000000E+0002   2.69000000000000E+0002   2.69000000000000E+0002   2.69000000000000E+0002   2.69000000000000E+0002   2.69000000000000E+0002   2.69000000000000E+0002   2.71466186523438E+0002   2.74243164062500E+0002   2.77187774658203E+0002   2.80217590332031E+0002   2.83319061279297E+0002   2.86496307373047E+0002   2.89760253906250E+0002   2.93126464843750E+0002   2.96615570068359E+0002   3.00254455566406E+0002   3.04078247070313E+0002   3.08132385253906E+0002   3.12474090576172E+0002   3.17169769287109E+0002   3.22276855468750E+0002   3.27774566650391E+0002   3.33351806640625E+0002   3.37953491210938E+0002   3.39671386718750E+0002   3.37614562988281E+0002   3.33307708740234E+0002   3.28571563720703E+0002   3.24263031005859E+0002   3.20626068115234E+0002   3.17666717529297E+0002   3.15283752441406E+0002   3.13273956298828E+0002   3.11317169189453E+0002   3.09096710205078E+0002   3.06560546875000E+0002   3.03923919677734E+0002   3.01412933349609E+0002   2.99148834228516E+0002   2.97171203613281E+0002   2.95466949462891E+0002   2.93970764160156E+0002   2.92543975830078E+0002   2.90957641601563E+0002   2.88941619873047E+0002   2.86318267822266E+0002   2.83037841796875E+0002   2.79000610351563E+0002   2.73819274902344E+0002   2.66626556396484E+0002   2.65606994628906E+0002   2.70039459228516E+0002   2.72341674804688E+0002   2.73307403564453E+0002   2.73337738037109E+0002   2.72651824951172E+0002   2.71409729003906E+0002   2.69745971679688E+0002   2.67767364501953E+0002   2.65548736572266E+0002   2.63136901855469E+0002   2.60563293457031E+0002   2.57868743896484E+0002   2.55154541015625E+0002   2.52656005859375E+0002   2.50695938110352E+0002   2.49353576660156E+0002   2.48362457275391E+0002   2.47458206176758E+0002   2.46541183471680E+0002   2.45630081176758E+0002   2.44807800292969E+0002   2.44180862426758E+0002   2.43828506469727E+0002   2.43760528564453E+0002   2.43925247192383E+0002   2.44255477905273E+0002   2.44704223632813E+0002   2.45255538940430E+0002   2.45922897338867E+0002   2.46742950439453E+0002   2.47759582519531E+0002   2.48997207641602E+0002   2.50441635131836E+0002   2.52050491333008E+0002   2.53782409667969E+0002   2.55617584228516E+0002   2.57560241699219E+0002   2.59629669189453E+0002   2.61847320556641E+0002   2.64225128173828E+0002   2.66757049560547E+0002   2.69409332275391E+0002   2.72100921630859E+0002   2.74675201416016E+0002   2.76901794433594E+0002   2.78573638916016E+0002   2.79658416748047E+0002   2.80311035156250E+0002   2.80728973388672E+0002   2.81043884277344E+0002   2.81314788818359E+0002   2.81562164306641E+0002   2.81796478271484E+0002   2.82029937744141E+0002   2.82276550292969E+0002   2.82548065185547E+0002   2.82851440429688E+0002   2.83187744140625E+0002   2.83553161621094E+0002   2.83941223144531E+0002   2.84347473144531E+0002   2.84775817871094E+0002   2.85243072509766E+0002   2.85779907226563E+0002   2.86428558349609E+0002   2.87239562988281E+0002   2.88268981933594E+0002   2.89579803466797E+0002   2.91241729736328E+0002   2.93309356689453E+0002   2.95771820068359E+0002   2.98507415771484E+0002   3.01266479492188E+0002   3.03670440673828E+0002   3.05262573242188E+0002   3.05698883056641E+0002   3.04979736328125E+0002   3.03430755615234E+0002   3.01452911376953E+0002   2.99341247558594E+0002   2.97260345458984E+0002   2.95285461425781E+0002   2.93443634033203E+0002   2.91740112304688E+0002   2.90172607421875E+0002   2.88735412597656E+0002   2.87413238525391E+0002   2.86173736572266E+0002   2.84970153808594E+0002   2.83750244140625E+0002   2.82460388183594E+0002   2.81046386718750E+0002   2.79456329345703E+0002   2.77649719238281E+0002   2.75615600585938E+0002   2.73401519775391E+0002   2.71161285400391E+0002   2.69213226318359E+0002   2.68021331787109E+0002   2.67938018798828E+0002   2.68868560791016E+0002   2.70354949951172E+0002   2.71942443847656E+0002   2.73348754882813E+0002   2.74426361083984E+0002   2.75068023681641E+0002   2.75102508544922E+0002   2.74196807861328E+0002   2.71865203857422E+0002   2.67749786376953E+0002   2.61977630615234E+0002   2.55067626953125E+0002   2.47547042846680E+0002   2.39779190063477E+0002   2.31992782592773E+0002   2.24308151245117E+0002   2.16685836791992E+0002   2.08909774780273E+0002   2.00692749023438E+0002   1.91781845092773E+0002   1.81987960815430E+0002   1.71179199218750E+0002   1.59266723632813E+0002   1.46212768554688E+0002   1.32319839477539E+0002   1.20152885437012E+0002   1.26324829101563E+0002   1.46305206298828E+0002   1.66145294189453E+0002   1.83111068725586E+0002   1.97602111816406E+0002   2.10191253662109E+0002   2.21300949096680E+0002   2.31227294921875E+0002   2.40183853149414E+0002   2.48332122802734E+0002   2.55800445556641E+0002   2.62695831298828E+0002   2.69111389160156E+0002   2.75130889892578E+0002   2.80830718994141E+0002   2.86273223876953E+0002   2.91470550537109E+0002   2.96258697509766E+0002   3.00091491699219E+0002   3.02431213378906E+0002   3.03664825439453E+0002   3.04442779541016E+0002   3.05029907226563E+0002   3.05465698242188E+0002   3.05724456787109E+0002   3.05769348144531E+0002   3.05567749023438E+0002   3.05096405029297E+0002   3.04343933105469E+0002   3.03311859130859E+0002   3.02013885498047E+0002   3.00473693847656E+0002   2.98721710205078E+0002   2.96791351318359E+0002   2.94716003417969E+0002   2.92526611328125E+0002   2.90250244140625E+0002   2.87909606933594E+0002   2.85522949218750E+0002   2.83104461669922E+0002   2.80664855957031E+0002   2.78212493896484E+0002   2.75755676269531E+0002   2.73311462402344E+0002   2.70944488525391E+0002   2.69000000000000E+0002   2.69000000000000E+0002   2.69000000000000E+0002   2.69000000000000E+0002   2.69000000000000E+0002   2.69000000000000E+0002   2.69000000000000E+0002   2.69000000000000E+0002   2.69000000000000E+0002   2.69000000000000E+0002   2.69000000000000E+0002
   2.69000000000000E+0002   2.69000000000000E+0002   2.69000000000000E+0002   2.69000000000000E+0002   2.69000000000000E+0002   2.69000000000000E+0002   2.69000000000000E+0002   2.71299346923828E+0002   2.74093322753906E+0002   2.77024597167969E+0002   2.80040313720703E+0002   2.83134063720703E+0002   2.86313293457031E+0002   2.89592254638672E+0002   2.92991180419922E+0002   2.96537475585938E+0002   3.00268218994141E+0002   3.04234283447266E+0002   3.08506561279297E+0002   3.13185638427734E+0002   3.18415863037109E+0002   3.24402374267578E+0002   3.31407775878906E+0002   3.39587402343750E+0002   3.47969146728516E+0002   3.51649810791016E+0002   3.46877868652344E+0002   3.39320800781250E+0002   3.32635589599609E+0002   3.27328369140625E+0002   3.23233764648438E+0002   3.20152008056641E+0002   3.17910675048828E+0002   3.16267303466797E+0002   3.14679748535156E+0002   3.12345642089844E+0002   3.09210845947266E+0002   3.05967407226563E+0002   3.03039215087891E+0002   3.00531677246094E+0002   2.98441925048828E+0002   2.96738952636719E+0002   2.95363739013672E+0002   2.94175750732422E+0002   2.92843505859375E+0002   2.90842559814453E+0002   2.87904632568359E+0002   2.84273956298828E+0002   2.80204193115234E+0002   2.75775665283203E+0002   2.71644836425781E+0002   2.70517608642578E+0002   2.72182128906250E+0002   2.73794433593750E+0002   2.74607971191406E+0002   2.74570190429688E+0002   2.73762603759766E+0002   2.72337310791016E+0002   2.70465179443359E+0002   2.68281677246094E+0002   2.65866760253906E+0002   2.63250488281250E+0002   2.60426605224609E+0002   2.57372619628906E+0002   2.54114089965820E+0002   2.50964614868164E+0002   2.48825439453125E+0002   2.47982467651367E+0002   2.47511184692383E+0002   2.46893402099609E+0002   2.46069351196289E+0002   2.45127243041992E+0002   2.44228378295898E+0002   2.43584518432617E+0002   2.43360763549805E+0002   2.43549652099609E+0002   2.44003890991211E+0002   2.44575683593750E+0002   2.45183593750000E+0002   2.45808563232422E+0002   2.46483184814453E+0002   2.47290206909180E+0002   2.48344100952148E+0002   2.49725250244141E+0002   2.51415542602539E+0002   2.53326385498047E+0002   2.55376281738281E+0002   2.57524505615234E+0002   2.59757965087891E+0002   2.62064758300781E+0002   2.64413543701172E+0002   2.66750488281250E+0002   2.69018585205078E+0002   2.71181518554688E+0002   2.73219390869141E+0002   2.75096954345703E+0002   2.76748321533203E+0002   2.78109893798828E+0002   2.79172546386719E+0002   2.79990295410156E+0002   2.80636840820313E+0002   2.81162139892578E+0002   2.81585998535156E+0002   2.81918884277344E+0002   2.82182128906250E+0002   2.82409545898438E+0002   2.82636047363281E+0002   2.82887695312500E+0002   2.83177764892578E+0002   2.83507385253906E+0002   2.83866851806641E+0002   2.84238250732422E+0002   2.84602447509766E+0002   2.84951416015625E+0002   2.85297180175781E+0002   2.85668304443359E+0002   2.86099273681641E+0002   2.86625610351563E+0002   2.87289733886719E+0002   2.88158721923828E+0002   2.89342102050781E+0002   2.90960083007813E+0002   2.93024108886719E+0002   2.95354675292969E+0002   2.97654418945313E+0002   2.99608764648438E+0002   3.00941986083984E+0002   3.01484130859375E+0002   3.01235076904297E+0002   3.00350280761719E+0002   2.99050354003906E+0002   2.97534179687500E+0002   2.95943023681641E+0002   2.94363433837891E+0002   2.92843322753906E+0002   2.91407073974609E+0002   2.90065521240234E+0002   2.88820129394531E+0002   2.87662780761719E+0002   2.86574279785156E+0002   2.85525268554688E+0002   2.84478607177734E+0002   2.83390716552734E+0002   2.82212249755859E+0002   2.80893341064453E+0002   2.79398895263672E+0002   2.77733764648438E+0002   2.75968627929688E+0002   2.74254364013672E+0002   2.72814300537109E+0002   2.71889160156250E+0002   2.71618927001953E+0002   2.71936614990234E+0002   2.72593109130859E+0002   2.73285308837891E+0002   2.73758972167969E+0002   2.73834197998047E+0002   2.73372222900391E+0002   2.72217071533203E+0002   2.70156372070313E+0002   2.66953186035156E+0002   2.62466186523438E+0002   2.56764495849609E+0002   2.50106918334961E+0002   2.42822799682617E+0002   2.35237472534180E+0002   2.27688522338867E+0002   2.20517715454102E+0002   2.13804885864258E+0002   2.07186599731445E+0002   2.00225158691406E+0002   1.92643676757813E+0002   1.84283828735352E+0002   1.75033767700195E+0002   1.64763839721680E+0002   1.53231765747070E+0002   1.39910324096680E+0002   1.23661567687988E+0002   1.20343490600586E+0002   1.47913681030273E+0002   1.68664947509766E+0002   1.85309432983398E+0002   1.99303466796875E+0002   2.11432235717773E+0002   2.22152450561523E+0002   2.31753021240234E+0002   2.40431793212891E+0002   2.48334106445313E+0002   2.55573379516602E+0002   2.62242401123047E+0002   2.68419128417969E+0002   2.74168731689453E+0002   2.79540466308594E+0002   2.84556396484375E+0002   2.89182769775391E+0002   2.93284973144531E+0002   2.96628936767578E+0002   2.99059814453125E+0002   3.00699005126953E+0002   3.01810394287109E+0002   3.02583892822266E+0002   3.03102478027344E+0002   3.03388092041016E+0002   3.03437774658203E+0002   3.03241577148438E+0002   3.02791259765625E+0002   3.02084228515625E+0002   3.01125457763672E+0002   2.99927703857422E+0002   2.98510314941406E+0002   2.96897460937500E+0002   2.95115814208984E+0002   2.93192474365234E+0002   2.91153167724609E+0002   2.89021209716797E+0002   2.86816772460938E+0002   2.84556701660156E+0002   2.82254669189453E+0002   2.79921539306641E+0002   2.77566284179688E+0002   2.75198699951172E+0002   2.72839660644531E+0002   2.70569946289063E+0002   2.69000000000000E+0002   2.69000000000000E+0002   2.69000000000000E+0002   2.69000000000000E+0002   2.69000000000000E+0002   2.69000000000000E+0002   2.69000000000000E+0002   2.69000000000000E+0002   2.69000000000000E+0002   2.69000000000000E+0002   2.69000000000000E+0002
   2.69000000000000E+0002   2.69000000000000E+0002   2.69000000000000E+0002   2.69000000000000E+0002   2.69000000000000E+0002   2.69000000000000E+0002   2.69000000000000E+0002   2.71135162353516E+0002   2.73891510009766E+0002   2.76797607421875E+0002   2.79790710449219E+0002   2.82865661621094E+0002   2.86031768798828E+0002   2.89305541992188E+0002   2.92710144042969E+0002   2.96277160644531E+0002   3.00049865722656E+0002   3.04088745117188E+0002   3.08480560302734E+0002   3.13353973388672E+0002   3.18908416748047E+0002   3.25469146728516E+0002   3.33597381591797E+0002   3.44297912597656E+0002   3.59091094970703E+0002   3.70196868896484E+0002   3.55836761474609E+0002   3.43591003417969E+0002   3.35155853271484E+0002   3.29159118652344E+0002   3.24826843261719E+0002   3.21776977539063E+0002   3.19850097656250E+0002   3.18973052978516E+0002   3.18603454589844E+0002   3.16209655761719E+0002   3.11737030029297E+0002   3.07603515625000E+0002   3.04220367431641E+0002   3.01490509033203E+0002   2.99320312500000E+0002   2.97666107177734E+0002   2.96519073486328E+0002   2.95843963623047E+0002   2.95300506591797E+0002   2.93631958007813E+0002   2.90065521240234E+0002   2.85888275146484E+0002   2.81898986816406E+0002   2.78351593017578E+0002   2.75726806640625E+0002   2.74742919921875E+0002   2.75242492675781E+0002   2.76197784423828E+0002   2.76788604736328E+0002   2.76581665039063E+0002   2.75488311767578E+0002   2.73700958251953E+0002   2.71484100341797E+0002   2.69018432617188E+0002   2.66380310058594E+0002   2.63570343017578E+0002   2.60532775878906E+0002   2.57152618408203E+0002   2.53241027832031E+0002   2.48705795288086E+0002   2.45963272094727E+0002   2.46629379272461E+0002   2.46931640625000E+0002   2.46568252563477E+0002   2.45733932495117E+0002   2.44603042602539E+0002   2.43410125732422E+0002   2.42564865112305E+0002   2.42482833862305E+0002   2.43094192504883E+0002   2.43985305786133E+0002   2.44872863769531E+0002   2.45655715942383E+0002   2.46323287963867E+0002   2.46924194335938E+0002   2.47597351074219E+0002   2.48597671508789E+0002   2.50145370483398E+0002   2.52180694580078E+0002   2.54475128173828E+0002   2.56877990722656E+0002   2.59346374511719E+0002   2.61878021240234E+0002   2.64451812744141E+0002   2.66987945556641E+0002   2.69344940185547E+0002   2.71384552001953E+0002   2.73071380615234E+0002   2.74486816406250E+0002   2.75738769531250E+0002   2.76888122558594E+0002   2.77950408935547E+0002   2.78929321289063E+0002   2.79832244873047E+0002   2.80657836914063E+0002   2.81378448486328E+0002   2.81948791503906E+0002   2.82346282958984E+0002   2.82602783203125E+0002   2.82787719726563E+0002   2.82967987060547E+0002   2.83186706542969E+0002   2.83462554931641E+0002   2.83795257568359E+0002   2.84167388916016E+0002   2.84543060302734E+0002   2.84874755859375E+0002   2.85131683349609E+0002   2.85325958251953E+0002   2.85496520996094E+0002   2.85675933837891E+0002   2.85879577636719E+0002   2.86118835449219E+0002   2.86440917968750E+0002   2.87012817382813E+0002   2.88155395507813E+0002   2.90011596679688E+0002   2.92240509033203E+0002   2.94392852783203E+0002   2.96179046630859E+0002   2.97433349609375E+0002   2.98078979492188E+0002   2.98129058837891E+0002   2.97675354003906E+0002   2.96851440429688E+0002   2.95791931152344E+0002   2.94607482910156E+0002   2.93378112792969E+0002   2.92157165527344E+0002   2.90978179931641E+0002   2.89860992431641E+0002   2.88815277099609E+0002   2.87842102050781E+0002   2.86934326171875E+0002   2.86076995849609E+0002   2.85247100830078E+0002   2.84410858154297E+0002   2.83519836425781E+0002   2.82511474609375E+0002   2.81328979492188E+0002   2.79965637207031E+0002   2.78500488281250E+0002   2.77085479736328E+0002   2.75897186279297E+0002   2.75081085205078E+0002   2.74695068359375E+0002   2.74669036865234E+0002   2.74810821533203E+0002   2.74861389160156E+0002   2.74573852539063E+0002   2.73773529052734E+0002   2.72353851318359E+0002   2.70221466064453E+0002   2.67259216308594E+0002   2.63345520019531E+0002   2.58414367675781E+0002   2.52506027221680E+0002   2.45767120361328E+0002   2.38412063598633E+0002   2.30706680297852E+0002   2.23059188842773E+0002   2.16289657592773E+0002   2.10907989501953E+0002   2.05868820190430E+0002   2.00406036376953E+0002   1.94296493530273E+0002   1.87478057861328E+0002   1.79926208496094E+0002   1.71608596801758E+0002   1.62456771850586E+0002   1.52446472167969E+0002   1.42829513549805E+0002   1.43585830688477E+0002   1.59139251708984E+0002   1.75687011718750E+0002   1.90187561035156E+0002   2.02850402832031E+0002   2.14063201904297E+0002   2.24111129760742E+0002   2.33192718505859E+0002   2.41451232910156E+0002   2.48995864868164E+0002   2.55914215087891E+0002   2.62279113769531E+0002   2.68151458740234E+0002   2.73579620361328E+0002   2.78595245361328E+0002   2.83204620361328E+0002   2.87375885009766E+0002   2.91031707763672E+0002   2.94073394775391E+0002   2.96450592041016E+0002   2.98215362548828E+0002   2.99487365722656E+0002   3.00380340576172E+0002   3.00967681884766E+0002   3.01286529541016E+0002   3.01352355957031E+0002   3.01170562744141E+0002   3.00744140625000E+0002   3.00077545166016E+0002   2.99179199218750E+0002   2.98061920166016E+0002   2.96742797851563E+0002   2.95242065429688E+0002   2.93581787109375E+0002   2.91784454345703E+0002   2.89871887207031E+0002   2.87864135742188E+0002   2.85779052734375E+0002   2.83632019042969E+0002   2.81435943603516E+0002   2.79201446533203E+0002   2.76937866210938E+0002   2.74656311035156E+0002   2.72381866455078E+0002   2.70216217041016E+0002   2.69000000000000E+0002   2.69000000000000E+0002   2.69000000000000E+0002   2.69000000000000E+0002   2.69000000000000E+0002   2.69000000000000E+0002   2.69000000000000E+0002   2.69000000000000E+0002   2.69000000000000E+0002   2.69000000000000E+0002   2.69000000000000E+0002
   2.69000000000000E+0002   2.69000000000000E+0002   2.69000000000000E+0002   2.69000000000000E+0002   2.69000000000000E+0002   2.69000000000000E+0002   2.69000000000000E+0002   2.70935882568359E+0002   2.73638427734375E+0002   2.76506072998047E+0002   2.79465301513672E+0002   2.82508178710938E+0002   2.85643890380859E+0002   2.88889404296875E+0002   2.92268615722656E+0002   2.95813903808594E+0002   2.99569488525391E+0002   3.03596801757813E+0002   3.07983306884766E+0002   3.12857940673828E+0002   3.18419067382813E+0002   3.24987365722656E+0002   3.33109008789063E+0002   3.43733917236328E+0002   3.58109863281250E+0002   3.68212463378906E+0002   3.55248474121094E+0002   3.43428314208984E+0002   3.35197845458984E+0002   3.29351623535156E+0002   3.25160247802734E+0002   3.22278167724609E+0002   3.20628417968750E+0002   3.20417022705078E+0002   3.22321685791016E+0002   3.19921936035156E+0002   3.13167358398438E+0002   3.08372406005859E+0002   3.04736511230469E+0002   3.01893585205078E+0002   2.99685729980469E+0002   2.98075683593750E+0002   2.97129150390625E+0002   2.97041168212891E+0002   2.98092010498047E+0002   2.97873535156250E+0002   2.92182830810547E+0002   2.87156646728516E+0002   2.83227386474609E+0002   2.80253540039063E+0002   2.78342529296875E+0002   2.77659729003906E+0002   2.78072052001953E+0002   2.79048309326172E+0002   2.79798126220703E+0002   2.79494415283203E+0002   2.77888427734375E+0002   2.75461914062500E+0002   2.72728179931641E+0002   2.69913940429688E+0002   2.67057189941406E+0002   2.64111419677734E+0002   2.60981323242188E+0002   2.57511688232422E+0002   2.53434295654297E+0002   2.48312133789063E+0002   2.45021636962891E+0002   2.46651687622070E+0002   2.47127685546875E+0002   2.46730148315430E+0002   2.45717559814453E+0002   2.44207153320313E+0002   2.42353057861328E+0002   2.40830551147461E+0002   2.40987319946289E+0002   2.42463119506836E+0002   2.44022506713867E+0002   2.45294021606445E+0002   2.46254760742188E+0002   2.46925827026367E+0002   2.47337188720703E+0002   2.47629180908203E+0002   2.48319808959961E+0002   2.50114059448242E+0002   2.52740798950195E+0002   2.55546066284180E+0002   2.58323516845703E+0002   2.61101531982422E+0002   2.63943359375000E+0002   2.66858459472656E+0002   2.69728698730469E+0002   2.72259216308594E+0002   2.74108123779297E+0002   2.75222229003906E+0002   2.75899658203125E+0002   2.76470733642578E+0002   2.77111053466797E+0002   2.77873718261719E+0002   2.78758789062500E+0002   2.79744018554688E+0002   2.80775939941406E+0002   2.81743164062500E+0002   2.82488159179688E+0002   2.82915496826172E+0002   2.83090148925781E+0002   2.83164154052734E+0002   2.83256652832031E+0002   2.83425201416016E+0002   2.83687316894531E+0002   2.84039367675781E+0002   2.84458953857422E+0002   2.84888885498047E+0002   2.85223144531250E+0002   2.85373138427734E+0002   2.85372955322266E+0002   2.85311279296875E+0002   2.85227569580078E+0002   2.85106018066406E+0002   2.84896881103516E+0002   2.84552520751953E+0002   2.84200286865234E+0002   2.84669586181641E+0002   2.86718658447266E+0002   2.89271728515625E+0002   2.91525299072266E+0002   2.93295806884766E+0002   2.94547332763672E+0002   2.95281158447266E+0002   2.95532073974609E+0002   2.95369018554688E+0002   2.94882934570313E+0002   2.94168975830078E+0002   2.93312225341797E+0002   2.92381103515625E+0002   2.91426788330078E+0002   2.90485900878906E+0002   2.89583648681641E+0002   2.88736663818359E+0002   2.87954833984375E+0002   2.87242614746094E+0002   2.86599517822266E+0002   2.86018859863281E+0002   2.85481628417969E+0002   2.84941864013672E+0002   2.84306915283203E+0002   2.83449462890625E+0002   2.82307159423828E+0002   2.80983673095703E+0002   2.79685241699219E+0002   2.78595520019531E+0002   2.77823760986328E+0002   2.77392272949219E+0002   2.77222198486328E+0002   2.77118865966797E+0002   2.76783294677734E+0002   2.75907470703125E+0002   2.74328155517578E+0002   2.72038543701172E+0002   2.69050323486328E+0002   2.65319030761719E+0002   2.60770355224609E+0002   2.55355270385742E+0002   2.49088577270508E+0002   2.42057159423828E+0002   2.34400955200195E+0002   2.26299087524414E+0002   2.18056350708008E+0002   2.10944213867188E+0002   2.08160537719727E+0002   2.05123855590820E+0002   2.01271560668945E+0002   1.96669357299805E+0002   1.91411666870117E+0002   1.85600006103516E+0002   1.79365493774414E+0002   1.72946975708008E+0002   1.66974151611328E+0002   1.63297851562500E+0002   1.65412109375000E+0002   1.74040267944336E+0002   1.85458679199219E+0002   1.97005645751953E+0002   2.07852676391602E+0002   2.17851028442383E+0002   2.27028884887695E+0002   2.35450439453125E+0002   2.43181198120117E+0002   2.50281555175781E+0002   2.56806579589844E+0002   2.62806396484375E+0002   2.68325256347656E+0002   2.73398620605469E+0002   2.78048919677734E+0002   2.82280029296875E+0002   2.86073181152344E+0002   2.89389831542969E+0002   2.92188659667969E+0002   2.94454132080078E+0002   2.96214721679688E+0002   2.97532318115234E+0002   2.98474975585938E+0002   2.99097442626953E+0002   2.99436370849609E+0002   2.99514099121094E+0002   2.99344543457031E+0002   2.98937805175781E+0002   2.98303466796875E+0002   2.97452575683594E+0002   2.96398559570313E+0002   2.95157226562500E+0002   2.93746276855469E+0002   2.92184600830078E+0002   2.90491424560547E+0002   2.88685394287109E+0002   2.86783935546875E+0002   2.84802856445313E+0002   2.82756134033203E+0002   2.80655700683594E+0002   2.78511810302734E+0002   2.76334045410156E+0002   2.74134674072266E+0002   2.71943695068359E+0002   2.69890167236328E+0002   2.69000000000000E+0002   2.69000000000000E+0002   2.69000000000000E+0002   2.69000000000000E+0002   2.69000000000000E+0002   2.69000000000000E+0002   2.69000000000000E+0002   2.69000000000000E+0002   2.69000000000000E+0002   2.69000000000000E+0002   2.69000000000000E+0002
   2.69000000000000E+0002   2.69000000000000E+0002   2.69000000000000E+0002   2.69000000000000E+0002   2.69000000000000E+0002   2.69000000000000E+0002   2.69000000000000E+0002   2.70687408447266E+0002   2.73327575683594E+0002   2.76148193359375E+0002   2.79062957763672E+0002   2.82060211181641E+0002   2.85147644042969E+0002   2.88341094970703E+0002   2.91662933349609E+0002   2.95143127441406E+0002   2.98821563720703E+0002   3.02752075195313E+0002   3.07008087158203E+0002   3.11691680908203E+0002   3.16945770263672E+0002   3.22967346191406E+0002   3.29995086669922E+0002   3.38126678466797E+0002   3.46322235107422E+0002   3.50014465332031E+0002   3.45892395019531E+0002   3.38992340087891E+0002   3.32806182861328E+0002   3.27915100097656E+0002   3.24212371826172E+0002   3.21564971923828E+0002   3.19932861328125E+0002   3.19347076416016E+0002   3.19398864746094E+0002   3.17042999267578E+0002   3.12237609863281E+0002   3.07941467285156E+0002   3.04467864990234E+0002   3.01673919677734E+0002   2.99464752197266E+0002   2.97828613281250E+0002   2.96848510742188E+0002   2.96741912841797E+0002   2.97845092773438E+0002   2.97776123046875E+0002   2.92042541503906E+0002   2.87206298828125E+0002   2.83633758544922E+0002   2.81144470214844E+0002   2.79736907958984E+0002   2.79468200683594E+0002   2.80311462402344E+0002   2.82028503417969E+0002   2.83790252685547E+0002   2.83663757324219E+0002   2.80969055175781E+0002   2.77428070068359E+0002   2.74009765625000E+0002   2.70836151123047E+0002   2.67815704345703E+0002   2.64830810546875E+0002   2.61765930175781E+0002   2.58507049560547E+0002   2.54976593017578E+0002   2.51415802001953E+0002   2.49125991821289E+0002   2.48591827392578E+0002   2.48266250610352E+0002   2.47511260986328E+0002   2.46220901489258E+0002   2.44295700073242E+0002   2.41510757446289E+0002   2.37943664550781E+0002   2.38893615722656E+0002   2.42129074096680E+0002   2.44432952880859E+0002   2.46039947509766E+0002   2.47148651123047E+0002   2.47815155029297E+0002   2.47985549926758E+0002   2.47563140869141E+0002   2.47118789672852E+0002   2.49559234619141E+0002   2.53325927734375E+0002   2.56703186035156E+0002   2.59777832031250E+0002   2.62783935546875E+0002   2.65908721923828E+0002   2.69258087158203E+0002   2.72745971679688E+0002   2.75832641601563E+0002   2.77555084228516E+0002   2.77752593994141E+0002   2.77363372802734E+0002   2.77104644775391E+0002   2.77201110839844E+0002   2.77670532226563E+0002   2.78481536865234E+0002   2.79593994140625E+0002   2.80935394287109E+0002   2.82315155029297E+0002   2.83346679687500E+0002   2.83726165771484E+0002   2.83655334472656E+0002   2.83505523681641E+0002   2.83460998535156E+0002   2.83566253662109E+0002   2.83818634033203E+0002   2.84207794189453E+0002   2.84720764160156E+0002   2.85305572509766E+0002   2.85746826171875E+0002   2.85743499755859E+0002   2.85456939697266E+0002   2.85135131835938E+0002   2.84811828613281E+0002   2.84424163818359E+0002   2.83852874755859E+0002   2.82895202636719E+0002   2.81235565185547E+0002   2.79934173583984E+0002   2.83531494140625E+0002   2.86777893066406E+0002   2.89175689697266E+0002   2.90940582275391E+0002   2.92185424804688E+0002   2.92972076416016E+0002   2.93352508544922E+0002   2.93385925292969E+0002   2.93140228271484E+0002   2.92685760498047E+0002   2.92088378906250E+0002   2.91404815673828E+0002   2.90681152343750E+0002   2.89953552246094E+0002   2.89249938964844E+0002   2.88592010498047E+0002   2.87997192382813E+0002   2.87480773925781E+0002   2.87057434082031E+0002   2.86741790771484E+0002   2.86542846679688E+0002   2.86439758300781E+0002   2.86312103271484E+0002   2.85858459472656E+0002   2.84822662353516E+0002   2.83421752929688E+0002   2.82058502197266E+0002   2.80960540771484E+0002   2.80208953857422E+0002   2.79806182861328E+0002   2.79681030273438E+0002   2.79635040283203E+0002   2.79242553710938E+0002   2.77943237304688E+0002   2.75571594238281E+0002   2.72399963378906E+0002   2.68613067626953E+0002   2.64199066162109E+0002   2.59072357177734E+0002   2.53161056518555E+0002   2.46449356079102E+0002   2.38994140625000E+0002   2.30915802001953E+0002   2.22357681274414E+0002   2.13674179077148E+0002   2.08030319213867E+0002   2.06811981201172E+0002   2.05342041015625E+0002   2.02915802001953E+0002   1.99705871582031E+0002   1.95908386230469E+0002   1.91723663330078E+0002   1.87402328491211E+0002   1.83333709716797E+0002   1.80211380004883E+0002   1.79200042724609E+0002   1.81571685791016E+0002   1.87475189208984E+0002   1.95644531250000E+0002   2.04676116943359E+0002   2.13741790771484E+0002   2.22467529296875E+0002   2.30703796386719E+0002   2.38398254394531E+0002   2.45540802001953E+0002   2.52141815185547E+0002   2.58223175048828E+0002   2.63813262939453E+0002   2.68942352294922E+0002   2.73637481689453E+0002   2.77917480468750E+0002   2.81788818359375E+0002   2.85244445800781E+0002   2.88267730712891E+0002   2.90842437744141E+0002   2.92965789794922E+0002   2.94655914306641E+0002   2.95948516845703E+0002   2.96886199951172E+0002   2.97508209228516E+0002   2.97845886230469E+0002   2.97922576904297E+0002   2.97755706787109E+0002   2.97359344482422E+0002   2.96746276855469E+0002   2.95929504394531E+0002   2.94922882080078E+0002   2.93741455078125E+0002   2.92401245117188E+0002   2.90918884277344E+0002   2.89311065673828E+0002   2.87594024658203E+0002   2.85783020019531E+0002   2.83892089843750E+0002   2.81933746337891E+0002   2.79919097900391E+0002   2.77857910156250E+0002   2.75759796142578E+0002   2.73638366699219E+0002   2.71529327392578E+0002   2.69598175048828E+0002   2.69000000000000E+0002   2.69000000000000E+0002   2.69000000000000E+0002   2.69000000000000E+0002   2.69000000000000E+0002   2.69000000000000E+0002   2.69000000000000E+0002   2.69000000000000E+0002   2.69000000000000E+0002   2.69000000000000E+0002   2.69000000000000E+0002
   2.69000000000000E+0002   2.69000000000000E+0002   2.69000000000000E+0002   2.69000000000000E+0002   2.69000000000000E+0002   2.69000000000000E+0002   2.69000000000000E+0002   2.70391021728516E+0002   2.72957885742188E+0002   2.75724639892578E+0002   2.78585693359375E+0002   2.81524627685547E+0002   2.84546752929688E+0002   2.87665679931641E+0002   2.90900573730469E+0002   2.94276306152344E+0002   2.97824737548828E+0002   3.01586273193359E+0002   3.05611511230469E+0002   3.09961883544922E+0002   3.14705627441406E+0002   3.19897216796875E+0002   3.25505950927734E+0002   3.31209869384766E+0002   3.35983825683594E+0002   3.38053344726563E+0002   3.36602996826172E+0002   3.33005737304688E+0002   3.28951843261719E+0002   3.25269866943359E+0002   3.22215698242188E+0002   3.19832489013672E+0002   3.18085998535156E+0002   3.16822052001953E+0002   3.15513946533203E+0002   3.13243377685547E+0002   3.09979827880859E+0002   3.06580596923828E+0002   3.03512847900391E+0002   3.00877746582031E+0002   2.98681335449219E+0002   2.96932891845703E+0002   2.95665191650391E+0002   2.94891601562500E+0002   2.94332672119141E+0002   2.92756866455078E+0002   2.89440093994141E+0002   2.85866424560547E+0002   2.82962280273438E+0002   2.80965698242188E+0002   2.79985656738281E+0002   2.80131958007813E+0002   2.81544250488281E+0002   2.84439483642578E+0002   2.88820404052734E+0002   2.89816619873047E+0002   2.84143615722656E+0002   2.79035583496094E+0002   2.74995819091797E+0002   2.71596923828125E+0002   2.68538452148438E+0002   2.65631927490234E+0002   2.62756835937500E+0002   2.59848724365234E+0002   2.56938171386719E+0002   2.54259445190430E+0002   2.52238555908203E+0002   2.50959442138672E+0002   2.49967742919922E+0002   2.48844833374023E+0002   2.47365173339844E+0002   2.45340835571289E+0002   2.42491317749023E+0002   2.38798034667969E+0002   2.39833938598633E+0002   2.43193435668945E+0002   2.45582687377930E+0002   2.47277709960938E+0002   2.48475646972656E+0002   2.49210250854492E+0002   2.49362457275391E+0002   2.48604766845703E+0002   2.46354232788086E+0002   2.50105255126953E+0002   2.54676818847656E+0002   2.58210205078125E+0002   2.61301208496094E+0002   2.64334930419922E+0002   2.67610076904297E+0002   2.71396179199219E+0002   2.75878540039063E+0002   2.80524566650391E+0002   2.82342346191406E+0002   2.80557037353516E+0002   2.78542755126953E+0002   2.77336395263672E+0002   2.76907592773438E+0002   2.77123413085938E+0002   2.77895568847656E+0002   2.79185668945313E+0002   2.80976287841797E+0002   2.83124847412109E+0002   2.84814178466797E+0002   2.84883911132813E+0002   2.84209625244141E+0002   2.83705718994141E+0002   2.83505462646484E+0002   2.83558227539063E+0002   2.83811859130859E+0002   2.84242767333984E+0002   2.84862792968750E+0002   2.85716857910156E+0002   2.86627410888672E+0002   2.86229858398438E+0002   2.85499450683594E+0002   2.84939880371094E+0002   2.84452392578125E+0002   2.83921020507813E+0002   2.83210052490234E+0002   2.82122833251953E+0002   2.80408996582031E+0002   2.79251037597656E+0002   2.82293762207031E+0002   2.85260406494141E+0002   2.87469726562500E+0002   2.89104431152344E+0002   2.90282257080078E+0002   2.91071136474609E+0002   2.91521514892578E+0002   2.91682342529297E+0002   2.91605407714844E+0002   2.91343841552734E+0002   2.90948883056641E+0002   2.90466888427734E+0002   2.89938049316406E+0002   2.89396209716797E+0002   2.88869903564453E+0002   2.88383850097656E+0002   2.87961120605469E+0002   2.87625701904297E+0002   2.87406463623047E+0002   2.87341705322266E+0002   2.87484100341797E+0002   2.87892791748047E+0002   2.88535095214844E+0002   2.88805541992188E+0002   2.87605682373047E+0002   2.85735015869141E+0002   2.84130126953125E+0002   2.82963836669922E+0002   2.82231781005859E+0002   2.81916351318359E+0002   2.81996704101563E+0002   2.82378326416016E+0002   2.82531219482422E+0002   2.80982208251953E+0002   2.77496032714844E+0002   2.73313842773438E+0002   2.68784881591797E+0002   2.63793182373047E+0002   2.58168884277344E+0002   2.51782440185547E+0002   2.44574783325195E+0002   2.36590286254883E+0002   2.28022628784180E+0002   2.19238494873047E+0002   2.10800247192383E+0002   2.07113342285156E+0002   2.07190597534180E+0002   2.06696487426758E+0002   2.05372482299805E+0002   2.03337966918945E+0002   2.00803527832031E+0002   1.98011688232422E+0002   1.95255615234375E+0002   1.92926574707031E+0002   1.91563796997070E+0002   1.91826782226563E+0002   1.94253173828125E+0002   1.98878784179688E+0002   2.05174789428711E+0002   2.12415924072266E+0002   2.20013442993164E+0002   2.27590301513672E+0002   2.34927459716797E+0002   2.41901260375977E+0002   2.48443801879883E+0002   2.54522811889648E+0002   2.60131378173828E+0002   2.65280578613281E+0002   2.69991912841797E+0002   2.74289337158203E+0002   2.78192230224609E+0002   2.81711273193359E+0002   2.84847564697266E+0002   2.87595886230469E+0002   2.89950714111328E+0002   2.91913146972656E+0002   2.93495147705078E+0002   2.94718688964844E+0002   2.95611480712891E+0002   2.96201843261719E+0002   2.96515411376953E+0002   2.96574035644531E+0002   2.96396118164063E+0002   2.95997589111328E+0002   2.95393005371094E+0002   2.94596496582031E+0002   2.93622161865234E+0002   2.92484527587891E+0002   2.91198364257813E+0002   2.89778533935547E+0002   2.88239807128906E+0002   2.86596405029297E+0002   2.84861816406250E+0002   2.83048431396484E+0002   2.81167602539063E+0002   2.79229431152344E+0002   2.77243194580078E+0002   2.75218536376953E+0002   2.73170471191406E+0002   2.71141693115234E+0002   2.69346466064453E+0002   2.69000000000000E+0002   2.69000000000000E+0002   2.69000000000000E+0002   2.69000000000000E+0002   2.69000000000000E+0002   2.69000000000000E+0002   2.69000000000000E+0002   2.69000000000000E+0002   2.69000000000000E+0002   2.69000000000000E+0002   2.69000000000000E+0002
   2.69000000000000E+0002   2.69000000000000E+0002   2.69000000000000E+0002   2.69000000000000E+0002   2.69000000000000E+0002   2.69000000000000E+0002   2.69000000000000E+0002   2.70053253173828E+0002   2.72533416748047E+0002   2.75240142822266E+0002   2.78039367675781E+0002   2.80908538818359E+0002   2.83850341796875E+0002   2.86875366210938E+0002   2.89998504638672E+0002   2.93238220214844E+0002   2.96616546630859E+0002   3.00158599853516E+0002   3.03890808105469E+0002   3.07836090087891E+0002   3.12001373291016E+0002   3.16349029541016E+0002   3.20736907958984E+0002   3.24817962646484E+0002   3.27963958740234E+0002   3.29449645996094E+0002   3.29012054443359E+0002   3.27133605957031E+0002   3.24587554931641E+0002   3.21953338623047E+0002   3.19532196044922E+0002   3.17436279296875E+0002   3.15653564453125E+0002   3.14045593261719E+0002   3.12321624755859E+0002   3.10166900634766E+0002   3.07562255859375E+0002   3.04786285400391E+0002   3.02102233886719E+0002   2.99641235351563E+0002   2.97451568603516E+0002   2.95547271728516E+0002   2.93916595458984E+0002   2.92479095458984E+0002   2.90980194091797E+0002   2.88991973876953E+0002   2.86395538330078E+0002   2.83668334960938E+0002   2.81351104736328E+0002   2.79767639160156E+0002   2.79107696533203E+0002   2.79521453857422E+0002   2.81199615478516E+0002   2.84506927490234E+0002   2.90119567871094E+0002   2.92268707275391E+0002   2.84788330078125E+0002   2.79367248535156E+0002   2.75326538085938E+0002   2.72025543212891E+0002   2.69117706298828E+0002   2.66410736083984E+0002   2.63799896240234E+0002   2.61247436523438E+0002   2.58790924072266E+0002   2.56553131103516E+0002   2.54678253173828E+0002   2.53175048828125E+0002   2.51871963500977E+0002   2.50554962158203E+0002   2.49064651489258E+0002   2.47306304931641E+0002   2.45326324462891E+0002   2.43760391235352E+0002   2.44008132934570E+0002   2.45675216674805E+0002   2.47465530395508E+0002   2.49003509521484E+0002   2.50251815795898E+0002   2.51182418823242E+0002   2.51713760375977E+0002   2.51792541503906E+0002   2.52011276245117E+0002   2.54122879028320E+0002   2.57264404296875E+0002   2.60180206298828E+0002   2.62879333496094E+0002   2.65638366699219E+0002   2.68772735595703E+0002   2.72672058105469E+0002   2.77941040039063E+0002   2.85608367919922E+0002   2.88623016357422E+0002   2.82297851562500E+0002   2.78665313720703E+0002   2.76754516601563E+0002   2.75970428466797E+0002   2.76025329589844E+0002   2.76791046142578E+0002   2.78244293212891E+0002   2.80471466064453E+0002   2.83707275390625E+0002   2.87521697998047E+0002   2.86024932861328E+0002   2.84352233886719E+0002   2.83557189941406E+0002   2.83292327880859E+0002   2.83352172851563E+0002   2.83631195068359E+0002   2.84086822509766E+0002   2.84728851318359E+0002   2.85624755859375E+0002   2.86714050292969E+0002   2.86126098632813E+0002   2.85281036376953E+0002   2.84660552978516E+0002   2.84132843017578E+0002   2.83595123291016E+0002   2.82963226318359E+0002   2.82187286376953E+0002   2.81410278320313E+0002   2.81387207031250E+0002   2.82758361816406E+0002   2.84647460937500E+0002   2.86351989746094E+0002   2.87724060058594E+0002   2.88767211914063E+0002   2.89509033203125E+0002   2.89980773925781E+0002   2.90216827392578E+0002   2.90254852294922E+0002   2.90134490966797E+0002   2.89895324707031E+0002   2.89574768066406E+0002   2.89207031250000E+0002   2.88822662353516E+0002   2.88449279785156E+0002   2.88112518310547E+0002   2.87838317871094E+0002   2.87655822753906E+0002   2.87602447509766E+0002   2.87732574462891E+0002   2.88134521484375E+0002   2.88964538574219E+0002   2.90508666992188E+0002   2.92800231933594E+0002   2.90289428710938E+0002   2.87548492431641E+0002   2.85720153808594E+0002   2.84525878906250E+0002   2.83833953857422E+0002   2.83610717773438E+0002   2.83907012939453E+0002   2.84891418457031E+0002   2.86745971679688E+0002   2.85237091064453E+0002   2.79612335205078E+0002   2.74459991455078E+0002   2.69402465820313E+0002   2.64024353027344E+0002   2.58039581298828E+0002   2.51246673583984E+0002   2.43519851684570E+0002   2.34860244750977E+0002   2.25561218261719E+0002   2.16551834106445E+0002   2.09695449829102E+0002   2.08392929077148E+0002   2.08830810546875E+0002   2.09050491333008E+0002   2.08577667236328E+0002   2.07480987548828E+0002   2.05966491699219E+0002   2.04283187866211E+0002   2.02716186523438E+0002   2.01600357055664E+0002   2.01321289062500E+0002   2.02265792846680E+0002   2.04700042724609E+0002   2.08636413574219E+0002   2.13818420410156E+0002   2.19848403930664E+0002   2.26335617065430E+0002   2.32969085693359E+0002   2.39523605346680E+0002   2.45841247558594E+0002   2.51814453125000E+0002   2.57377258300781E+0002   2.62500610351563E+0002   2.67186035156250E+0002   2.71454589843750E+0002   2.75334106445313E+0002   2.78849121093750E+0002   2.82015197753906E+0002   2.84838500976563E+0002   2.87318603515625E+0002   2.89453094482422E+0002   2.91242584228516E+0002   2.92693664550781E+0002   2.93819610595703E+0002   2.94638641357422E+0002   2.95171569824219E+0002   2.95439270019531E+0002   2.95461669921875E+0002   2.95256958007813E+0002   2.94841796875000E+0002   2.94231719970703E+0002   2.93441314697266E+0002   2.92484832763672E+0002   2.91376190185547E+0002   2.90129089355469E+0002   2.88756988525391E+0002   2.87273071289063E+0002   2.85689819335938E+0002   2.84019165039063E+0002   2.82272125244141E+0002   2.80458770751953E+0002   2.78588378906250E+0002   2.76669677734375E+0002   2.74712280273438E+0002   2.72732910156250E+0002   2.70782592773438E+0002   2.69142761230469E+0002   2.69000000000000E+0002   2.69000000000000E+0002   2.69000000000000E+0002   2.69000000000000E+0002   2.69000000000000E+0002   2.69000000000000E+0002   2.69000000000000E+0002   2.69000000000000E+0002   2.69000000000000E+0002   2.69000000000000E+0002   2.69000000000000E+0002
   2.69000000000000E+0002   2.69000000000000E+0002   2.69000000000000E+0002   2.69000000000000E+0002   2.69000000000000E+0002   2.69000000000000E+0002   2.69000000000000E+0002   2.69684509277344E+0002   2.72063659667969E+0002   2.74704193115234E+0002   2.77433502197266E+0002   2.80222808837891E+0002   2.83071838378906E+0002   2.85987701416016E+0002   2.88980499267578E+0002   2.92062072753906E+0002   2.95244903564453E+0002   2.98540252685547E+0002   3.01954589843750E+0002   3.05482910156250E+0002   3.09095947265625E+0002   3.12718292236328E+0002   3.16196197509766E+0002   3.19267089843750E+0002   3.21574096679688E+0002   3.22788238525391E+0002   3.22806335449219E+0002   3.21832885742188E+0002   3.20242584228516E+0002   3.18386901855469E+0002   3.16501281738281E+0002   3.14700836181641E+0002   3.12999359130859E+0002   3.11323089599609E+0002   3.09536102294922E+0002   3.07516815185547E+0002   3.05255279541016E+0002   3.02856201171875E+0002   3.00449737548828E+0002   2.98126708984375E+0002   2.95931457519531E+0002   2.93873077392578E+0002   2.91926818847656E+0002   2.90019470214844E+0002   2.88018066406250E+0002   2.85790130615234E+0002   2.83360321044922E+0002   2.80976593017578E+0002   2.78974151611328E+0002   2.77636077880859E+0002   2.77155181884766E+0002   2.77646270751953E+0002   2.79168151855469E+0002   2.81678527832031E+0002   2.84510925292969E+0002   2.84949645996094E+0002   2.81888183593750E+0002   2.78185272216797E+0002   2.74917755126953E+0002   2.72074127197266E+0002   2.69507263183594E+0002   2.67103973388672E+0002   2.64799316406250E+0002   2.62573883056641E+0002   2.60452362060547E+0002   2.58492431640625E+0002   2.56746948242188E+0002   2.55211959838867E+0002   2.53814483642578E+0002   2.52456237792969E+0002   2.51066085815430E+0002   2.49643081665039E+0002   2.48328109741211E+0002   2.47494384765625E+0002   2.47554977416992E+0002   2.48429031372070E+0002   2.49684295654297E+0002   2.51027908325195E+0002   2.52341995239258E+0002   2.53569229125977E+0002   2.54665145874023E+0002   2.55656051635742E+0002   2.56802856445313E+0002   2.58453826904297E+0002   2.60440521240234E+0002   2.62427001953125E+0002   2.64406707763672E+0002   2.66571380615234E+0002   2.69172485351563E+0002   2.72514801025391E+0002   2.76982635498047E+0002   2.82559051513672E+0002   2.84265136718750E+0002   2.80228485107422E+0002   2.76956695556641E+0002   2.75048980712891E+0002   2.74208007812500E+0002   2.74228424072266E+0002   2.75008026123047E+0002   2.76522888183594E+0002   2.78832122802734E+0002   2.82067871093750E+0002   2.85433349609375E+0002   2.84709442138672E+0002   2.83434844970703E+0002   2.82865112304688E+0002   2.82760864257813E+0002   2.82934112548828E+0002   2.83279510498047E+0002   2.83745117187500E+0002   2.84308410644531E+0002   2.84926391601563E+0002   2.85364990234375E+0002   2.85232757568359E+0002   2.84766113281250E+0002   2.84280670166016E+0002   2.83823791503906E+0002   2.83371551513672E+0002   2.82905914306641E+0002   2.82459808349609E+0002   2.82188842773438E+0002   2.82387939453125E+0002   2.83203369140625E+0002   2.84385162353516E+0002   2.85602478027344E+0002   2.86679473876953E+0002   2.87555084228516E+0002   2.88217803955078E+0002   2.88676391601563E+0002   2.88949707031250E+0002   2.89062622070313E+0002   2.89043609619141E+0002   2.88922546386719E+0002   2.88729217529297E+0002   2.88492065429688E+0002   2.88237884521484E+0002   2.87991973876953E+0002   2.87779113769531E+0002   2.87625061035156E+0002   2.87559173583984E+0002   2.87618774414063E+0002   2.87856445312500E+0002   2.88353088378906E+0002   2.89238281250000E+0002   2.90679046630859E+0002   2.92151672363281E+0002   2.90563659667969E+0002   2.88290313720703E+0002   2.86663665771484E+0002   2.85590881347656E+0002   2.84973968505859E+0002   2.84785858154297E+0002   2.85075073242188E+0002   2.85987121582031E+0002   2.87551208496094E+0002   2.85960113525391E+0002   2.80586669921875E+0002   2.75447845458984E+0002   2.70341705322266E+0002   2.64871063232422E+0002   2.58731048583984E+0002   2.51671920776367E+0002   2.43474548339844E+0002   2.33988204956055E+0002   2.23399642944336E+0002   2.13044662475586E+0002   2.08184280395508E+0002   2.09600341796875E+0002   2.11288619995117E+0002   2.12250000000000E+0002   2.12445205688477E+0002   2.12053039550781E+0002   2.11305648803711E+0002   2.10448471069336E+0002   2.09738311767578E+0002   2.09446197509766E+0002   2.09847274780273E+0002   2.11184982299805E+0002   2.13611923217773E+0002   2.17137771606445E+0002   2.21625503540039E+0002   2.26842453002930E+0002   2.32527801513672E+0002   2.38438354492188E+0002   2.44364791870117E+0002   2.50132324218750E+0002   2.55601547241211E+0002   2.60676055908203E+0002   2.65310882568359E+0002   2.69509307861328E+0002   2.73305419921875E+0002   2.76741760253906E+0002   2.79853179931641E+0002   2.82660675048828E+0002   2.85172332763672E+0002   2.87387420654297E+0002   2.89301574707031E+0002   2.90911529541016E+0002   2.92218139648438E+0002   2.93227752685547E+0002   2.93951965332031E+0002   2.94406250000000E+0002   2.94608184814453E+0002   2.94576110839844E+0002   2.94327972412109E+0002   2.93880828857422E+0002   2.93250610351563E+0002   2.92452209472656E+0002   2.91499664306641E+0002   2.90406250000000E+0002   2.89184722900391E+0002   2.87847229003906E+0002   2.86405487060547E+0002   2.84870544433594E+0002   2.83252807617188E+0002   2.81561981201172E+0002   2.79807067871094E+0002   2.77996429443359E+0002   2.76138153076172E+0002   2.74242034912109E+0002   2.72326538085938E+0002   2.70453155517578E+0002   2.69000000000000E+0002   2.69000000000000E+0002   2.69000000000000E+0002   2.69000000000000E+0002   2.69000000000000E+0002   2.69000000000000E+0002   2.69000000000000E+0002   2.69000000000000E+0002   2.69000000000000E+0002   2.69000000000000E+0002   2.69000000000000E+0002   2.69000000000000E+0002
   2.69000000000000E+0002   2.69000000000000E+0002   2.69000000000000E+0002   2.69000000000000E+0002   2.69000000000000E+0002   2.69000000000000E+0002   2.69000000000000E+0002   2.69307586669922E+0002   2.71569152832031E+0002   2.74131164550781E+0002   2.76779876708984E+0002   2.79480621337891E+0002   2.82227630615234E+0002   2.85023559570313E+0002   2.87873870849609E+0002   2.90784545898438E+0002   2.93760040283203E+0002   2.96801086425781E+0002   2.99900512695313E+0002   3.03037292480469E+0002   3.06167083740234E+0002   3.09209503173828E+0002   3.12035491943359E+0002   3.14464843750000E+0002   3.16292205810547E+0002   3.17352386474609E+0002   3.17598052978516E+0002   3.17127410888672E+0002   3.16134643554688E+0002   3.14827209472656E+0002   3.13367065429688E+0002   3.11849151611328E+0002   3.10302154541016E+0002   3.08700195312500E+0002   3.06986724853516E+0002   3.05113433837891E+0002   3.03076477050781E+0002   3.00919311523438E+0002   2.98703338623047E+0002   2.96477874755859E+0002   2.94268402099609E+0002   2.92076293945313E+0002   2.89879394531250E+0002   2.87632324218750E+0002   2.85279541015625E+0002   2.82799133300781E+0002   2.80266418457031E+0002   2.77879516601563E+0002   2.75912750244141E+0002   2.74632385253906E+0002   2.74217803955078E+0002   2.74711914062500E+0002   2.76002868652344E+0002   2.77774078369141E+0002   2.79331451416016E+0002   2.79646026611328E+0002   2.78390197753906E+0002   2.76302795410156E+0002   2.74044006347656E+0002   2.71845733642578E+0002   2.69739410400391E+0002   2.67705871582031E+0002   2.65727874755859E+0002   2.63805267333984E+0002   2.61957244873047E+0002   2.60214172363281E+0002   2.58599914550781E+0002   2.57113494873047E+0002   2.55726867675781E+0002   2.54404296875000E+0002   2.53131744384766E+0002   2.51947357177734E+0002   2.50969390869141E+0002   2.50390090942383E+0002   2.50372314453125E+0002   2.50911788940430E+0002   2.51866378784180E+0002   2.53096298217773E+0002   2.54522537231445E+0002   2.56104278564453E+0002   2.57799560546875E+0002   2.59534606933594E+0002   2.61189147949219E+0002   2.62618072509766E+0002   2.63755828857422E+0002   2.64724060058594E+0002   2.65756896972656E+0002   2.67069580078125E+0002   2.68820404052734E+0002   2.71108612060547E+0002   2.73872009277344E+0002   2.76436004638672E+0002   2.77129852294922E+0002   2.75634765625000E+0002   2.73681152343750E+0002   2.72260528564453E+0002   2.71591400146484E+0002   2.71680450439453E+0002   2.72495452880859E+0002   2.73994415283203E+0002   2.76106994628906E+0002   2.78604949951172E+0002   2.80710449218750E+0002   2.81505706787109E+0002   2.81584594726563E+0002   2.81687225341797E+0002   2.81956665039063E+0002   2.82350036621094E+0002   2.82810729980469E+0002   2.83298736572266E+0002   2.83781463623047E+0002   2.84202667236328E+0002   2.84448913574219E+0002   2.84422180175781E+0002   2.84182159423828E+0002   2.83855194091797E+0002   2.83510040283203E+0002   2.83171356201172E+0002   2.82860534667969E+0002   2.82627166748047E+0002   2.82568084716797E+0002   2.82799468994141E+0002   2.83359588623047E+0002   2.84151733398438E+0002   2.85020996093750E+0002   2.85846008300781E+0002   2.86559509277344E+0002   2.87132446289063E+0002   2.87558319091797E+0002   2.87843566894531E+0002   2.88002593994141E+0002   2.88054687500000E+0002   2.88021850585938E+0002   2.87927185058594E+0002   2.87793884277344E+0002   2.87644653320313E+0002   2.87501800537109E+0002   2.87387451171875E+0002   2.87324768066406E+0002   2.87339111328125E+0002   2.87460235595703E+0002   2.87724090576172E+0002   2.88171691894531E+0002   2.88829345703125E+0002   2.89605041503906E+0002   2.89999237060547E+0002   2.89363586425781E+0002   2.88150115966797E+0002   2.87029357910156E+0002   2.86202880859375E+0002   2.85690795898438E+0002   2.85482238769531E+0002   2.85557037353516E+0002   2.85814483642578E+0002   2.85741363525391E+0002   2.84064270019531E+0002   2.80577514648438E+0002   2.76327392578125E+0002   2.71642272949219E+0002   2.66392150878906E+0002   2.60348205566406E+0002   2.53256423950195E+0002   2.44816314697266E+0002   2.34629669189453E+0002   2.22326217651367E+0002   2.09990798950195E+0002   2.07993011474609E+0002   2.12037048339844E+0002   2.14816680908203E+0002   2.16307296752930E+0002   2.16923095703125E+0002   2.16986251831055E+0002   2.16757766723633E+0002   2.16470214843750E+0002   2.16344787597656E+0002   2.16596145629883E+0002   2.17424301147461E+0002   2.18993408203125E+0002   2.21402679443359E+0002   2.24664108276367E+0002   2.28701583862305E+0002   2.33373001098633E+0002   2.38501251220703E+0002   2.43897399902344E+0002   2.49370117187500E+0002   2.54728057861328E+0002   2.59791198730469E+0002   2.64422058105469E+0002   2.68561889648438E+0002   2.72235412597656E+0002   2.75514190673828E+0002   2.78471710205078E+0002   2.81158813476563E+0002   2.83600524902344E+0002   2.85802154541016E+0002   2.87757293701172E+0002   2.89454986572266E+0002   2.90884796142578E+0002   2.92040496826172E+0002   2.92921966552734E+0002   2.93535583496094E+0002   2.93893341064453E+0002   2.94011016845703E+0002   2.93906463623047E+0002   2.93597839355469E+0002   2.93102783203125E+0002   2.92437561035156E+0002   2.91617156982422E+0002   2.90655242919922E+0002   2.89564361572266E+0002   2.88356201171875E+0002   2.87041656494141E+0002   2.85631011962891E+0002   2.84133911132813E+0002   2.82559387207031E+0002   2.80915863037109E+0002   2.79211273193359E+0002   2.77453002929688E+0002   2.75648620605469E+0002   2.73807922363281E+0002   2.71951599121094E+0002   2.70154083251953E+0002   2.69000000000000E+0002   2.69000000000000E+0002   2.69000000000000E+0002   2.69000000000000E+0002   2.69000000000000E+0002   2.69000000000000E+0002   2.69000000000000E+0002   2.69000000000000E+0002   2.69000000000000E+0002   2.69000000000000E+0002   2.69000000000000E+0002   2.69000000000000E+0002
   2.69000000000000E+0002   2.69000000000000E+0002   2.69000000000000E+0002   2.69000000000000E+0002   2.69000000000000E+0002   2.69000000000000E+0002   2.69000000000000E+0002   2.69000000000000E+0002   2.71099731445313E+0002   2.73531799316406E+0002   2.76089141845703E+0002   2.78696350097656E+0002   2.81335754394531E+0002   2.84005310058594E+0002   2.86706756591797E+0002   2.89441528320313E+0002   2.92208465576172E+0002   2.95001251220703E+0002   2.97805206298828E+0002   3.00592559814453E+0002   3.03316802978516E+0002   3.05906738281250E+0002   3.08263549804688E+0002   3.10266357421875E+0002   3.11792419433594E+0002   3.12751098632813E+0002   3.13117187500000E+0002   3.12941650390625E+0002   3.12330657958984E+0002   3.11407440185547E+0002   3.10278747558594E+0002   3.09016265869141E+0002   3.07652496337891E+0002   3.06187133789063E+0002   3.04601593017578E+0002   3.02878631591797E+0002   3.01017700195313E+0002   2.99036895751953E+0002   2.96961151123047E+0002   2.94808410644531E+0002   2.92583465576172E+0002   2.90279022216797E+0002   2.87877136230469E+0002   2.85351043701172E+0002   2.82678985595703E+0002   2.79875854492188E+0002   2.77035186767578E+0002   2.74359283447266E+0002   2.72151184082031E+0002   2.70741668701172E+0002   2.70347167968750E+0002   2.70942565917969E+0002   2.72256713867188E+0002   2.73851959228516E+0002   2.75191467285156E+0002   2.75782196044922E+0002   2.75459777832031E+0002   2.74447387695313E+0002   2.73063049316406E+0002   2.71514465332031E+0002   2.69898529052734E+0002   2.68255218505859E+0002   2.66604705810547E+0002   2.64964996337891E+0002   2.63357421875000E+0002   2.61804168701172E+0002   2.60321807861328E+0002   2.58915344238281E+0002   2.57580108642578E+0002   2.56312622070313E+0002   2.55127090454102E+0002   2.54071044921875E+0002   2.53232315063477E+0002   2.52723495483398E+0002   2.52636917114258E+0002   2.53001907348633E+0002   2.53793060302734E+0002   2.54977432250977E+0002   2.56547760009766E+0002   2.58519592285156E+0002   2.60884796142578E+0002   2.63484680175781E+0002   2.65804718017578E+0002   2.67096191406250E+0002   2.67243194580078E+0002   2.66939483642578E+0002   2.66811523437500E+0002   2.67115783691406E+0002   2.67894104003906E+0002   2.69072235107422E+0002   2.70424865722656E+0002   2.71474975585938E+0002   2.71637847900391E+0002   2.70842315673828E+0002   2.69658294677734E+0002   2.68671295166016E+0002   2.68206359863281E+0002   2.68402923583984E+0002   2.69290985107422E+0002   2.70815124511719E+0002   2.72827728271484E+0002   2.75048614501953E+0002   2.77049682617188E+0002   2.78504730224609E+0002   2.79501922607422E+0002   2.80297210693359E+0002   2.81022705078125E+0002   2.81700286865234E+0002   2.82315124511719E+0002   2.82850830078125E+0002   2.83292938232422E+0002   2.83618103027344E+0002   2.83791046142578E+0002   2.83793151855469E+0002   2.83654785156250E+0002   2.83435943603516E+0002   2.83188629150391E+0002   2.82949157714844E+0002   2.82750823974609E+0002   2.82636810302734E+0002   2.82662841796875E+0002   2.82878417968750E+0002   2.83292724609375E+0002   2.83858795166016E+0002   2.84497070312500E+0002   2.85131561279297E+0002   2.85708343505859E+0002   2.86196380615234E+0002   2.86582183837891E+0002   2.86864440917969E+0002   2.87049926757813E+0002   2.87150909423828E+0002   2.87182983398438E+0002   2.87163696289063E+0002   2.87111480712891E+0002   2.87045074462891E+0002   2.86983184814453E+0002   2.86944549560547E+0002   2.86948059082031E+0002   2.87013122558594E+0002   2.87159179687500E+0002   2.87403411865234E+0002   2.87752349853516E+0002   2.88177764892578E+0002   2.88566009521484E+0002   2.88688171386719E+0002   2.88370422363281E+0002   2.87738403320313E+0002   2.87056915283203E+0002   2.86491790771484E+0002   2.86099761962891E+0002   2.85874908447266E+0002   2.85754730224609E+0002   2.85570190429688E+0002   2.84956970214844E+0002   2.83443969726563E+0002   2.80892852783203E+0002   2.77527099609375E+0002   2.73484588623047E+0002   2.68702270507813E+0002   2.63010223388672E+0002   2.56191253662109E+0002   2.47968185424805E+0002   2.37908432006836E+0002   2.25223800659180E+0002   2.09117736816406E+0002   2.12669662475586E+0002   2.17187561035156E+0002   2.19839309692383E+0002   2.21273193359375E+0002   2.21957489013672E+0002   2.22210403442383E+0002   2.22268386840820E+0002   2.22329452514648E+0002   2.22572814941406E+0002   2.23164047241211E+0002   2.24250137329102E+0002   2.25947402954102E+0002   2.28326843261719E+0002   2.31403961181641E+0002   2.35138687133789E+0002   2.39445449829102E+0002   2.44206481933594E+0002   2.49278930664063E+0002   2.54489730834961E+0002   2.59622344970703E+0002   2.64423004150391E+0002   2.68669769287109E+0002   2.72283538818359E+0002   2.75353637695313E+0002   2.78038787841797E+0002   2.80467010498047E+0002   2.82706420898438E+0002   2.84778564453125E+0002   2.86677612304688E+0002   2.88384796142578E+0002   2.89877044677734E+0002   2.91133270263672E+0002   2.92138183593750E+0002   2.92884948730469E+0002   2.93375732421875E+0002   2.93620819091797E+0002   2.93636169433594E+0002   2.93440704345703E+0002   2.93053985595703E+0002   2.92494628906250E+0002   2.91779479980469E+0002   2.90923431396484E+0002   2.89939605712891E+0002   2.88839630126953E+0002   2.87633941650391E+0002   2.86332092285156E+0002   2.84942901611328E+0002   2.83474609375000E+0002   2.81934875488281E+0002   2.80330871582031E+0002   2.78669372558594E+0002   2.76956848144531E+0002   2.75200286865234E+0002   2.73409515380859E+0002   2.71607818603516E+0002   2.69885864257813E+0002   2.69000000000000E+0002   2.69000000000000E+0002   2.69000000000000E+0002   2.69000000000000E+0002   2.69000000000000E+0002   2.69000000000000E+0002   2.69000000000000E+0002   2.69000000000000E+0002   2.69000000000000E+0002   2.69000000000000E+0002   2.69000000000000E+0002   2.69000000000000E+0002
   2.69000000000000E+0002   2.69000000000000E+0002   2.69000000000000E+0002   2.69000000000000E+0002   2.69000000000000E+0002   2.69000000000000E+0002   2.69000000000000E+0002   2.69000000000000E+0002   2.70558654785156E+0002   2.72893035888672E+0002   2.75370971679688E+0002   2.77885833740234E+0002   2.80415222167969E+0002   2.82955352783203E+0002   2.85505920410156E+0002   2.88065582275391E+0002   2.90629638671875E+0002   2.93188171386719E+0002   2.95723388671875E+0002   2.98206695556641E+0002   3.00595825195313E+0002   3.02832611083984E+0002   3.04844116210938E+0002   3.06548828125000E+0002   3.07870178222656E+0002   3.08754425048828E+0002   3.09186218261719E+0002   3.09192962646484E+0002   3.08835021972656E+0002   3.08186645507813E+0002   3.07317230224609E+0002   3.06278656005859E+0002   3.05100738525391E+0002   3.03793792724609E+0002   3.02356201171875E+0002   3.00784240722656E+0002   2.99079132080078E+0002   2.97247161865234E+0002   2.95292633056641E+0002   2.93208221435547E+0002   2.90975189208984E+0002   2.88576477050781E+0002   2.85998382568359E+0002   2.83220367431641E+0002   2.80221618652344E+0002   2.77008758544922E+0002   2.73659790039063E+0002   2.70384826660156E+0002   2.67584960937500E+0002   2.65808532714844E+0002   2.65458251953125E+0002   2.66434844970703E+0002   2.68202484130859E+0002   2.70150024414063E+0002   2.71795684814453E+0002   2.72836669921875E+0002   2.73180023193359E+0002   2.72917510986328E+0002   2.72219573974609E+0002   2.71239349365234E+0002   2.70081573486328E+0002   2.68811492919922E+0002   2.67471496582031E+0002   2.66093139648438E+0002   2.64702575683594E+0002   2.63321624755859E+0002   2.61966339111328E+0002   2.60646484375000E+0002   2.59368988037109E+0002   2.58145416259766E+0002   2.57001678466797E+0002   2.55985626220703E+0002   2.55167602539063E+0002   2.54629745483398E+0002   2.54446517944336E+0002   2.54669860839844E+0002   2.55334060668945E+0002   2.56477539062500E+0002   2.58166778564453E+0002   2.60509246826172E+0002   2.63632629394531E+0002   2.67519744873047E+0002   2.71323333740234E+0002   2.72626739501953E+0002   2.70986663818359E+0002   2.68856048583984E+0002   2.67385711669922E+0002   2.66665313720703E+0002   2.66535430908203E+0002   2.66784942626953E+0002   2.67154083251953E+0002   2.67331909179688E+0002   2.67058959960938E+0002   2.66313629150391E+0002   2.65347900390625E+0002   2.64519287109375E+0002   2.64140228271484E+0002   2.64419403076172E+0002   2.65433929443359E+0002   2.67117156982422E+0002   2.69277435302734E+0002   2.71639923095703E+0002   2.73912628173828E+0002   2.75895660400391E+0002   2.77553436279297E+0002   2.78946929931641E+0002   2.80128387451172E+0002   2.81112457275391E+0002   2.81898498535156E+0002   2.82493377685547E+0002   2.82914611816406E+0002   2.83180450439453E+0002   2.83304046630859E+0002   2.83301269531250E+0002   2.83200592041016E+0002   2.83040344238281E+0002   2.82858459472656E+0002   2.82688201904297E+0002   2.82560760498047E+0002   2.82508911132813E+0002   2.82565338134766E+0002   2.82753082275391E+0002   2.83072723388672E+0002   2.83497467041016E+0002   2.83982299804688E+0002   2.84479278564453E+0002   2.84949005126953E+0002   2.85364562988281E+0002   2.85710968017578E+0002   2.85982940673828E+0002   2.86182342529297E+0002   2.86316345214844E+0002   2.86395599365234E+0002   2.86433166503906E+0002   2.86443298339844E+0002   2.86440979003906E+0002   2.86441406250000E+0002   2.86459503173828E+0002   2.86509826660156E+0002   2.86605773925781E+0002   2.86758026123047E+0002   2.86971099853516E+0002   2.87235778808594E+0002   2.87516265869141E+0002   2.87737396240234E+0002   2.87799133300781E+0002   2.87644805908203E+0002   2.87321319580078E+0002   2.86939849853516E+0002   2.86595062255859E+0002   2.86331054687500E+0002   2.86140411376953E+0002   2.85960052490234E+0002   2.85654510498047E+0002   2.85011138916016E+0002   2.83806030273438E+0002   2.81920623779297E+0002   2.79342498779297E+0002   2.76043670654297E+0002   2.71914886474609E+0002   2.66795074462891E+0002   2.60527008056641E+0002   2.52989791870117E+0002   2.44124252319336E+0002   2.34226699829102E+0002   2.25804275512695E+0002   2.23739273071289E+0002   2.24966110229492E+0002   2.26217193603516E+0002   2.27004898071289E+0002   2.27421157836914E+0002   2.27626419067383E+0002   2.27773895263672E+0002   2.28004623413086E+0002   2.28450225830078E+0002   2.29232208251953E+0002   2.30457321166992E+0002   2.32209899902344E+0002   2.34543991088867E+0002   2.37478683471680E+0002   2.40998641967773E+0002   2.45059722900391E+0002   2.49594848632813E+0002   2.54512329101563E+0002   2.59673767089844E+0002   2.64839935302734E+0002   2.69616546630859E+0002   2.73562988281250E+0002   2.76544982910156E+0002   2.78841278076172E+0002   2.80806030273438E+0002   2.82642089843750E+0002   2.84416564941406E+0002   2.86127441406250E+0002   2.87744384765625E+0002   2.89227478027344E+0002   2.90536163330078E+0002   2.91634460449219E+0002   2.92495605468750E+0002   2.93105224609375E+0002   2.93462554931641E+0002   2.93578552246094E+0002   2.93472198486328E+0002   2.93165985107422E+0002   2.92682434082031E+0002   2.92041931152344E+0002   2.91261993408203E+0002   2.90357269287109E+0002   2.89339965820313E+0002   2.88220458984375E+0002   2.87007720947266E+0002   2.85709747314453E+0002   2.84333831787109E+0002   2.82886657714844E+0002   2.81374572753906E+0002   2.79803375244141E+0002   2.78178771972656E+0002   2.76506225585938E+0002   2.74792022705078E+0002   2.73046081542969E+0002   2.71294677734375E+0002   2.69649139404297E+0002   2.69000000000000E+0002   2.69000000000000E+0002   2.69000000000000E+0002   2.69000000000000E+0002   2.69000000000000E+0002   2.69000000000000E+0002   2.69000000000000E+0002   2.69000000000000E+0002   2.69000000000000E+0002   2.69000000000000E+0002   2.69000000000000E+0002   2.69000000000000E+0002
   2.69000000000000E+0002   2.69000000000000E+0002   2.69000000000000E+0002   2.69000000000000E+0002   2.69000000000000E+0002   2.69000000000000E+0002   2.69000000000000E+0002   2.69000000000000E+0002   2.69964080810547E+0002   2.72239074707031E+0002   2.74646057128906E+0002   2.77068267822266E+0002   2.79485656738281E+0002   2.81895172119141E+0002   2.84295623779297E+0002   2.86684326171875E+0002   2.89055053710938E+0002   2.91396606445313E+0002   2.93691101074219E+0002   2.95912322998047E+0002   2.98024505615234E+0002   2.99982086181641E+0002   3.01731903076172E+0002   3.03218231201172E+0002   3.04391387939453E+0002   3.05217376708984E+0002   3.05685668945313E+0002   3.05811065673828E+0002   3.05628631591797E+0002   3.05183624267578E+0002   3.04520904541016E+0002   3.03676879882813E+0002   3.02675872802734E+0002   3.01530578613281E+0002   3.00245910644531E+0002   2.98823822021484E+0002   2.97266693115234E+0002   2.95576812744141E+0002   2.93749053955078E+0002   2.91753143310547E+0002   2.89529388427734E+0002   2.87048828125000E+0002   2.84317840576172E+0002   2.81314270019531E+0002   2.77990356445313E+0002   2.74302368164063E+0002   2.70253967285156E+0002   2.65994537353516E+0002   2.62031555175781E+0002   2.59429565429688E+0002   2.59234069824219E+0002   2.61175262451172E+0002   2.64009338378906E+0002   2.66776336669922E+0002   2.69028533935547E+0002   2.70607452392578E+0002   2.71506866455078E+0002   2.71811584472656E+0002   2.71646575927734E+0002   2.71134155273438E+0002   2.70373016357422E+0002   2.69435943603516E+0002   2.68375946044922E+0002   2.67232818603516E+0002   2.66037231445313E+0002   2.64812408447266E+0002   2.63574859619141E+0002   2.62336059570313E+0002   2.61106506347656E+0002   2.59902404785156E+0002   2.58753082275391E+0002   2.57705291748047E+0002   2.56822662353516E+0002   2.56178710937500E+0002   2.55847625732422E+0002   2.55898727416992E+0002   2.56401000976563E+0002   2.57438171386719E+0002   2.59132629394531E+0002   2.61681152343750E+0002   2.65410949707031E+0002   2.70840789794922E+0002   2.78173919677734E+0002   2.80152313232422E+0002   2.74249237060547E+0002   2.69833190917969E+0002   2.67151062011719E+0002   2.65610046386719E+0002   2.64783538818359E+0002   2.64355682373047E+0002   2.64056610107422E+0002   2.63648345947266E+0002   2.62967956542969E+0002   2.61995300292969E+0002   2.60878601074219E+0002   2.59897644042969E+0002   2.59395202636719E+0002   2.59678497314453E+0002   2.60888824462891E+0002   2.62926727294922E+0002   2.65512451171875E+0002   2.68319152832031E+0002   2.71074645996094E+0002   2.73609130859375E+0002   2.75853881835938E+0002   2.77796264648438E+0002   2.79426788330078E+0002   2.80722961425781E+0002   2.81673919677734E+0002   2.82308288574219E+0002   2.82688934326172E+0002   2.82883361816406E+0002   2.82943725585938E+0002   2.82907196044922E+0002   2.82804443359375E+0002   2.82664764404297E+0002   2.82516174316406E+0002   2.82384948730469E+0002   2.82295715332031E+0002   2.82271972656250E+0002   2.82333587646484E+0002   2.82492065429688E+0002   2.82745391845703E+0002   2.83076446533203E+0002   2.83457366943359E+0002   2.83856658935547E+0002   2.84245941162109E+0002   2.84603515625000E+0002   2.84915435791016E+0002   2.85174835205078E+0002   2.85380737304688E+0002   2.85536865234375E+0002   2.85650177001953E+0002   2.85730133056641E+0002   2.85787567138672E+0002   2.85834167480469E+0002   2.85881805419922E+0002   2.85942077636719E+0002   2.86025573730469E+0002   2.86141082763672E+0002   2.86293640136719E+0002   2.86481903076172E+0002   2.86693634033203E+0002   2.86901275634766E+0002   2.87061737060547E+0002   2.87129882812500E+0002   2.87085052490234E+0002   2.86949096679688E+0002   2.86773254394531E+0002   2.86607635498047E+0002   2.86478973388672E+0002   2.86380737304688E+0002   2.86268218994141E+0002   2.86055145263672E+0002   2.85621795654297E+0002   2.84843109130859E+0002   2.83617462158203E+0002   2.81853454589844E+0002   2.79419311523438E+0002   2.76118072509766E+0002   2.71736267089844E+0002   2.66152526855469E+0002   2.59433563232422E+0002   2.51898406982422E+0002   2.44301040649414E+0002   2.38130340576172E+0002   2.34735214233398E+0002   2.33534988403320E+0002   2.33223373413086E+0002   2.33140411376953E+0002   2.33100753784180E+0002   2.33100112915039E+0002   2.33195205688477E+0002   2.33463562011719E+0002   2.33988922119141E+0002   2.34853561401367E+0002   2.36131973266602E+0002   2.37884918212891E+0002   2.40154739379883E+0002   2.42963302612305E+0002   2.46313766479492E+0002   2.50195877075195E+0002   2.54592361450195E+0002   2.59480041503906E+0002   2.64806030273438E+0002   2.70382690429688E+0002   2.75613800048828E+0002   2.79413330078125E+0002   2.81434722900391E+0002   2.82601501464844E+0002   2.83670074462891E+0002   2.84865386962891E+0002   2.86185394287109E+0002   2.87568725585938E+0002   2.88944824218750E+0002   2.90245391845703E+0002   2.91407135009766E+0002   2.92374908447266E+0002   2.93106811523438E+0002   2.93579833984375E+0002   2.93791992187500E+0002   2.93759185791016E+0002   2.93508026123047E+0002   2.93068237304688E+0002   2.92467315673828E+0002   2.91728179931641E+0002   2.90868896484375E+0002   2.89903350830078E+0002   2.88842285156250E+0002   2.87694335937500E+0002   2.86466613769531E+0002   2.85165283203125E+0002   2.83795898437500E+0002   2.82363647460938E+0002   2.80873291015625E+0002   2.79329437255859E+0002   2.77736511230469E+0002   2.76098999023438E+0002   2.74422424316406E+0002   2.72716735839844E+0002   2.71011718750000E+0002   2.69444091796875E+0002   2.69000000000000E+0002   2.69000000000000E+0002   2.69000000000000E+0002   2.69000000000000E+0002   2.69000000000000E+0002   2.69000000000000E+0002   2.69000000000000E+0002   2.69000000000000E+0002   2.69000000000000E+0002   2.69000000000000E+0002   2.69000000000000E+0002   2.69000000000000E+0002
   2.69000000000000E+0002   2.69000000000000E+0002   2.69000000000000E+0002   2.69000000000000E+0002   2.69000000000000E+0002   2.69000000000000E+0002   2.69000000000000E+0002   2.69000000000000E+0002   2.69488952636719E+0002   2.71630828857422E+0002   2.73944061279297E+0002   2.76264282226563E+0002   2.78566040039063E+0002   2.80844146728516E+0002   2.83096618652344E+0002   2.85320251464844E+0002   2.87508575439453E+0002   2.89650695800781E+0002   2.91730438232422E+0002   2.93725280761719E+0002   2.95606353759766E+0002   2.97338806152344E+0002   2.98884033203125E+0002   3.00203460693359E+0002   3.01263763427734E+0002   3.02042327880859E+0002   3.02531402587891E+0002   3.02738677978516E+0002   3.02684570312500E+0002   3.02396728515625E+0002   3.01903686523438E+0002   3.01230102539063E+0002   3.00393890380859E+0002   2.99406188964844E+0002   2.98273132324219E+0002   2.96998352050781E+0002   2.95585327148438E+0002   2.94038024902344E+0002   2.92357299804688E+0002   2.90510620117188E+0002   2.88326019287109E+0002   2.85754272460938E+0002   2.82903076171875E+0002   2.79728729248047E+0002   2.76131591796875E+0002   2.71984588623047E+0002   2.67140960693359E+0002   2.61502532958984E+0002   2.55388595581055E+0002   2.50746261596680E+0002   2.51039413452148E+0002   2.55286834716797E+0002   2.60031646728516E+0002   2.63975769042969E+0002   2.66959686279297E+0002   2.69070709228516E+0002   2.70432373046875E+0002   2.71172607421875E+0002   2.71415588378906E+0002   2.71272827148438E+0002   2.70836944580078E+0002   2.70181121826172E+0002   2.69362060546875E+0002   2.68423797607422E+0002   2.67399963378906E+0002   2.66314971923828E+0002   2.65184448242188E+0002   2.64017364501953E+0002   2.62820770263672E+0002   2.61607818603516E+0002   2.60405975341797E+0002   2.59261779785156E+0002   2.58239318847656E+0002   2.57414123535156E+0002   2.56866546630859E+0002   2.56678863525391E+0002   2.56938995361328E+0002   2.57751281738281E+0002   2.59256744384766E+0002   2.61669616699219E+0002   2.65350036621094E+0002   2.70945678710938E+0002   2.79408599853516E+0002   2.81793548583984E+0002   2.73924499511719E+0002   2.68855712890625E+0002   2.65759399414063E+0002   2.63845764160156E+0002   2.62635101318359E+0002   2.61797515869141E+0002   2.61074005126953E+0002   2.60254119873047E+0002   2.59191558837891E+0002   2.57838684082031E+0002   2.56285400390625E+0002   2.54799819946289E+0002   2.53848571777344E+0002   2.53981887817383E+0002   2.55497955322266E+0002   2.58190246582031E+0002   2.61539337158203E+0002   2.65065399169922E+0002   2.68471435546875E+0002   2.71617218017578E+0002   2.74452331542969E+0002   2.76950531005859E+0002   2.79057189941406E+0002   2.80681884765625E+0002   2.81768157958984E+0002   2.82374237060547E+0002   2.82644500732422E+0002   2.82716583251953E+0002   2.82678649902344E+0002   2.82578674316406E+0002   2.82444641113281E+0002   2.82297515869141E+0002   2.82156311035156E+0002   2.82039489746094E+0002   2.81964874267578E+0002   2.81948516845703E+0002   2.82002838134766E+0002   2.82133850097656E+0002   2.82338653564453E+0002   2.82605255126953E+0002   2.82914764404297E+0002   2.83245269775391E+0002   2.83575897216797E+0002   2.83889343261719E+0002   2.84173431396484E+0002   2.84420959472656E+0002   2.84629516601563E+0002   2.84800537109375E+0002   2.84938385009766E+0002   2.85049743652344E+0002   2.85142730712891E+0002   2.85226257324219E+0002   2.85309448242188E+0002   2.85401062011719E+0002   2.85508789062500E+0002   2.85638244628906E+0002   2.85791687011719E+0002   2.85966186523438E+0002   2.86151824951172E+0002   2.86330688476563E+0002   2.86479583740234E+0002   2.86577850341797E+0002   2.86618469238281E+0002   2.86613952636719E+0002   2.86590911865234E+0002   2.86577148437500E+0002   2.86589508056641E+0002   2.86627136230469E+0002   2.86668304443359E+0002   2.86670715332031E+0002   2.86576995849609E+0002   2.86323669433594E+0002   2.85839569091797E+0002   2.85016235351563E+0002   2.83651000976563E+0002   2.81408996582031E+0002   2.77904602050781E+0002   2.72952667236328E+0002   2.66785308837891E+0002   2.60001861572266E+0002   2.53408828735352E+0002   2.47874816894531E+0002   2.43958648681641E+0002   2.41545486450195E+0002   2.40127105712891E+0002   2.39272888183594E+0002   2.38753982543945E+0002   2.38482192993164E+0002   2.38444473266602E+0002   2.38665298461914E+0002   2.39187072753906E+0002   2.40058868408203E+0002   2.41328948974609E+0002   2.43039550781250E+0002   2.45223495483398E+0002   2.47903671264648E+0002   2.51095977783203E+0002   2.54816284179688E+0002   2.59092285156250E+0002   2.63979980468750E+0002   2.69578399658203E+0002   2.75982147216797E+0002   2.82743377685547E+0002   2.86852264404297E+0002   2.86830200195313E+0002   2.86288391113281E+0002   2.86355499267578E+0002   2.86951385498047E+0002   2.87888641357422E+0002   2.89017364501953E+0002   2.90221435546875E+0002   2.91403228759766E+0002   2.92474182128906E+0002   2.93354278564453E+0002   2.93980407714844E+0002   2.94318206787109E+0002   2.94368011474609E+0002   2.94158508300781E+0002   2.93732025146484E+0002   2.93130798339844E+0002   2.92389556884766E+0002   2.91533874511719E+0002   2.90581512451172E+0002   2.89544555664063E+0002   2.88431304931641E+0002   2.87247863769531E+0002   2.85999023437500E+0002   2.84688781738281E+0002   2.83320861816406E+0002   2.81898651123047E+0002   2.80425506591797E+0002   2.78904663085938E+0002   2.77339294433594E+0002   2.75732879638672E+0002   2.74090026855469E+0002   2.72420745849609E+0002   2.70758636474609E+0002   2.69269226074219E+0002   2.69000000000000E+0002   2.69000000000000E+0002   2.69000000000000E+0002   2.69000000000000E+0002   2.69000000000000E+0002   2.69000000000000E+0002   2.69000000000000E+0002   2.69000000000000E+0002   2.69000000000000E+0002   2.69000000000000E+0002   2.69000000000000E+0002   2.69000000000000E+0002
   2.69000000000000E+0002   2.69000000000000E+0002   2.69000000000000E+0002   2.69000000000000E+0002   2.69000000000000E+0002   2.69000000000000E+0002   2.69000000000000E+0002   2.69000000000000E+0002   2.69219482421875E+0002   2.71108978271484E+0002   2.73282897949219E+0002   2.75490112304688E+0002   2.77672790527344E+0002   2.79819091796875E+0002   2.81926116943359E+0002   2.83990814208984E+0002   2.86007354736328E+0002   2.87966186523438E+0002   2.89853515625000E+0002   2.91651031494141E+0002   2.93336151123047E+0002   2.94882690429688E+0002   2.96262847900391E+0002   2.97449645996094E+0002   2.98420349121094E+0002   2.99159484863281E+0002   2.99661102294922E+0002   2.99928833007813E+0002   2.99974426269531E+0002   2.99814270019531E+0002   2.99465881347656E+0002   2.98944732666016E+0002   2.98262512207031E+0002   2.97426757812500E+0002   2.96441955566406E+0002   2.95311035156250E+0002   2.94037078857422E+0002   2.92625274658203E+0002   2.91087127685547E+0002   2.89451660156250E+0002   2.87354217529297E+0002   2.84686614990234E+0002   2.81800445556641E+0002   2.78561309814453E+0002   2.74821533203125E+0002   2.70379119873047E+0002   2.64921356201172E+0002   2.57936492919922E+0002   2.48696884155273E+0002   2.38270339965820E+0002   2.40492385864258E+0002   2.49958923339844E+0002   2.57137573242188E+0002   2.62194244384766E+0002   2.65774444580078E+0002   2.68285247802734E+0002   2.69978668212891E+0002   2.71028259277344E+0002   2.71566802978516E+0002   2.71701202392578E+0002   2.71518066406250E+0002   2.71087402343750E+0002   2.70465728759766E+0002   2.69698791503906E+0002   2.68822387695313E+0002   2.67861785888672E+0002   2.66830169677734E+0002   2.65729034423828E+0002   2.64553771972656E+0002   2.63305267333984E+0002   2.62004150390625E+0002   2.60698333740234E+0002   2.59459411621094E+0002   2.58372161865234E+0002   2.57526306152344E+0002   2.57013610839844E+0002   2.56930023193359E+0002   2.57380493164063E+0002   2.58486755371094E+0002   2.60396575927734E+0002   2.63279083251953E+0002   2.67196502685547E+0002   2.71295379638672E+0002   2.72185302734375E+0002   2.69152130126953E+0002   2.65749359130859E+0002   2.63181640625000E+0002   2.61388824462891E+0002   2.60120574951172E+0002   2.59130859375000E+0002   2.58196350097656E+0002   2.57117553710938E+0002   2.55727722167969E+0002   2.53915084838867E+0002   2.51672592163086E+0002   2.49220672607422E+0002   2.47232635498047E+0002   2.46875244140625E+0002   2.48936721801758E+0002   2.52846923828125E+0002   2.57438446044922E+0002   2.61962585449219E+0002   2.66143585205078E+0002   2.69938232421875E+0002   2.73378448486328E+0002   2.76480194091797E+0002   2.79159423828125E+0002   2.81182464599609E+0002   2.82340850830078E+0002   2.82761749267578E+0002   2.82783630371094E+0002   2.82651184082031E+0002   2.82471862792969E+0002   2.82282928466797E+0002   2.82097625732422E+0002   2.81924224853516E+0002   2.81771911621094E+0002   2.81651641845703E+0002   2.81575164794922E+0002   2.81553314208984E+0002   2.81593994140625E+0002   2.81700286865234E+0002   2.81868957519531E+0002   2.82090698242188E+0002   2.82351379394531E+0002   2.82634490966797E+0002   2.82923858642578E+0002   2.83205474853516E+0002   2.83468688964844E+0002   2.83706726074219E+0002   2.83916381835938E+0002   2.84097686767578E+0002   2.84253326416016E+0002   2.84387908935547E+0002   2.84507415771484E+0002   2.84618591308594E+0002   2.84728454589844E+0002   2.84843627929688E+0002   2.84969696044922E+0002   2.85110534667969E+0002   2.85267364501953E+0002   2.85437835693359E+0002   2.85615417480469E+0002   2.85789886474609E+0002   2.85949645996094E+0002   2.86086181640625E+0002   2.86198760986328E+0002   2.86296813964844E+0002   2.86396972656250E+0002   2.86517089843750E+0002   2.86670898437500E+0002   2.86865997314453E+0002   2.87103820800781E+0002   2.87380340576172E+0002   2.87689666748047E+0002   2.88027313232422E+0002   2.88380737304688E+0002   2.88686340332031E+0002   2.88724212646484E+0002   2.87959075927734E+0002   2.85554718017578E+0002   2.80996124267578E+0002   2.74774444580078E+0002   2.67964569091797E+0002   2.61499603271484E+0002   2.55988601684570E+0002   2.51715652465820E+0002   2.48641479492188E+0002   2.46524581909180E+0002   2.45099670410156E+0002   2.44173873901367E+0002   2.43636627197266E+0002   2.43438140869141E+0002   2.43567199707031E+0002   2.44035064697266E+0002   2.44864791870117E+0002   2.46083786010742E+0002   2.47719085693359E+0002   2.49794708251953E+0002   2.52331741333008E+0002   2.55351669311523E+0002   2.58884399414063E+0002   2.62983337402344E+0002   2.67754516601563E+0002   2.73415191650391E+0002   2.80422271728516E+0002   2.89738830566406E+0002   2.96100677490234E+0002   2.91226562500000E+0002   2.89090545654297E+0002   2.88472930908203E+0002   2.88695190429688E+0002   2.89403900146484E+0002   2.90392883300781E+0002   2.91521331787109E+0002   2.92672821044922E+0002   2.93734252929688E+0002   2.94591949462891E+0002   2.95147735595703E+0002   2.95348815917969E+0002   2.95205047607422E+0002   2.94774322509766E+0002   2.94129180908203E+0002   2.93331665039063E+0002   2.92424865722656E+0002   2.91435333251953E+0002   2.90378173828125E+0002   2.89261657714844E+0002   2.88090270996094E+0002   2.86866699218750E+0002   2.85592742919922E+0002   2.84269989013672E+0002   2.82900024414063E+0002   2.81484588623047E+0002   2.80025451660156E+0002   2.78524505615234E+0002   2.76983795166016E+0002   2.75405548095703E+0002   2.73793518066406E+0002   2.72157592773438E+0002   2.70535491943359E+0002   2.69120819091797E+0002   2.69000000000000E+0002   2.69000000000000E+0002   2.69000000000000E+0002   2.69000000000000E+0002   2.69000000000000E+0002   2.69000000000000E+0002   2.69000000000000E+0002   2.69000000000000E+0002   2.69000000000000E+0002   2.69000000000000E+0002   2.69000000000000E+0002   2.69000000000000E+0002
   2.69000000000000E+0002   2.69000000000000E+0002   2.69000000000000E+0002   2.69000000000000E+0002   2.69000000000000E+0002   2.69000000000000E+0002   2.69000000000000E+0002   2.69000000000000E+0002   2.69000000000000E+0002   2.70593597412109E+0002   2.72658660888672E+0002   2.74757537841797E+0002   2.76819854736328E+0002   2.78833862304688E+0002   2.80797637939453E+0002   2.82708953857422E+0002   2.84563140869141E+0002   2.86352386474609E+0002   2.88065673828125E+0002   2.89688629150391E+0002   2.91204162597656E+0002   2.92593109130859E+0002   2.93835662841797E+0002   2.94913177490234E+0002   2.95810089111328E+0002   2.96515899658203E+0002   2.97026031494141E+0002   2.97341979980469E+0002   2.97470153808594E+0002   2.97419647216797E+0002   2.97200134277344E+0002   2.96819763183594E+0002   2.96284088134766E+0002   2.95596099853516E+0002   2.94756896972656E+0002   2.93766784667969E+0002   2.92626220703125E+0002   2.91335540771484E+0002   2.89891571044922E+0002   2.88257904052734E+0002   2.86249359130859E+0002   2.83808746337891E+0002   2.81041992187500E+0002   2.77885620117188E+0002   2.74200988769531E+0002   2.69775543212891E+0002   2.64260009765625E+0002   2.57028411865234E+0002   2.46896041870117E+0002   2.32424484252930E+0002   2.36701660156250E+0002   2.48711456298828E+0002   2.56563232421875E+0002   2.61895446777344E+0002   2.65645935058594E+0002   2.68307983398438E+0002   2.70163085937500E+0002   2.71390930175781E+0002   2.72118865966797E+0002   2.72444244384766E+0002   2.72444458007813E+0002   2.72182891845703E+0002   2.71713104248047E+0002   2.71081481933594E+0002   2.70326904296875E+0002   2.69477416992188E+0002   2.68543853759766E+0002   2.67515228271484E+0002   2.66362762451172E+0002   2.65059448242188E+0002   2.63610412597656E+0002   2.62069732666016E+0002   2.60528198242188E+0002   2.59088958740234E+0002   2.57853515625000E+0002   2.56920715332031E+0002   2.56389282226563E+0002   2.56356658935547E+0002   2.56911651611328E+0002   2.58116424560547E+0002   2.59957305908203E+0002   2.62200622558594E+0002   2.64109985351563E+0002   2.64559204101563E+0002   2.63358398437500E+0002   2.61503540039063E+0002   2.59776184082031E+0002   2.58401245117188E+0002   2.57329010009766E+0002   2.56411895751953E+0002   2.55467956542969E+0002   2.54300827026367E+0002   2.52704833984375E+0002   2.50465499877930E+0002   2.47379791259766E+0002   2.43395874023438E+0002   2.39198379516602E+0002   2.37403411865234E+0002   2.40712570190430E+0002   2.47052658081055E+0002   2.53528900146484E+0002   2.59250305175781E+0002   2.64215576171875E+0002   2.68609710693359E+0002   2.72619171142578E+0002   2.76377716064453E+0002   2.79851226806641E+0002   2.82525695800781E+0002   2.83606170654297E+0002   2.83481475830078E+0002   2.83038787841797E+0002   2.82617858886719E+0002   2.82270141601563E+0002   2.81982666015625E+0002   2.81738891601563E+0002   2.81530151367188E+0002   2.81355590820313E+0002   2.81219848632813E+0002   2.81130340576172E+0002   2.81094726562500E+0002   2.81118499755859E+0002   2.81203247070313E+0002   2.81345458984375E+0002   2.81536865234375E+0002   2.81765563964844E+0002   2.82017852783203E+0002   2.82280181884766E+0002   2.82540618896484E+0002   2.82789794921875E+0002   2.83021392822266E+0002   2.83231994628906E+0002   2.83420867919922E+0002   2.83589538574219E+0002   2.83741241455078E+0002   2.83880401611328E+0002   2.84012207031250E+0002   2.84142028808594E+0002   2.84274993896484E+0002   2.84415405273438E+0002   2.84566253662109E+0002   2.84728729248047E+0002   2.84901641845703E+0002   2.85081756591797E+0002   2.85264129638672E+0002   2.85444213867188E+0002   2.85619995117188E+0002   2.85794708251953E+0002   2.85977508544922E+0002   2.86181884765625E+0002   2.86421844482422E+0002   2.86709381103516E+0002   2.87060607910156E+0002   2.87499938964844E+0002   2.88057250976563E+0002   2.88772583007813E+0002   2.89705688476563E+0002   2.90938140869141E+0002   2.92544830322266E+0002   2.94459045410156E+0002   2.96031219482422E+0002   2.95352691650391E+0002   2.90624328613281E+0002   2.83222351074219E+0002   2.75506835937500E+0002   2.68595275878906E+0002   2.62829833984375E+0002   2.58261260986328E+0002   2.54793792724609E+0002   2.52251358032227E+0002   2.50444305419922E+0002   2.49216171264648E+0002   2.48458831787109E+0002   2.48108001708984E+0002   2.48132171630859E+0002   2.48521896362305E+0002   2.49281295776367E+0002   2.50421752929688E+0002   2.51957717895508E+0002   2.53904449462891E+0002   2.56278015136719E+0002   2.59097839355469E+0002   2.62392822265625E+0002   2.66212921142578E+0002   2.70649139404297E+0002   2.75864501953125E+0002   2.82106140136719E+0002   2.89277709960938E+0002   2.93359802246094E+0002   2.91759552001953E+0002   2.90256439208984E+0002   2.89751312255859E+0002   2.89963867187500E+0002   2.90646179199219E+0002   2.91631774902344E+0002   2.92797821044922E+0002   2.94030761718750E+0002   2.95198364257813E+0002   2.96136566162109E+0002   2.96678070068359E+0002   2.96729919433594E+0002   2.96329162597656E+0002   2.95601165771484E+0002   2.94674865722656E+0002   2.93638793945313E+0002   2.92540985107422E+0002   2.91403289794922E+0002   2.90233581542969E+0002   2.89033325195313E+0002   2.87801361083984E+0002   2.86535858154297E+0002   2.85235229492188E+0002   2.83898376464844E+0002   2.82524719238281E+0002   2.81114227294922E+0002   2.79667236328125E+0002   2.78184356689453E+0002   2.76666442871094E+0002   2.75114746093750E+0002   2.73531890869141E+0002   2.71927337646484E+0002   2.70342895507813E+0002   2.69000000000000E+0002   2.69000000000000E+0002   2.69000000000000E+0002   2.69000000000000E+0002   2.69000000000000E+0002   2.69000000000000E+0002   2.69000000000000E+0002   2.69000000000000E+0002   2.69000000000000E+0002   2.69000000000000E+0002   2.69000000000000E+0002   2.69000000000000E+0002   2.69000000000000E+0002
   2.69000000000000E+0002   2.69000000000000E+0002   2.69000000000000E+0002   2.69000000000000E+0002   2.69000000000000E+0002   2.69000000000000E+0002   2.69000000000000E+0002   2.69000000000000E+0002   2.69000000000000E+0002   2.70119628906250E+0002   2.72095520019531E+0002   2.74082458496094E+0002   2.76019775390625E+0002   2.77899688720703E+0002   2.79721435546875E+0002   2.81483764648438E+0002   2.83183288574219E+0002   2.84814056396484E+0002   2.86367614746094E+0002   2.87833312988281E+0002   2.89198638916016E+0002   2.90450073242188E+0002   2.91574066162109E+0002   2.92558105468750E+0002   2.93392028808594E+0002   2.94068969726563E+0002   2.94585937500000E+0002   2.94943420410156E+0002   2.95144592285156E+0002   2.95193756103516E+0002   2.95094787597656E+0002   2.94849578857422E+0002   2.94457672119141E+0002   2.93916503906250E+0002   2.93222625732422E+0002   2.92372802734375E+0002   2.91364196777344E+0002   2.90191741943359E+0002   2.88840545654297E+0002   2.87268768310547E+0002   2.85402984619141E+0002   2.83202148437500E+0002   2.80659423828125E+0002   2.77727081298828E+0002   2.74304870605469E+0002   2.70240142822266E+0002   2.65315979003906E+0002   2.59270172119141E+0002   2.52111358642578E+0002   2.45982757568359E+0002   2.46828186035156E+0002   2.52808578491211E+0002   2.58619903564453E+0002   2.63165130615234E+0002   2.66586456298828E+0002   2.69125183105469E+0002   2.70967529296875E+0002   2.72248840332031E+0002   2.73070281982422E+0002   2.73510162353516E+0002   2.73631042480469E+0002   2.73485473632813E+0002   2.73121246337891E+0002   2.72585327148438E+0002   2.71923400878906E+0002   2.71172912597656E+0002   2.70348205566406E+0002   2.69423339843750E+0002   2.68325408935547E+0002   2.66965118408203E+0002   2.65311920166016E+0002   2.63441802978516E+0002   2.61493194580078E+0002   2.59601074218750E+0002   2.57878112792969E+0002   2.56426544189453E+0002   2.55348495483398E+0002   2.54740676879883E+0002   2.54672515869141E+0002   2.55153472900391E+0002   2.56091369628906E+0002   2.57236236572266E+0002   2.58154937744141E+0002   2.58403594970703E+0002   2.57896392822266E+0002   2.56956787109375E+0002   2.55958023071289E+0002   2.55092086791992E+0002   2.54376037597656E+0002   2.53717468261719E+0002   2.52961532592773E+0002   2.51912429809570E+0002   2.50329971313477E+0002   2.47897491455078E+0002   2.44156616210938E+0002   2.38438568115234E+0002   2.30192977905273E+0002   2.23512863159180E+0002   2.30896957397461E+0002   2.41902801513672E+0002   2.50588088989258E+0002   2.57337982177734E+0002   2.62861877441406E+0002   2.67656066894531E+0002   2.72074005126953E+0002   2.76420623779297E+0002   2.80969940185547E+0002   2.85227172851563E+0002   2.85689239501953E+0002   2.84267272949219E+0002   2.83200958251953E+0002   2.82496093750000E+0002   2.82006469726563E+0002   2.81639709472656E+0002   2.81346313476563E+0002   2.81102752685547E+0002   2.80900939941406E+0002   2.80741882324219E+0002   2.80631286621094E+0002   2.80576049804688E+0002   2.80581207275391E+0002   2.80647888183594E+0002   2.80772125244141E+0002   2.80945434570313E+0002   2.81156188964844E+0002   2.81391510009766E+0002   2.81638854980469E+0002   2.81887512207031E+0002   2.82128997802734E+0002   2.82357482910156E+0002   2.82569671630859E+0002   2.82764556884766E+0002   2.82942962646484E+0002   2.83107238769531E+0002   2.83260833740234E+0002   2.83407775878906E+0002   2.83552337646484E+0002   2.83698669433594E+0002   2.83850341796875E+0002   2.84010009765625E+0002   2.84179168701172E+0002   2.84358032226563E+0002   2.84545745849609E+0002   2.84741149902344E+0002   2.84943847656250E+0002   2.85155914306641E+0002   2.85383239746094E+0002   2.85636322021484E+0002   2.85929656982422E+0002   2.86277404785156E+0002   2.86683441162109E+0002   2.87166198730469E+0002   2.87779144287109E+0002   2.88579040527344E+0002   2.89640747070313E+0002   2.91081756591797E+0002   2.93089752197266E+0002   2.95957458496094E+0002   3.00080688476563E+0002   3.05522583007813E+0002   3.08826843261719E+0002   3.02134918212891E+0002   2.91419738769531E+0002   2.82056762695313E+0002   2.74489501953125E+0002   2.68451202392578E+0002   2.63696044921875E+0002   2.60022949218750E+0002   2.57251159667969E+0002   2.55219528198242E+0002   2.53795455932617E+0002   2.52880111694336E+0002   2.52406524658203E+0002   2.52333786010742E+0002   2.52640213012695E+0002   2.53317199707031E+0002   2.54364288330078E+0002   2.55785614013672E+0002   2.57587829589844E+0002   2.59779418945313E+0002   2.62371734619141E+0002   2.65381225585938E+0002   2.68832702636719E+0002   2.72759307861328E+0002   2.77182250976563E+0002   2.82000915527344E+0002   2.86606079101563E+0002   2.89518798828125E+0002   2.90236663818359E+0002   2.90177917480469E+0002   2.90287322998047E+0002   2.90766967773438E+0002   2.91589721679688E+0002   2.92690612792969E+0002   2.94002685546875E+0002   2.95444763183594E+0002   2.96882873535156E+0002   2.98079162597656E+0002   2.98708770751953E+0002   2.98567199707031E+0002   2.97771911621094E+0002   2.96614746093750E+0002   2.95321960449219E+0002   2.94002929687500E+0002   2.92694671630859E+0002   2.91402191162109E+0002   2.90119201660156E+0002   2.88836639404297E+0002   2.87545989990234E+0002   2.86240234375000E+0002   2.84914093017578E+0002   2.83563659667969E+0002   2.82186340332031E+0002   2.80780456542969E+0002   2.79344970703125E+0002   2.77879394531250E+0002   2.76383636474609E+0002   2.74858032226563E+0002   2.73304321289063E+0002   2.71731018066406E+0002   2.70182098388672E+0002   2.69000000000000E+0002   2.69000000000000E+0002   2.69000000000000E+0002   2.69000000000000E+0002   2.69000000000000E+0002   2.69000000000000E+0002   2.69000000000000E+0002   2.69000000000000E+0002   2.69000000000000E+0002   2.69000000000000E+0002   2.69000000000000E+0002   2.69000000000000E+0002   2.69000000000000E+0002
   2.69000000000000E+0002   2.69000000000000E+0002   2.69000000000000E+0002   2.69000000000000E+0002   2.69000000000000E+0002   2.69000000000000E+0002   2.69000000000000E+0002   2.69000000000000E+0002   2.69000000000000E+0002   2.69838043212891E+0002   2.71633056640625E+0002   2.73479187011719E+0002   2.75282104492188E+0002   2.77024597167969E+0002   2.78704498291016E+0002   2.80321044921875E+0002   2.81871826171875E+0002   2.83352569580078E+0002   2.84757171630859E+0002   2.86078125000000E+0002   2.87306945800781E+0002   2.88434722900391E+0002   2.89452850341797E+0002   2.90353729248047E+0002   2.91131561279297E+0002   2.91782714843750E+0002   2.92305786132813E+0002   2.92701354980469E+0002   2.92970916748047E+0002   2.93115722656250E+0002   2.93135192871094E+0002   2.93025726318359E+0002   2.92780364990234E+0002   2.92389709472656E+0002   2.91844329833984E+0002   2.91137207031250E+0002   2.90264038085938E+0002   2.89219970703125E+0002   2.87992919921875E+0002   2.86557037353516E+0002   2.84875823974609E+0002   2.82917633056641E+0002   2.80655609130859E+0002   2.78050445556641E+0002   2.75044006347656E+0002   2.71568206787109E+0002   2.67574737548828E+0002   2.63136108398438E+0002   2.58742065429688E+0002   2.55775573730469E+0002   2.55878433227539E+0002   2.58633209228516E+0002   2.62234710693359E+0002   2.65600372314453E+0002   2.68408416748047E+0002   2.70632751464844E+0002   2.72328155517578E+0002   2.73563110351563E+0002   2.74400726318359E+0002   2.74893402099609E+0002   2.75083312988281E+0002   2.75006652832031E+0002   2.74701141357422E+0002   2.74214019775391E+0002   2.73604644775391E+0002   2.72934783935547E+0002   2.72241149902344E+0002   2.71493133544922E+0002   2.70548248291016E+0002   2.69169586181641E+0002   2.67228790283203E+0002   2.64883178710938E+0002   2.62394378662109E+0002   2.59941589355469E+0002   2.57631927490234E+0002   2.55559127807617E+0002   2.53834197998047E+0002   2.52576217651367E+0002   2.51867462158203E+0002   2.51702011108398E+0002   2.51963775634766E+0002   2.52438247680664E+0002   2.52857528686523E+0002   2.53000518798828E+0002   2.52810974121094E+0002   2.52408020019531E+0002   2.51969284057617E+0002   2.51613571166992E+0002   2.51355636596680E+0002   2.51114425659180E+0002   2.50742202758789E+0002   2.50047363281250E+0002   2.48789321899414E+0002   2.46628997802734E+0002   2.43009872436523E+0002   2.36911376953125E+0002   2.26354843139648E+0002   2.08939407348633E+0002   2.26229431152344E+0002   2.40326263427734E+0002   2.49729248046875E+0002   2.56648620605469E+0002   2.62222625732422E+0002   2.67068237304688E+0002   2.71577514648438E+0002   2.76106292724609E+0002   2.81138702392578E+0002   2.87333831787109E+0002   2.86566711425781E+0002   2.84247497558594E+0002   2.82947967529297E+0002   2.82157012939453E+0002   2.81623870849609E+0002   2.81226745605469E+0002   2.80906188964844E+0002   2.80635009765625E+0002   2.80404266357422E+0002   2.80215606689453E+0002   2.80076568603516E+0002   2.79996276855469E+0002   2.79981597900391E+0002   2.80034179687500E+0002   2.80149200439453E+0002   2.80316375732422E+0002   2.80522399902344E+0002   2.80753356933594E+0002   2.80996673583984E+0002   2.81242004394531E+0002   2.81481628417969E+0002   2.81710266113281E+0002   2.81925018310547E+0002   2.82124938964844E+0002   2.82310638427734E+0002   2.82484039306641E+0002   2.82647918701172E+0002   2.82805664062500E+0002   2.82960784912109E+0002   2.83116882324219E+0002   2.83277069091797E+0002   2.83444030761719E+0002   2.83619720458984E+0002   2.83805450439453E+0002   2.84002227783203E+0002   2.84211242675781E+0002   2.84434783935547E+0002   2.84677337646484E+0002   2.84946594238281E+0002   2.85254577636719E+0002   2.85618560791016E+0002   2.86062286376953E+0002   2.86572601318359E+0002   2.87135223388672E+0002   2.87873596191406E+0002   2.88845306396484E+0002   2.90139495849609E+0002   2.91902404785156E+0002   2.94379516601563E+0002   2.98002471923828E+0002   3.03581054687500E+0002   3.12750305175781E+0002   3.28434906005859E+0002   3.11847625732422E+0002   2.97015197753906E+0002   2.86622650146484E+0002   2.78833770751953E+0002   2.72789733886719E+0002   2.68050598144531E+0002   2.64354217529297E+0002   2.61516265869141E+0002   2.59393280029297E+0002   2.57871582031250E+0002   2.56864044189453E+0002   2.56307403564453E+0002   2.56158386230469E+0002   2.56389282226563E+0002   2.56983734130859E+0002   2.57932952880859E+0002   2.59232879638672E+0002   2.60882171630859E+0002   2.62880889892578E+0002   2.65229614257813E+0002   2.67928405761719E+0002   2.70973236083984E+0002   2.74344757080078E+0002   2.77975646972656E+0002   2.81674499511719E+0002   2.85023406982422E+0002   2.87479675292969E+0002   2.88899169921875E+0002   2.89711700439453E+0002   2.90399993896484E+0002   2.91217102050781E+0002   2.92253814697266E+0002   2.93535339355469E+0002   2.95066680908203E+0002   2.96835784912109E+0002   2.98764831542969E+0002   3.00556457519531E+0002   3.01511596679688E+0002   3.01033599853516E+0002   2.99530303955078E+0002   2.97732086181641E+0002   2.95980438232422E+0002   2.94350585937500E+0002   2.92830657958984E+0002   2.91391204833984E+0002   2.90004486083984E+0002   2.88648284912109E+0002   2.87305969238281E+0002   2.85965301513672E+0002   2.84617401123047E+0002   2.83256011962891E+0002   2.81876678466797E+0002   2.80476318359375E+0002   2.79052856445313E+0002   2.77604858398438E+0002   2.76131469726563E+0002   2.74632537841797E+0002   2.73109741210938E+0002   2.71571807861328E+0002   2.70059600830078E+0002   2.69000000000000E+0002   2.69000000000000E+0002   2.69000000000000E+0002   2.69000000000000E+0002   2.69000000000000E+0002   2.69000000000000E+0002   2.69000000000000E+0002   2.69000000000000E+0002   2.69000000000000E+0002   2.69000000000000E+0002   2.69000000000000E+0002   2.69000000000000E+0002   2.69000000000000E+0002
   2.69000000000000E+0002   2.69000000000000E+0002   2.69000000000000E+0002   2.69000000000000E+0002   2.69000000000000E+0002   2.69000000000000E+0002   2.69000000000000E+0002   2.69000000000000E+0002   2.69000000000000E+0002   2.69631225585938E+0002   2.71243804931641E+0002   2.72947784423828E+0002   2.74611297607422E+0002   2.76213256835938E+0002   2.77750976562500E+0002   2.79223846435547E+0002   2.80630157470703E+0002   2.81966949462891E+0002   2.83230194091797E+0002   2.84415039062500E+0002   2.85516357421875E+0002   2.86529205322266E+0002   2.87449127197266E+0002   2.88272796630859E+0002   2.88998199462891E+0002   2.89624786376953E+0002   2.90153320312500E+0002   2.90585205078125E+0002   2.90921722412109E+0002   2.91162506103516E+0002   2.91303894042969E+0002   2.91337280273438E+0002   2.91248229980469E+0002   2.91017944335938E+0002   2.90628204345703E+0002   2.90067443847656E+0002   2.89333160400391E+0002   2.88427612304688E+0002   2.87349334716797E+0002   2.86087463378906E+0002   2.84622589111328E+0002   2.82931701660156E+0002   2.80990631103516E+0002   2.78773284912109E+0002   2.76256866455078E+0002   2.73438690185547E+0002   2.70373443603516E+0002   2.67247406005859E+0002   2.64489593505859E+0002   2.62786895751953E+0002   2.62700378417969E+0002   2.64097717285156E+0002   2.66295013427734E+0002   2.68656951904297E+0002   2.70830322265625E+0002   2.72672149658203E+0002   2.74148376464844E+0002   2.75272888183594E+0002   2.76074249267578E+0002   2.76578338623047E+0002   2.76802368164063E+0002   2.76758392333984E+0002   2.76465270996094E+0002   2.75966186523438E+0002   2.75342681884766E+0002   2.74707916259766E+0002   2.74161346435547E+0002   2.73713378906250E+0002   2.73164855957031E+0002   2.71925598144531E+0002   2.69509796142578E+0002   2.66423736572266E+0002   2.63239624023438E+0002   2.60135894775391E+0002   2.57153442382813E+0002   2.54348999023438E+0002   2.51851943969727E+0002   2.49853210449219E+0002   2.48506134033203E+0002   2.47810317993164E+0002   2.47611892700195E+0002   2.47693969726563E+0002   2.47852935791016E+0002   2.47948074340820E+0002   2.47937622070313E+0002   2.47878814697266E+0002   2.47878936767578E+0002   2.48022583007813E+0002   2.48309463500977E+0002   2.48637298583984E+0002   2.48839569091797E+0002   2.48732742309570E+0002   2.48125045776367E+0002   2.46779647827148E+0002   2.44340103149414E+0002   2.40263824462891E+0002   2.34268936157227E+0002   2.29996856689453E+0002   2.35294601440430E+0002   2.44051940917969E+0002   2.51382995605469E+0002   2.57268218994141E+0002   2.62287963867188E+0002   2.66808868408203E+0002   2.71053100585938E+0002   2.75206604003906E+0002   2.79352844238281E+0002   2.82827606201172E+0002   2.83714660644531E+0002   2.82960540771484E+0002   2.82163787841797E+0002   2.81565429687500E+0002   2.81111389160156E+0002   2.80741424560547E+0002   2.80419311523438E+0002   2.80128540039063E+0002   2.79866424560547E+0002   2.79640045166016E+0002   2.79462768554688E+0002   2.79349975585938E+0002   2.79313629150391E+0002   2.79357116699219E+0002   2.79473602294922E+0002   2.79648437500000E+0002   2.79863861083984E+0002   2.80103240966797E+0002   2.80352905273438E+0002   2.80602691650391E+0002   2.80845581054688E+0002   2.81077270507813E+0002   2.81295501708984E+0002   2.81499725341797E+0002   2.81690795898438E+0002   2.81870452880859E+0002   2.82041229248047E+0002   2.82206115722656E+0002   2.82368255615234E+0002   2.82530853271484E+0002   2.82696929931641E+0002   2.82869232177734E+0002   2.83050170898438E+0002   2.83241882324219E+0002   2.83446624755859E+0002   2.83667144775391E+0002   2.83907226562500E+0002   2.84172698974609E+0002   2.84471954345703E+0002   2.84817077636719E+0002   2.85224517822266E+0002   2.85713989257813E+0002   2.86277191162109E+0002   2.86920257568359E+0002   2.87738677978516E+0002   2.88797363281250E+0002   2.90183166503906E+0002   2.92030273437500E+0002   2.94550537109375E+0002   2.98081787109375E+0002   3.03134399414063E+0002   3.10099975585938E+0002   3.15538269042969E+0002   3.08559722900391E+0002   2.97567657470703E+0002   2.88538757324219E+0002   2.81452972412109E+0002   2.75840057373047E+0002   2.71371704101563E+0002   2.67832855224609E+0002   2.65071258544922E+0002   2.62970275878906E+0002   2.61437561035156E+0002   2.60400421142578E+0002   2.59803222656250E+0002   2.59604919433594E+0002   2.59776092529297E+0002   2.60296295166016E+0002   2.61151336669922E+0002   2.62331024169922E+0002   2.63827239990234E+0002   2.65632232666016E+0002   2.67736755371094E+0002   2.70126831054688E+0002   2.72778198242188E+0002   2.75644439697266E+0002   2.78635528564453E+0002   2.81589599609375E+0002   2.84268768310547E+0002   2.86445190429688E+0002   2.88063446044922E+0002   2.89284332275391E+0002   2.90345550537109E+0002   2.91434753417969E+0002   2.92669281005859E+0002   2.94126861572266E+0002   2.95878967285156E+0002   2.98014282226563E+0002   3.00630065917969E+0002   3.03628662109375E+0002   3.05646301269531E+0002   3.04298553466797E+0002   3.01402221679688E+0002   2.98735626220703E+0002   2.96498626708984E+0002   2.94584442138672E+0002   2.92886230468750E+0002   2.91328430175781E+0002   2.89860107421875E+0002   2.88446807861328E+0002   2.87064880371094E+0002   2.85697967529297E+0002   2.84334533691406E+0002   2.82966522216797E+0002   2.81588165283203E+0002   2.80195465087891E+0002   2.78785430908203E+0002   2.77355987548828E+0002   2.75905731201172E+0002   2.74434234619141E+0002   2.72943939208984E+0002   2.71448638916016E+0002   2.70010833740234E+0002   2.69000000000000E+0002   2.69000000000000E+0002   2.69000000000000E+0002   2.69000000000000E+0002   2.69000000000000E+0002   2.69000000000000E+0002   2.69000000000000E+0002   2.69000000000000E+0002   2.69000000000000E+0002   2.69000000000000E+0002   2.69000000000000E+0002   2.69000000000000E+0002   2.69000000000000E+0002
   2.69000000000000E+0002   2.69000000000000E+0002   2.69000000000000E+0002   2.69000000000000E+0002   2.69000000000000E+0002   2.69000000000000E+0002   2.69000000000000E+0002   2.69000000000000E+0002   2.69000000000000E+0002   2.69405792236328E+0002   2.70921234130859E+0002   2.72489074707031E+0002   2.74009002685547E+0002   2.75467529296875E+0002   2.76862457275391E+0002   2.78192993164063E+0002   2.79457794189453E+0002   2.80654785156250E+0002   2.81781524658203E+0002   2.82835479736328E+0002   2.83814392089844E+0002   2.84716735839844E+0002   2.85541900634766E+0002   2.86290374755859E+0002   2.86963897705078E+0002   2.87565124511719E+0002   2.88097442626953E+0002   2.88564178466797E+0002   2.88967681884766E+0002   2.89307769775391E+0002   2.89579528808594E+0002   2.89770294189453E+0002   2.89856994628906E+0002   2.89806396484375E+0002   2.89584320068359E+0002   2.89171539306641E+0002   2.88572479248047E+0002   2.87805755615234E+0002   2.86886993408203E+0002   2.85819458007813E+0002   2.84594238281250E+0002   2.83194824218750E+0002   2.81601776123047E+0002   2.79798248291016E+0002   2.77781280517578E+0002   2.75581268310547E+0002   2.73289306640625E+0002   2.71088592529297E+0002   2.69271911621094E+0002   2.68187774658203E+0002   2.68069458007813E+0002   2.68865478515625E+0002   2.70276275634766E+0002   2.71946746826172E+0002   2.73603424072266E+0002   2.75084869384766E+0002   2.76322265625000E+0002   2.77304931640625E+0002   2.78043243408203E+0002   2.78542144775391E+0002   2.78790313720703E+0002   2.78763458251953E+0002   2.78442932128906E+0002   2.77850677490234E+0002   2.77093139648438E+0002   2.76377899169922E+0002   2.75935974121094E+0002   2.75887817382813E+0002   2.76177398681641E+0002   2.75717315673828E+0002   2.72162902832031E+0002   2.67919097900391E+0002   2.63970153808594E+0002   2.60210510253906E+0002   2.56513275146484E+0002   2.52854415893555E+0002   2.49386123657227E+0002   2.46477432250977E+0002   2.44495452880859E+0002   2.43437072753906E+0002   2.43001525878906E+0002   2.42897598266602E+0002   2.42940856933594E+0002   2.43028854370117E+0002   2.43131484985352E+0002   2.43297821044922E+0002   2.43641967773438E+0002   2.44281173706055E+0002   2.45220184326172E+0002   2.46289352416992E+0002   2.47248474121094E+0002   2.47914489746094E+0002   2.48184219360352E+0002   2.48008132934570E+0002   2.47381210327148E+0002   2.46373306274414E+0002   2.45201263427734E+0002   2.44665679931641E+0002   2.46512588500977E+0002   2.50403915405273E+0002   2.54645492553711E+0002   2.58748687744141E+0002   2.62850036621094E+0002   2.66825897216797E+0002   2.70592590332031E+0002   2.74141662597656E+0002   2.77356872558594E+0002   2.79823394775391E+0002   2.81061981201172E+0002   2.81294830322266E+0002   2.81110321044922E+0002   2.80821166992188E+0002   2.80516571044922E+0002   2.80210845947266E+0002   2.79903228759766E+0002   2.79594970703125E+0002   2.79293975830078E+0002   2.79015869140625E+0002   2.78784088134766E+0002   2.78626007080078E+0002   2.78564178466797E+0002   2.78605957031250E+0002   2.78739379882813E+0002   2.78940155029297E+0002   2.79182006835938E+0002   2.79443481445313E+0002   2.79709564208984E+0002   2.79970672607422E+0002   2.80221130371094E+0002   2.80457977294922E+0002   2.80680145263672E+0002   2.80887908935547E+0002   2.81082458496094E+0002   2.81265838623047E+0002   2.81440490722656E+0002   2.81609283447266E+0002   2.81775207519531E+0002   2.81941284179688E+0002   2.82110534667969E+0002   2.82285766601563E+0002   2.82469787597656E+0002   2.82665374755859E+0002   2.82875488281250E+0002   2.83103729248047E+0002   2.83354766845703E+0002   2.83634796142578E+0002   2.83952056884766E+0002   2.84317352294922E+0002   2.84743682861328E+0002   2.85243988037109E+0002   2.85827636718750E+0002   2.86518493652344E+0002   2.87366516113281E+0002   2.88429260253906E+0002   2.89776184082031E+0002   2.91499114990234E+0002   2.93715972900391E+0002   2.96549865722656E+0002   3.00002990722656E+0002   3.03458465576172E+0002   3.04672149658203E+0002   3.01244628906250E+0002   2.94899017333984E+0002   2.88351867675781E+0002   2.82591888427734E+0002   2.77755340576172E+0002   2.73770904541016E+0002   2.70539337158203E+0002   2.67969390869141E+0002   2.65982208251953E+0002   2.64510803222656E+0002   2.63499267578125E+0002   2.62902191162109E+0002   2.62683441162109E+0002   2.62814880371094E+0002   2.63274658203125E+0002   2.64045410156250E+0002   2.65112670898438E+0002   2.66463256835938E+0002   2.68083404541016E+0002   2.69956604003906E+0002   2.72060241699219E+0002   2.74360382080078E+0002   2.76803894042969E+0002   2.79308837890625E+0002   2.81759338378906E+0002   2.84019348144531E+0002   2.85979125976563E+0002   2.87612854003906E+0002   2.88992919921875E+0002   2.90245697021484E+0002   2.91498809814453E+0002   2.92859832763672E+0002   2.94424682617188E+0002   2.96303039550781E+0002   2.98659912109375E+0002   3.01792358398438E+0002   3.06274719238281E+0002   3.12250762939453E+0002   3.07436706542969E+0002   3.02596008300781E+0002   2.99233245849609E+0002   2.96685760498047E+0002   2.94605010986328E+0002   2.92804718017578E+0002   2.91178619384766E+0002   2.89662414550781E+0002   2.88215087890625E+0002   2.86809631347656E+0002   2.85427673339844E+0002   2.84056640625000E+0002   2.82687591552734E+0002   2.81314239501953E+0002   2.79932037353516E+0002   2.78537536621094E+0002   2.77128265380859E+0002   2.75702301025391E+0002   2.74258666992188E+0002   2.72799255371094E+0002   2.71336883544922E+0002   2.69932495117188E+0002   2.69000000000000E+0002   2.69000000000000E+0002   2.69000000000000E+0002   2.69000000000000E+0002   2.69000000000000E+0002   2.69000000000000E+0002   2.69000000000000E+0002   2.69000000000000E+0002   2.69000000000000E+0002   2.69000000000000E+0002   2.69000000000000E+0002   2.69000000000000E+0002   2.69000000000000E+0002
   2.69000000000000E+0002   2.69000000000000E+0002   2.69000000000000E+0002   2.69000000000000E+0002   2.69000000000000E+0002   2.69000000000000E+0002   2.69000000000000E+0002   2.69000000000000E+0002   2.69000000000000E+0002   2.69369110107422E+0002   2.70704010009766E+0002   2.72106536865234E+0002   2.73474426269531E+0002   2.74786682128906E+0002   2.76038513183594E+0002   2.77227874755859E+0002   2.78353210449219E+0002   2.79412902832031E+0002   2.80405731201172E+0002   2.81331024169922E+0002   2.82189147949219E+0002   2.82981689453125E+0002   2.83711547851563E+0002   2.84383117675781E+0002   2.85001953125000E+0002   2.85574340820313E+0002   2.86106964111328E+0002   2.86605987548828E+0002   2.87076293945313E+0002   2.87520019531250E+0002   2.87934020996094E+0002   2.88304962158203E+0002   2.88601379394531E+0002   2.88767089843750E+0002   2.88733459472656E+0002   2.88462524414063E+0002   2.87977416992188E+0002   2.87332855224609E+0002   2.86570922851563E+0002   2.85707550048828E+0002   2.84739227294922E+0002   2.83651550292969E+0002   2.82425140380859E+0002   2.81041717529297E+0002   2.79498718261719E+0002   2.77832885742188E+0002   2.76139129638672E+0002   2.74571655273438E+0002   2.73327239990234E+0002   2.72600189208984E+0002   2.72508117675781E+0002   2.73031890869141E+0002   2.74023986816406E+0002   2.75272552490234E+0002   2.76567016601563E+0002   2.77749969482422E+0002   2.78752807617188E+0002   2.79579223632813E+0002   2.80248168945313E+0002   2.80753875732422E+0002   2.81053375244141E+0002   2.81068542480469E+0002   2.80708190917969E+0002   2.79925964355469E+0002   2.78822753906250E+0002   2.77766540527344E+0002   2.77273956298828E+0002   2.77493347167969E+0002   2.78370513916016E+0002   2.79733337402344E+0002   2.73941467285156E+0002   2.68909332275391E+0002   2.64489929199219E+0002   2.60235534667969E+0002   2.55872528076172E+0002   2.51245361328125E+0002   2.46451629638672E+0002   2.42226119995117E+0002   2.39641723632813E+0002   2.38556442260742E+0002   2.38159729003906E+0002   2.38034347534180E+0002   2.38055709838867E+0002   2.38162918090820E+0002   2.38324798583984E+0002   2.38593765258789E+0002   2.39145507812500E+0002   2.40256149291992E+0002   2.42025375366211E+0002   2.44083129882813E+0002   2.45971786499023E+0002   2.47503250122070E+0002   2.48696578979492E+0002   2.49699920654297E+0002   2.50825454711914E+0002   2.52669738769531E+0002   2.55794113159180E+0002   2.56687255859375E+0002   2.55951812744141E+0002   2.56766876220703E+0002   2.58207977294922E+0002   2.60271423339844E+0002   2.63632293701172E+0002   2.67078155517578E+0002   2.70325378417969E+0002   2.73311828613281E+0002   2.75920318603516E+0002   2.77951385498047E+0002   2.79251708984375E+0002   2.79892822265625E+0002   2.80102691650391E+0002   2.80076110839844E+0002   2.79919555664063E+0002   2.79682312011719E+0002   2.79388793945313E+0002   2.79055572509766E+0002   2.78700073242188E+0002   2.78346588134766E+0002   2.78031707763672E+0002   2.77803894042969E+0002   2.77708679199219E+0002   2.77761779785156E+0002   2.77938201904297E+0002   2.78192047119141E+0002   2.78481781005859E+0002   2.78780090332031E+0002   2.79071899414063E+0002   2.79349761962891E+0002   2.79610565185547E+0002   2.79853607177734E+0002   2.80079376220703E+0002   2.80289337158203E+0002   2.80485412597656E+0002   2.80669982910156E+0002   2.80845672607422E+0002   2.81015350341797E+0002   2.81181976318359E+0002   2.81348541259766E+0002   2.81518066406250E+0002   2.81693542480469E+0002   2.81877929687500E+0002   2.82074371337891E+0002   2.82286346435547E+0002   2.82517822265625E+0002   2.82773681640625E+0002   2.83060028076172E+0002   2.83384460449219E+0002   2.83756225585938E+0002   2.84185943603516E+0002   2.84685333251953E+0002   2.85268218994141E+0002   2.85956146240234E+0002   2.86780822753906E+0002   2.87780364990234E+0002   2.88996795654297E+0002   2.90472442626953E+0002   2.92235229492188E+0002   2.94253234863281E+0002   2.96320831298828E+0002   2.97857086181641E+0002   2.97860992431641E+0002   2.95645324707031E+0002   2.91717254638672E+0002   2.87170501708984E+0002   2.82760162353516E+0002   2.78810424804688E+0002   2.75417572021484E+0002   2.72585937500000E+0002   2.70286621093750E+0002   2.68480194091797E+0002   2.67125885009766E+0002   2.66185272216797E+0002   2.65624114990234E+0002   2.65412811279297E+0002   2.65526123046875E+0002   2.65942504882813E+0002   2.66643157958984E+0002   2.67610931396484E+0002   2.68829254150391E+0002   2.70280517578125E+0002   2.71944183349609E+0002   2.73793914794922E+0002   2.75793914794922E+0002   2.77894622802734E+0002   2.80029754638672E+0002   2.82118560791016E+0002   2.84078674316406E+0002   2.85850158691406E+0002   2.87419342041016E+0002   2.88824523925781E+0002   2.90139739990234E+0002   2.91451904296875E+0002   2.92847534179688E+0002   2.94414520263672E+0002   2.96256683349609E+0002   2.98520904541016E+0002   3.01434234619141E+0002   3.05247253417969E+0002   3.08631805419922E+0002   3.06064392089844E+0002   3.02045043945313E+0002   2.98895294189453E+0002   2.96414916992188E+0002   2.94353637695313E+0002   2.92554534912109E+0002   2.90922424316406E+0002   2.89398010253906E+0002   2.87942901611328E+0002   2.86531738281250E+0002   2.85147125244141E+0002   2.83777160644531E+0002   2.82413269042969E+0002   2.81049407958984E+0002   2.79680999755859E+0002   2.78304626464844E+0002   2.76917541503906E+0002   2.75517547607422E+0002   2.74102966308594E+0002   2.72673797607422E+0002   2.71237243652344E+0002   2.69838012695313E+0002   2.69000000000000E+0002   2.69000000000000E+0002   2.69000000000000E+0002   2.69000000000000E+0002   2.69000000000000E+0002   2.69000000000000E+0002   2.69000000000000E+0002   2.69000000000000E+0002   2.69000000000000E+0002   2.69000000000000E+0002   2.69000000000000E+0002   2.69000000000000E+0002   2.69000000000000E+0002
   2.69000000000000E+0002   2.69000000000000E+0002   2.69000000000000E+0002   2.69000000000000E+0002   2.69000000000000E+0002   2.69000000000000E+0002   2.69000000000000E+0002   2.69000000000000E+0002   2.69000000000000E+0002   2.69402679443359E+0002   2.70549346923828E+0002   2.71787292480469E+0002   2.73001922607422E+0002   2.74167785644531E+0002   2.75277282714844E+0002   2.76326904296875E+0002   2.77314300537109E+0002   2.78238006591797E+0002   2.79097595214844E+0002   2.79893951416016E+0002   2.80629760742188E+0002   2.81309509277344E+0002   2.81939727783203E+0002   2.82528778076172E+0002   2.83086456298828E+0002   2.83623291015625E+0002   2.84149871826172E+0002   2.84676086425781E+0002   2.85210632324219E+0002   2.85760223388672E+0002   2.86327941894531E+0002   2.86907806396484E+0002   2.87468841552734E+0002   2.87924133300781E+0002   2.88122039794922E+0002   2.87964904785156E+0002   2.87533905029297E+0002   2.86970581054688E+0002   2.86352386474609E+0002   2.85698638916016E+0002   2.85002349853516E+0002   2.84246398925781E+0002   2.83406433105469E+0002   2.82449371337891E+0002   2.81347106933594E+0002   2.80121673583984E+0002   2.78871185302734E+0002   2.77735534667969E+0002   2.76857849121094E+0002   2.76359863281250E+0002   2.76314514160156E+0002   2.76723724365234E+0002   2.77516357421875E+0002   2.78556976318359E+0002   2.79650512695313E+0002   2.80600128173828E+0002   2.81355926513672E+0002   2.82003601074219E+0002   2.82608673095703E+0002   2.83164520263672E+0002   2.83596099853516E+0002   2.83753692626953E+0002   2.83419891357422E+0002   2.82385620117188E+0002   2.80618957519531E+0002   2.78630462646484E+0002   2.77900695800781E+0002   2.78148803710938E+0002   2.78171875000000E+0002   2.76937286376953E+0002   2.73485778808594E+0002   2.69177337646484E+0002   2.64837097167969E+0002   2.60382934570313E+0002   2.55550399780273E+0002   2.50001037597656E+0002   2.43417053222656E+0002   2.36693206787109E+0002   2.33864593505859E+0002   2.33519821166992E+0002   2.33407577514648E+0002   2.33315246582031E+0002   2.33352661132813E+0002   2.33481994628906E+0002   2.33642730712891E+0002   2.33849426269531E+0002   2.34311416625977E+0002   2.35703491210938E+0002   2.38694732666016E+0002   2.42163635253906E+0002   2.45102233886719E+0002   2.47452697753906E+0002   2.49421386718750E+0002   2.51301605224609E+0002   2.53529724121094E+0002   2.56837921142578E+0002   2.62316040039063E+0002   2.63758209228516E+0002   2.61800506591797E+0002   2.61258728027344E+0002   2.61161499023438E+0002   2.61775878906250E+0002   2.64672393798828E+0002   2.67567016601563E+0002   2.70308197021484E+0002   2.72828125000000E+0002   2.75031036376953E+0002   2.76806823730469E+0002   2.78085113525391E+0002   2.78886627197266E+0002   2.79305633544922E+0002   2.79448944091797E+0002   2.79398590087891E+0002   2.79208679199219E+0002   2.78914245605469E+0002   2.78539794921875E+0002   2.78106689453125E+0002   2.77642303466797E+0002   2.77194793701172E+0002   2.76847778320313E+0002   2.76701477050781E+0002   2.76794342041016E+0002   2.77062988281250E+0002   2.77411560058594E+0002   2.77775360107422E+0002   2.78124572753906E+0002   2.78448852539063E+0002   2.78746246337891E+0002   2.79018035888672E+0002   2.79266571044922E+0002   2.79494567871094E+0002   2.79704742431641E+0002   2.79899932861328E+0002   2.80083007812500E+0002   2.80256866455078E+0002   2.80424468994141E+0002   2.80588775634766E+0002   2.80752868652344E+0002   2.80919708251953E+0002   2.81092376708984E+0002   2.81274047851563E+0002   2.81467987060547E+0002   2.81677825927734E+0002   2.81907714843750E+0002   2.82162353515625E+0002   2.82447479248047E+0002   2.82769775390625E+0002   2.83137023925781E+0002   2.83558135986328E+0002   2.84043182373047E+0002   2.84604309082031E+0002   2.85257080078125E+0002   2.86020507812500E+0002   2.86914642333984E+0002   2.87955749511719E+0002   2.89147827148438E+0002   2.90464599609375E+0002   2.91814422607422E+0002   2.92985717773438E+0002   2.93606475830078E+0002   2.93227905273438E+0002   2.91610107421875E+0002   2.88952239990234E+0002   2.85737823486328E+0002   2.82421142578125E+0002   2.79291900634766E+0002   2.76497375488281E+0002   2.74098541259766E+0002   2.72110717773438E+0002   2.70526580810547E+0002   2.69328002929688E+0002   2.68492584228516E+0002   2.67996917724609E+0002   2.67818176269531E+0002   2.67934753417969E+0002   2.68326385498047E+0002   2.68973846435547E+0002   2.69858551025391E+0002   2.70961853027344E+0002   2.72264312744141E+0002   2.73744110107422E+0002   2.75374938964844E+0002   2.77123657226563E+0002   2.78947845458984E+0002   2.80795593261719E+0002   2.82608917236328E+0002   2.84333221435547E+0002   2.85931152343750E+0002   2.87394500732422E+0002   2.88746917724609E+0002   2.90035888671875E+0002   2.91320983886719E+0002   2.92665435791016E+0002   2.94133331298828E+0002   2.95790985107422E+0002   2.97702789306641E+0002   2.99887237548828E+0002   3.02104949951172E+0002   3.03335235595703E+0002   3.02407928466797E+0002   3.00180206298828E+0002   2.97839508056641E+0002   2.95726837158203E+0002   2.93846435546875E+0002   2.92142120361328E+0002   2.90561706542969E+0002   2.89066223144531E+0002   2.87628112792969E+0002   2.86228088378906E+0002   2.84852569580078E+0002   2.83491943359375E+0002   2.82139221191406E+0002   2.80789245605469E+0002   2.79438079833984E+0002   2.78082519531250E+0002   2.76720001220703E+0002   2.75348236083984E+0002   2.73965362548828E+0002   2.72570617675781E+0002   2.71170288085938E+0002   2.69812500000000E+0002   2.69000000000000E+0002   2.69000000000000E+0002   2.69000000000000E+0002   2.69000000000000E+0002   2.69000000000000E+0002   2.69000000000000E+0002   2.69000000000000E+0002   2.69000000000000E+0002   2.69000000000000E+0002   2.69000000000000E+0002   2.69000000000000E+0002   2.69000000000000E+0002   2.69000000000000E+0002
   2.69000000000000E+0002   2.69000000000000E+0002   2.69000000000000E+0002   2.69000000000000E+0002   2.69000000000000E+0002   2.69000000000000E+0002   2.69000000000000E+0002   2.69000000000000E+0002   2.69000000000000E+0002   2.69370422363281E+0002   2.70423950195313E+0002   2.71517272949219E+0002   2.72584197998047E+0002   2.73606689453125E+0002   2.74576416015625E+0002   2.75488372802734E+0002   2.76339294433594E+0002   2.77127471923828E+0002   2.77852935791016E+0002   2.78517791748047E+0002   2.79126739501953E+0002   2.79687164306641E+0002   2.80209289550781E+0002   2.80705963134766E+0002   2.81191802978516E+0002   2.81682342529297E+0002   2.82192901611328E+0002   2.82737579345703E+0002   2.83329315185547E+0002   2.83980590820313E+0002   2.84704742431641E+0002   2.85515472412109E+0002   2.86412292480469E+0002   2.87308044433594E+0002   2.87856048583984E+0002   2.87711303710938E+0002   2.87192138671875E+0002   2.86648437500000E+0002   2.86164123535156E+0002   2.85730285644531E+0002   2.85323425292969E+0002   2.84921691894531E+0002   2.84499542236328E+0002   2.84001556396484E+0002   2.83322601318359E+0002   2.82434387207031E+0002   2.81485595703125E+0002   2.80638031005859E+0002   2.80001525878906E+0002   2.79655853271484E+0002   2.79654846191406E+0002   2.80020965576172E+0002   2.80743225097656E+0002   2.81761291503906E+0002   2.82865783691406E+0002   2.83629852294922E+0002   2.84036926269531E+0002   2.84450286865234E+0002   2.85004760742188E+0002   2.85684143066406E+0002   2.86394134521484E+0002   2.86918884277344E+0002   2.86850463867188E+0002   2.85670532226563E+0002   2.83072601318359E+0002   2.79026092529297E+0002   2.77982604980469E+0002   2.78307373046875E+0002   2.77520233154297E+0002   2.75741241455078E+0002   2.72867675781250E+0002   2.69254577636719E+0002   2.65256896972656E+0002   2.60900268554688E+0002   2.55972976684570E+0002   2.50049880981445E+0002   2.42339797973633E+0002   2.31278869628906E+0002   2.30043121337891E+0002   2.30694488525391E+0002   2.29963516235352E+0002   2.29878295898438E+0002   2.30089889526367E+0002   2.29791000366211E+0002   2.29832290649414E+0002   2.30042694091797E+0002   2.29806549072266E+0002   2.30290206909180E+0002   2.35809707641602E+0002   2.41079116821289E+0002   2.44883483886719E+0002   2.47801773071289E+0002   2.50253311157227E+0002   2.52579757690430E+0002   2.55123779296875E+0002   2.58188659667969E+0002   2.61476501464844E+0002   2.63077697753906E+0002   2.62984954833984E+0002   2.62902069091797E+0002   2.63162933349609E+0002   2.64099090576172E+0002   2.65981872558594E+0002   2.68238342285156E+0002   2.70511474609375E+0002   2.72654693603516E+0002   2.74567443847656E+0002   2.76166564941406E+0002   2.77399047851563E+0002   2.78257568359375E+0002   2.78776092529297E+0002   2.79009277343750E+0002   2.79013641357422E+0002   2.78837768554688E+0002   2.78519134521484E+0002   2.78083862304688E+0002   2.77549072265625E+0002   2.76931304931641E+0002   2.76271881103516E+0002   2.75697967529297E+0002   2.75455047607422E+0002   2.75662139892578E+0002   2.76122039794922E+0002   2.76624481201172E+0002   2.77087402343750E+0002   2.77495483398438E+0002   2.77853179931641E+0002   2.78168487548828E+0002   2.78448760986328E+0002   2.78700134277344E+0002   2.78927551269531E+0002   2.79135131835938E+0002   2.79326599121094E+0002   2.79505279541016E+0002   2.79674316406250E+0002   2.79836822509766E+0002   2.79995849609375E+0002   2.80154388427734E+0002   2.80315521240234E+0002   2.80482299804688E+0002   2.80657928466797E+0002   2.80845764160156E+0002   2.81049438476563E+0002   2.81272949218750E+0002   2.81520751953125E+0002   2.81797943115234E+0002   2.82110229492188E+0002   2.82464080810547E+0002   2.82866516113281E+0002   2.83325347900391E+0002   2.83849121093750E+0002   2.84447265625000E+0002   2.85128875732422E+0002   2.85899963378906E+0002   2.86758728027344E+0002   2.87687042236328E+0002   2.88637237548828E+0002   2.89513458251953E+0002   2.90154449462891E+0002   2.90340728759766E+0002   2.89858245849609E+0002   2.88612213134766E+0002   2.86699951171875E+0002   2.84362060546875E+0002   2.81865631103516E+0002   2.79423248291016E+0002   2.77173828125000E+0002   2.75196411132813E+0002   2.73529510498047E+0002   2.72186706542969E+0002   2.71166809082031E+0002   2.70460296630859E+0002   2.70053070068359E+0002   2.69928466796875E+0002   2.70068511962891E+0002   2.70454559326172E+0002   2.71067352294922E+0002   2.71887359619141E+0002   2.72894927978516E+0002   2.74070068359375E+0002   2.75391815185547E+0002   2.76836547851563E+0002   2.78376190185547E+0002   2.79976287841797E+0002   2.81596038818359E+0002   2.83190826416016E+0002   2.84718811035156E+0002   2.86151763916016E+0002   2.87484283447266E+0002   2.88734375000000E+0002   2.89936065673828E+0002   2.91130615234375E+0002   2.92359771728516E+0002   2.93660797119141E+0002   2.95059356689453E+0002   2.96551696777344E+0002   2.98056488037109E+0002   2.99320220947266E+0002   2.99879089355469E+0002   2.99399993896484E+0002   2.98108551025391E+0002   2.96474822998047E+0002   2.94791076660156E+0002   2.93162322998047E+0002   2.91607543945313E+0002   2.90117767333984E+0002   2.88678405761719E+0002   2.87276184082031E+0002   2.85900543212891E+0002   2.84543518066406E+0002   2.83199096679688E+0002   2.81862640380859E+0002   2.80530456542969E+0002   2.79199615478516E+0002   2.77867492675781E+0002   2.76531921386719E+0002   2.75190917968750E+0002   2.73842956542969E+0002   2.72488067626953E+0002   2.71133117675781E+0002   2.69819244384766E+0002   2.69000000000000E+0002   2.69000000000000E+0002   2.69000000000000E+0002   2.69000000000000E+0002   2.69000000000000E+0002   2.69000000000000E+0002   2.69000000000000E+0002   2.69000000000000E+0002   2.69000000000000E+0002   2.69000000000000E+0002   2.69000000000000E+0002   2.69000000000000E+0002   2.69000000000000E+0002
   2.69000000000000E+0002   2.69000000000000E+0002   2.69000000000000E+0002   2.69000000000000E+0002   2.69000000000000E+0002   2.69000000000000E+0002   2.69000000000000E+0002   2.69000000000000E+0002   2.69000000000000E+0002   2.69440673828125E+0002   2.70346832275391E+0002   2.71291229248047E+0002   2.72215393066406E+0002   2.73099639892578E+0002   2.73933746337891E+0002   2.74711120605469E+0002   2.75427337646484E+0002   2.76080017089844E+0002   2.76669281005859E+0002   2.77198059082031E+0002   2.77672729492188E+0002   2.78103515625000E+0002   2.78504669189453E+0002   2.78894104003906E+0002   2.79292388916016E+0002   2.79721252441406E+0002   2.80201507568359E+0002   2.80751831054688E+0002   2.81388488769531E+0002   2.82127655029297E+0002   2.82991210937500E+0002   2.84016479492188E+0002   2.85269989013672E+0002   2.86828186035156E+0002   2.88182098388672E+0002   2.87618530273438E+0002   2.86783233642578E+0002   2.86244842529297E+0002   2.85921356201172E+0002   2.85734588623047E+0002   2.85638031005859E+0002   2.85608856201172E+0002   2.85640228271484E+0002   2.85697448730469E+0002   2.85490234375000E+0002   2.84768341064453E+0002   2.83979400634766E+0002   2.83322937011719E+0002   2.82849792480469E+0002   2.82601715087891E+0002   2.82621826171875E+0002   2.82951690673828E+0002   2.83637084960938E+0002   2.84742309570313E+0002   2.86256042480469E+0002   2.86843780517578E+0002   2.86579559326172E+0002   2.86718902587891E+0002   2.87259979248047E+0002   2.88147399902344E+0002   2.89324707031250E+0002   2.90604125976563E+0002   2.91360809326172E+0002   2.90399932861328E+0002   2.87210510253906E+0002   2.82997772216797E+0002   2.80441345214844E+0002   2.79184326171875E+0002   2.77623107910156E+0002   2.75512542724609E+0002   2.72810180664063E+0002   2.69601257324219E+0002   2.65988708496094E+0002   2.61964080810547E+0002   2.57383758544922E+0002   2.51990570068359E+0002   2.45556655883789E+0002   2.39014389038086E+0002   2.35703979492188E+0002   2.34640563964844E+0002   2.33800613403320E+0002   2.32985366821289E+0002   2.32428451538086E+0002   2.31967956542969E+0002   2.31580108642578E+0002   2.31291854858398E+0002   2.30982315063477E+0002   2.31495407104492E+0002   2.36543457031250E+0002   2.41702331542969E+0002   2.45570999145508E+0002   2.48616806030273E+0002   2.51210937500000E+0002   2.53625122070313E+0002   2.56057495117188E+0002   2.58562591552734E+0002   2.60862670898438E+0002   2.62421081542969E+0002   2.63221496582031E+0002   2.63782440185547E+0002   2.64487152099609E+0002   2.65571868896484E+0002   2.67111450195313E+0002   2.68939605712891E+0002   2.70853576660156E+0002   2.72713531494141E+0002   2.74420776367188E+0002   2.75898803710938E+0002   2.77091949462891E+0002   2.77970123291016E+0002   2.78530822753906E+0002   2.78796478271484E+0002   2.78806823730469E+0002   2.78607635498047E+0002   2.78239196777344E+0002   2.77727539062500E+0002   2.77079986572266E+0002   2.76284454345703E+0002   2.75323577880859E+0002   2.74286987304688E+0002   2.73792358398438E+0002   2.74354766845703E+0002   2.75185394287109E+0002   2.75892639160156E+0002   2.76458374023438E+0002   2.76917572021484E+0002   2.77299865722656E+0002   2.77625518798828E+0002   2.77908264160156E+0002   2.78157531738281E+0002   2.78380249023438E+0002   2.78581634521484E+0002   2.78766021728516E+0002   2.78937133789063E+0002   2.79098327636719E+0002   2.79252716064453E+0002   2.79403381347656E+0002   2.79553375244141E+0002   2.79705657958984E+0002   2.79863372802734E+0002   2.80029632568359E+0002   2.80207763671875E+0002   2.80401306152344E+0002   2.80613952636719E+0002   2.80849853515625E+0002   2.81113372802734E+0002   2.81409271240234E+0002   2.81742614746094E+0002   2.82118621826172E+0002   2.82542602539063E+0002   2.83019531250000E+0002   2.83553527832031E+0002   2.84146423339844E+0002   2.84795043945313E+0002   2.85487243652344E+0002   2.86195861816406E+0002   2.86871002197266E+0002   2.87432769775391E+0002   2.87769592285156E+0002   2.87752868652344E+0002   2.87274139404297E+0002   2.86293792724609E+0002   2.84867828369141E+0002   2.83129547119141E+0002   2.81241210937500E+0002   2.79350830078125E+0002   2.77571533203125E+0002   2.75979736328125E+0002   2.74621856689453E+0002   2.73522552490234E+0002   2.72691467285156E+0002   2.72128387451172E+0002   2.71826354980469E+0002   2.71773925781250E+0002   2.71956237792969E+0002   2.72355926513672E+0002   2.72953582763672E+0002   2.73728637695313E+0002   2.74660339355469E+0002   2.75728912353516E+0002   2.76915740966797E+0002   2.78202270507813E+0002   2.79567199707031E+0002   2.80984283447266E+0002   2.82421600341797E+0002   2.83841400146484E+0002   2.85202972412109E+0002   2.86476348876953E+0002   2.87658721923828E+0002   2.88771087646484E+0002   2.89843292236328E+0002   2.90904754638672E+0002   2.91980224609375E+0002   2.93085388183594E+0002   2.94218658447266E+0002   2.95346191406250E+0002   2.96377319335938E+0002   2.97143463134766E+0002   2.97432373046875E+0002   2.97120544433594E+0002   2.96281646728516E+0002   2.95110839843750E+0002   2.93782562255859E+0002   2.92399047851563E+0002   2.91006927490234E+0002   2.89623626708984E+0002   2.88253936767578E+0002   2.86898071289063E+0002   2.85554718017578E+0002   2.84222106933594E+0002   2.82898437500000E+0002   2.81581848144531E+0002   2.80270446777344E+0002   2.78962432861328E+0002   2.77656005859375E+0002   2.76349456787109E+0002   2.75041320800781E+0002   2.73730773925781E+0002   2.72419219970703E+0002   2.71117431640625E+0002   2.69875946044922E+0002   2.69000000000000E+0002   2.69000000000000E+0002   2.69000000000000E+0002   2.69000000000000E+0002   2.69000000000000E+0002   2.69000000000000E+0002   2.69000000000000E+0002   2.69000000000000E+0002   2.69000000000000E+0002   2.69000000000000E+0002   2.69000000000000E+0002   2.69000000000000E+0002   2.69000000000000E+0002
   2.69000000000000E+0002   2.69000000000000E+0002   2.69000000000000E+0002   2.69000000000000E+0002   2.69000000000000E+0002   2.69000000000000E+0002   2.69000000000000E+0002   2.69000000000000E+0002   2.69000000000000E+0002   2.69523986816406E+0002   2.70293121337891E+0002   2.71099578857422E+0002   2.71890228271484E+0002   2.72643859863281E+0002   2.73348358154297E+0002   2.73995452880859E+0002   2.74579254150391E+0002   2.75096496582031E+0002   2.75546691894531E+0002   2.75933074951172E+0002   2.76263275146484E+0002   2.76550170898438E+0002   2.76812255859375E+0002   2.77073547363281E+0002   2.77362274169922E+0002   2.77708282470703E+0002   2.78139648437500E+0002   2.78679656982422E+0002   2.79345672607422E+0002   2.80151916503906E+0002   2.81117126464844E+0002   2.82279296875000E+0002   2.83721740722656E+0002   2.85615692138672E+0002   2.87788421630859E+0002   2.86781036376953E+0002   2.85966369628906E+0002   2.85614868164063E+0002   2.85543060302734E+0002   2.85651092529297E+0002   2.85886169433594E+0002   2.86226959228516E+0002   2.86687530517578E+0002   2.87343658447266E+0002   2.87925140380859E+0002   2.86966156005859E+0002   2.86307098388672E+0002   2.85820404052734E+0002   2.85472137451172E+0002   2.85278198242188E+0002   2.85277954101563E+0002   2.85523864746094E+0002   2.86084991455078E+0002   2.87066680908203E+0002   2.88580718994141E+0002   2.89013458251953E+0002   2.88494567871094E+0002   2.88562896728516E+0002   2.89161499023438E+0002   2.90290344238281E+0002   2.92039337158203E+0002   2.94512145996094E+0002   2.97268249511719E+0002   2.97240692138672E+0002   2.92532257080078E+0002   2.87267791748047E+0002   2.83359954833984E+0002   2.80613189697266E+0002   2.78260650634766E+0002   2.75858428955078E+0002   2.73226867675781E+0002   2.70313323974609E+0002   2.67106048583984E+0002   2.63570861816406E+0002   2.59635009765625E+0002   2.55235961914063E+0002   2.50501495361328E+0002   2.46096878051758E+0002   2.42948257446289E+0002   2.40996047973633E+0002   2.39603363037109E+0002   2.38466018676758E+0002   2.37554794311523E+0002   2.36857711791992E+0002   2.36352142333984E+0002   2.36080947875977E+0002   2.36258056640625E+0002   2.37497711181641E+0002   2.40375015258789E+0002   2.43896270751953E+0002   2.47105758666992E+0002   2.49879013061523E+0002   2.52338592529297E+0002   2.54622909545898E+0002   2.56823028564453E+0002   2.58934539794922E+0002   2.60826599121094E+0002   2.62334564208984E+0002   2.63464477539063E+0002   2.64412109375000E+0002   2.65396575927734E+0002   2.66569213867188E+0002   2.67980346679688E+0002   2.69576568603516E+0002   2.71258117675781E+0002   2.72928619384766E+0002   2.74506256103516E+0002   2.75919494628906E+0002   2.77103729248047E+0002   2.78003509521484E+0002   2.78582855224609E+0002   2.78839447021484E+0002   2.78808074951172E+0002   2.78544158935547E+0002   2.78099426269531E+0002   2.77504699707031E+0002   2.76760894775391E+0002   2.75829376220703E+0002   2.74608795166016E+0002   2.72889373779297E+0002   2.71400543212891E+0002   2.73200500488281E+0002   2.74464355468750E+0002   2.75317077636719E+0002   2.75936950683594E+0002   2.76415649414063E+0002   2.76802246093750E+0002   2.77124908447266E+0002   2.77400817871094E+0002   2.77641265869141E+0002   2.77854064941406E+0002   2.78045013427734E+0002   2.78218688964844E+0002   2.78378906250000E+0002   2.78529052734375E+0002   2.78672302246094E+0002   2.78811645507813E+0002   2.78950042724609E+0002   2.79090454101563E+0002   2.79235900878906E+0002   2.79389495849609E+0002   2.79554443359375E+0002   2.79734069824219E+0002   2.79931823730469E+0002   2.80151397705078E+0002   2.80396484375000E+0002   2.80670928955078E+0002   2.80978515625000E+0002   2.81322753906250E+0002   2.81706726074219E+0002   2.82132446289063E+0002   2.82600128173828E+0002   2.83106750488281E+0002   2.83644042968750E+0002   2.84195495605469E+0002   2.84732727050781E+0002   2.85211975097656E+0002   2.85572387695313E+0002   2.85739318847656E+0002   2.85636260986328E+0002   2.85205780029297E+0002   2.84431701660156E+0002   2.83350402832031E+0002   2.82042694091797E+0002   2.80611877441406E+0002   2.79160766601563E+0002   2.77776580810547E+0002   2.76525482177734E+0002   2.75453216552734E+0002   2.74588531494141E+0002   2.73947113037109E+0002   2.73534637451172E+0002   2.73349517822266E+0002   2.73384185791016E+0002   2.73626281738281E+0002   2.74059112548828E+0002   2.74662414550781E+0002   2.75413452148438E+0002   2.76289215087891E+0002   2.77269653320313E+0002   2.78339843750000E+0002   2.79489074707031E+0002   2.80705535888672E+0002   2.81971466064453E+0002   2.83263549804688E+0002   2.84550323486328E+0002   2.85778045654297E+0002   2.86893829345703E+0002   2.87903045654297E+0002   2.88847259521484E+0002   2.89760314941406E+0002   2.90663299560547E+0002   2.91568176269531E+0002   2.92476196289063E+0002   2.93372528076172E+0002   2.94217742919922E+0002   2.94939392089844E+0002   2.95433990478516E+0002   2.95594635009766E+0002   2.95363220214844E+0002   2.94764556884766E+0002   2.93884216308594E+0002   2.92817840576172E+0002   2.91639160156250E+0002   2.90395446777344E+0002   2.89115112304688E+0002   2.87815460205078E+0002   2.86507446289063E+0002   2.85198089599609E+0002   2.83891754150391E+0002   2.82590698242188E+0002   2.81295837402344E+0002   2.80007110595703E+0002   2.78723724365234E+0002   2.77444702148438E+0002   2.76168823242188E+0002   2.74895050048828E+0002   2.73622894287109E+0002   2.72354125976563E+0002   2.71099060058594E+0002   2.69902404785156E+0002   2.69000000000000E+0002   2.69000000000000E+0002   2.69000000000000E+0002   2.69000000000000E+0002   2.69000000000000E+0002   2.69000000000000E+0002   2.69000000000000E+0002   2.69000000000000E+0002   2.69000000000000E+0002   2.69000000000000E+0002   2.69000000000000E+0002   2.69000000000000E+0002   2.69000000000000E+0002
   2.69000000000000E+0002   2.69000000000000E+0002   2.69000000000000E+0002   2.69000000000000E+0002   2.69000000000000E+0002   2.69000000000000E+0002   2.69000000000000E+0002   2.69000000000000E+0002   2.69000000000000E+0002   2.69564239501953E+0002   2.70243957519531E+0002   2.70934204101563E+0002   2.71604949951172E+0002   2.72238159179688E+0002   2.72820953369141E+0002   2.73343475341797E+0002   2.73798309326172E+0002   2.74180572509766E+0002   2.74488647460938E+0002   2.74725128173828E+0002   2.74898132324219E+0002   2.75022552490234E+0002   2.75121337890625E+0002   2.75225921630859E+0002   2.75374633789063E+0002   2.75609100341797E+0002   2.75968078613281E+0002   2.76480773925781E+0002   2.77163055419922E+0002   2.78019134521484E+0002   2.79049041748047E+0002   2.80258331298828E+0002   2.81657501220703E+0002   2.83191131591797E+0002   2.84404754638672E+0002   2.84677764892578E+0002   2.84614379882813E+0002   2.84699798583984E+0002   2.84987579345703E+0002   2.85443786621094E+0002   2.86031402587891E+0002   2.86724060058594E+0002   2.87507202148438E+0002   2.88341766357422E+0002   2.88874450683594E+0002   2.88734100341797E+0002   2.88449645996094E+0002   2.88180969238281E+0002   2.87942291259766E+0002   2.87762084960938E+0002   2.87688629150391E+0002   2.87779693603516E+0002   2.88092071533203E+0002   2.88653076171875E+0002   2.89325408935547E+0002   2.89638519287109E+0002   2.89640258789063E+0002   2.89863769531250E+0002   2.90536651611328E+0002   2.91799682617188E+0002   2.93897277832031E+0002   2.97334960937500E+0002   3.03147613525391E+0002   3.06767791748047E+0002   2.96799774169922E+0002   2.89962554931641E+0002   2.85237945556641E+0002   2.81786804199219E+0002   2.78991699218750E+0002   2.76446563720703E+0002   2.73924407958984E+0002   2.71309844970703E+0002   2.68542877197266E+0002   2.65581970214844E+0002   2.62395355224609E+0002   2.58993225097656E+0002   2.55505371093750E+0002   2.52234848022461E+0002   2.49496475219727E+0002   2.47335510253906E+0002   2.45589859008789E+0002   2.44134353637695E+0002   2.42939102172852E+0002   2.42013153076172E+0002   2.41382644653320E+0002   2.41119720458984E+0002   2.41386459350586E+0002   2.42422744750977E+0002   2.44302856445313E+0002   2.46684188842773E+0002   2.49136962890625E+0002   2.51462387084961E+0002   2.53634445190430E+0002   2.55684997558594E+0002   2.57638824462891E+0002   2.59480651855469E+0002   2.61153533935547E+0002   2.62603881835938E+0002   2.63845764160156E+0002   2.64970306396484E+0002   2.66094940185547E+0002   2.67312042236328E+0002   2.68662200927734E+0002   2.70132690429688E+0002   2.71677215576172E+0002   2.73238311767578E+0002   2.74756866455078E+0002   2.76169738769531E+0002   2.77401611328125E+0002   2.78361206054688E+0002   2.78962158203125E+0002   2.79172149658203E+0002   2.79039733886719E+0002   2.78657135009766E+0002   2.78104766845703E+0002   2.77425933837891E+0002   2.76625305175781E+0002   2.75670532226563E+0002   2.74489868164063E+0002   2.73034118652344E+0002   2.72160339355469E+0002   2.73147918701172E+0002   2.74201904296875E+0002   2.74976226806641E+0002   2.75553710937500E+0002   2.76003387451172E+0002   2.76367095947266E+0002   2.76670104980469E+0002   2.76928314208984E+0002   2.77152313232422E+0002   2.77349548339844E+0002   2.77525573730469E+0002   2.77684722900391E+0002   2.77830688476563E+0002   2.77966705322266E+0002   2.78095794677734E+0002   2.78220825195313E+0002   2.78344665527344E+0002   2.78470184326172E+0002   2.78600341796875E+0002   2.78738067626953E+0002   2.78886474609375E+0002   2.79048706054688E+0002   2.79227935791016E+0002   2.79427398681641E+0002   2.79650207519531E+0002   2.79899383544922E+0002   2.80177612304688E+0002   2.80487030029297E+0002   2.80828857421875E+0002   2.81202911376953E+0002   2.81606872558594E+0002   2.82035064697266E+0002   2.82476928710938E+0002   2.82915344238281E+0002   2.83324523925781E+0002   2.83669128417969E+0002   2.83904632568359E+0002   2.83981536865234E+0002   2.83853576660156E+0002   2.83489501953125E+0002   2.82883972167969E+0002   2.82062591552734E+0002   2.81078216552734E+0002   2.79999816894531E+0002   2.78900024414063E+0002   2.77845062255859E+0002   2.76889526367188E+0002   2.76074768066406E+0002   2.75429687500000E+0002   2.74972534179688E+0002   2.74712646484375E+0002   2.74652069091797E+0002   2.74786315917969E+0002   2.75104949951172E+0002   2.75591430664063E+0002   2.76223510742188E+0002   2.76974090576172E+0002   2.77814727783203E+0002   2.78722106933594E+0002   2.79685821533203E+0002   2.80708984375000E+0002   2.81795288085938E+0002   2.82933563232422E+0002   2.84106842041016E+0002   2.85309844970703E+0002   2.86465362548828E+0002   2.87412384033203E+0002   2.88205047607422E+0002   2.88951049804688E+0002   2.89685546875000E+0002   2.90418212890625E+0002   2.91150268554688E+0002   2.91874389648438E+0002   2.92571166992188E+0002   2.93205200195313E+0002   2.93723510742188E+0002   2.94061248779297E+0002   2.94157684326172E+0002   2.93977966308594E+0002   2.93525970458984E+0002   2.92837127685547E+0002   2.91959930419922E+0002   2.90940856933594E+0002   2.89818695068359E+0002   2.88624908447266E+0002   2.87384704589844E+0002   2.86117675781250E+0002   2.84838165283203E+0002   2.83555847167969E+0002   2.82276611328125E+0002   2.81003662109375E+0002   2.79738311767578E+0002   2.78480682373047E+0002   2.77230316162109E+0002   2.75986328125000E+0002   2.74747924804688E+0002   2.73514617919922E+0002   2.72287322998047E+0002   2.71071807861328E+0002   2.69895233154297E+0002   2.69000000000000E+0002   2.69000000000000E+0002   2.69000000000000E+0002   2.69000000000000E+0002   2.69000000000000E+0002   2.69000000000000E+0002   2.69000000000000E+0002   2.69000000000000E+0002   2.69000000000000E+0002   2.69000000000000E+0002   2.69000000000000E+0002   2.69000000000000E+0002   2.69000000000000E+0002
   2.69000000000000E+0002   2.69000000000000E+0002   2.69000000000000E+0002   2.69000000000000E+0002   2.69000000000000E+0002   2.69000000000000E+0002   2.69000000000000E+0002   2.69000000000000E+0002   2.69099121093750E+0002   2.69619537353516E+0002   2.70205993652344E+0002   2.70794372558594E+0002   2.71359161376953E+0002   2.71883636474609E+0002   2.72354278564453E+0002   2.72759674072266E+0002   2.73090423583984E+0002   2.73339508056641E+0002   2.73503082275391E+0002   2.73581878662109E+0002   2.73582916259766E+0002   2.73521972656250E+0002   2.73425964355469E+0002   2.73334777832031E+0002   2.73300811767578E+0002   2.73383850097656E+0002   2.73640472412109E+0002   2.74110229492188E+0002   2.74805755615234E+0002   2.75712890625000E+0002   2.76800476074219E+0002   2.78030090332031E+0002   2.79350250244141E+0002   2.80654266357422E+0002   2.81736785888672E+0002   2.82462646484375E+0002   2.82994812011719E+0002   2.83560913085938E+0002   2.84260833740234E+0002   2.85105743408203E+0002   2.86071777343750E+0002   2.87122131347656E+0002   2.88205627441406E+0002   2.89224487304688E+0002   2.89996704101563E+0002   2.90406890869141E+0002   2.90545745849609E+0002   2.90510650634766E+0002   2.90356109619141E+0002   2.90140136718750E+0002   2.89933380126953E+0002   2.89806457519531E+0002   2.89811096191406E+0002   2.89952575683594E+0002   2.90152252197266E+0002   2.90289855957031E+0002   2.90402435302734E+0002   2.90687561035156E+0002   2.91328277587891E+0002   2.92485839843750E+0002   2.94376129150391E+0002   2.97320617675781E+0002   3.01380004882813E+0002   3.02352996826172E+0002   2.96313049316406E+0002   2.90392974853516E+0002   2.85854980468750E+0002   2.82350982666016E+0002   2.79505554199219E+0002   2.77029052734375E+0002   2.74721740722656E+0002   2.72460113525391E+0002   2.70174438476563E+0002   2.67826904296875E+0002   2.65399993896484E+0002   2.62899932861328E+0002   2.60370544433594E+0002   2.57893554687500E+0002   2.55550262451172E+0002   2.53380706787109E+0002   2.51401641845703E+0002   2.49644592285156E+0002   2.48157089233398E+0002   2.46985931396484E+0002   2.46176376342773E+0002   2.45787796020508E+0002   2.45903137207031E+0002   2.46597564697266E+0002   2.47851516723633E+0002   2.49502975463867E+0002   2.51339492797852E+0002   2.53211441040039E+0002   2.55050598144531E+0002   2.56835052490234E+0002   2.58553863525391E+0002   2.60186737060547E+0002   2.61703491210938E+0002   2.63083190917969E+0002   2.64337951660156E+0002   2.65517578125000E+0002   2.66689483642578E+0002   2.67912353515625E+0002   2.69219085693359E+0002   2.70613922119141E+0002   2.72080047607422E+0002   2.73589935302734E+0002   2.75110229492188E+0002   2.76595550537109E+0002   2.77966705322266E+0002   2.79078887939453E+0002   2.79738403320313E+0002   2.79846954345703E+0002   2.79513763427734E+0002   2.78931060791016E+0002   2.78229766845703E+0002   2.77463897705078E+0002   2.76642089843750E+0002   2.75754699707031E+0002   2.74807403564453E+0002   2.73920684814453E+0002   2.73487915039063E+0002   2.73746429443359E+0002   2.74300231933594E+0002   2.74840179443359E+0002   2.75296905517578E+0002   2.75675262451172E+0002   2.75991394042969E+0002   2.76259277343750E+0002   2.76489501953125E+0002   2.76689849853516E+0002   2.76866088867188E+0002   2.77022857666016E+0002   2.77163909912109E+0002   2.77292388916016E+0002   2.77411285400391E+0002   2.77523315429688E+0002   2.77631195068359E+0002   2.77737640380859E+0002   2.77845336914063E+0002   2.77957153320313E+0002   2.78075958251953E+0002   2.78204681396484E+0002   2.78346343994141E+0002   2.78503814697266E+0002   2.78679992675781E+0002   2.78877532958984E+0002   2.79098724365234E+0002   2.79345397949219E+0002   2.79618621826172E+0002   2.79918334960938E+0002   2.80242950439453E+0002   2.80588623046875E+0002   2.80948577880859E+0002   2.81311859130859E+0002   2.81662689208984E+0002   2.81979309082031E+0002   2.82234313964844E+0002   2.82395812988281E+0002   2.82430938720703E+0002   2.82311370849609E+0002   2.82019989013672E+0002   2.81556549072266E+0002   2.80940399169922E+0002   2.80208129882813E+0002   2.79407928466797E+0002   2.78592315673828E+0002   2.77811859130859E+0002   2.77110717773438E+0002   2.76524871826172E+0002   2.76081451416016E+0002   2.75799438476563E+0002   2.75690307617188E+0002   2.75758789062500E+0002   2.76003112792969E+0002   2.76414733886719E+0002   2.76977355957031E+0002   2.77665863037109E+0002   2.78445861816406E+0002   2.79276702880859E+0002   2.80123138427734E+0002   2.80976715087891E+0002   2.81868804931641E+0002   2.82838653564453E+0002   2.83874237060547E+0002   2.84922363281250E+0002   2.86060119628906E+0002   2.87340881347656E+0002   2.88019195556641E+0002   2.88527740478516E+0002   2.89060516357422E+0002   2.89610778808594E+0002   2.90172210693359E+0002   2.90738189697266E+0002   2.91297027587891E+0002   2.91829223632813E+0002   2.92305511474609E+0002   2.92687713623047E+0002   2.92933013916016E+0002   2.93002258300781E+0002   2.92869171142578E+0002   2.92525115966797E+0002   2.91977050781250E+0002   2.91242156982422E+0002   2.90344177246094E+0002   2.89312469482422E+0002   2.88180114746094E+0002   2.86979827880859E+0002   2.85739593505859E+0002   2.84480438232422E+0002   2.83216369628906E+0002   2.81955932617188E+0002   2.80703674316406E+0002   2.79461639404297E+0002   2.78230377197266E+0002   2.77009521484375E+0002   2.75798431396484E+0002   2.74596313476563E+0002   2.73402740478516E+0002   2.72218200683594E+0002   2.71047302246094E+0002   2.69916564941406E+0002   2.69000000000000E+0002   2.69000000000000E+0002   2.69000000000000E+0002   2.69000000000000E+0002   2.69000000000000E+0002   2.69000000000000E+0002   2.69000000000000E+0002   2.69000000000000E+0002   2.69000000000000E+0002   2.69000000000000E+0002   2.69000000000000E+0002   2.69000000000000E+0002   2.69000000000000E+0002
   2.69000000000000E+0002   2.69000000000000E+0002   2.69000000000000E+0002   2.69000000000000E+0002   2.69000000000000E+0002   2.69000000000000E+0002   2.69000000000000E+0002   2.69000000000000E+0002   2.69203704833984E+0002   2.69674530029297E+0002   2.70181243896484E+0002   2.70681976318359E+0002   2.71154907226563E+0002   2.71583465576172E+0002   2.71953186035156E+0002   2.72250915527344E+0002   2.72464782714844E+0002   2.72584686279297E+0002   2.72603363037109E+0002   2.72517761230469E+0002   2.72331604003906E+0002   2.72058746337891E+0002   2.71727996826172E+0002   2.71387969970703E+0002   2.71109771728516E+0002   2.70982482910156E+0002   2.71095336914063E+0002   2.71509521484375E+0002   2.72234161376953E+0002   2.73225158691406E+0002   2.74406951904297E+0002   2.75696838378906E+0002   2.77014068603516E+0002   2.78274291992188E+0002   2.79399108886719E+0002   2.80374511718750E+0002   2.81289642333984E+0002   2.82267639160156E+0002   2.83382293701172E+0002   2.84644317626953E+0002   2.86024871826172E+0002   2.87475738525391E+0002   2.88931457519531E+0002   2.90297668457031E+0002   2.91453094482422E+0002   2.92298156738281E+0002   2.92796325683594E+0002   2.92958282470703E+0002   2.92832733154297E+0002   2.92508270263672E+0002   2.92094390869141E+0002   2.91691833496094E+0002   2.91369079589844E+0002   2.91149871826172E+0002   2.91015258789063E+0002   2.90940460205078E+0002   2.90953399658203E+0002   2.91140838623047E+0002   2.91604217529297E+0002   2.92435302734375E+0002   2.93701446533203E+0002   2.95343353271484E+0002   2.96755157470703E+0002   2.96265899658203E+0002   2.93157470703125E+0002   2.89129486083984E+0002   2.85404815673828E+0002   2.82267120361328E+0002   2.79666687011719E+0002   2.77455902099609E+0002   2.75482543945313E+0002   2.73639495849609E+0002   2.71870910644531E+0002   2.70155609130859E+0002   2.68486938476563E+0002   2.66850433349609E+0002   2.65197113037109E+0002   2.63429382324219E+0002   2.61448486328125E+0002   2.59261627197266E+0002   2.57016571044922E+0002   2.54907592773438E+0002   2.53082443237305E+0002   2.51625747680664E+0002   2.50583267211914E+0002   2.49987274169922E+0002   2.49865066528320E+0002   2.50224227905273E+0002   2.51023925781250E+0002   2.52166061401367E+0002   2.53527389526367E+0002   2.55002807617188E+0002   2.56523193359375E+0002   2.58048248291016E+0002   2.59551300048828E+0002   2.61007934570313E+0002   2.62393432617188E+0002   2.63691009521484E+0002   2.64905578613281E+0002   2.66069061279297E+0002   2.67227630615234E+0002   2.68423522949219E+0002   2.69684417724609E+0002   2.71022369384766E+0002   2.72438323974609E+0002   2.73929077148438E+0002   2.75491516113281E+0002   2.77117645263672E+0002   2.78760803222656E+0002   2.80228790283203E+0002   2.81064147949219E+0002   2.80941101074219E+0002   2.80206054687500E+0002   2.79304290771484E+0002   2.78410583496094E+0002   2.77554992675781E+0002   2.76728912353516E+0002   2.75926757812500E+0002   2.75173919677734E+0002   2.74560424804688E+0002   2.74231719970703E+0002   2.74246063232422E+0002   2.74486450195313E+0002   2.74804748535156E+0002   2.75121490478516E+0002   2.75409423828125E+0002   2.75663421630859E+0002   2.75885742187500E+0002   2.76080322265625E+0002   2.76251190185547E+0002   2.76402008056641E+0002   2.76535827636719E+0002   2.76655548095703E+0002   2.76763671875000E+0002   2.76862701416016E+0002   2.76955017089844E+0002   2.77043060302734E+0002   2.77129302978516E+0002   2.77216400146484E+0002   2.77307006835938E+0002   2.77403930664063E+0002   2.77510009765625E+0002   2.77628112792969E+0002   2.77760986328125E+0002   2.77911224365234E+0002   2.78081085205078E+0002   2.78272460937500E+0002   2.78486480712891E+0002   2.78723480224609E+0002   2.78982604980469E+0002   2.79261413574219E+0002   2.79555480957031E+0002   2.79857849121094E+0002   2.80158325195313E+0002   2.80443176269531E+0002   2.80694915771484E+0002   2.80892761230469E+0002   2.81014038085938E+0002   2.81036926269531E+0002   2.80943908691406E+0002   2.80725769042969E+0002   2.80384857177734E+0002   2.79936248779297E+0002   2.79406616210938E+0002   2.78830993652344E+0002   2.78248382568359E+0002   2.77697845458984E+0002   2.77215179443359E+0002   2.76831146240234E+0002   2.76570587158203E+0002   2.76452331542969E+0002   2.76489257812500E+0002   2.76688537597656E+0002   2.77051391601563E+0002   2.77572021484375E+0002   2.78235809326172E+0002   2.79015716552734E+0002   2.79868041992188E+0002   2.80730194091797E+0002   2.81532318115234E+0002   2.82247894287109E+0002   2.82967559814453E+0002   2.83836303710938E+0002   2.84853790283203E+0002   2.85770904541016E+0002   2.86553405761719E+0002   2.87911804199219E+0002   2.88471221923828E+0002   2.88800567626953E+0002   2.89148895263672E+0002   2.89523651123047E+0002   2.89920593261719E+0002   2.90331756591797E+0002   2.90744689941406E+0002   2.91141479492188E+0002   2.91498870849609E+0002   2.91789123535156E+0002   2.91982727050781E+0002   2.92051910400391E+0002   2.91973602294922E+0002   2.91729431152344E+0002   2.91304412841797E+0002   2.90687988281250E+0002   2.89881591796875E+0002   2.88906555175781E+0002   2.87802185058594E+0002   2.86613555908203E+0002   2.85379241943359E+0002   2.84126617431641E+0002   2.82872619628906E+0002   2.81626617431641E+0002   2.80393218994141E+0002   2.79174133300781E+0002   2.77969573974609E+0002   2.76779022216797E+0002   2.75601654052734E+0002   2.74436706542969E+0002   2.73283874511719E+0002   2.72144042968750E+0002   2.71022155761719E+0002   2.69940582275391E+0002   2.69039428710938E+0002   2.69000000000000E+0002   2.69000000000000E+0002   2.69000000000000E+0002   2.69000000000000E+0002   2.69000000000000E+0002   2.69000000000000E+0002   2.69000000000000E+0002   2.69000000000000E+0002   2.69000000000000E+0002   2.69000000000000E+0002   2.69000000000000E+0002   2.69000000000000E+0002
   2.69000000000000E+0002   2.69000000000000E+0002   2.69000000000000E+0002   2.69000000000000E+0002   2.69000000000000E+0002   2.69000000000000E+0002   2.69000000000000E+0002   2.69000000000000E+0002   2.69302001953125E+0002   2.69729064941406E+0002   2.70171325683594E+0002   2.70599884033203E+0002   2.70995727539063E+0002   2.71342437744141E+0002   2.71624389648438E+0002   2.71826354980469E+0002   2.71933502197266E+0002   2.71931823730469E+0002   2.71809020996094E+0002   2.71555938720703E+0002   2.71169433593750E+0002   2.70656829833984E+0002   2.70043487548828E+0002   2.69383087158203E+0002   2.68769226074219E+0002   2.68337524414063E+0002   2.68241210937500E+0002   2.68590576171875E+0002   2.69392242431641E+0002   2.70546630859375E+0002   2.71905853271484E+0002   2.73332946777344E+0002   2.74726959228516E+0002   2.76025909423828E+0002   2.77213867187500E+0002   2.78338134765625E+0002   2.79504730224609E+0002   2.80824707031250E+0002   2.82350097656250E+0002   2.84061889648438E+0002   2.85904785156250E+0002   2.87817382812500E+0002   2.89734527587891E+0002   2.91572448730469E+0002   2.93217285156250E+0002   2.94531555175781E+0002   2.95383117675781E+0002   2.95697418212891E+0002   2.95510040283203E+0002   2.94962829589844E+0002   2.94237548828125E+0002   2.93488220214844E+0002   2.92812194824219E+0002   2.92252838134766E+0002   2.91817230224609E+0002   2.91503051757813E+0002   2.91323547363281E+0002   2.91311889648438E+0002   2.91504974365234E+0002   2.91919769287109E+0002   2.92515686035156E+0002   2.93111846923828E+0002   2.93264068603516E+0002   2.92352050781250E+0002   2.90186645507813E+0002   2.87288787841797E+0002   2.84301574707031E+0002   2.81633483886719E+0002   2.79444000244141E+0002   2.77657928466797E+0002   2.76123565673828E+0002   2.74750640869141E+0002   2.73516510009766E+0002   2.72436218261719E+0002   2.71534362792969E+0002   2.70803253173828E+0002   2.70124389648438E+0002   2.69180511474609E+0002   2.67561920166016E+0002   2.65195526123047E+0002   2.62481628417969E+0002   2.59877471923828E+0002   2.57638031005859E+0002   2.55855957031250E+0002   2.54550994873047E+0002   2.53718917846680E+0002   2.53346725463867E+0002   2.53408706665039E+0002   2.53856597900391E+0002   2.54618179321289E+0002   2.55609924316406E+0002   2.56754882812500E+0002   2.57993438720703E+0002   2.59283355712891E+0002   2.60594238281250E+0002   2.61900115966797E+0002   2.63173217773438E+0002   2.64384552001953E+0002   2.65524871826172E+0002   2.66623352050781E+0002   2.67725280761719E+0002   2.68866729736328E+0002   2.70070800781250E+0002   2.71352050781250E+0002   2.72721801757813E+0002   2.74195343017578E+0002   2.75800567626953E+0002   2.77586975097656E+0002   2.79620086669922E+0002   2.81843444824219E+0002   2.83275115966797E+0002   2.82477478027344E+0002   2.80958129882813E+0002   2.79634521484375E+0002   2.78544799804688E+0002   2.77616851806641E+0002   2.76798095703125E+0002   2.76066619873047E+0002   2.75433349609375E+0002   2.74940979003906E+0002   2.74642333984375E+0002   2.74551605224609E+0002   2.74622344970703E+0002   2.74783416748047E+0002   2.74979339599609E+0002   2.75178802490234E+0002   2.75367492675781E+0002   2.75539886474609E+0002   2.75694732666016E+0002   2.75832611083984E+0002   2.75954772949219E+0002   2.76062896728516E+0002   2.76158721923828E+0002   2.76244079589844E+0002   2.76320831298828E+0002   2.76390991210938E+0002   2.76456695556641E+0002   2.76520202636719E+0002   2.76583953857422E+0002   2.76650543212891E+0002   2.76722717285156E+0002   2.76803283691406E+0002   2.76895050048828E+0002   2.77000701904297E+0002   2.77122711181641E+0002   2.77263092041016E+0002   2.77423400878906E+0002   2.77604400634766E+0002   2.77805969238281E+0002   2.78026794433594E+0002   2.78264160156250E+0002   2.78513519287109E+0002   2.78768371582031E+0002   2.79019744873047E+0002   2.79256256103516E+0002   2.79464111328125E+0002   2.79627838134766E+0002   2.79731384277344E+0002   2.79760192871094E+0002   2.79703460693359E+0002   2.79556549072266E+0002   2.79322845458984E+0002   2.79014526367188E+0002   2.78651794433594E+0002   2.78260955810547E+0002   2.77871826171875E+0002   2.77515075683594E+0002   2.77220001220703E+0002   2.77012939453125E+0002   2.76916503906250E+0002   2.76949066162109E+0002   2.77124847412109E+0002   2.77453643798828E+0002   2.77940429687500E+0002   2.78584228515625E+0002   2.79375396728516E+0002   2.80290069580078E+0002   2.81279846191406E+0002   2.82255310058594E+0002   2.83073059082031E+0002   2.83595855712891E+0002   2.84009033203125E+0002   2.84798248291016E+0002   2.86043914794922E+0002   2.87109588623047E+0002   2.87729827880859E+0002   2.88413238525391E+0002   2.88815887451172E+0002   2.89024505615234E+0002   2.89205749511719E+0002   2.89412780761719E+0002   2.89653747558594E+0002   2.89922637939453E+0002   2.90207427978516E+0002   2.90492370605469E+0002   2.90759002685547E+0002   2.90987426757813E+0002   2.91157531738281E+0002   2.91249755859375E+0002   2.91243988037109E+0002   2.91114471435547E+0002   2.90823944091797E+0002   2.90326080322266E+0002   2.89589599609375E+0002   2.88629760742188E+0002   2.87506652832031E+0002   2.86290618896484E+0002   2.85035308837891E+0002   2.83772918701172E+0002   2.82520080566406E+0002   2.81284301757813E+0002   2.80068176269531E+0002   2.78871948242188E+0002   2.77694763183594E+0002   2.76535400390625E+0002   2.75392608642578E+0002   2.74265533447266E+0002   2.73153961181641E+0002   2.72059356689453E+0002   2.70988525390625E+0002   2.69968750000000E+0002   2.69131042480469E+0002   2.69000000000000E+0002   2.69000000000000E+0002   2.69000000000000E+0002   2.69000000000000E+0002   2.69000000000000E+0002   2.69000000000000E+0002   2.69000000000000E+0002   2.69000000000000E+0002   2.69000000000000E+0002   2.69000000000000E+0002   2.69000000000000E+0002   2.69000000000000E+0002
   2.69000000000000E+0002   2.69000000000000E+0002   2.69000000000000E+0002   2.69000000000000E+0002   2.69000000000000E+0002   2.69000000000000E+0002   2.69000000000000E+0002   2.69051208496094E+0002   2.69396759033203E+0002   2.69787780761719E+0002   2.70180023193359E+0002   2.70551849365234E+0002   2.70886108398438E+0002   2.71166320800781E+0002   2.71375671386719E+0002   2.71496704101563E+0002   2.71511260986328E+0002   2.71400604248047E+0002   2.71145874023438E+0002   2.70729248046875E+0002   2.70136260986328E+0002   2.69360595703125E+0002   2.68413360595703E+0002   2.67340942382813E+0002   2.66253692626953E+0002   2.65355865478516E+0002   2.64929626464844E+0002   2.65207214355469E+0002   2.66195343017578E+0002   2.67669403076172E+0002   2.69344665527344E+0002   2.71008209228516E+0002   2.72540649414063E+0002   2.73897247314453E+0002   2.75102081298828E+0002   2.76261383056641E+0002   2.77558380126953E+0002   2.79167694091797E+0002   2.81129394531250E+0002   2.83350097656250E+0002   2.85715301513672E+0002   2.88150756835938E+0002   2.90609069824219E+0002   2.93031555175781E+0002   2.95305664062500E+0002   2.97228149414063E+0002   2.98517456054688E+0002   2.98948913574219E+0002   2.98546844482422E+0002   2.97585723876953E+0002   2.96392700195313E+0002   2.95200805664063E+0002   2.94131134033203E+0002   2.93228576660156E+0002   2.92498321533203E+0002   2.91932342529297E+0002   2.91524536132813E+0002   2.91273498535156E+0002   2.91172973632813E+0002   2.91193664550781E+0002   2.91256042480469E+0002   2.91195495605469E+0002   2.90751251220703E+0002   2.89656890869141E+0002   2.87831268310547E+0002   2.85453521728516E+0002   2.82856445312500E+0002   2.80513214111328E+0002   2.78839202880859E+0002   2.77636352539063E+0002   2.76619079589844E+0002   2.75730255126953E+0002   2.75009948730469E+0002   2.74532318115234E+0002   2.74387237548828E+0002   2.74645721435547E+0002   2.75230224609375E+0002   2.75563018798828E+0002   2.74404785156250E+0002   2.71398132324219E+0002   2.67763122558594E+0002   2.64446319580078E+0002   2.61723754882813E+0002   2.59606842041016E+0002   2.58046630859375E+0002   2.56990875244141E+0002   2.56392608642578E+0002   2.56205047607422E+0002   2.56375335693359E+0002   2.56842651367188E+0002   2.57543029785156E+0002   2.58416748046875E+0002   2.59414276123047E+0002   2.60498046875000E+0002   2.61640899658203E+0002   2.62821655273438E+0002   2.64011810302734E+0002   2.65149383544922E+0002   2.66182403564453E+0002   2.67169342041016E+0002   2.68180297851563E+0002   2.69245513916016E+0002   2.70379394531250E+0002   2.71593688964844E+0002   2.72903106689453E+0002   2.74332061767578E+0002   2.75926330566406E+0002   2.77775390625000E+0002   2.80060424804688E+0002   2.83161224365234E+0002   2.87137451171875E+0002   2.83693511962891E+0002   2.81301300048828E+0002   2.79699218750000E+0002   2.78515930175781E+0002   2.77573394775391E+0002   2.76785705566406E+0002   2.76116241455078E+0002   2.75559600830078E+0002   2.75129516601563E+0002   2.74842681884766E+0002   2.74699401855469E+0002   2.74675506591797E+0002   2.74733215332031E+0002   2.74836853027344E+0002   2.74960571289063E+0002   2.75088500976563E+0002   2.75211914062500E+0002   2.75326293945313E+0002   2.75429718017578E+0002   2.75521636962891E+0002   2.75602264404297E+0002   2.75672393798828E+0002   2.75733062744141E+0002   2.75785552978516E+0002   2.75831451416016E+0002   2.75872558593750E+0002   2.75910858154297E+0002   2.75948669433594E+0002   2.75988525390625E+0002   2.76033142089844E+0002   2.76085388183594E+0002   2.76148101806641E+0002   2.76224029541016E+0002   2.76315704345703E+0002   2.76425048828125E+0002   2.76553466796875E+0002   2.76701568603516E+0002   2.76868988037109E+0002   2.77054199218750E+0002   2.77254516601563E+0002   2.77465698242188E+0002   2.77681945800781E+0002   2.77895660400391E+0002   2.78097686767578E+0002   2.78277343750000E+0002   2.78423248291016E+0002   2.78524108886719E+0002   2.78570098876953E+0002   2.78554595947266E+0002   2.78475585937500E+0002   2.78336853027344E+0002   2.78148284912109E+0002   2.77925659179688E+0002   2.77689331054688E+0002   2.77462646484375E+0002   2.77270141601563E+0002   2.77136108398438E+0002   2.77083404541016E+0002   2.77132629394531E+0002   2.77301910400391E+0002   2.77606689453125E+0002   2.78059753417969E+0002   2.78671051025391E+0002   2.79446838378906E+0002   2.80387725830078E+0002   2.81483123779297E+0002   2.82698272705078E+0002   2.83943176269531E+0002   2.85003448486328E+0002   2.85431060791016E+0002   2.85049621582031E+0002   2.86519287109375E+0002   2.88168090820313E+0002   2.89079376220703E+0002   2.89279479980469E+0002   2.89312133789063E+0002   2.89289306640625E+0002   2.89244628906250E+0002   2.89228302001953E+0002   2.89265411376953E+0002   2.89357940673828E+0002   2.89497009277344E+0002   2.89669586181641E+0002   2.89861236572266E+0002   2.90057312011719E+0002   2.90244201660156E+0002   2.90410034179688E+0002   2.90544494628906E+0002   2.90635070800781E+0002   2.90656219482422E+0002   2.90548675537109E+0002   2.90205566406250E+0002   2.89523559570313E+0002   2.88513305664063E+0002   2.87298370361328E+0002   2.86002319335938E+0002   2.84695587158203E+0002   2.83408111572266E+0002   2.82149719238281E+0002   2.80921905517578E+0002   2.79723083496094E+0002   2.78550689697266E+0002   2.77402160644531E+0002   2.76275238037109E+0002   2.75168060302734E+0002   2.74079437255859E+0002   2.73009002685547E+0002   2.71958129882813E+0002   2.70933166503906E+0002   2.69958587646484E+0002   2.69140258789063E+0002   2.69000000000000E+0002   2.69000000000000E+0002   2.69000000000000E+0002   2.69000000000000E+0002   2.69000000000000E+0002   2.69000000000000E+0002   2.69000000000000E+0002   2.69000000000000E+0002   2.69000000000000E+0002   2.69000000000000E+0002   2.69000000000000E+0002   2.69000000000000E+0002
   2.69000000000000E+0002   2.69000000000000E+0002   2.69000000000000E+0002   2.69000000000000E+0002   2.69000000000000E+0002   2.69000000000000E+0002   2.69000000000000E+0002   2.69148925781250E+0002   2.69491912841797E+0002   2.69856018066406E+0002   2.70211914062500E+0002   2.70542083740234E+0002   2.70830657958984E+0002   2.71060974121094E+0002   2.71215118408203E+0002   2.71273437500000E+0002   2.71214263916016E+0002   2.71013610839844E+0002   2.70645141601563E+0002   2.70080169677734E+0002   2.69288665771484E+0002   2.68241912841797E+0002   2.66920318603516E+0002   2.65334381103516E+0002   2.63576080322266E+0002   2.61919158935547E+0002   2.60903533935547E+0002   2.61101623535156E+0002   2.62527618408203E+0002   2.64617584228516E+0002   2.66816009521484E+0002   2.68827972412109E+0002   2.70541778564453E+0002   2.71936523437500E+0002   2.73058044433594E+0002   2.74063964843750E+0002   2.75297882080078E+0002   2.77156951904297E+0002   2.79664367675781E+0002   2.82509460449219E+0002   2.85462768554688E+0002   2.88459442138672E+0002   2.91508728027344E+0002   2.94617614746094E+0002   2.97715820312500E+0002   3.00538085937500E+0002   3.02519195556641E+0002   3.03044036865234E+0002   3.02122283935547E+0002   3.00407958984375E+0002   2.98521911621094E+0002   2.96776824951172E+0002   2.95275848388672E+0002   2.94029418945313E+0002   2.93015258789063E+0002   2.92203857421875E+0002   2.91567596435547E+0002   2.91080413818359E+0002   2.90710418701172E+0002   2.90408020019531E+0002   2.90091308593750E+0002   2.89636444091797E+0002   2.88888122558594E+0002   2.87706481933594E+0002   2.86027709960938E+0002   2.83873565673828E+0002   2.81309478759766E+0002   2.78799652099609E+0002   2.77941619873047E+0002   2.77511322021484E+0002   2.77008270263672E+0002   2.76548339843750E+0002   2.76263275146484E+0002   2.76291107177734E+0002   2.76803802490234E+0002   2.78031005859375E+0002   2.80219360351563E+0002   2.83027282714844E+0002   2.82833190917969E+0002   2.77772003173828E+0002   2.72516143798828E+0002   2.68361022949219E+0002   2.65191070556641E+0002   2.62800170898438E+0002   2.61039001464844E+0002   2.59805877685547E+0002   2.59027130126953E+0002   2.58642608642578E+0002   2.58596832275391E+0002   2.58835235595703E+0002   2.59304779052734E+0002   2.59956878662109E+0002   2.60750579833984E+0002   2.61654296875000E+0002   2.62647430419922E+0002   2.63720916748047E+0002   2.64872070312500E+0002   2.66004730224609E+0002   2.66854370117188E+0002   2.67676696777344E+0002   2.68577301025391E+0002   2.69554840087891E+0002   2.70607910156250E+0002   2.71741577148438E+0002   2.72967651367188E+0002   2.74308258056641E+0002   2.75802978515625E+0002   2.77521484375000E+0002   2.79574493408203E+0002   2.82024139404297E+0002   2.83791412353516E+0002   2.82563964843750E+0002   2.80753021240234E+0002   2.79340087890625E+0002   2.78252532958984E+0002   2.77381042480469E+0002   2.76659942626953E+0002   2.76056945800781E+0002   2.75561218261719E+0002   2.75173675537109E+0002   2.74897094726563E+0002   2.74727172851563E+0002   2.74648773193359E+0002   2.74639556884766E+0002   2.74676208496094E+0002   2.74739318847656E+0002   2.74814819335938E+0002   2.74893310546875E+0002   2.74968994140625E+0002   2.75038452148438E+0002   2.75099822998047E+0002   2.75152252197266E+0002   2.75195587158203E+0002   2.75230255126953E+0002   2.75256958007813E+0002   2.75276794433594E+0002   2.75291229248047E+0002   2.75302062988281E+0002   2.75311401367188E+0002   2.75321777343750E+0002   2.75335968017578E+0002   2.75356964111328E+0002   2.75387847900391E+0002   2.75431610107422E+0002   2.75490875244141E+0002   2.75567779541016E+0002   2.75663726806641E+0002   2.75779235839844E+0002   2.75913940429688E+0002   2.76066314697266E+0002   2.76233795166016E+0002   2.76412567138672E+0002   2.76597717285156E+0002   2.76783020019531E+0002   2.76961273193359E+0002   2.77124389648438E+0002   2.77264007568359E+0002   2.77372161865234E+0002   2.77442260742188E+0002   2.77470214843750E+0002   2.77455444335938E+0002   2.77401611328125E+0002   2.77316864013672E+0002   2.77213745117188E+0002   2.77108306884766E+0002   2.77019195556641E+0002   2.76966461181641E+0002   2.76970581054688E+0002   2.77051483154297E+0002   2.77228302001953E+0002   2.77518798828125E+0002   2.77939788818359E+0002   2.78507110595703E+0002   2.79236267089844E+0002   2.80142730712891E+0002   2.81242034912109E+0002   2.82548645019531E+0002   2.84070220947266E+0002   2.85787780761719E+0002   2.87589630126953E+0002   2.89081573486328E+0002   2.89710754394531E+0002   2.91808502197266E+0002   2.92347229003906E+0002   2.91757202148438E+0002   2.90957946777344E+0002   2.90283630371094E+0002   2.89782653808594E+0002   2.89427062988281E+0002   2.89192413330078E+0002   2.89060760498047E+0002   2.89014862060547E+0002   2.89037567138672E+0002   2.89112670898438E+0002   2.89225799560547E+0002   2.89365112304688E+0002   2.89522277832031E+0002   2.89693603515625E+0002   2.89880554199219E+0002   2.90087738037109E+0002   2.90310241699219E+0002   2.90489532470703E+0002   2.90419036865234E+0002   2.89780548095703E+0002   2.88581512451172E+0002   2.87153900146484E+0002   2.85715759277344E+0002   2.84332885742188E+0002   2.83012786865234E+0002   2.81748260498047E+0002   2.80530426025391E+0002   2.79351562500000E+0002   2.78205657958984E+0002   2.77088073730469E+0002   2.75995391845703E+0002   2.74925140380859E+0002   2.73875640869141E+0002   2.72846191406250E+0002   2.71837432861328E+0002   2.70853179931641E+0002   2.69908874511719E+0002   2.69092071533203E+0002   2.69000000000000E+0002   2.69000000000000E+0002   2.69000000000000E+0002   2.69000000000000E+0002   2.69000000000000E+0002   2.69000000000000E+0002   2.69000000000000E+0002   2.69000000000000E+0002   2.69000000000000E+0002   2.69000000000000E+0002   2.69000000000000E+0002   2.69000000000000E+0002
   2.69000000000000E+0002   2.69000000000000E+0002   2.69000000000000E+0002   2.69000000000000E+0002   2.69000000000000E+0002   2.69000000000000E+0002   2.69000000000000E+0002   2.69251617431641E+0002   2.69591979980469E+0002   2.69938568115234E+0002   2.70270935058594E+0002   2.70574188232422E+0002   2.70833282470703E+0002   2.71031555175781E+0002   2.71150085449219E+0002   2.71167327880859E+0002   2.71058288574219E+0002   2.70794036865234E+0002   2.70340606689453E+0002   2.69657806396484E+0002   2.68697814941406E+0002   2.67403259277344E+0002   2.65706878662109E+0002   2.63540374755859E+0002   2.60882873535156E+0002   2.57952789306641E+0002   2.55703460693359E+0002   2.55804199218750E+0002   2.58306060791016E+0002   2.61544128417969E+0002   2.64514739990234E+0002   2.66962890625000E+0002   2.68874023437500E+0002   2.70272888183594E+0002   2.71187622070313E+0002   2.71731384277344E+0002   2.72457641601563E+0002   2.74551239013672E+0002   2.77951629638672E+0002   2.81610778808594E+0002   2.85183685302734E+0002   2.88715606689453E+0002   2.92334075927734E+0002   2.96171081542969E+0002   3.00305236816406E+0002   3.04557800292969E+0002   3.07925598144531E+0002   3.08537750244141E+0002   3.06358795166016E+0002   3.03301513671875E+0002   3.00463775634766E+0002   2.98091217041016E+0002   2.96160217285156E+0002   2.94596740722656E+0002   2.93329772949219E+0002   2.92300506591797E+0002   2.91460632324219E+0002   2.90766967773438E+0002   2.90174438476563E+0002   2.89627899169922E+0002   2.89055480957031E+0002   2.88367340087891E+0002   2.87465209960938E+0002   2.86263885498047E+0002   2.84709289550781E+0002   2.82768524169922E+0002   2.80380584716797E+0002   2.77697113037109E+0002   2.77562347412109E+0002   2.77560943603516E+0002   2.77367614746094E+0002   2.77195617675781E+0002   2.77208709716797E+0002   2.77569702148438E+0002   2.78491577148438E+0002   2.80311218261719E+0002   2.83640930175781E+0002   2.89718597412109E+0002   2.92665466308594E+0002   2.82463623046875E+0002   2.75856719970703E+0002   2.71249389648438E+0002   2.67880371093750E+0002   2.65369201660156E+0002   2.63507324218750E+0002   2.62168640136719E+0002   2.61268188476563E+0002   2.60741607666016E+0002   2.60534454345703E+0002   2.60597473144531E+0002   2.60885253906250E+0002   2.61357116699219E+0002   2.61978454589844E+0002   2.62722595214844E+0002   2.63572692871094E+0002   2.64525604248047E+0002   2.65599426269531E+0002   2.66773773193359E+0002   2.67389923095703E+0002   2.68086486816406E+0002   2.68895446777344E+0002   2.69788940429688E+0002   2.70756744384766E+0002   2.71798461914063E+0002   2.72920074462891E+0002   2.74133483886719E+0002   2.75456420898438E+0002   2.76906616210938E+0002   2.78467926025391E+0002   2.79958221435547E+0002   2.80798004150391E+0002   2.80510253906250E+0002   2.79600555419922E+0002   2.78631774902344E+0002   2.77774322509766E+0002   2.77042114257813E+0002   2.76419311523438E+0002   2.75892486572266E+0002   2.75455261230469E+0002   2.75106018066406E+0002   2.74843383789063E+0002   2.74662536621094E+0002   2.74553131103516E+0002   2.74500854492188E+0002   2.74490081787109E+0002   2.74506530761719E+0002   2.74538696289063E+0002   2.74577941894531E+0002   2.74618225097656E+0002   2.74655456542969E+0002   2.74687042236328E+0002   2.74711334228516E+0002   2.74727569580078E+0002   2.74735443115234E+0002   2.74735229492188E+0002   2.74727569580078E+0002   2.74713592529297E+0002   2.74694763183594E+0002   2.74673156738281E+0002   2.74651245117188E+0002   2.74631958007813E+0002   2.74618621826172E+0002   2.74614685058594E+0002   2.74623596191406E+0002   2.74648345947266E+0002   2.74691375732422E+0002   2.74754272460938E+0002   2.74837615966797E+0002   2.74941040039063E+0002   2.75063140869141E+0002   2.75201538085938E+0002   2.75352935791016E+0002   2.75513183593750E+0002   2.75677368164063E+0002   2.75839965820313E+0002   2.75995025634766E+0002   2.76136474609375E+0002   2.76258697509766E+0002   2.76357177734375E+0002   2.76429321289063E+0002   2.76475158691406E+0002   2.76497985839844E+0002   2.76504455566406E+0002   2.76504577636719E+0002   2.76511199951172E+0002   2.76539428710938E+0002   2.76605895996094E+0002   2.76728027343750E+0002   2.76923522949219E+0002   2.77210021972656E+0002   2.77605072021484E+0002   2.78126434326172E+0002   2.78792663574219E+0002   2.79624267578125E+0002   2.80645629882813E+0002   2.81888153076172E+0002   2.83395538330078E+0002   2.85233795166016E+0002   2.87509948730469E+0002   2.90407653808594E+0002   2.94226226806641E+0002   2.98913146972656E+0002   3.00551452636719E+0002   2.97514343261719E+0002   2.94529907226563E+0002   2.92462829589844E+0002   2.91073944091797E+0002   2.90132263183594E+0002   2.89488677978516E+0002   2.89053070068359E+0002   2.88770202636719E+0002   2.88603363037109E+0002   2.88526031494141E+0002   2.88518157958984E+0002   2.88564788818359E+0002   2.88655822753906E+0002   2.88787048339844E+0002   2.88961822509766E+0002   2.89194183349609E+0002   2.89513061523438E+0002   2.89964019775391E+0002   2.90579193115234E+0002   2.91125305175781E+0002   2.90522827148438E+0002   2.88776763916016E+0002   2.86975921630859E+0002   2.85360961914063E+0002   2.83904357910156E+0002   2.82561431884766E+0002   2.81300323486328E+0002   2.80100158691406E+0002   2.78947296142578E+0002   2.77832427978516E+0002   2.76749267578125E+0002   2.75693328857422E+0002   2.74661651611328E+0002   2.73652252197266E+0002   2.72664215087891E+0002   2.71697662353516E+0002   2.70755615234375E+0002   2.69853607177734E+0002   2.69076232910156E+0002   2.69000000000000E+0002   2.69000000000000E+0002   2.69000000000000E+0002   2.69000000000000E+0002   2.69000000000000E+0002   2.69000000000000E+0002   2.69000000000000E+0002   2.69000000000000E+0002   2.69000000000000E+0002   2.69000000000000E+0002   2.69000000000000E+0002   2.69000000000000E+0002
   2.69000000000000E+0002   2.69000000000000E+0002   2.69000000000000E+0002   2.69000000000000E+0002   2.69000000000000E+0002   2.69000000000000E+0002   2.69052673339844E+0002   2.69360534667969E+0002   2.69700714111328E+0002   2.70038848876953E+0002   2.70359771728516E+0002   2.70650421142578E+0002   2.70896453857422E+0002   2.71081390380859E+0002   2.71185821533203E+0002   2.71186767578125E+0002   2.71056762695313E+0002   2.70762664794922E+0002   2.70264129638672E+0002   2.69511199951172E+0002   2.68440185546875E+0002   2.66967041015625E+0002   2.64974517822266E+0002   2.62290954589844E+0002   2.58666595458984E+0002   2.53848281860352E+0002   2.48625244140625E+0002   2.48556015014648E+0002   2.53903167724609E+0002   2.58951110839844E+0002   2.62790924072266E+0002   2.65645141601563E+0002   2.67722015380859E+0002   2.69115264892578E+0002   2.69802093505859E+0002   2.69638427734375E+0002   2.68719604492188E+0002   2.71169891357422E+0002   2.76353576660156E+0002   2.80894897460938E+0002   2.84965270996094E+0002   2.88886718750000E+0002   2.92929229736328E+0002   2.97369781494141E+0002   3.02550476074219E+0002   3.08833404541016E+0002   3.15511962890625E+0002   3.16272369384766E+0002   3.10827697753906E+0002   3.05738067626953E+0002   3.01879730224609E+0002   2.98951934814453E+0002   2.96676635742188E+0002   2.94869293212891E+0002   2.93408172607422E+0002   2.92208618164063E+0002   2.91207061767578E+0002   2.90350646972656E+0002   2.89589294433594E+0002   2.88869903564453E+0002   2.88132904052734E+0002   2.87313079833984E+0002   2.86346343994141E+0002   2.85180328369141E+0002   2.83784423828125E+0002   2.82158233642578E+0002   2.80378845214844E+0002   2.78840026855469E+0002   2.78127838134766E+0002   2.77871765136719E+0002   2.77713836669922E+0002   2.77661315917969E+0002   2.77813232421875E+0002   2.78299499511719E+0002   2.79292541503906E+0002   2.81036682128906E+0002   2.83841796875000E+0002   2.87542694091797E+0002   2.87918701171875E+0002   2.82463989257813E+0002   2.77069458007813E+0002   2.72900878906250E+0002   2.69725280761719E+0002   2.67298614501953E+0002   2.65458129882813E+0002   2.64096221923828E+0002   2.63136932373047E+0002   2.62521911621094E+0002   2.62202514648438E+0002   2.62135711669922E+0002   2.62282775878906E+0002   2.62609100341797E+0002   2.63084991455078E+0002   2.63686340332031E+0002   2.64395477294922E+0002   2.65199859619141E+0002   2.66079620361328E+0002   2.66945251464844E+0002   2.67673339843750E+0002   2.68372955322266E+0002   2.69128631591797E+0002   2.69949401855469E+0002   2.70832489013672E+0002   2.71776336669922E+0002   2.72781372070313E+0002   2.73848449707031E+0002   2.74974517822266E+0002   2.76140991210938E+0002   2.77285034179688E+0002   2.78251800537109E+0002   2.78798004150391E+0002   2.78788024902344E+0002   2.78366424560547E+0002   2.77774841308594E+0002   2.77163604736328E+0002   2.76593536376953E+0002   2.76083740234375E+0002   2.75639251708984E+0002   2.75261505126953E+0002   2.74951110839844E+0002   2.74707092285156E+0002   2.74525787353516E+0002   2.74400268554688E+0002   2.74320983886719E+0002   2.74277252197266E+0002   2.74258575439453E+0002   2.74255920410156E+0002   2.74261871337891E+0002   2.74270721435547E+0002   2.74278320312500E+0002   2.74281646728516E+0002   2.74278625488281E+0002   2.74267944335938E+0002   2.74248809814453E+0002   2.74221038818359E+0002   2.74184783935547E+0002   2.74140838623047E+0002   2.74090393066406E+0002   2.74035308837891E+0002   2.73978149414063E+0002   2.73922088623047E+0002   2.73870880126953E+0002   2.73828704833984E+0002   2.73799652099609E+0002   2.73787475585938E+0002   2.73795074462891E+0002   2.73824279785156E+0002   2.73875885009766E+0002   2.73949493408203E+0002   2.74043701171875E+0002   2.74156280517578E+0002   2.74284454345703E+0002   2.74424743652344E+0002   2.74573333740234E+0002   2.74726257324219E+0002   2.74879394531250E+0002   2.75028442382813E+0002   2.75169372558594E+0002   2.75298950195313E+0002   2.75415252685547E+0002   2.75518493652344E+0002   2.75611267089844E+0002   2.75698883056641E+0002   2.75789276123047E+0002   2.75892700195313E+0002   2.76021545410156E+0002   2.76189697265625E+0002   2.76412109375000E+0002   2.76704498291016E+0002   2.77083221435547E+0002   2.77565185546875E+0002   2.78168548583984E+0002   2.78913421630859E+0002   2.79823547363281E+0002   2.80929290771484E+0002   2.82272583007813E+0002   2.83916992187500E+0002   2.85967529296875E+0002   2.88615081787109E+0002   2.92239715576172E+0002   2.97651885986328E+0002   3.06592407226563E+0002   3.09646728515625E+0002   3.00982543945313E+0002   2.96162780761719E+0002   2.93271118164063E+0002   2.91424346923828E+0002   2.90191802978516E+0002   2.89347259521484E+0002   2.88763671875000E+0002   2.88365112304688E+0002   2.88103302001953E+0002   2.87945800781250E+0002   2.87869964599609E+0002   2.87860229492188E+0002   2.87907562255859E+0002   2.88009887695313E+0002   2.88174407958984E+0002   2.88422363281250E+0002   2.88798583984375E+0002   2.89392425537109E+0002   2.90384490966797E+0002   2.92126190185547E+0002   2.91554656982422E+0002   2.88673095703125E+0002   2.86550354003906E+0002   2.84839538574219E+0002   2.83362487792969E+0002   2.82029541015625E+0002   2.80792388916016E+0002   2.79623352050781E+0002   2.78505462646484E+0002   2.77427856445313E+0002   2.76383392333984E+0002   2.75367218017578E+0002   2.74376098632813E+0002   2.73408020019531E+0002   2.72462036132813E+0002   2.71538665771484E+0002   2.70641479492188E+0002   2.69785491943359E+0002   2.69060028076172E+0002   2.69000000000000E+0002   2.69000000000000E+0002   2.69000000000000E+0002   2.69000000000000E+0002   2.69000000000000E+0002   2.69000000000000E+0002   2.69000000000000E+0002   2.69000000000000E+0002   2.69000000000000E+0002   2.69000000000000E+0002   2.69000000000000E+0002   2.69000000000000E+0002
   2.69000000000000E+0002   2.69000000000000E+0002   2.69000000000000E+0002   2.69000000000000E+0002   2.69000000000000E+0002   2.69000000000000E+0002   2.69153991699219E+0002   2.69477569580078E+0002   2.69820190429688E+0002   2.70158325195313E+0002   2.70479187011719E+0002   2.70770965576172E+0002   2.71020294189453E+0002   2.71211181640625E+0002   2.71324340820313E+0002   2.71336273193359E+0002   2.71218109130859E+0002   2.70934173583984E+0002   2.70439971923828E+0002   2.69679443359375E+0002   2.68580047607422E+0002   2.67043762207031E+0002   2.64928619384766E+0002   2.62008666992188E+0002   2.57883850097656E+0002   2.51768203735352E+0002   2.41967636108398E+0002   2.41479171752930E+0002   2.51539138793945E+0002   2.57823333740234E+0002   2.62078704833984E+0002   2.65096038818359E+0002   2.67242126464844E+0002   2.68663238525391E+0002   2.69346374511719E+0002   2.69102294921875E+0002   2.67719696044922E+0002   2.70332427978516E+0002   2.76001159667969E+0002   2.80714996337891E+0002   2.84902282714844E+0002   2.88939544677734E+0002   2.93128936767578E+0002   2.97801696777344E+0002   3.03445770263672E+0002   3.10945159912109E+0002   3.22132598876953E+0002   3.23256286621094E+0002   3.13034698486328E+0002   3.06675689697266E+0002   3.02337158203125E+0002   2.99165802001953E+0002   2.96732513427734E+0002   2.94800872802734E+0002   2.93228271484375E+0002   2.91920379638672E+0002   2.90808776855469E+0002   2.89838623046875E+0002   2.88960968017578E+0002   2.88128356933594E+0002   2.87292907714844E+0002   2.86407562255859E+0002   2.85430694580078E+0002   2.84333099365234E+0002   2.83107421875000E+0002   2.81783294677734E+0002   2.80460906982422E+0002   2.79342834472656E+0002   2.78604156494141E+0002   2.78190185546875E+0002   2.77975738525391E+0002   2.77929016113281E+0002   2.78089263916016E+0002   2.78528503417969E+0002   2.79333099365234E+0002   2.80571502685547E+0002   2.82164947509766E+0002   2.83477203369141E+0002   2.83003570556641E+0002   2.80270111083984E+0002   2.76761444091797E+0002   2.73526336669922E+0002   2.70824798583984E+0002   2.68648040771484E+0002   2.66934722900391E+0002   2.65623748779297E+0002   2.64662872314453E+0002   2.64007537841797E+0002   2.63618621826172E+0002   2.63460784912109E+0002   2.63501770019531E+0002   2.63712463378906E+0002   2.64066955566406E+0002   2.64542877197266E+0002   2.65120605468750E+0002   2.65780303955078E+0002   2.66493011474609E+0002   2.67211456298828E+0002   2.67900970458984E+0002   2.68583160400391E+0002   2.69293487548828E+0002   2.70047363281250E+0002   2.70847656250000E+0002   2.71693023681641E+0002   2.72579986572266E+0002   2.73501586914063E+0002   2.74443206787109E+0002   2.75373962402344E+0002   2.76233978271484E+0002   2.76926757812500E+0002   2.77344238281250E+0002   2.77436950683594E+0002   2.77257629394531E+0002   2.76914672851563E+0002   2.76503234863281E+0002   2.76082183837891E+0002   2.75682342529297E+0002   2.75319091796875E+0002   2.75000183105469E+0002   2.74729370117188E+0002   2.74507507324219E+0002   2.74332824707031E+0002   2.74200988769531E+0002   2.74105682373047E+0002   2.74039550781250E+0002   2.73994934082031E+0002   2.73964843750000E+0002   2.73943084716797E+0002   2.73924682617188E+0002   2.73905609130859E+0002   2.73882720947266E+0002   2.73853698730469E+0002   2.73816833496094E+0002   2.73770935058594E+0002   2.73715362548828E+0002   2.73649841308594E+0002   2.73574645996094E+0002   2.73490753173828E+0002   2.73399719238281E+0002   2.73304107666016E+0002   2.73207427978516E+0002   2.73114227294922E+0002   2.73029632568359E+0002   2.72958953857422E+0002   2.72906982421875E+0002   2.72877380371094E+0002   2.72872222900391E+0002   2.72892456054688E+0002   2.72937744140625E+0002   2.73006317138672E+0002   2.73095947265625E+0002   2.73204315185547E+0002   2.73328491210938E+0002   2.73465393066406E+0002   2.73612731933594E+0002   2.73768157958984E+0002   2.73928894042969E+0002   2.74091888427734E+0002   2.74254425048828E+0002   2.74414794921875E+0002   2.74572784423828E+0002   2.74730224609375E+0002   2.74891021728516E+0002   2.75061248779297E+0002   2.75249084472656E+0002   2.75464569091797E+0002   2.75719329833984E+0002   2.76026275634766E+0002   2.76399291992188E+0002   2.76853302001953E+0002   2.77404266357422E+0002   2.78069732666016E+0002   2.78869903564453E+0002   2.79829071044922E+0002   2.80978607177734E+0002   2.82361938476563E+0002   2.84043579101563E+0002   2.86125305175781E+0002   2.88775787353516E+0002   2.92273559570313E+0002   2.96989044189453E+0002   3.02575469970703E+0002   3.03946258544922E+0002   2.99714263916016E+0002   2.95788238525391E+0002   2.93053314208984E+0002   2.91180572509766E+0002   2.89876007080078E+0002   2.88952331542969E+0002   2.88293426513672E+0002   2.87825622558594E+0002   2.87500518798828E+0002   2.87285125732422E+0002   2.87156616210938E+0002   2.87099761962891E+0002   2.87105743408203E+0002   2.87172546386719E+0002   2.87306640625000E+0002   2.87526458740234E+0002   2.87868835449219E+0002   2.88399353027344E+0002   2.89209533691406E+0002   2.90183746337891E+0002   2.89639831542969E+0002   2.87579772949219E+0002   2.85689208984375E+0002   2.84086273193359E+0002   2.82680236816406E+0002   2.81404327392578E+0002   2.80217926025391E+0002   2.79096313476563E+0002   2.78023895263672E+0002   2.76990570068359E+0002   2.75989532470703E+0002   2.75016235351563E+0002   2.74067718505859E+0002   2.73142120361328E+0002   2.72238769531250E+0002   2.71358734130859E+0002   2.70507965087891E+0002   2.69710052490234E+0002   2.69071014404297E+0002   2.69000000000000E+0002   2.69000000000000E+0002   2.69000000000000E+0002   2.69000000000000E+0002   2.69000000000000E+0002   2.69000000000000E+0002   2.69000000000000E+0002   2.69000000000000E+0002   2.69000000000000E+0002   2.69000000000000E+0002   2.69000000000000E+0002   2.69000000000000E+0002
   2.69000000000000E+0002   2.69000000000000E+0002   2.69000000000000E+0002   2.69000000000000E+0002   2.69000000000000E+0002   2.69000000000000E+0002   2.69263671875000E+0002   2.69598846435547E+0002   2.69949584960938E+0002   2.70296203613281E+0002   2.70627685546875E+0002   2.70933685302734E+0002   2.71202026367188E+0002   2.71417968750000E+0002   2.71563171386719E+0002   2.71614746093750E+0002   2.71543792724609E+0002   2.71313995361328E+0002   2.70879577636719E+0002   2.70182769775391E+0002   2.69150604248047E+0002   2.67689086914063E+0002   2.65672302246094E+0002   2.62921691894531E+0002   2.59179473876953E+0002   2.54170135498047E+0002   2.48635742187500E+0002   2.48419158935547E+0002   2.53813354492188E+0002   2.58819030761719E+0002   2.62592315673828E+0002   2.65397491455078E+0002   2.67470397949219E+0002   2.68942810058594E+0002   2.69877441406250E+0002   2.70372711181641E+0002   2.71002014160156E+0002   2.73279693603516E+0002   2.77097930908203E+0002   2.81112487792969E+0002   2.84994232177734E+0002   2.88845947265625E+0002   2.92858245849609E+0002   2.97270599365234E+0002   3.02391357421875E+0002   3.08514678955078E+0002   3.14808990478516E+0002   3.15537872314453E+0002   3.10453399658203E+0002   3.05489044189453E+0002   3.01636566162109E+0002   2.98658355712891E+0002   2.96298095703125E+0002   2.94380249023438E+0002   2.92787506103516E+0002   2.91437866210938E+0002   2.90270019531250E+0002   2.89234252929688E+0002   2.88287414550781E+0002   2.87389617919922E+0002   2.86503570556641E+0002   2.85595672607422E+0002   2.84639495849609E+0002   2.83620819091797E+0002   2.82544677734375E+0002   2.81444763183594E+0002   2.80392608642578E+0002   2.79488067626953E+0002   2.78806457519531E+0002   2.78351043701172E+0002   2.78086975097656E+0002   2.77996063232422E+0002   2.78088226318359E+0002   2.78387023925781E+0002   2.78906555175781E+0002   2.79608856201172E+0002   2.80318786621094E+0002   2.80619995117188E+0002   2.79973876953125E+0002   2.78258026123047E+0002   2.75942138671875E+0002   2.73556610107422E+0002   2.71387023925781E+0002   2.69533111572266E+0002   2.68010131835938E+0002   2.66802337646484E+0002   2.65884094238281E+0002   2.65227325439453E+0002   2.64804138183594E+0002   2.64587493896484E+0002   2.64551666259766E+0002   2.64672576904297E+0002   2.64927947998047E+0002   2.65297332763672E+0002   2.65761291503906E+0002   2.66299530029297E+0002   2.66888244628906E+0002   2.67501708984375E+0002   2.68123565673828E+0002   2.68756317138672E+0002   2.69411743164063E+0002   2.70098022460938E+0002   2.70817413330078E+0002   2.71567596435547E+0002   2.72342651367188E+0002   2.73131835937500E+0002   2.73916870117188E+0002   2.74667877197266E+0002   2.75339691162109E+0002   2.75874969482422E+0002   2.76220825195313E+0002   2.76355438232422E+0002   2.76301879882813E+0002   2.76113372802734E+0002   2.75846832275391E+0002   2.75546844482422E+0002   2.75243103027344E+0002   2.74953979492188E+0002   2.74690307617188E+0002   2.74458221435547E+0002   2.74260345458984E+0002   2.74096710205078E+0002   2.73964996337891E+0002   2.73861236572266E+0002   2.73780395507813E+0002   2.73716979980469E+0002   2.73665557861328E+0002   2.73621185302734E+0002   2.73579498291016E+0002   2.73536773681641E+0002   2.73490020751953E+0002   2.73436676025391E+0002   2.73374816894531E+0002   2.73302856445313E+0002   2.73219696044922E+0002   2.73124603271484E+0002   2.73017364501953E+0002   2.72898376464844E+0002   2.72768890380859E+0002   2.72631378173828E+0002   2.72489685058594E+0002   2.72349334716797E+0002   2.72217102050781E+0002   2.72100189208984E+0002   2.72005096435547E+0002   2.71936523437500E+0002   2.71896392822266E+0002   2.71885833740234E+0002   2.71904907226563E+0002   2.71950134277344E+0002   2.72018890380859E+0002   2.72110534667969E+0002   2.72221557617188E+0002   2.72348785400391E+0002   2.72492584228516E+0002   2.72652923583984E+0002   2.72828155517578E+0002   2.73015747070313E+0002   2.73212951660156E+0002   2.73417358398438E+0002   2.73628204345703E+0002   2.73846313476563E+0002   2.74074127197266E+0002   2.74315979003906E+0002   2.74578094482422E+0002   2.74868530273438E+0002   2.75196990966797E+0002   2.75574523925781E+0002   2.76013305664063E+0002   2.76526672363281E+0002   2.77129180908203E+0002   2.77836944580078E+0002   2.78668518066406E+0002   2.79646057128906E+0002   2.80797302246094E+0002   2.82158538818359E+0002   2.83779022216797E+0002   2.85725830078125E+0002   2.88083526611328E+0002   2.90922027587891E+0002   2.94134613037109E+0002   2.96949920654297E+0002   2.97735107421875E+0002   2.96211608886719E+0002   2.93959655761719E+0002   2.91950714111328E+0002   2.90377258300781E+0002   2.89188415527344E+0002   2.88298736572266E+0002   2.87635894775391E+0002   2.87145904541016E+0002   2.86789611816406E+0002   2.86538696289063E+0002   2.86372741699219E+0002   2.86277557373047E+0002   2.86244415283203E+0002   2.86269683837891E+0002   2.86355560302734E+0002   2.86510314941406E+0002   2.86747375488281E+0002   2.87075561523438E+0002   2.87451141357422E+0002   2.87626678466797E+0002   2.87108398437500E+0002   2.85897338867188E+0002   2.84489135742188E+0002   2.83132110595703E+0002   2.81869781494141E+0002   2.80691497802734E+0002   2.79579986572266E+0002   2.78520904541016E+0002   2.77503814697266E+0002   2.76521301269531E+0002   2.75568145751953E+0002   2.74640747070313E+0002   2.73736694335938E+0002   2.72854522705078E+0002   2.71993835449219E+0002   2.71155853271484E+0002   2.70346771240234E+0002   2.69591430664063E+0002   2.69000000000000E+0002   2.69000000000000E+0002   2.69000000000000E+0002   2.69000000000000E+0002   2.69000000000000E+0002   2.69000000000000E+0002   2.69000000000000E+0002   2.69000000000000E+0002   2.69000000000000E+0002   2.69000000000000E+0002   2.69000000000000E+0002   2.69000000000000E+0002   2.69000000000000E+0002
   2.69000000000000E+0002   2.69000000000000E+0002   2.69000000000000E+0002   2.69000000000000E+0002   2.69000000000000E+0002   2.69039886474609E+0002   2.69358947753906E+0002   2.69719970703125E+0002   2.70086791992188E+0002   2.70449890136719E+0002   2.70801635742188E+0002   2.71133605957031E+0002   2.71435607910156E+0002   2.71694763183594E+0002   2.71894714355469E+0002   2.72014434814453E+0002   2.72026733398438E+0002   2.71896545410156E+0002   2.71579071044922E+0002   2.71018188476563E+0002   2.70145996093750E+0002   2.68883636474609E+0002   2.67145416259766E+0002   2.64851409912109E+0002   2.61977325439453E+0002   2.58747222900391E+0002   2.56151397705078E+0002   2.55961135864258E+0002   2.58252380371094E+0002   2.61299438476563E+0002   2.64098846435547E+0002   2.66423797607422E+0002   2.68293121337891E+0002   2.69775299072266E+0002   2.70965087890625E+0002   2.72047882080078E+0002   2.73417388916016E+0002   2.75553558349609E+0002   2.78463134765625E+0002   2.81744232177734E+0002   2.85137298583984E+0002   2.88599517822266E+0002   2.92190826416016E+0002   2.96001129150391E+0002   3.00076538085938E+0002   3.04209320068359E+0002   3.07422363281250E+0002   3.08005462646484E+0002   3.05923034667969E+0002   3.02912384033203E+0002   3.00029479980469E+0002   2.97537109375000E+0002   2.95428253173828E+0002   2.93639465332031E+0002   2.92106719970703E+0002   2.90775451660156E+0002   2.89600097656250E+0002   2.88541503906250E+0002   2.87565155029297E+0002   2.86639709472656E+0002   2.85737182617188E+0002   2.84834136962891E+0002   2.83914123535156E+0002   2.82971313476563E+0002   2.82014312744141E+0002   2.81070251464844E+0002   2.80184387207031E+0002   2.79410217285156E+0002   2.78788269042969E+0002   2.78331359863281E+0002   2.78032562255859E+0002   2.77883026123047E+0002   2.77878967285156E+0002   2.78015136718750E+0002   2.78267944335938E+0002   2.78568695068359E+0002   2.78771331787109E+0002   2.78648742675781E+0002   2.77984741210938E+0002   2.76741241455078E+0002   2.75102172851563E+0002   2.73327728271484E+0002   2.71617309570313E+0002   2.70081726074219E+0002   2.68768737792969E+0002   2.67691040039063E+0002   2.66843811035156E+0002   2.66213714599609E+0002   2.65783355712891E+0002   2.65533691406250E+0002   2.65445159912109E+0002   2.65498535156250E+0002   2.65675109863281E+0002   2.65956970214844E+0002   2.66326599121094E+0002   2.66766174316406E+0002   2.67257507324219E+0002   2.67783843994141E+0002   2.68333923339844E+0002   2.68904541015625E+0002   2.69497497558594E+0002   2.70114746093750E+0002   2.70755706787109E+0002   2.71416534423828E+0002   2.72089904785156E+0002   2.72764099121094E+0002   2.73421569824219E+0002   2.74037597656250E+0002   2.74580413818359E+0002   2.75015289306641E+0002   2.75313720703125E+0002   2.75464630126953E+0002   2.75479492187500E+0002   2.75386749267578E+0002   2.75220886230469E+0002   2.75013214111328E+0002   2.74788055419922E+0002   2.74562591552734E+0002   2.74348327636719E+0002   2.74152374267578E+0002   2.73978607177734E+0002   2.73828338623047E+0002   2.73700836181641E+0002   2.73593780517578E+0002   2.73503814697266E+0002   2.73427062988281E+0002   2.73359344482422E+0002   2.73296722412109E+0002   2.73235412597656E+0002   2.73172149658203E+0002   2.73103942871094E+0002   2.73028289794922E+0002   2.72942962646484E+0002   2.72846069335938E+0002   2.72736053466797E+0002   2.72611633300781E+0002   2.72471984863281E+0002   2.72316741943359E+0002   2.72146545410156E+0002   2.71963409423828E+0002   2.71771453857422E+0002   2.71577697753906E+0002   2.71391387939453E+0002   2.71222656250000E+0002   2.71080963134766E+0002   2.70973388671875E+0002   2.70898529052734E+0002   2.70857360839844E+0002   2.70855346679688E+0002   2.70880279541016E+0002   2.70927490234375E+0002   2.71006256103516E+0002   2.71107086181641E+0002   2.71222473144531E+0002   2.71361846923828E+0002   2.71527832031250E+0002   2.71718933105469E+0002   2.71933135986328E+0002   2.72166503906250E+0002   2.72415100097656E+0002   2.72677490234375E+0002   2.72953491210938E+0002   2.73243804931641E+0002   2.73550903320313E+0002   2.73879089355469E+0002   2.74234741210938E+0002   2.74625793457031E+0002   2.75061676025391E+0002   2.75552947998047E+0002   2.76111206054688E+0002   2.76749176025391E+0002   2.77480895996094E+0002   2.78322082519531E+0002   2.79290771484375E+0002   2.80408020019531E+0002   2.81698547363281E+0002   2.83190399169922E+0002   2.84910827636719E+0002   2.86870971679688E+0002   2.89021728515625E+0002   2.91156433105469E+0002   2.92802856445313E+0002   2.93393127441406E+0002   2.92845581054688E+0002   2.91662719726563E+0002   2.90357055664063E+0002   2.89180236816406E+0002   2.88203002929688E+0002   2.87421081542969E+0002   2.86807861328125E+0002   2.86334259033203E+0002   2.85974670410156E+0002   2.85708282470703E+0002   2.85518890380859E+0002   2.85394226074219E+0002   2.85325500488281E+0002   2.85307220458984E+0002   2.85336212158203E+0002   2.85410125732422E+0002   2.85522552490234E+0002   2.85649688720703E+0002   2.85721862792969E+0002   2.85592498779297E+0002   2.85098785400391E+0002   2.84241088867188E+0002   2.83182891845703E+0002   2.82070709228516E+0002   2.80973297119141E+0002   2.79912200927734E+0002   2.78890106201172E+0002   2.77903961181641E+0002   2.76949493408203E+0002   2.76022949218750E+0002   2.75121215820313E+0002   2.74242065429688E+0002   2.73384002685547E+0002   2.72546081542969E+0002   2.71728118896484E+0002   2.70931182861328E+0002   2.70160491943359E+0002   2.69439819335938E+0002   2.69000000000000E+0002   2.69000000000000E+0002   2.69000000000000E+0002   2.69000000000000E+0002   2.69000000000000E+0002   2.69000000000000E+0002   2.69000000000000E+0002   2.69000000000000E+0002   2.69000000000000E+0002   2.69000000000000E+0002   2.69000000000000E+0002   2.69000000000000E+0002   2.69000000000000E+0002
   2.69000000000000E+0002   2.69000000000000E+0002   2.69000000000000E+0002   2.69000000000000E+0002   2.69000000000000E+0002   2.69114868164063E+0002   2.69464263916016E+0002   2.69843750000000E+0002   2.70229736328125E+0002   2.70615325927734E+0002   2.70995178222656E+0002   2.71363128662109E+0002   2.71711456298828E+0002   2.72029968261719E+0002   2.72305480957031E+0002   2.72520263671875E+0002   2.72650573730469E+0002   2.72664520263672E+0002   2.72519927978516E+0002   2.72163177490234E+0002   2.71530578613281E+0002   2.70555877685547E+0002   2.69186798095703E+0002   2.67416503906250E+0002   2.65341766357422E+0002   2.63264984130859E+0002   2.61777832031250E+0002   2.61514587402344E+0002   2.62523864746094E+0002   2.64246368408203E+0002   2.66135559082031E+0002   2.67917663574219E+0002   2.69509246826172E+0002   2.70921478271484E+0002   2.72226104736328E+0002   2.73562835693359E+0002   2.75139038085938E+0002   2.77139556884766E+0002   2.79581115722656E+0002   2.82326049804688E+0002   2.85232727050781E+0002   2.88229064941406E+0002   2.91294097900391E+0002   2.94409851074219E+0002   2.97489562988281E+0002   3.00263092041016E+0002   3.02185577392578E+0002   3.02680145263672E+0002   3.01747039794922E+0002   2.99982727050781E+0002   2.97971374511719E+0002   2.96019653320313E+0002   2.94237274169922E+0002   2.92643981933594E+0002   2.91225860595703E+0002   2.89958190917969E+0002   2.88814056396484E+0002   2.87767089843750E+0002   2.86792510986328E+0002   2.85867614746094E+0002   2.84972442626953E+0002   2.84091247558594E+0002   2.83214141845703E+0002   2.82339294433594E+0002   2.81475097656250E+0002   2.80640808105469E+0002   2.79864807128906E+0002   2.79177917480469E+0002   2.78604309082031E+0002   2.78155334472656E+0002   2.77830871582031E+0002   2.77624664306641E+0002   2.77526519775391E+0002   2.77518341064453E+0002   2.77564880371094E+0002   2.77601776123047E+0002   2.77528503417969E+0002   2.77222320556641E+0002   2.76586151123047E+0002   2.75607482910156E+0002   2.74371643066406E+0002   2.73013946533203E+0002   2.71660797119141E+0002   2.70401733398438E+0002   2.69289123535156E+0002   2.68347930908203E+0002   2.67585845947266E+0002   2.67000061035156E+0002   2.66581787109375E+0002   2.66318756103516E+0002   2.66196899414063E+0002   2.66201354980469E+0002   2.66317016601563E+0002   2.66528747558594E+0002   2.66821655273438E+0002   2.67180877685547E+0002   2.67592163085938E+0002   2.68042968750000E+0002   2.68523986816406E+0002   2.69029937744141E+0002   2.69558288574219E+0002   2.70107147216797E+0002   2.70673492431641E+0002   2.71252227783203E+0002   2.71835388183594E+0002   2.72411804199219E+0002   2.72966247558594E+0002   2.73479583740234E+0002   2.73929595947266E+0002   2.74294433593750E+0002   2.74557434082031E+0002   2.74712249755859E+0002   2.74765075683594E+0002   2.74732299804688E+0002   2.74635345458984E+0002   2.74495819091797E+0002   2.74332305908203E+0002   2.74159332275391E+0002   2.73987487792969E+0002   2.73823913574219E+0002   2.73673065185547E+0002   2.73536987304688E+0002   2.73416046142578E+0002   2.73309112548828E+0002   2.73214050292969E+0002   2.73128112792969E+0002   2.73048156738281E+0002   2.72970947265625E+0002   2.72893402099609E+0002   2.72812469482422E+0002   2.72725402832031E+0002   2.72629608154297E+0002   2.72522705078125E+0002   2.72402465820313E+0002   2.72266876220703E+0002   2.72114044189453E+0002   2.71942352294922E+0002   2.71750518798828E+0002   2.71537994384766E+0002   2.71305755615234E+0002   2.71057830810547E+0002   2.70803314208984E+0002   2.70556274414063E+0002   2.70331756591797E+0002   2.70141479492188E+0002   2.70003692626953E+0002   2.69902252197266E+0002   2.69825866699219E+0002   2.69819580078125E+0002   2.69832183837891E+0002   2.69843292236328E+0002   2.69917816162109E+0002   2.70015716552734E+0002   2.70100799560547E+0002   2.70231201171875E+0002   2.70399414062500E+0002   2.70602905273438E+0002   2.70843078613281E+0002   2.71113464355469E+0002   2.71404083251953E+0002   2.71716400146484E+0002   2.72048431396484E+0002   2.72398010253906E+0002   2.72765472412109E+0002   2.73153198242188E+0002   2.73565856933594E+0002   2.74010009765625E+0002   2.74493652343750E+0002   2.75025787353516E+0002   2.75616241455078E+0002   2.76275756835938E+0002   2.77015747070313E+0002   2.77848632812500E+0002   2.78787536621094E+0002   2.79846038818359E+0002   2.81037170410156E+0002   2.82370483398438E+0002   2.83844909667969E+0002   2.85433746337891E+0002   2.87057220458984E+0002   2.88548858642578E+0002   2.89656677246094E+0002   2.90151550292969E+0002   2.90001800537109E+0002   2.89398254394531E+0002   2.88593383789063E+0002   2.87769226074219E+0002   2.87018371582031E+0002   2.86374298095703E+0002   2.85840850830078E+0002   2.85409362792969E+0002   2.85067199707031E+0002   2.84801605224609E+0002   2.84600952148438E+0002   2.84455413818359E+0002   2.84356658935547E+0002   2.84297576904297E+0002   2.84271148681641E+0002   2.84268157958984E+0002   2.84272674560547E+0002   2.84254119873047E+0002   2.84157745361328E+0002   2.83906738281250E+0002   2.83437133789063E+0002   2.82748870849609E+0002   2.81905792236328E+0002   2.80984039306641E+0002   2.80036956787109E+0002   2.79092834472656E+0002   2.78164154052734E+0002   2.77255401611328E+0002   2.76367462158203E+0002   2.75499877929688E+0002   2.74651824951172E+0002   2.73822509765625E+0002   2.73011383056641E+0002   2.72218261718750E+0002   2.71443481445313E+0002   2.70688507080078E+0002   2.69959350585938E+0002   2.69290191650391E+0002   2.69000000000000E+0002   2.69000000000000E+0002   2.69000000000000E+0002   2.69000000000000E+0002   2.69000000000000E+0002   2.69000000000000E+0002   2.69000000000000E+0002   2.69000000000000E+0002   2.69000000000000E+0002   2.69000000000000E+0002   2.69000000000000E+0002   2.69000000000000E+0002   2.69000000000000E+0002
   2.69000000000000E+0002   2.69000000000000E+0002   2.69000000000000E+0002   2.69000000000000E+0002   2.69000000000000E+0002   2.69204528808594E+0002   2.69571807861328E+0002   2.69967681884766E+0002   2.70374542236328E+0002   2.70786621093750E+0002   2.71200378417969E+0002   2.71611968994141E+0002   2.72016540527344E+0002   2.72407531738281E+0002   2.72775970458984E+0002   2.73109191894531E+0002   2.73389007568359E+0002   2.73588958740234E+0002   2.73671142578125E+0002   2.73583190917969E+0002   2.73259277343750E+0002   2.72630035400391E+0002   2.71648284912109E+0002   2.70330139160156E+0002   2.68799194335938E+0002   2.67312438964844E+0002   2.66224304199219E+0002   2.65835418701172E+0002   2.66199401855469E+0002   2.67117187500000E+0002   2.68321777343750E+0002   2.69619689941406E+0002   2.70915771484375E+0002   2.72190246582031E+0002   2.73478729248047E+0002   2.74860473632813E+0002   2.76437500000000E+0002   2.78288208007813E+0002   2.80419525146484E+0002   2.82768829345703E+0002   2.85250183105469E+0002   2.87790771484375E+0002   2.90333404541016E+0002   2.92813568115234E+0002   2.95119781494141E+0002   2.97052886962891E+0002   2.98336364746094E+0002   2.98745574951172E+0002   2.98288085937500E+0002   2.97208496093750E+0002   2.95809814453125E+0002   2.94315948486328E+0002   2.92851348876953E+0002   2.91471618652344E+0002   2.90194244384766E+0002   2.89017547607422E+0002   2.87931091308594E+0002   2.86920593261719E+0002   2.85970642089844E+0002   2.85066406250000E+0002   2.84194763183594E+0002   2.83345672607422E+0002   2.82513610839844E+0002   2.81698699951172E+0002   2.80907745361328E+0002   2.80154083251953E+0002   2.79455505371094E+0002   2.78830688476563E+0002   2.78294372558594E+0002   2.77854309082031E+0002   2.77510681152344E+0002   2.77257202148438E+0002   2.77081207275391E+0002   2.76961425781250E+0002   2.76863769531250E+0002   2.76737670898438E+0002   2.76517395019531E+0002   2.76134429931641E+0002   2.75541046142578E+0002   2.74733520507813E+0002   2.73757049560547E+0002   2.72687042236328E+0002   2.71603088378906E+0002   2.70570617675781E+0002   2.69635192871094E+0002   2.68824035644531E+0002   2.68150573730469E+0002   2.67618377685547E+0002   2.67224700927734E+0002   2.66962493896484E+0002   2.66822326660156E+0002   2.66793029785156E+0002   2.66862823486328E+0002   2.67019378662109E+0002   2.67250366210938E+0002   2.67543640136719E+0002   2.67887725830078E+0002   2.68272399902344E+0002   2.68689483642578E+0002   2.69132934570313E+0002   2.69598327636719E+0002   2.70081665039063E+0002   2.70578491210938E+0002   2.71082855224609E+0002   2.71586975097656E+0002   2.72080718994141E+0002   2.72551513671875E+0002   2.72984741210938E+0002   2.73364746093750E+0002   2.73677093505859E+0002   2.73911346435547E+0002   2.74063476562500E+0002   2.74137023925781E+0002   2.74141876220703E+0002   2.74091827392578E+0002   2.74001708984375E+0002   2.73885345458984E+0002   2.73754364013672E+0002   2.73617858886719E+0002   2.73482391357422E+0002   2.73352386474609E+0002   2.73230316162109E+0002   2.73117095947266E+0002   2.73012451171875E+0002   2.72915100097656E+0002   2.72823150634766E+0002   2.72734161376953E+0002   2.72645599365234E+0002   2.72554779052734E+0002   2.72459014892578E+0002   2.72355621337891E+0002   2.72242065429688E+0002   2.72115783691406E+0002   2.71974243164063E+0002   2.71815002441406E+0002   2.71635467529297E+0002   2.71433166503906E+0002   2.71205688476563E+0002   2.70950927734375E+0002   2.70667907714844E+0002   2.70359680175781E+0002   2.70039184570313E+0002   2.69730987548828E+0002   2.69469085693359E+0002   2.69252319335938E+0002   2.69104980468750E+0002   2.69000000000000E+0002   2.69000000000000E+0002   2.69000000000000E+0002   2.69000000000000E+0002   2.69000000000000E+0002   2.69000000000000E+0002   2.69122833251953E+0002   2.69104248046875E+0002   2.69194061279297E+0002   2.69338043212891E+0002   2.69525634765625E+0002   2.69772674560547E+0002   2.70075927734375E+0002   2.70389038085938E+0002   2.70747894287109E+0002   2.71132446289063E+0002   2.71537811279297E+0002   2.71961883544922E+0002   2.72403472900391E+0002   2.72865997314453E+0002   2.73355041503906E+0002   2.73877349853516E+0002   2.74440429687500E+0002   2.75052429199219E+0002   2.75721923828125E+0002   2.76457916259766E+0002   2.77269287109375E+0002   2.78164611816406E+0002   2.79150878906250E+0002   2.80231964111328E+0002   2.81405151367188E+0002   2.82654815673828E+0002   2.83942993164063E+0002   2.85197204589844E+0002   2.86304473876953E+0002   2.87128753662109E+0002   2.87564331054688E+0002   2.87596191406250E+0002   2.87307861328125E+0002   2.86828369140625E+0002   2.86273712158203E+0002   2.85721801757813E+0002   2.85214965820313E+0002   2.84771331787109E+0002   2.84395141601563E+0002   2.84083465576172E+0002   2.83830230712891E+0002   2.83628204345703E+0002   2.83469970703125E+0002   2.83348114013672E+0002   2.83254943847656E+0002   2.83181518554688E+0002   2.83115905761719E+0002   2.83040435791016E+0002   2.82928344726563E+0002   2.82742553710938E+0002   2.82441619873047E+0002   2.81996093750000E+0002   2.81405761718750E+0002   2.80699249267578E+0002   2.79917053222656E+0002   2.79094696044922E+0002   2.78256683349609E+0002   2.77417724609375E+0002   2.76585784912109E+0002   2.75764953613281E+0002   2.74957305908203E+0002   2.74163757324219E+0002   2.73384826660156E+0002   2.72620971679688E+0002   2.71872802734375E+0002   2.71141693115234E+0002   2.70430877685547E+0002   2.69749298095703E+0002   2.69140808105469E+0002   2.69000000000000E+0002   2.69000000000000E+0002   2.69000000000000E+0002   2.69000000000000E+0002   2.69000000000000E+0002   2.69000000000000E+0002   2.69000000000000E+0002   2.69000000000000E+0002   2.69000000000000E+0002   2.69000000000000E+0002   2.69000000000000E+0002   2.69000000000000E+0002   2.69000000000000E+0002
   2.69000000000000E+0002   2.69000000000000E+0002   2.69000000000000E+0002   2.69000000000000E+0002   2.69000000000000E+0002   2.69289245605469E+0002   2.69671783447266E+0002   2.70085662841797E+0002   2.70515258789063E+0002   2.70956481933594E+0002   2.71407684326172E+0002   2.71867614746094E+0002   2.72334808349609E+0002   2.72807006835938E+0002   2.73280731201172E+0002   2.73750183105469E+0002   2.74205352783203E+0002   2.74628662109375E+0002   2.74989685058594E+0002   2.75237762451172E+0002   2.75295837402344E+0002   2.75066192626953E+0002   2.74464447021484E+0002   2.73483062744141E+0002   2.72242553710938E+0002   2.70977569580078E+0002   2.69958496093750E+0002   2.69389739990234E+0002   2.69336273193359E+0002   2.69728973388672E+0002   2.70436584472656E+0002   2.71337585449219E+0002   2.72353790283203E+0002   2.73453857421875E+0002   2.74645721435547E+0002   2.75964813232422E+0002   2.77456390380859E+0002   2.79150634765625E+0002   2.81041778564453E+0002   2.83085235595703E+0002   2.85212463378906E+0002   2.87349395751953E+0002   2.89425933837891E+0002   2.91371124267578E+0002   2.93095184326172E+0002   2.94475280761719E+0002   2.95372283935547E+0002   2.95689453125000E+0002   2.95435089111328E+0002   2.94724853515625E+0002   2.93721221923828E+0002   2.92570098876953E+0002   2.91374053955078E+0002   2.90193847656250E+0002   2.89060485839844E+0002   2.87986114501953E+0002   2.86972015380859E+0002   2.86013610839844E+0002   2.85103393554688E+0002   2.84233123779297E+0002   2.83395233154297E+0002   2.82584075927734E+0002   2.81797058105469E+0002   2.81035247802734E+0002   2.80304046630859E+0002   2.79612487792969E+0002   2.78971954345703E+0002   2.78393829345703E+0002   2.77887054443359E+0002   2.77455932617188E+0002   2.77099456787109E+0002   2.76810882568359E+0002   2.76577484130859E+0002   2.76379333496094E+0002   2.76187927246094E+0002   2.75966094970703E+0002   2.75671203613281E+0002   2.75263275146484E+0002   2.74717163085938E+0002   2.74032409667969E+0002   2.73235351562500E+0002   2.72370941162109E+0002   2.71490112304688E+0002   2.70639251708984E+0002   2.69854583740234E+0002   2.69160888671875E+0002   2.68572967529297E+0002   2.68097564697266E+0002   2.67735656738281E+0002   2.67484039306641E+0002   2.67336669921875E+0002   2.67285614013672E+0002   2.67321838378906E+0002   2.67435577392578E+0002   2.67616882324219E+0002   2.67855834960938E+0002   2.68142974853516E+0002   2.68469757080078E+0002   2.68828826904297E+0002   2.69214080810547E+0002   2.69620269775391E+0002   2.70042510986328E+0002   2.70475555419922E+0002   2.70913360595703E+0002   2.71348510742188E+0002   2.71772186279297E+0002   2.72174163818359E+0002   2.72543243408203E+0002   2.72868133544922E+0002   2.73138916015625E+0002   2.73348602294922E+0002   2.73494384765625E+0002   2.73578277587891E+0002   2.73606506347656E+0002   2.73588134765625E+0002   2.73533447265625E+0002   2.73452575683594E+0002   2.73354522705078E+0002   2.73246826171875E+0002   2.73135101318359E+0002   2.73023498535156E+0002   2.72914520263672E+0002   2.72809417724609E+0002   2.72708404541016E+0002   2.72610748291016E+0002   2.72515136718750E+0002   2.72419769287109E+0002   2.72322540283203E+0002   2.72221130371094E+0002   2.72113128662109E+0002   2.71996032714844E+0002   2.71867248535156E+0002   2.71724121093750E+0002   2.71563812255859E+0002   2.71383422851563E+0002   2.71179840087891E+0002   2.70949707031250E+0002   2.70689636230469E+0002   2.70396270751953E+0002   2.70067047119141E+0002   2.69702880859375E+0002   2.69333435058594E+0002   2.69020446777344E+0002   2.69000000000000E+0002   2.69000000000000E+0002   2.69000000000000E+0002   2.69000000000000E+0002   2.69000000000000E+0002   2.69000000000000E+0002   2.69000000000000E+0002   2.69000000000000E+0002   2.69000000000000E+0002   2.69000000000000E+0002   2.69000000000000E+0002   2.69000000000000E+0002   2.69000000000000E+0002   2.69000000000000E+0002   2.69000000000000E+0002   2.69187103271484E+0002   2.69407714843750E+0002   2.69808013916016E+0002   2.70216735839844E+0002   2.70671234130859E+0002   2.71146697998047E+0002   2.71635559082031E+0002   2.72140838623047E+0002   2.72667388916016E+0002   2.73220581054688E+0002   2.73806365966797E+0002   2.74431152343750E+0002   2.75101654052734E+0002   2.75824554443359E+0002   2.76605865478516E+0002   2.77450195312500E+0002   2.78359832763672E+0002   2.79332641601563E+0002   2.80359436035156E+0002   2.81419891357422E+0002   2.82477539062500E+0002   2.83476165771484E+0002   2.84342254638672E+0002   2.84998901367188E+0002   2.85391723632813E+0002   2.85512390136719E+0002   2.85401855468750E+0002   2.85129913330078E+0002   2.84768737792969E+0002   2.84375976562500E+0002   2.83990112304688E+0002   2.83633239746094E+0002   2.83315887451172E+0002   2.83041107177734E+0002   2.82807617187500E+0002   2.82611694335938E+0002   2.82448150634766E+0002   2.82310729980469E+0002   2.82192077636719E+0002   2.82083068847656E+0002   2.81971801757813E+0002   2.81842437744141E+0002   2.81674255371094E+0002   2.81442718505859E+0002   2.81124084472656E+0002   2.80702972412109E+0002   2.80178894042969E+0002   2.79566284179688E+0002   2.78887756347656E+0002   2.78166198730469E+0002   2.77420379638672E+0002   2.76663604736328E+0002   2.75904693603516E+0002   2.75149169921875E+0002   2.74400573730469E+0002   2.73661071777344E+0002   2.72932220458984E+0002   2.72215240478516E+0002   2.71511505126953E+0002   2.70823455810547E+0002   2.70157714843750E+0002   2.69538299560547E+0002   2.69000000000000E+0002   2.69000000000000E+0002   2.69000000000000E+0002   2.69000000000000E+0002   2.69000000000000E+0002   2.69000000000000E+0002   2.69000000000000E+0002   2.69000000000000E+0002   2.69000000000000E+0002   2.69000000000000E+0002   2.69000000000000E+0002   2.69000000000000E+0002   2.69000000000000E+0002   2.69000000000000E+0002
   2.69000000000000E+0002   2.69000000000000E+0002   2.69000000000000E+0002   2.69000000000000E+0002   2.69000000000000E+0002   2.69346740722656E+0002   2.69756988525391E+0002   2.70191986083984E+0002   2.70645416259766E+0002   2.71116546630859E+0002   2.71606201171875E+0002   2.72115936279297E+0002   2.72647857666016E+0002   2.73204589843750E+0002   2.73789123535156E+0002   2.74404266357422E+0002   2.75051361083984E+0002   2.75727050781250E+0002   2.76415954589844E+0002   2.77076538085938E+0002   2.77618103027344E+0002   2.77882324218750E+0002   2.77677490234375E+0002   2.76911407470703E+0002   2.75716125488281E+0002   2.74388702392578E+0002   2.73223754882813E+0002   2.72411865234375E+0002   2.72022705078125E+0002   2.72032196044922E+0002   2.72367553710938E+0002   2.72948974609375E+0002   2.73714904785156E+0002   2.74630950927734E+0002   2.75688171386719E+0002   2.76895507812500E+0002   2.78267730712891E+0002   2.79810760498047E+0002   2.81508789062500E+0002   2.83317474365234E+0002   2.85165649414063E+0002   2.86967712402344E+0002   2.88645355224609E+0002   2.90141357421875E+0002   2.91406799316406E+0002   2.92381683349609E+0002   2.92999786376953E+0002   2.93217102050781E+0002   2.93039733886719E+0002   2.92527343750000E+0002   2.91770477294922E+0002   2.90861450195313E+0002   2.89875701904297E+0002   2.88866180419922E+0002   2.87865966796875E+0002   2.86893432617188E+0002   2.85956848144531E+0002   2.85058288574219E+0002   2.84196289062500E+0002   2.83367797851563E+0002   2.82569488525391E+0002   2.81799041748047E+0002   2.81055938720703E+0002   2.80341918945313E+0002   2.79661163330078E+0002   2.79019927978516E+0002   2.78425537109375E+0002   2.77884948730469E+0002   2.77403167724609E+0002   2.76982055664063E+0002   2.76619323730469E+0002   2.76308227539063E+0002   2.76037048339844E+0002   2.75788879394531E+0002   2.75541320800781E+0002   2.75267761230469E+0002   2.74940155029297E+0002   2.74534332275391E+0002   2.74036193847656E+0002   2.73446502685547E+0002   2.72781738281250E+0002   2.72070129394531E+0002   2.71345245361328E+0002   2.70639770507813E+0002   2.69981292724609E+0002   2.69390686035156E+0002   2.68881805419922E+0002   2.68462554931641E+0002   2.68135864257813E+0002   2.67901031494141E+0002   2.67754486083984E+0002   2.67690826416016E+0002   2.67703277587891E+0002   2.67784271240234E+0002   2.67925842285156E+0002   2.68119964599609E+0002   2.68358764648438E+0002   2.68635040283203E+0002   2.68942169189453E+0002   2.69274322509766E+0002   2.69626098632813E+0002   2.69992340087891E+0002   2.70367706298828E+0002   2.70746246337891E+0002   2.71121276855469E+0002   2.71485198974609E+0002   2.71829711914063E+0002   2.72146148681641E+0002   2.72426147460938E+0002   2.72662597656250E+0002   2.72850524902344E+0002   2.72987884521484E+0002   2.73075683593750E+0002   2.73117950439453E+0002   2.73120697021484E+0002   2.73091156005859E+0002   2.73036651611328E+0002   2.72964111328125E+0002   2.72879455566406E+0002   2.72787506103516E+0002   2.72691772460938E+0002   2.72594665527344E+0002   2.72497558593750E+0002   2.72400848388672E+0002   2.72304260253906E+0002   2.72206817626953E+0002   2.72107177734375E+0002   2.72003601074219E+0002   2.71894073486328E+0002   2.71776367187500E+0002   2.71648132324219E+0002   2.71506774902344E+0002   2.71349578857422E+0002   2.71173492431641E+0002   2.70975189208984E+0002   2.70751098632813E+0002   2.70497344970703E+0002   2.70210449218750E+0002   2.69887908935547E+0002   2.69532196044922E+0002   2.69161865234375E+0002   2.69000000000000E+0002   2.69000000000000E+0002   2.69000000000000E+0002   2.69000000000000E+0002   2.69000000000000E+0002   2.69000000000000E+0002   2.69000000000000E+0002   2.69000000000000E+0002   2.69000000000000E+0002   2.69000000000000E+0002   2.69000000000000E+0002   2.69000000000000E+0002   2.69000000000000E+0002   2.69000000000000E+0002   2.69000000000000E+0002   2.69000000000000E+0002   2.69000000000000E+0002   2.69000000000000E+0002   2.69000000000000E+0002   2.69000000000000E+0002   2.69343261718750E+0002   2.69833190917969E+0002   2.70335662841797E+0002   2.70858886718750E+0002   2.71397613525391E+0002   2.71954528808594E+0002   2.72531951904297E+0002   2.73133575439453E+0002   2.73764221191406E+0002   2.74428955078125E+0002   2.75132629394531E+0002   2.75878936767578E+0002   2.76669860839844E+0002   2.77504455566406E+0002   2.78377441406250E+0002   2.79277343750000E+0002   2.80184173583984E+0002   2.81067382812500E+0002   2.81885955810547E+0002   2.82591857910156E+0002   2.83139495849609E+0002   2.83498321533203E+0002   2.83663360595703E+0002   2.83656372070313E+0002   2.83517364501953E+0002   2.83291778564453E+0002   2.83020385742188E+0002   2.82734313964844E+0002   2.82454467773438E+0002   2.82193359375000E+0002   2.81957031250000E+0002   2.81747222900391E+0002   2.81562652587891E+0002   2.81399993896484E+0002   2.81254333496094E+0002   2.81119140625000E+0002   2.80986175537109E+0002   2.80844909667969E+0002   2.80682373046875E+0002   2.80483215332031E+0002   2.80231018066406E+0002   2.79911224365234E+0002   2.79514892578125E+0002   2.79041534423828E+0002   2.78498962402344E+0002   2.77900482177734E+0002   2.77261016845703E+0002   2.76594238281250E+0002   2.75911102294922E+0002   2.75219818115234E+0002   2.74526306152344E+0002   2.73834625244141E+0002   2.73147766113281E+0002   2.72467895507813E+0002   2.71796783447266E+0002   2.71136444091797E+0002   2.70489929199219E+0002   2.69865386962891E+0002   2.69290802001953E+0002   2.69000000000000E+0002   2.69000000000000E+0002   2.69000000000000E+0002   2.69000000000000E+0002   2.69000000000000E+0002   2.69000000000000E+0002   2.69000000000000E+0002   2.69000000000000E+0002   2.69000000000000E+0002   2.69000000000000E+0002   2.69000000000000E+0002   2.69000000000000E+0002   2.69000000000000E+0002   2.69000000000000E+0002
   2.69000000000000E+0002   2.69000000000000E+0002   2.69000000000000E+0002   2.69000000000000E+0002   2.69038696289063E+0002   2.69401763916016E+0002   2.69828826904297E+0002   2.70282623291016E+0002   2.70758666992188E+0002   2.71258361816406E+0002   2.71784759521484E+0002   2.72342132568359E+0002   2.72936187744141E+0002   2.73574401855469E+0002   2.74266662597656E+0002   2.75025634765625E+0002   2.75866882324219E+0002   2.76807617187500E+0002   2.77860809326172E+0002   2.79017120361328E+0002   2.80197204589844E+0002   2.81160949707031E+0002   2.81466094970703E+0002   2.80773254394531E+0002   2.79303253173828E+0002   2.77612030029297E+0002   2.76114074707031E+0002   2.74996185302734E+0002   2.74303680419922E+0002   2.74009765625000E+0002   2.74056488037109E+0002   2.74380828857422E+0002   2.74930450439453E+0002   2.75670135498047E+0002   2.76581817626953E+0002   2.77660125732422E+0002   2.78904754638672E+0002   2.80311096191406E+0002   2.81859985351563E+0002   2.83505859375000E+0002   2.85163360595703E+0002   2.86710845947266E+0002   2.88044281005859E+0002   2.89136901855469E+0002   2.90005218505859E+0002   2.90646728515625E+0002   2.91035278320313E+0002   2.91147277832031E+0002   2.90983245849609E+0002   2.90573272705078E+0002   2.89968139648438E+0002   2.89225433349609E+0002   2.88397705078125E+0002   2.87526672363281E+0002   2.86642181396484E+0002   2.85763763427734E+0002   2.84903045654297E+0002   2.84066162109375E+0002   2.83255737304688E+0002   2.82472412109375E+0002   2.81716156005859E+0002   2.80987091064453E+0002   2.80286163330078E+0002   2.79615631103516E+0002   2.78978942871094E+0002   2.78380493164063E+0002   2.77825012207031E+0002   2.77316680908203E+0002   2.76857971191406E+0002   2.76449005126953E+0002   2.76086730957031E+0002   2.75764709472656E+0002   2.75472747802734E+0002   2.75196990966797E+0002   2.74920410156250E+0002   2.74623992919922E+0002   2.74289001464844E+0002   2.73900238037109E+0002   2.73449371337891E+0002   2.72937622070313E+0002   2.72375762939453E+0002   2.71782348632813E+0002   2.71180053710938E+0002   2.70592041015625E+0002   2.70039001464844E+0002   2.69537719726563E+0002   2.69100250244141E+0002   2.68734344482422E+0002   2.68443817138672E+0002   2.68229370117188E+0002   2.68089202880859E+0002   2.68019744873047E+0002   2.68016082763672E+0002   2.68072357177734E+0002   2.68182312011719E+0002   2.68339447021484E+0002   2.68537261962891E+0002   2.68769592285156E+0002   2.69030609130859E+0002   2.69314941406250E+0002   2.69617401123047E+0002   2.69932983398438E+0002   2.70256530761719E+0002   2.70582550048828E+0002   2.70905029296875E+0002   2.71217559814453E+0002   2.71513366699219E+0002   2.71785644531250E+0002   2.72028076171875E+0002   2.72235290527344E+0002   2.72403625488281E+0002   2.72531372070313E+0002   2.72619018554688E+0002   2.72669067382813E+0002   2.72685638427734E+0002   2.72673706054688E+0002   2.72638610839844E+0002   2.72585571289063E+0002   2.72519226074219E+0002   2.72443450927734E+0002   2.72361236572266E+0002   2.72274688720703E+0002   2.72185150146484E+0002   2.72093109130859E+0002   2.71998504638672E+0002   2.71900665283203E+0002   2.71798522949219E+0002   2.71690582275391E+0002   2.71575134277344E+0002   2.71450134277344E+0002   2.71313293457031E+0002   2.71162170410156E+0002   2.70993896484375E+0002   2.70805389404297E+0002   2.70593078613281E+0002   2.70353057861328E+0002   2.70081390380859E+0002   2.69775909423828E+0002   2.69444763183594E+0002   2.69103271484375E+0002   2.69000000000000E+0002   2.69000000000000E+0002   2.69000000000000E+0002   2.69000000000000E+0002   2.69000000000000E+0002   2.69000000000000E+0002   2.69000000000000E+0002   2.69000000000000E+0002   2.69000000000000E+0002   2.69000000000000E+0002   2.69000000000000E+0002   2.69000000000000E+0002   2.69000000000000E+0002   2.69000000000000E+0002   2.69000000000000E+0002   2.69000000000000E+0002   2.69000000000000E+0002   2.69000000000000E+0002   2.69000000000000E+0002   2.69000000000000E+0002   2.69000000000000E+0002   2.69000000000000E+0002   2.69136047363281E+0002   2.69569641113281E+0002   2.70090423583984E+0002   2.70646026611328E+0002   2.71225585937500E+0002   2.71820922851563E+0002   2.72432495117188E+0002   2.73063385009766E+0002   2.73717315673828E+0002   2.74397796630859E+0002   2.75106994628906E+0002   2.75845153808594E+0002   2.76609619140625E+0002   2.77393890380859E+0002   2.78186553955078E+0002   2.78970062255859E+0002   2.79720520019531E+0002   2.80408386230469E+0002   2.81001983642578E+0002   2.81472991943359E+0002   2.81803070068359E+0002   2.81989074707031E+0002   2.82043457031250E+0002   2.81990295410156E+0002   2.81858886718750E+0002   2.81677734375000E+0002   2.81470794677734E+0002   2.81255950927734E+0002   2.81045318603516E+0002   2.80845977783203E+0002   2.80661224365234E+0002   2.80491424560547E+0002   2.80334625244141E+0002   2.80187133789063E+0002   2.80043640136719E+0002   2.79897064208984E+0002   2.79738830566406E+0002   2.79558715820313E+0002   2.79345428466797E+0002   2.79087738037109E+0002   2.78776214599609E+0002   2.78405212402344E+0002   2.77974212646484E+0002   2.77487701416016E+0002   2.76953887939453E+0002   2.76382690429688E+0002   2.75783935546875E+0002   2.75166320800781E+0002   2.74536956787109E+0002   2.73901367187500E+0002   2.73263793945313E+0002   2.72627471923828E+0002   2.71994995117188E+0002   2.71368591308594E+0002   2.70750701904297E+0002   2.70145721435547E+0002   2.69566223144531E+0002   2.69068878173828E+0002   2.69000000000000E+0002   2.69000000000000E+0002   2.69000000000000E+0002   2.69000000000000E+0002   2.69000000000000E+0002   2.69000000000000E+0002   2.69000000000000E+0002   2.69000000000000E+0002   2.69000000000000E+0002   2.69000000000000E+0002   2.69000000000000E+0002   2.69000000000000E+0002   2.69000000000000E+0002   2.69000000000000E+0002
   2.69000000000000E+0002   2.69000000000000E+0002   2.69000000000000E+0002   2.69000000000000E+0002   2.69064971923828E+0002   2.69445648193359E+0002   2.69884826660156E+0002   2.70353546142578E+0002   2.70848999023438E+0002   2.71373779296875E+0002   2.71932586669922E+0002   2.72531982421875E+0002   2.73180725097656E+0002   2.73890686035156E+0002   2.74678039550781E+0002   2.75564971923828E+0002   2.76582183837891E+0002   2.77771667480469E+0002   2.79188690185547E+0002   2.80895050048828E+0002   2.82910522460938E+0002   2.85007537841797E+0002   2.86230529785156E+0002   2.85349609375000E+0002   2.83012725830078E+0002   2.80581085205078E+0002   2.78596038818359E+0002   2.77142395019531E+0002   2.76181121826172E+0002   2.75646301269531E+0002   2.75469848632813E+0002   2.75590576171875E+0002   2.75958984375000E+0002   2.76539520263672E+0002   2.77309783935547E+0002   2.78257781982422E+0002   2.79377563476563E+0002   2.80663940429688E+0002   2.82105407714844E+0002   2.83668823242188E+0002   2.85259704589844E+0002   2.86666137695313E+0002   2.87675842285156E+0002   2.88343078613281E+0002   2.88822570800781E+0002   2.89164123535156E+0002   2.89351074218750E+0002   2.89358245849609E+0002   2.89175994873047E+0002   2.88815063476563E+0002   2.88302246093750E+0002   2.87672393798828E+0002   2.86960876464844E+0002   2.86198883056641E+0002   2.85411010742188E+0002   2.84615509033203E+0002   2.83824859619141E+0002   2.83047271728516E+0002   2.82287902832031E+0002   2.81549987792969E+0002   2.80835754394531E+0002   2.80147155761719E+0002   2.79486267089844E+0002   2.78855712890625E+0002   2.78258514404297E+0002   2.77697937011719E+0002   2.77177124023438E+0002   2.76698333740234E+0002   2.76262512207031E+0002   2.75868652343750E+0002   2.75513336181641E+0002   2.75190551757813E+0002   2.74891632080078E+0002   2.74605529785156E+0002   2.74319366455078E+0002   2.74019378662109E+0002   2.73692840576172E+0002   2.73329772949219E+0002   2.72925170898438E+0002   2.72480133056641E+0002   2.72002075195313E+0002   2.71503509521484E+0002   2.71000183105469E+0002   2.70508575439453E+0002   2.70044189453125E+0002   2.69620147705078E+0002   2.69246520996094E+0002   2.68930236816406E+0002   2.68675292968750E+0002   2.68483123779297E+0002   2.68353027343750E+0002   2.68282775878906E+0002   2.68268829345703E+0002   2.68306762695313E+0002   2.68391662597656E+0002   2.68518280029297E+0002   2.68681304931641E+0002   2.68875488281250E+0002   2.69095825195313E+0002   2.69337402343750E+0002   2.69595581054688E+0002   2.69865631103516E+0002   2.70142822265625E+0002   2.70422241210938E+0002   2.70698638916016E+0002   2.70966613769531E+0002   2.71220581054688E+0002   2.71455200195313E+0002   2.71665435791016E+0002   2.71847259521484E+0002   2.71997680664063E+0002   2.72115295410156E+0002   2.72200164794922E+0002   2.72253875732422E+0002   2.72279113769531E+0002   2.72279327392578E+0002   2.72258422851563E+0002   2.72220245361328E+0002   2.72168304443359E+0002   2.72105682373047E+0002   2.72034851074219E+0002   2.71957611083984E+0002   2.71875091552734E+0002   2.71787841796875E+0002   2.71695922851563E+0002   2.71598785400391E+0002   2.71495574951172E+0002   2.71385070800781E+0002   2.71265686035156E+0002   2.71135650634766E+0002   2.70992767333984E+0002   2.70834655761719E+0002   2.70658538818359E+0002   2.70461273193359E+0002   2.70239410400391E+0002   2.69989196777344E+0002   2.69707672119141E+0002   2.69396545410156E+0002   2.69081726074219E+0002   2.69000000000000E+0002   2.69000000000000E+0002   2.69000000000000E+0002   2.69000000000000E+0002   2.69000000000000E+0002   2.69000000000000E+0002   2.69000000000000E+0002   2.69000000000000E+0002   2.69000000000000E+0002   2.69000000000000E+0002   2.69000000000000E+0002   2.69000000000000E+0002   2.69000000000000E+0002   2.69000000000000E+0002   2.69000000000000E+0002   2.69000000000000E+0002   2.69000000000000E+0002   2.69000000000000E+0002   2.69000000000000E+0002   2.69000000000000E+0002   2.69000000000000E+0002   2.69000000000000E+0002   2.69000000000000E+0002   2.69000000000000E+0002   2.69000000000000E+0002   2.69359893798828E+0002   2.69906219482422E+0002   2.70494293212891E+0002   2.71098815917969E+0002   2.71714111328125E+0002   2.72340179443359E+0002   2.72979278564453E+0002   2.73634002685547E+0002   2.74305694580078E+0002   2.74993530273438E+0002   2.75694152832031E+0002   2.76400970458984E+0002   2.77103729248047E+0002   2.77788055419922E+0002   2.78435668945313E+0002   2.79025573730469E+0002   2.79536407470703E+0002   2.79949890136719E+0002   2.80254577636719E+0002   2.80448364257813E+0002   2.80538848876953E+0002   2.80541198730469E+0002   2.80474822998047E+0002   2.80359802246094E+0002   2.80214141845703E+0002   2.80052398681641E+0002   2.79885314941406E+0002   2.79719879150391E+0002   2.79559967041016E+0002   2.79406860351563E+0002   2.79259643554688E+0002   2.79115722656250E+0002   2.78970855712891E+0002   2.78819396972656E+0002   2.78654449462891E+0002   2.78468200683594E+0002   2.78252319335938E+0002   2.77998870849609E+0002   2.77701538085938E+0002   2.77356414794922E+0002   2.76963012695313E+0002   2.76523986816406E+0002   2.76044616699219E+0002   2.75531646728516E+0002   2.74992218017578E+0002   2.74433074951172E+0002   2.73860107421875E+0002   2.73278289794922E+0002   2.72691650390625E+0002   2.72103485107422E+0002   2.71516601562500E+0002   2.70933593750000E+0002   2.70357971191406E+0002   2.69797241210938E+0002   2.69276458740234E+0002   2.69000000000000E+0002   2.69000000000000E+0002   2.69000000000000E+0002   2.69000000000000E+0002   2.69000000000000E+0002   2.69000000000000E+0002   2.69000000000000E+0002   2.69000000000000E+0002   2.69000000000000E+0002   2.69000000000000E+0002   2.69000000000000E+0002   2.69000000000000E+0002   2.69000000000000E+0002   2.69000000000000E+0002   2.69000000000000E+0002
   2.69000000000000E+0002   2.69000000000000E+0002   2.69000000000000E+0002   2.69000000000000E+0002   2.69096618652344E+0002   2.69476135253906E+0002   2.69920440673828E+0002   2.70399993896484E+0002   2.70910736083984E+0002   2.71455566406250E+0002   2.72040283203125E+0002   2.72672973632813E+0002   2.73364715576172E+0002   2.74130523681641E+0002   2.74991119384766E+0002   2.75975860595703E+0002   2.77127136230469E+0002   2.78508209228516E+0002   2.80216522216797E+0002   2.82406127929688E+0002   2.85313690185547E+0002   2.89169830322266E+0002   2.92784942626953E+0002   2.90820678710938E+0002   2.86442321777344E+0002   2.82991027832031E+0002   2.80519012451172E+0002   2.78790008544922E+0002   2.77631256103516E+0002   2.76925506591797E+0002   2.76588134765625E+0002   2.76555023193359E+0002   2.76777679443359E+0002   2.77220916748047E+0002   2.77860992431641E+0002   2.78683715820313E+0002   2.79682556152344E+0002   2.80857452392578E+0002   2.82214813232422E+0002   2.83763610839844E+0002   2.85470275878906E+0002   2.86986175537109E+0002   2.87585937500000E+0002   2.87685028076172E+0002   2.87760070800781E+0002   2.87833465576172E+0002   2.87848999023438E+0002   2.87762054443359E+0002   2.87550048828125E+0002   2.87209991455078E+0002   2.86753387451172E+0002   2.86200164794922E+0002   2.85573486328125E+0002   2.84895782470703E+0002   2.84186584472656E+0002   2.83461669921875E+0002   2.82733093261719E+0002   2.82009857177734E+0002   2.81298492431641E+0002   2.80603881835938E+0002   2.79929809570313E+0002   2.79279571533203E+0002   2.78656158447266E+0002   2.78062500000000E+0002   2.77501434326172E+0002   2.76975555419922E+0002   2.76486907958984E+0002   2.76036682128906E+0002   2.75624725341797E+0002   2.75249328613281E+0002   2.74906951904297E+0002   2.74592071533203E+0002   2.74297393798828E+0002   2.74014068603516E+0002   2.73732208251953E+0002   2.73441833496094E+0002   2.73133972167969E+0002   2.72801910400391E+0002   2.72442443847656E+0002   2.72056518554688E+0002   2.71649353027344E+0002   2.71229614257813E+0002   2.70808349609375E+0002   2.70397460937500E+0002   2.70008514404297E+0002   2.69651641845703E+0002   2.69334930419922E+0002   2.69064392089844E+0002   2.68843658447266E+0002   2.68674468994141E+0002   2.68556854248047E+0002   2.68489379882813E+0002   2.68469573974609E+0002   2.68494140625000E+0002   2.68559265136719E+0002   2.68660736083984E+0002   2.68794189453125E+0002   2.68955322265625E+0002   2.69139770507813E+0002   2.69343322753906E+0002   2.69561828613281E+0002   2.69791076660156E+0002   2.70026885986328E+0002   2.70264923095703E+0002   2.70500701904297E+0002   2.70729675292969E+0002   2.70947296142578E+0002   2.71149230957031E+0002   2.71331481933594E+0002   2.71490814208984E+0002   2.71624816894531E+0002   2.71732177734375E+0002   2.71812713623047E+0002   2.71867279052734E+0002   2.71897644042969E+0002   2.71906127929688E+0002   2.71895507812500E+0002   2.71868560791016E+0002   2.71827941894531E+0002   2.71776062011719E+0002   2.71714813232422E+0002   2.71645690917969E+0002   2.71569671630859E+0002   2.71487213134766E+0002   2.71398437500000E+0002   2.71302886962891E+0002   2.71199890136719E+0002   2.71088348388672E+0002   2.70966918945313E+0002   2.70833923339844E+0002   2.70687408447266E+0002   2.70525115966797E+0002   2.70344421386719E+0002   2.70142333984375E+0002   2.69915863037109E+0002   2.69662628173828E+0002   2.69384002685547E+0002   2.69098907470703E+0002   2.69000000000000E+0002   2.69000000000000E+0002   2.69000000000000E+0002   2.69000000000000E+0002   2.69000000000000E+0002   2.69000000000000E+0002   2.69000000000000E+0002   2.69000000000000E+0002   2.69000000000000E+0002   2.69000000000000E+0002   2.69000000000000E+0002   2.69000000000000E+0002   2.69000000000000E+0002   2.69000000000000E+0002   2.69000000000000E+0002   2.69000000000000E+0002   2.69000000000000E+0002   2.69000000000000E+0002   2.69000000000000E+0002   2.69000000000000E+0002   2.69000000000000E+0002   2.69000000000000E+0002   2.69000000000000E+0002   2.69000000000000E+0002   2.69000000000000E+0002   2.69000000000000E+0002   2.69000000000000E+0002   2.69241455078125E+0002   2.69786376953125E+0002   2.70380554199219E+0002   2.70990783691406E+0002   2.71606170654297E+0002   2.72226196289063E+0002   2.72853240966797E+0002   2.73487945556641E+0002   2.74128723144531E+0002   2.74771881103516E+0002   2.75411407470703E+0002   2.76038665771484E+0002   2.76642272949219E+0002   2.77208496093750E+0002   2.77722351074219E+0002   2.78169250488281E+0002   2.78537139892578E+0002   2.78818634033203E+0002   2.79012298583984E+0002   2.79123046875000E+0002   2.79160888671875E+0002   2.79139099121094E+0002   2.79071899414063E+0002   2.78972900390625E+0002   2.78853607177734E+0002   2.78723114013672E+0002   2.78587799072266E+0002   2.78451538085938E+0002   2.78316070556641E+0002   2.78181152343750E+0002   2.78045043945313E+0002   2.77904479980469E+0002   2.77755035400391E+0002   2.77591339111328E+0002   2.77407379150391E+0002   2.77196960449219E+0002   2.76954406738281E+0002   2.76675170898438E+0002   2.76356475830078E+0002   2.75997833251953E+0002   2.75600860595703E+0002   2.75169036865234E+0002   2.74707031250000E+0002   2.74220092773438E+0002   2.73713470458984E+0002   2.73191955566406E+0002   2.72659942626953E+0002   2.72121063232422E+0002   2.71578613281250E+0002   2.71035491943359E+0002   2.70495056152344E+0002   2.69962768554688E+0002   2.69453399658203E+0002   2.69018920898438E+0002   2.69000000000000E+0002   2.69000000000000E+0002   2.69000000000000E+0002   2.69000000000000E+0002   2.69000000000000E+0002   2.69000000000000E+0002   2.69000000000000E+0002   2.69000000000000E+0002   2.69000000000000E+0002   2.69000000000000E+0002   2.69000000000000E+0002   2.69000000000000E+0002   2.69000000000000E+0002   2.69000000000000E+0002   2.69000000000000E+0002
   2.69000000000000E+0002   2.69000000000000E+0002   2.69000000000000E+0002   2.69000000000000E+0002   2.69103942871094E+0002   2.69480224609375E+0002   2.69929992675781E+0002   2.70417694091797E+0002   2.70939239501953E+0002   2.71497985839844E+0002   2.72100433349609E+0002   2.72755584716797E+0002   2.73475616455078E+0002   2.74276916503906E+0002   2.75182159423828E+0002   2.76223358154297E+0002   2.77447113037109E+0002   2.78924072265625E+0002   2.80767028808594E+0002   2.83167999267578E+0002   2.86479522705078E+0002   2.91402313232422E+0002   2.99251373291016E+0002   2.94327789306641E+0002   2.88232208251953E+0002   2.84330627441406E+0002   2.81693115234375E+0002   2.79871582031250E+0002   2.78632293701172E+0002   2.77839355468750E+0002   2.77404571533203E+0002   2.77265838623047E+0002   2.77377746582031E+0002   2.77707092285156E+0002   2.78230834960938E+0002   2.78934478759766E+0002   2.79811981201172E+0002   2.80867279052734E+0002   2.82120697021484E+0002   2.83625488281250E+0002   2.85505767822266E+0002   2.87910552978516E+0002   2.87498138427734E+0002   2.86921691894531E+0002   2.86679046630859E+0002   2.86560333251953E+0002   2.86452362060547E+0002   2.86293975830078E+0002   2.86054473876953E+0002   2.85722869873047E+0002   2.85301574707031E+0002   2.84801208496094E+0002   2.84236541748047E+0002   2.83623535156250E+0002   2.82977233886719E+0002   2.82310913085938E+0002   2.81635620117188E+0002   2.80960266113281E+0002   2.80292144775391E+0002   2.79637084960938E+0002   2.79000000000000E+0002   2.78385162353516E+0002   2.77796264648438E+0002   2.77236633300781E+0002   2.76709045410156E+0002   2.76215759277344E+0002   2.75758117675781E+0002   2.75336517333984E+0002   2.74950103759766E+0002   2.74596710205078E+0002   2.74272705078125E+0002   2.73973114013672E+0002   2.73691619873047E+0002   2.73421051025391E+0002   2.73153747558594E+0002   2.72882171630859E+0002   2.72599884033203E+0002   2.72302185058594E+0002   2.71986907958984E+0002   2.71654815673828E+0002   2.71309570312500E+0002   2.70957366943359E+0002   2.70606018066406E+0002   2.70264190673828E+0002   2.69940460205078E+0002   2.69642547607422E+0002   2.69376892089844E+0002   2.69148345947266E+0002   2.68960144042969E+0002   2.68814025878906E+0002   2.68710296630859E+0002   2.68648162841797E+0002   2.68625854492188E+0002   2.68640960693359E+0002   2.68690490722656E+0002   2.68771148681641E+0002   2.68879455566406E+0002   2.69011810302734E+0002   2.69164642333984E+0002   2.69334320068359E+0002   2.69517272949219E+0002   2.69709960937500E+0002   2.69908691406250E+0002   2.70109802246094E+0002   2.70309539794922E+0002   2.70504119873047E+0002   2.70689788818359E+0002   2.70863006591797E+0002   2.71020629882813E+0002   2.71159881591797E+0002   2.71278778076172E+0002   2.71376068115234E+0002   2.71451385498047E+0002   2.71505035400391E+0002   2.71538055419922E+0002   2.71552062988281E+0002   2.71548858642578E+0002   2.71530456542969E+0002   2.71498809814453E+0002   2.71455688476563E+0002   2.71402557373047E+0002   2.71340576171875E+0002   2.71270568847656E+0002   2.71192901611328E+0002   2.71107635498047E+0002   2.71014434814453E+0002   2.70912689208984E+0002   2.70801513671875E+0002   2.70679656982422E+0002   2.70545684814453E+0002   2.70397857666016E+0002   2.70234130859375E+0002   2.70052154541016E+0002   2.69849273681641E+0002   2.69623565673828E+0002   2.69376495361328E+0002   2.69121582031250E+0002   2.69000000000000E+0002   2.69000000000000E+0002   2.69000000000000E+0002   2.69000000000000E+0002   2.69000000000000E+0002   2.69000000000000E+0002   2.69000000000000E+0002   2.69000000000000E+0002   2.69000000000000E+0002   2.69000000000000E+0002   2.69000000000000E+0002   2.69000000000000E+0002   2.69000000000000E+0002   2.69000000000000E+0002   2.69000000000000E+0002   2.69000000000000E+0002   2.69000000000000E+0002   2.69000000000000E+0002   2.69000000000000E+0002   2.69000000000000E+0002   2.69000000000000E+0002   2.69000000000000E+0002   2.69000000000000E+0002   2.69000000000000E+0002   2.69000000000000E+0002   2.69000000000000E+0002   2.69000000000000E+0002   2.69000000000000E+0002   2.69000000000000E+0002   2.69161407470703E+0002   2.69691497802734E+0002   2.70279937744141E+0002   2.70873657226563E+0002   2.71468078613281E+0002   2.72065551757813E+0002   2.72664276123047E+0002   2.73261322021484E+0002   2.73852874755859E+0002   2.74433746337891E+0002   2.74996917724609E+0002   2.75533599853516E+0002   2.76033691406250E+0002   2.76486511230469E+0002   2.76881927490234E+0002   2.77211914062500E+0002   2.77471527099609E+0002   2.77660003662109E+0002   2.77780670166016E+0002   2.77840423583984E+0002   2.77848571777344E+0002   2.77815521240234E+0002   2.77751464843750E+0002   2.77665588378906E+0002   2.77565368652344E+0002   2.77456298828125E+0002   2.77342041015625E+0002   2.77224426269531E+0002   2.77103668212891E+0002   2.76978607177734E+0002   2.76846801757813E+0002   2.76704803466797E+0002   2.76548431396484E+0002   2.76373046875000E+0002   2.76173950195313E+0002   2.75946929931641E+0002   2.75688598632813E+0002   2.75396911621094E+0002   2.75071289062500E+0002   2.74712768554688E+0002   2.74323699951172E+0002   2.73907348632813E+0002   2.73467651367188E+0002   2.73008636474609E+0002   2.72534362792969E+0002   2.72048492431641E+0002   2.71554443359375E+0002   2.71055389404297E+0002   2.70554656982422E+0002   2.70057006835938E+0002   2.69572845458984E+0002   2.69137847900391E+0002   2.69000000000000E+0002   2.69000000000000E+0002   2.69000000000000E+0002   2.69000000000000E+0002   2.69000000000000E+0002   2.69000000000000E+0002   2.69000000000000E+0002   2.69000000000000E+0002   2.69000000000000E+0002   2.69000000000000E+0002   2.69000000000000E+0002   2.69000000000000E+0002   2.69000000000000E+0002   2.69000000000000E+0002   2.69000000000000E+0002   2.69000000000000E+0002
   2.69000000000000E+0002   2.69000000000000E+0002   2.69000000000000E+0002   2.69000000000000E+0002   2.69064270019531E+0002   2.69454162597656E+0002   2.69911254882813E+0002   2.70404144287109E+0002   2.70931365966797E+0002   2.71497192382813E+0002   2.72108398437500E+0002   2.72774078369141E+0002   2.73506225585938E+0002   2.74320861816406E+0002   2.75239532470703E+0002   2.76291900634766E+0002   2.77519714355469E+0002   2.78983276367188E+0002   2.80771881103516E+0002   2.83018371582031E+0002   2.85900543212891E+0002   2.89477539062500E+0002   2.92438629150391E+0002   2.91084350585938E+0002   2.87476196289063E+0002   2.84375091552734E+0002   2.82060333251953E+0002   2.80380279541016E+0002   2.79192993164063E+0002   2.78398773193359E+0002   2.77927520751953E+0002   2.77728057861328E+0002   2.77761962890625E+0002   2.78000335693359E+0002   2.78421997070313E+0002   2.79012786865234E+0002   2.79765411376953E+0002   2.80681091308594E+0002   2.81773681640625E+0002   2.83075958251953E+0002   2.84622436523438E+0002   2.86097198486328E+0002   2.86177032470703E+0002   2.85752899169922E+0002   2.85469177246094E+0002   2.85279937744141E+0002   2.85109863281250E+0002   2.84910034179688E+0002   2.84653076171875E+0002   2.84326751708984E+0002   2.83929504394531E+0002   2.83466705322266E+0002   2.82947814941406E+0002   2.82384216308594E+0002   2.81787567138672E+0002   2.81168823242188E+0002   2.80537841796875E+0002   2.79903289794922E+0002   2.79272552490234E+0002   2.78652221679688E+0002   2.78047912597656E+0002   2.77464721679688E+0002   2.76907043457031E+0002   2.76378570556641E+0002   2.75882293701172E+0002   2.75420166015625E+0002   2.74993103027344E+0002   2.74600891113281E+0002   2.74242218017578E+0002   2.73914428710938E+0002   2.73613891601563E+0002   2.73335876464844E+0002   2.73074890136719E+0002   2.72824859619141E+0002   2.72579681396484E+0002   2.72333557128906E+0002   2.72081665039063E+0002   2.71820526123047E+0002   2.71548675537109E+0002   2.71266662597656E+0002   2.70977111816406E+0002   2.70684417724609E+0002   2.70394165039063E+0002   2.70112701416016E+0002   2.69846343994141E+0002   2.69600921630859E+0002   2.69381408691406E+0002   2.69191680908203E+0002   2.69034393310547E+0002   2.68911010742188E+0002   2.68822052001953E+0002   2.68766998291016E+0002   2.68744659423828E+0002   2.68753265380859E+0002   2.68790527343750E+0002   2.68853912353516E+0002   2.68940673828125E+0002   2.69047882080078E+0002   2.69172637939453E+0002   2.69312011718750E+0002   2.69463043212891E+0002   2.69622741699219E+0002   2.69788116455078E+0002   2.69956085205078E+0002   2.70123565673828E+0002   2.70287475585938E+0002   2.70444763183594E+0002   2.70592559814453E+0002   2.70728210449219E+0002   2.70849426269531E+0002   2.70954467773438E+0002   2.71042144775391E+0002   2.71111785888672E+0002   2.71163452148438E+0002   2.71197601318359E+0002   2.71215179443359E+0002   2.71217407226563E+0002   2.71205596923828E+0002   2.71181091308594E+0002   2.71145233154297E+0002   2.71099060058594E+0002   2.71043487548828E+0002   2.70979064941406E+0002   2.70906127929688E+0002   2.70824676513672E+0002   2.70734466552734E+0002   2.70634918212891E+0002   2.70525299072266E+0002   2.70404541015625E+0002   2.70271331787109E+0002   2.70124237060547E+0002   2.69961730957031E+0002   2.69781921386719E+0002   2.69582733154297E+0002   2.69364044189453E+0002   2.69137634277344E+0002   2.69000000000000E+0002   2.69000000000000E+0002   2.69000000000000E+0002   2.69000000000000E+0002   2.69000000000000E+0002   2.69000000000000E+0002   2.69000000000000E+0002   2.69000000000000E+0002   2.69000000000000E+0002   2.69000000000000E+0002   2.69000000000000E+0002   2.69000000000000E+0002   2.69000000000000E+0002   2.69000000000000E+0002   2.69000000000000E+0002   2.69000000000000E+0002   2.69000000000000E+0002   2.69000000000000E+0002   2.69000000000000E+0002   2.69000000000000E+0002   2.69000000000000E+0002   2.69000000000000E+0002   2.69000000000000E+0002   2.69000000000000E+0002   2.69000000000000E+0002   2.69000000000000E+0002   2.69000000000000E+0002   2.69000000000000E+0002   2.69000000000000E+0002   2.69000000000000E+0002   2.69000000000000E+0002   2.69100830078125E+0002   2.69622100830078E+0002   2.70155975341797E+0002   2.70713562011719E+0002   2.71279602050781E+0002   2.71843566894531E+0002   2.72399871826172E+0002   2.72944580078125E+0002   2.73473602294922E+0002   2.73981475830078E+0002   2.74461517333984E+0002   2.74906341552734E+0002   2.75308380126953E+0002   2.75660644531250E+0002   2.75957702636719E+0002   2.76196319580078E+0002   2.76376159667969E+0002   2.76499633789063E+0002   2.76571746826172E+0002   2.76599243164063E+0002   2.76589904785156E+0002   2.76551605224609E+0002   2.76491638183594E+0002   2.76416107177734E+0002   2.76329711914063E+0002   2.76235656738281E+0002   2.76135681152344E+0002   2.76030303955078E+0002   2.75918731689453E+0002   2.75799163818359E+0002   2.75668884277344E+0002   2.75524566650391E+0002   2.75362518310547E+0002   2.75179077148438E+0002   2.74970977783203E+0002   2.74735687255859E+0002   2.74471496582031E+0002   2.74177886962891E+0002   2.73855438232422E+0002   2.73505737304688E+0002   2.73131103515625E+0002   2.72734527587891E+0002   2.72319183349609E+0002   2.71888458251953E+0002   2.71445617675781E+0002   2.70993835449219E+0002   2.70536529541016E+0002   2.70078094482422E+0002   2.69627166748047E+0002   2.69209075927734E+0002   2.69000000000000E+0002   2.69000000000000E+0002   2.69000000000000E+0002   2.69000000000000E+0002   2.69000000000000E+0002   2.69000000000000E+0002   2.69000000000000E+0002   2.69000000000000E+0002   2.69000000000000E+0002   2.69000000000000E+0002   2.69000000000000E+0002   2.69000000000000E+0002   2.69000000000000E+0002   2.69000000000000E+0002   2.69000000000000E+0002   2.69000000000000E+0002   2.69000000000000E+0002
   2.69000000000000E+0002   2.69000000000000E+0002   2.69000000000000E+0002   2.69000000000000E+0002   2.69029357910156E+0002   2.69411315917969E+0002   2.69866516113281E+0002   2.70358673095703E+0002   2.70885742187500E+0002   2.71451538085938E+0002   2.72062408447266E+0002   2.72726684570313E+0002   2.73455261230469E+0002   2.74262054443359E+0002   2.75165130615234E+0002   2.76187866210938E+0002   2.77360687255859E+0002   2.78722259521484E+0002   2.80318511962891E+0002   2.82190002441406E+0002   2.84316986083984E+0002   2.86436340332031E+0002   2.87725952148438E+0002   2.87272094726563E+0002   2.85521972656250E+0002   2.83525543212891E+0002   2.81781585693359E+0002   2.80399108886719E+0002   2.79364379882813E+0002   2.78638000488281E+0002   2.78180694580078E+0002   2.77958435058594E+0002   2.77942993164063E+0002   2.78111328125000E+0002   2.78445159912109E+0002   2.78930480957031E+0002   2.79557189941406E+0002   2.80318725585938E+0002   2.81209747314453E+0002   2.82214538574219E+0002   2.83257415771484E+0002   2.84083190917969E+0002   2.84382720947266E+0002   2.84311645507813E+0002   2.84150115966797E+0002   2.83981231689453E+0002   2.83799743652344E+0002   2.83585510253906E+0002   2.83322692871094E+0002   2.83002716064453E+0002   2.82623657226563E+0002   2.82188568115234E+0002   2.81703826904297E+0002   2.81177856445313E+0002   2.80619750976563E+0002   2.80038726806641E+0002   2.79443511962891E+0002   2.78842254638672E+0002   2.78242523193359E+0002   2.77651184082031E+0002   2.77074615478516E+0002   2.76518676757813E+0002   2.75988464355469E+0002   2.75488250732422E+0002   2.75021240234375E+0002   2.74589324951172E+0002   2.74193023681641E+0002   2.73831665039063E+0002   2.73503265380859E+0002   2.73204833984375E+0002   2.72932464599609E+0002   2.72681610107422E+0002   2.72447204589844E+0002   2.72223937988281E+0002   2.72006744384766E+0002   2.71791015625000E+0002   2.71572967529297E+0002   2.71350036621094E+0002   2.71121002197266E+0002   2.70886352539063E+0002   2.70648010253906E+0002   2.70409088134766E+0002   2.70173583984375E+0002   2.69946044921875E+0002   2.69731140136719E+0002   2.69533203125000E+0002   2.69355987548828E+0002   2.69202423095703E+0002   2.69074493408203E+0002   2.68973449707031E+0002   2.68899719238281E+0002   2.68852996826172E+0002   2.68832458496094E+0002   2.68836853027344E+0002   2.68864440917969E+0002   2.68913330078125E+0002   2.68981384277344E+0002   2.69066375732422E+0002   2.69166076660156E+0002   2.69278076171875E+0002   2.69400146484375E+0002   2.69529876708984E+0002   2.69664947509766E+0002   2.69802856445313E+0002   2.69941223144531E+0002   2.70077484130859E+0002   2.70209289550781E+0002   2.70334289550781E+0002   2.70450286865234E+0002   2.70555297851563E+0002   2.70647674560547E+0002   2.70726287841797E+0002   2.70790283203125E+0002   2.70839447021484E+0002   2.70873779296875E+0002   2.70893737792969E+0002   2.70899993896484E+0002   2.70893371582031E+0002   2.70874755859375E+0002   2.70845031738281E+0002   2.70804962158203E+0002   2.70755157470703E+0002   2.70696044921875E+0002   2.70627807617188E+0002   2.70550445556641E+0002   2.70463745117188E+0002   2.70367218017578E+0002   2.70260223388672E+0002   2.70141845703125E+0002   2.70010986328125E+0002   2.69866455078125E+0002   2.69707458496094E+0002   2.69533782958984E+0002   2.69345520019531E+0002   2.69143218994141E+0002   2.69000000000000E+0002   2.69000000000000E+0002   2.69000000000000E+0002   2.69000000000000E+0002   2.69000000000000E+0002   2.69000000000000E+0002   2.69000000000000E+0002   2.69000000000000E+0002   2.69000000000000E+0002   2.69000000000000E+0002   2.69000000000000E+0002   2.69000000000000E+0002   2.69000000000000E+0002   2.69000000000000E+0002   2.69000000000000E+0002   2.69000000000000E+0002   2.69000000000000E+0002   2.69000000000000E+0002   2.69000000000000E+0002   2.69000000000000E+0002   2.69000000000000E+0002   2.69000000000000E+0002   2.69000000000000E+0002   2.69000000000000E+0002   2.69000000000000E+0002   2.69000000000000E+0002   2.69000000000000E+0002   2.69000000000000E+0002   2.69000000000000E+0002   2.69000000000000E+0002   2.69000000000000E+0002   2.69000000000000E+0002   2.69000000000000E+0002   2.69095031738281E+0002   2.69467254638672E+0002   2.69976043701172E+0002   2.70506072998047E+0002   2.71035125732422E+0002   2.71551879882813E+0002   2.72052703857422E+0002   2.72534973144531E+0002   2.72994049072266E+0002   2.73424804687500E+0002   2.73821990966797E+0002   2.74180358886719E+0002   2.74495056152344E+0002   2.74762420654297E+0002   2.74980468750000E+0002   2.75149108886719E+0002   2.75270355224609E+0002   2.75347869873047E+0002   2.75386810302734E+0002   2.75393157958984E+0002   2.75373229980469E+0002   2.75333007812500E+0002   2.75277496337891E+0002   2.75210601806641E+0002   2.75134979248047E+0002   2.75052246093750E+0002   2.74962951660156E+0002   2.74866729736328E+0002   2.74762176513672E+0002   2.74647033691406E+0002   2.74518463134766E+0002   2.74373443603516E+0002   2.74208953857422E+0002   2.74022460937500E+0002   2.73811859130859E+0002   2.73575775146484E+0002   2.73313568115234E+0002   2.73025543212891E+0002   2.72712799072266E+0002   2.72377014160156E+0002   2.72020355224609E+0002   2.71645446777344E+0002   2.71255310058594E+0002   2.70852996826172E+0002   2.70441894531250E+0002   2.70026336669922E+0002   2.69614288330078E+0002   2.69226593017578E+0002   2.69000000000000E+0002   2.69000000000000E+0002   2.69000000000000E+0002   2.69000000000000E+0002   2.69000000000000E+0002   2.69000000000000E+0002   2.69000000000000E+0002   2.69000000000000E+0002   2.69000000000000E+0002   2.69000000000000E+0002   2.69000000000000E+0002   2.69000000000000E+0002   2.69000000000000E+0002   2.69000000000000E+0002   2.69000000000000E+0002   2.69000000000000E+0002   2.69000000000000E+0002   2.69000000000000E+0002
   2.69000000000000E+0002   2.69000000000000E+0002   2.69000000000000E+0002   2.69000000000000E+0002   2.69000000000000E+0002   2.69355651855469E+0002   2.69796234130859E+0002   2.70281127929688E+0002   2.70802307128906E+0002   2.71361358642578E+0002   2.71963409423828E+0002   2.72615570068359E+0002   2.73326751708984E+0002   2.74107879638672E+0002   2.74972167968750E+0002   2.75935058593750E+0002   2.77013854980469E+0002   2.78225006103516E+0002   2.79576721191406E+0002   2.81049682617188E+0002   2.82553192138672E+0002   2.83855133056641E+0002   2.84572235107422E+0002   2.84418823242188E+0002   2.83533294677734E+0002   2.82323516845703E+0002   2.81114715576172E+0002   2.80064636230469E+0002   2.79226959228516E+0002   2.78608886718750E+0002   2.78199676513672E+0002   2.77982879638672E+0002   2.77941009521484E+0002   2.78057556152344E+0002   2.78317504882813E+0002   2.78707244873047E+0002   2.79214080810547E+0002   2.79824188232422E+0002   2.80518005371094E+0002   2.81258392333984E+0002   2.81968231201172E+0002   2.82520263671875E+0002   2.82813415527344E+0002   2.82878814697266E+0002   2.82816680908203E+0002   2.82691284179688E+0002   2.82522644042969E+0002   2.82310668945313E+0002   2.82050506591797E+0002   2.81738616943359E+0002   2.81374420166016E+0002   2.80960327148438E+0002   2.80501251220703E+0002   2.80003631591797E+0002   2.79474822998047E+0002   2.78922698974609E+0002   2.78355072021484E+0002   2.77779663085938E+0002   2.77203948974609E+0002   2.76635284423828E+0002   2.76080657958984E+0002   2.75546783447266E+0002   2.75039733886719E+0002   2.74564605712891E+0002   2.74125000000000E+0002   2.73722747802734E+0002   2.73358001708984E+0002   2.73029418945313E+0002   2.72734375000000E+0002   2.72469207763672E+0002   2.72229583740234E+0002   2.72011016845703E+0002   2.71808532714844E+0002   2.71617248535156E+0002   2.71432647705078E+0002   2.71251098632813E+0002   2.71069610595703E+0002   2.70886016845703E+0002   2.70699340820313E+0002   2.70510101318359E+0002   2.70319763183594E+0002   2.70130554199219E+0002   2.69945190429688E+0002   2.69766815185547E+0002   2.69598907470703E+0002   2.69444702148438E+0002   2.69306854248047E+0002   2.69187377929688E+0002   2.69087646484375E+0002   2.69008514404297E+0002   2.68950256347656E+0002   2.68912719726563E+0002   2.68895324707031E+0002   2.68897155761719E+0002   2.68917022705078E+0002   2.68953521728516E+0002   2.69005126953125E+0002   2.69070220947266E+0002   2.69147155761719E+0002   2.69234130859375E+0002   2.69329559326172E+0002   2.69431701660156E+0002   2.69538909912109E+0002   2.69649291992188E+0002   2.69760955810547E+0002   2.69872039794922E+0002   2.69980682373047E+0002   2.70085113525391E+0002   2.70183441162109E+0002   2.70273864746094E+0002   2.70354797363281E+0002   2.70425079345703E+0002   2.70483764648438E+0002   2.70530303955078E+0002   2.70564392089844E+0002   2.70586029052734E+0002   2.70595458984375E+0002   2.70593109130859E+0002   2.70579528808594E+0002   2.70555175781250E+0002   2.70520599365234E+0002   2.70476135253906E+0002   2.70422088623047E+0002   2.70358581542969E+0002   2.70285552978516E+0002   2.70202819824219E+0002   2.70110015869141E+0002   2.70006622314453E+0002   2.69891845703125E+0002   2.69764739990234E+0002   2.69624328613281E+0002   2.69470764160156E+0002   2.69306579589844E+0002   2.69145019531250E+0002   2.69000000000000E+0002   2.69000000000000E+0002   2.69000000000000E+0002   2.69000000000000E+0002   2.69000000000000E+0002   2.69000000000000E+0002   2.69000000000000E+0002   2.69000000000000E+0002   2.69000000000000E+0002   2.69000000000000E+0002   2.69000000000000E+0002   2.69000000000000E+0002   2.69000000000000E+0002   2.69000000000000E+0002   2.69000000000000E+0002   2.69000000000000E+0002   2.69000000000000E+0002   2.69000000000000E+0002   2.69000000000000E+0002   2.69000000000000E+0002   2.69000000000000E+0002   2.69000000000000E+0002   2.69000000000000E+0002   2.69000000000000E+0002   2.69000000000000E+0002   2.69000000000000E+0002   2.69000000000000E+0002   2.69000000000000E+0002   2.69000000000000E+0002   2.69000000000000E+0002   2.69000000000000E+0002   2.69000000000000E+0002   2.69000000000000E+0002   2.69000000000000E+0002   2.69000000000000E+0002   2.69000000000000E+0002   2.69302276611328E+0002   2.69766571044922E+0002   2.70254302978516E+0002   2.70725891113281E+0002   2.71182220458984E+0002   2.71621246337891E+0002   2.72035980224609E+0002   2.72422302246094E+0002   2.72777008056641E+0002   2.73096496582031E+0002   2.73377319335938E+0002   2.73617034912109E+0002   2.73814483642578E+0002   2.73969940185547E+0002   2.74085144042969E+0002   2.74162902832031E+0002   2.74207153320313E+0002   2.74222778320313E+0002   2.74215179443359E+0002   2.74189605712891E+0002   2.74150268554688E+0002   2.74100189208984E+0002   2.74041412353516E+0002   2.73975280761719E+0002   2.73902526855469E+0002   2.73823059082031E+0002   2.73735778808594E+0002   2.73638641357422E+0002   2.73528991699219E+0002   2.73403961181641E+0002   2.73261077880859E+0002   2.73098236083984E+0002   2.72913787841797E+0002   2.72706420898438E+0002   2.72475341796875E+0002   2.72220672607422E+0002   2.71943267822266E+0002   2.71644287109375E+0002   2.71325103759766E+0002   2.70988067626953E+0002   2.70636352539063E+0002   2.70273437500000E+0002   2.69903778076172E+0002   2.69535552978516E+0002   2.69188903808594E+0002   2.69000000000000E+0002   2.69000000000000E+0002   2.69000000000000E+0002   2.69000000000000E+0002   2.69000000000000E+0002   2.69000000000000E+0002   2.69000000000000E+0002   2.69000000000000E+0002   2.69000000000000E+0002   2.69000000000000E+0002   2.69000000000000E+0002   2.69000000000000E+0002   2.69000000000000E+0002   2.69000000000000E+0002   2.69000000000000E+0002   2.69000000000000E+0002   2.69000000000000E+0002   2.69000000000000E+0002   2.69000000000000E+0002
   2.69000000000000E+0002   2.69000000000000E+0002   2.69000000000000E+0002   2.69000000000000E+0002   2.69000000000000E+0002   2.69272521972656E+0002   2.69696197509766E+0002   2.70171356201172E+0002   2.70682220458984E+0002   2.71228668212891E+0002   2.71814666748047E+0002   2.72445770263672E+0002   2.73128692626953E+0002   2.73871002197266E+0002   2.74680847167969E+0002   2.75566284179688E+0002   2.76533355712891E+0002   2.77582305908203E+0002   2.78699737548828E+0002   2.79844757080078E+0002   2.80928497314453E+0002   2.81800750732422E+0002   2.82281188964844E+0002   2.82262237548828E+0002   2.81799987792969E+0002   2.81073303222656E+0002   2.80267395019531E+0002   2.79509246826172E+0002   2.78867004394531E+0002   2.78369995117188E+0002   2.78026153564453E+0002   2.77832550048828E+0002   2.77780914306641E+0002   2.77860656738281E+0002   2.78060119628906E+0002   2.78366760253906E+0002   2.78766632080078E+0002   2.79242462158203E+0002   2.79770080566406E+0002   2.80312377929688E+0002   2.80814208984375E+0002   2.81209960937500E+0002   2.81454406738281E+0002   2.81550506591797E+0002   2.81534240722656E+0002   2.81440307617188E+0002   2.81287933349609E+0002   2.81084197998047E+0002   2.80830596923828E+0002   2.80527313232422E+0002   2.80175415039063E+0002   2.79777404785156E+0002   2.79337341308594E+0002   2.78860565185547E+0002   2.78353271484375E+0002   2.77822174072266E+0002   2.77274414062500E+0002   2.76717315673828E+0002   2.76158386230469E+0002   2.75605316162109E+0002   2.75065948486328E+0002   2.74548034667969E+0002   2.74059112548828E+0002   2.73605468750000E+0002   2.73191497802734E+0002   2.72818939208984E+0002   2.72487152099609E+0002   2.72194091796875E+0002   2.71936248779297E+0002   2.71708648681641E+0002   2.71506347656250E+0002   2.71324951171875E+0002   2.71159484863281E+0002   2.71004577636719E+0002   2.70856170654297E+0002   2.70711791992188E+0002   2.70569122314453E+0002   2.70425811767578E+0002   2.70280944824219E+0002   2.70135467529297E+0002   2.69990936279297E+0002   2.69848724365234E+0002   2.69710174560547E+0002   2.69577392578125E+0002   2.69453186035156E+0002   2.69339965820313E+0002   2.69239379882813E+0002   2.69152587890625E+0002   2.69080200195313E+0002   2.69022613525391E+0002   2.68980010986328E+0002   2.68952239990234E+0002   2.68938842773438E+0002   2.68939331054688E+0002   2.68952880859375E+0002   2.68978576660156E+0002   2.69015411376953E+0002   2.69062316894531E+0002   2.69118194580078E+0002   2.69181915283203E+0002   2.69252349853516E+0002   2.69328674316406E+0002   2.69409851074219E+0002   2.69494628906250E+0002   2.69581542968750E+0002   2.69669189453125E+0002   2.69756500244141E+0002   2.69842224121094E+0002   2.69924713134766E+0002   2.70002075195313E+0002   2.70072784423828E+0002   2.70135559082031E+0002   2.70189483642578E+0002   2.70233703613281E+0002   2.70267547607422E+0002   2.70290557861328E+0002   2.70302734375000E+0002   2.70304168701172E+0002   2.70295043945313E+0002   2.70275573730469E+0002   2.70246063232422E+0002   2.70206695556641E+0002   2.70157623291016E+0002   2.70098907470703E+0002   2.70030426025391E+0002   2.69952026367188E+0002   2.69863494873047E+0002   2.69764556884766E+0002   2.69654785156250E+0002   2.69533172607422E+0002   2.69398742675781E+0002   2.69253631591797E+0002   2.69105163574219E+0002   2.69000000000000E+0002   2.69000000000000E+0002   2.69000000000000E+0002   2.69000000000000E+0002   2.69000000000000E+0002   2.69000000000000E+0002   2.69000000000000E+0002   2.69000000000000E+0002   2.69000000000000E+0002   2.69000000000000E+0002   2.69000000000000E+0002   2.69000000000000E+0002   2.69000000000000E+0002   2.69000000000000E+0002   2.69000000000000E+0002   2.69000000000000E+0002   2.69000000000000E+0002   2.69000000000000E+0002   2.69000000000000E+0002   2.69000000000000E+0002   2.69000000000000E+0002   2.69000000000000E+0002   2.69000000000000E+0002   2.69000000000000E+0002   2.69000000000000E+0002   2.69000000000000E+0002   2.69000000000000E+0002   2.69000000000000E+0002   2.69000000000000E+0002   2.69000000000000E+0002   2.69000000000000E+0002   2.69000000000000E+0002   2.69000000000000E+0002   2.69000000000000E+0002   2.69000000000000E+0002   2.69000000000000E+0002   2.69000000000000E+0002   2.69000000000000E+0002   2.69121368408203E+0002   2.69544708251953E+0002   2.69933105468750E+0002   2.70340148925781E+0002   2.70738708496094E+0002   2.71110015869141E+0002   2.71453613281250E+0002   2.71768920898438E+0002   2.72052642822266E+0002   2.72301879882813E+0002   2.72514953613281E+0002   2.72691375732422E+0002   2.72831878662109E+0002   2.72938140869141E+0002   2.73012207031250E+0002   2.73056793212891E+0002   2.73076080322266E+0002   2.73075561523438E+0002   2.73060333251953E+0002   2.73034088134766E+0002   2.72998931884766E+0002   2.72955657958984E+0002   2.72905303955078E+0002   2.72849121093750E+0002   2.72787567138672E+0002   2.72719604492188E+0002   2.72643188476563E+0002   2.72555358886719E+0002   2.72452911376953E+0002   2.72333587646484E+0002   2.72196044921875E+0002   2.72039184570313E+0002   2.71861389160156E+0002   2.71661407470703E+0002   2.71439300537109E+0002   2.71196350097656E+0002   2.70933258056641E+0002   2.70650024414063E+0002   2.70349121093750E+0002   2.70035552978516E+0002   2.69714721679688E+0002   2.69395812988281E+0002   2.69105194091797E+0002   2.69000000000000E+0002   2.69000000000000E+0002   2.69000000000000E+0002   2.69000000000000E+0002   2.69000000000000E+0002   2.69000000000000E+0002   2.69000000000000E+0002   2.69000000000000E+0002   2.69000000000000E+0002   2.69000000000000E+0002   2.69000000000000E+0002   2.69000000000000E+0002   2.69000000000000E+0002   2.69000000000000E+0002   2.69000000000000E+0002   2.69000000000000E+0002   2.69000000000000E+0002   2.69000000000000E+0002   2.69000000000000E+0002   2.69000000000000E+0002
   2.69000000000000E+0002   2.69000000000000E+0002   2.69000000000000E+0002   2.69000000000000E+0002   2.69000000000000E+0002   2.69156219482422E+0002   2.69568054199219E+0002   2.70031616210938E+0002   2.70528167724609E+0002   2.71056976318359E+0002   2.71621032714844E+0002   2.72224365234375E+0002   2.72871368408203E+0002   2.73566528320313E+0002   2.74313690185547E+0002   2.75114959716797E+0002   2.75968780517578E+0002   2.76866271972656E+0002   2.77785919189453E+0002   2.78686157226563E+0002   2.79499206542969E+0002   2.80134063720703E+0002   2.80500732421875E+0002   2.80552856445313E+0002   2.80318267822266E+0002   2.79885375976563E+0002   2.79360046386719E+0002   2.78830993652344E+0002   2.78358184814453E+0002   2.77976165771484E+0002   2.77701599121094E+0002   2.77539855957031E+0002   2.77489227294922E+0002   2.77543945312500E+0002   2.77695343017578E+0002   2.77932525634766E+0002   2.78242004394531E+0002   2.78606445312500E+0002   2.79002990722656E+0002   2.79401336669922E+0002   2.79764007568359E+0002   2.80053253173828E+0002   2.80243377685547E+0002   2.80329833984375E+0002   2.80324859619141E+0002   2.80245117187500E+0002   2.80103515625000E+0002   2.79907409667969E+0002   2.79660522460938E+0002   2.79364959716797E+0002   2.79022766113281E+0002   2.78636688232422E+0002   2.78210327148438E+0002   2.77748168945313E+0002   2.77255554199219E+0002   2.76738372802734E+0002   2.76203125000000E+0002   2.75656860351563E+0002   2.75107086181641E+0002   2.74561920166016E+0002   2.74030059814453E+0002   2.73520782470703E+0002   2.73043701171875E+0002   2.72607452392578E+0002   2.72217803955078E+0002   2.71876159667969E+0002   2.71579742431641E+0002   2.71325775146484E+0002   2.71110595703125E+0002   2.70925750732422E+0002   2.70764862060547E+0002   2.70625549316406E+0002   2.70502685546875E+0002   2.70388183593750E+0002   2.70278045654297E+0002   2.70173095703125E+0002   2.70071716308594E+0002   2.69969543457031E+0002   2.69865173339844E+0002   2.69761871337891E+0002   2.69661590576172E+0002   2.69564941406250E+0002   2.69471038818359E+0002   2.69380645751953E+0002   2.69297607421875E+0002   2.69223480224609E+0002   2.69158813476563E+0002   2.69103820800781E+0002   2.69058135986328E+0002   2.69021728515625E+0002   2.68994842529297E+0002   2.68977172851563E+0002   2.68968292236328E+0002   2.68968200683594E+0002   2.68976501464844E+0002   2.68992462158203E+0002   2.69015594482422E+0002   2.69045532226563E+0002   2.69081756591797E+0002   2.69123352050781E+0002   2.69169799804688E+0002   2.69221343994141E+0002   2.69277832031250E+0002   2.69338653564453E+0002   2.69402160644531E+0002   2.69467346191406E+0002   2.69534545898438E+0002   2.69603179931641E+0002   2.69671630859375E+0002   2.69737518310547E+0002   2.69799011230469E+0002   2.69855224609375E+0002   2.69905212402344E+0002   2.69947784423828E+0002   2.69981658935547E+0002   2.70006103515625E+0002   2.70020843505859E+0002   2.70025817871094E+0002   2.70020965576172E+0002   2.70006134033203E+0002   2.69981414794922E+0002   2.69946990966797E+0002   2.69902893066406E+0002   2.69849121093750E+0002   2.69785369873047E+0002   2.69711578369141E+0002   2.69627868652344E+0002   2.69534240722656E+0002   2.69431091308594E+0002   2.69318695068359E+0002   2.69194213867188E+0002   2.69067199707031E+0002   2.69000000000000E+0002   2.69000000000000E+0002   2.69000000000000E+0002   2.69000000000000E+0002   2.69000000000000E+0002   2.69000000000000E+0002   2.69000000000000E+0002   2.69000000000000E+0002   2.69000000000000E+0002   2.69000000000000E+0002   2.69000000000000E+0002   2.69000000000000E+0002   2.69000000000000E+0002   2.69000000000000E+0002   2.69000000000000E+0002   2.69000000000000E+0002   2.69000000000000E+0002   2.69000000000000E+0002   2.69000000000000E+0002   2.69000000000000E+0002   2.69000000000000E+0002   2.69000000000000E+0002   2.69000000000000E+0002   2.69000000000000E+0002   2.69000000000000E+0002   2.69000000000000E+0002   2.69000000000000E+0002   2.69000000000000E+0002   2.69000000000000E+0002   2.69000000000000E+0002   2.69000000000000E+0002   2.69000000000000E+0002   2.69000000000000E+0002   2.69000000000000E+0002   2.69000000000000E+0002   2.69000000000000E+0002   2.69000000000000E+0002   2.69000000000000E+0002   2.69000000000000E+0002   2.69000000000000E+0002   2.69000000000000E+0002   2.69212738037109E+0002   2.69553161621094E+0002   2.69909637451172E+0002   2.70223907470703E+0002   2.70521667480469E+0002   2.70798675537109E+0002   2.71047973632813E+0002   2.71266418457031E+0002   2.71452728271484E+0002   2.71606994628906E+0002   2.71730560302734E+0002   2.71825622558594E+0002   2.71893463134766E+0002   2.71934082031250E+0002   2.71951293945313E+0002   2.71952697753906E+0002   2.71944091796875E+0002   2.71928894042969E+0002   2.71907958984375E+0002   2.71879272460938E+0002   2.71843078613281E+0002   2.71802978515625E+0002   2.71760253906250E+0002   2.71713653564453E+0002   2.71660858154297E+0002   2.71598144531250E+0002   2.71520538330078E+0002   2.71425842285156E+0002   2.71314819335938E+0002   2.71187194824219E+0002   2.71040740966797E+0002   2.70872039794922E+0002   2.70681396484375E+0002   2.70472839355469E+0002   2.70247833251953E+0002   2.70001220703125E+0002   2.69736389160156E+0002   2.69467681884766E+0002   2.69207824707031E+0002   2.69000000000000E+0002   2.69000000000000E+0002   2.69000000000000E+0002   2.69000000000000E+0002   2.69000000000000E+0002   2.69000000000000E+0002   2.69000000000000E+0002   2.69000000000000E+0002   2.69000000000000E+0002   2.69000000000000E+0002   2.69000000000000E+0002   2.69000000000000E+0002   2.69000000000000E+0002   2.69000000000000E+0002   2.69000000000000E+0002   2.69000000000000E+0002   2.69000000000000E+0002   2.69000000000000E+0002   2.69000000000000E+0002   2.69000000000000E+0002   2.69000000000000E+0002   2.69000000000000E+0002
   2.69000000000000E+0002   2.69000000000000E+0002   2.69000000000000E+0002   2.69000000000000E+0002   2.69000000000000E+0002   2.69044403076172E+0002   2.69422882080078E+0002   2.69867065429688E+0002   2.70343933105469E+0002   2.70850646972656E+0002   2.71388336181641E+0002   2.71959289550781E+0002   2.72565826416016E+0002   2.73209808349609E+0002   2.73891784667969E+0002   2.74609954833984E+0002   2.75358367919922E+0002   2.76124572753906E+0002   2.76886413574219E+0002   2.77609161376953E+0002   2.78245147705078E+0002   2.78739349365234E+0002   2.79043884277344E+0002   2.79136901855469E+0002   2.79034332275391E+0002   2.78784545898438E+0002   2.78450531005859E+0002   2.78091949462891E+0002   2.77755523681641E+0002   2.77472961425781E+0002   2.77263183593750E+0002   2.77135314941406E+0002   2.77091796875000E+0002   2.77130157470703E+0002   2.77244354248047E+0002   2.77425445556641E+0002   2.77661376953125E+0002   2.77936828613281E+0002   2.78232421875000E+0002   2.78524810791016E+0002   2.78788085937500E+0002   2.78998016357422E+0002   2.79137512207031E+0002   2.79200225830078E+0002   2.79188842773438E+0002   2.79110626220703E+0002   2.78972900390625E+0002   2.78781158447266E+0002   2.78539093017578E+0002   2.78249298095703E+0002   2.77914215087891E+0002   2.77536437988281E+0002   2.77119201660156E+0002   2.76666351318359E+0002   2.76182464599609E+0002   2.75672729492188E+0002   2.75143096923828E+0002   2.74600189208984E+0002   2.74051666259766E+0002   2.73506072998047E+0002   2.72972930908203E+0002   2.72463409423828E+0002   2.71990539550781E+0002   2.71567077636719E+0002   2.71201812744141E+0002   2.70896392822266E+0002   2.70639587402344E+0002   2.70428375244141E+0002   2.70266265869141E+0002   2.70131225585938E+0002   2.70013031005859E+0002   2.69920593261719E+0002   2.69848999023438E+0002   2.69778442382813E+0002   2.69704376220703E+0002   2.69640075683594E+0002   2.69584442138672E+0002   2.69524932861328E+0002   2.69456420898438E+0002   2.69393615722656E+0002   2.69336120605469E+0002   2.69285583496094E+0002   2.69235321044922E+0002   2.69182098388672E+0002   2.69138336181641E+0002   2.69101867675781E+0002   2.69071624755859E+0002   2.69047790527344E+0002   2.69027923583984E+0002   2.69011505126953E+0002   2.69000122070313E+0002   2.68992584228516E+0002   2.68988037109375E+0002   2.68987701416016E+0002   2.68991851806641E+0002   2.68998809814453E+0002   2.69009063720703E+0002   2.69022979736328E+0002   2.69041198730469E+0002   2.69061706542969E+0002   2.69084442138672E+0002   2.69111938476563E+0002   2.69144409179688E+0002   2.69183227539063E+0002   2.69224578857422E+0002   2.69266387939453E+0002   2.69314056396484E+0002   2.69366851806641E+0002   2.69423339843750E+0002   2.69479370117188E+0002   2.69531951904297E+0002   2.69582183837891E+0002   2.69629272460938E+0002   2.69671295166016E+0002   2.69705932617188E+0002   2.69731842041016E+0002   2.69749084472656E+0002   2.69757659912109E+0002   2.69757141113281E+0002   2.69746917724609E+0002   2.69726776123047E+0002   2.69697143554688E+0002   2.69658233642578E+0002   2.69609741210938E+0002   2.69551025390625E+0002   2.69482147216797E+0002   2.69403839111328E+0002   2.69316650390625E+0002   2.69222137451172E+0002   2.69127685546875E+0002   2.69035797119141E+0002   2.69000000000000E+0002   2.69000000000000E+0002   2.69000000000000E+0002   2.69000000000000E+0002   2.69000000000000E+0002   2.69000000000000E+0002   2.69000000000000E+0002   2.69000000000000E+0002   2.69000000000000E+0002   2.69000000000000E+0002   2.69000000000000E+0002   2.69000000000000E+0002   2.69000000000000E+0002   2.69000000000000E+0002   2.69000000000000E+0002   2.69000000000000E+0002   2.69000000000000E+0002   2.69000000000000E+0002   2.69000000000000E+0002   2.69000000000000E+0002   2.69000000000000E+0002   2.69000000000000E+0002   2.69000000000000E+0002   2.69000000000000E+0002   2.69000000000000E+0002   2.69000000000000E+0002   2.69000000000000E+0002   2.69000000000000E+0002   2.69000000000000E+0002   2.69000000000000E+0002   2.69000000000000E+0002   2.69000000000000E+0002   2.69000000000000E+0002   2.69000000000000E+0002   2.69000000000000E+0002   2.69000000000000E+0002   2.69000000000000E+0002   2.69000000000000E+0002   2.69000000000000E+0002   2.69000000000000E+0002   2.69000000000000E+0002   2.69000000000000E+0002   2.69000000000000E+0002   2.69000000000000E+0002   2.69217926025391E+0002   2.69404144287109E+0002   2.69648162841797E+0002   2.69881378173828E+0002   2.70092590332031E+0002   2.70277557373047E+0002   2.70434692382813E+0002   2.70564056396484E+0002   2.70667449951172E+0002   2.70749053955078E+0002   2.70811279296875E+0002   2.70844177246094E+0002   2.70850769042969E+0002   2.70848815917969E+0002   2.70843536376953E+0002   2.70837982177734E+0002   2.70834014892578E+0002   2.70819702148438E+0002   2.70792755126953E+0002   2.70767578125000E+0002   2.70744873046875E+0002   2.70721313476563E+0002   2.70695159912109E+0002   2.70662872314453E+0002   2.70612121582031E+0002   2.70540588378906E+0002   2.70456573486328E+0002   2.70360595703125E+0002   2.70250183105469E+0002   2.70113983154297E+0002   2.69952026367188E+0002   2.69778991699219E+0002   2.69603668212891E+0002   2.69405303955078E+0002   2.69183624267578E+0002   2.69000000000000E+0002   2.69000000000000E+0002   2.69000000000000E+0002   2.69000000000000E+0002   2.69000000000000E+0002   2.69000000000000E+0002   2.69000000000000E+0002   2.69000000000000E+0002   2.69000000000000E+0002   2.69000000000000E+0002   2.69000000000000E+0002   2.69000000000000E+0002   2.69000000000000E+0002   2.69000000000000E+0002   2.69000000000000E+0002   2.69000000000000E+0002   2.69000000000000E+0002   2.69000000000000E+0002   2.69000000000000E+0002   2.69000000000000E+0002   2.69000000000000E+0002   2.69000000000000E+0002   2.69000000000000E+0002   2.69000000000000E+0002
   2.69000000000000E+0002   2.69000000000000E+0002   2.69000000000000E+0002   2.69000000000000E+0002   2.69000000000000E+0002   2.69000000000000E+0002   2.69275848388672E+0002   2.69681762695313E+0002   2.70133117675781E+0002   2.70614318847656E+0002   2.71122680664063E+0002   2.71658599853516E+0002   2.72222686767578E+0002   2.72814727783203E+0002   2.73433074951172E+0002   2.74073577880859E+0002   2.74728546142578E+0002   2.75385040283203E+0002   2.76023468017578E+0002   2.76617095947266E+0002   2.77133209228516E+0002   2.77537872314453E+0002   2.77804199218750E+0002   2.77921325683594E+0002   2.77899230957031E+0002   2.77766723632813E+0002   2.77562896728516E+0002   2.77328033447266E+0002   2.77096801757813E+0002   2.76895446777344E+0002   2.76741668701172E+0002   2.76645690917969E+0002   2.76611907958984E+0002   2.76640014648438E+0002   2.76726043701172E+0002   2.76862884521484E+0002   2.77040588378906E+0002   2.77246307373047E+0002   2.77464508056641E+0002   2.77677368164063E+0002   2.77866394042969E+0002   2.78014709472656E+0002   2.78109802246094E+0002   2.78145111083984E+0002   2.78119476318359E+0002   2.78035247802734E+0002   2.77895965576172E+0002   2.77705047607422E+0002   2.77465301513672E+0002   2.77179046630859E+0002   2.76848419189453E+0002   2.76475799560547E+0002   2.76063812255859E+0002   2.75615753173828E+0002   2.75135406494141E+0002   2.74627319335938E+0002   2.74096740722656E+0002   2.73549957275391E+0002   2.72994781494141E+0002   2.72440399169922E+0002   2.71897247314453E+0002   2.71377777099609E+0002   2.70901184082031E+0002   2.70488555908203E+0002   2.70152069091797E+0002   2.69903503417969E+0002   2.69698913574219E+0002   2.69529449462891E+0002   2.69445465087891E+0002   2.69375152587891E+0002   2.69290252685547E+0002   2.69249267578125E+0002   2.69242858886719E+0002   2.69220764160156E+0002   2.69169097900391E+0002   2.69145538330078E+0002   2.69139312744141E+0002   2.69133239746094E+0002   2.69084228515625E+0002   2.69061737060547E+0002   2.69042266845703E+0002   2.69036712646484E+0002   2.69038055419922E+0002   2.69009826660156E+0002   2.69000000000000E+0002   2.69000000000000E+0002   2.69000000000000E+0002   2.69000000000000E+0002   2.69000000000000E+0002   2.69000000000000E+0002   2.69000000000000E+0002   2.69000000000000E+0002   2.69000000000000E+0002   2.69000000000000E+0002   2.69000000000000E+0002   2.69000000000000E+0002   2.69000000000000E+0002   2.69000000000000E+0002   2.69004333496094E+0002   2.69006744384766E+0002   2.69007019042969E+0002   2.69011566162109E+0002   2.69020385742188E+0002   2.69039916992188E+0002   2.69062377929688E+0002   2.69074493408203E+0002   2.69102752685547E+0002   2.69138641357422E+0002   2.69184936523438E+0002   2.69232879638672E+0002   2.69272766113281E+0002   2.69317169189453E+0002   2.69362182617188E+0002   2.69405151367188E+0002   2.69441314697266E+0002   2.69467895507813E+0002   2.69487365722656E+0002   2.69499816894531E+0002   2.69504211425781E+0002   2.69498687744141E+0002   2.69482696533203E+0002   2.69457702636719E+0002   2.69424407958984E+0002   2.69382415771484E+0002   2.69329376220703E+0002   2.69265869140625E+0002   2.69195190429688E+0002   2.69118835449219E+0002   2.69041259765625E+0002   2.69000000000000E+0002   2.69000000000000E+0002   2.69000000000000E+0002   2.69000000000000E+0002   2.69000000000000E+0002   2.69000000000000E+0002   2.69000000000000E+0002   2.69000000000000E+0002   2.69000000000000E+0002   2.69000000000000E+0002   2.69000000000000E+0002   2.69000000000000E+0002   2.69000000000000E+0002   2.69000000000000E+0002   2.69000000000000E+0002   2.69000000000000E+0002   2.69000000000000E+0002   2.69000000000000E+0002   2.69000000000000E+0002   2.69000000000000E+0002   2.69000000000000E+0002   2.69000000000000E+0002   2.69000000000000E+0002   2.69000000000000E+0002   2.69000000000000E+0002   2.69000000000000E+0002   2.69000000000000E+0002   2.69000000000000E+0002   2.69000000000000E+0002   2.69000000000000E+0002   2.69000000000000E+0002   2.69000000000000E+0002   2.69000000000000E+0002   2.69000000000000E+0002   2.69000000000000E+0002   2.69000000000000E+0002   2.69000000000000E+0002   2.69000000000000E+0002   2.69000000000000E+0002   2.69000000000000E+0002   2.69000000000000E+0002   2.69000000000000E+0002   2.69000000000000E+0002   2.69000000000000E+0002   2.69000000000000E+0002   2.69000000000000E+0002   2.69000000000000E+0002   2.69000000000000E+0002   2.69000000000000E+0002   2.69098419189453E+0002   2.69246704101563E+0002   2.69381134033203E+0002   2.69497558593750E+0002   2.69593627929688E+0002   2.69669372558594E+0002   2.69729949951172E+0002   2.69797241210938E+0002   2.69819641113281E+0002   2.69796112060547E+0002   2.69789642333984E+0002   2.69785064697266E+0002   2.69784484863281E+0002   2.69808929443359E+0002   2.69813110351563E+0002   2.69776062011719E+0002   2.69767395019531E+0002   2.69765991210938E+0002   2.69765106201172E+0002   2.69764892578125E+0002   2.69775390625000E+0002   2.69752655029297E+0002   2.69694183349609E+0002   2.69639526367188E+0002   2.69576873779297E+0002   2.69516418457031E+0002   2.69421508789063E+0002   2.69282348632813E+0002   2.69156585693359E+0002   2.69048278808594E+0002   2.69000000000000E+0002   2.69000000000000E+0002   2.69000000000000E+0002   2.69000000000000E+0002   2.69000000000000E+0002   2.69000000000000E+0002   2.69000000000000E+0002   2.69000000000000E+0002   2.69000000000000E+0002   2.69000000000000E+0002   2.69000000000000E+0002   2.69000000000000E+0002   2.69000000000000E+0002   2.69000000000000E+0002   2.69000000000000E+0002   2.69000000000000E+0002   2.69000000000000E+0002   2.69000000000000E+0002   2.69000000000000E+0002   2.69000000000000E+0002   2.69000000000000E+0002   2.69000000000000E+0002   2.69000000000000E+0002   2.69000000000000E+0002   2.69000000000000E+0002   2.69000000000000E+0002
   2.69000000000000E+0002   2.69000000000000E+0002   2.69000000000000E+0002   2.69000000000000E+0002   2.69000000000000E+0002   2.69000000000000E+0002   2.69110321044922E+0002   2.69473968505859E+0002   2.69899444580078E+0002   2.70352691650391E+0002   2.70829895019531E+0002   2.71329803466797E+0002   2.71851379394531E+0002   2.72392974853516E+0002   2.72951538085938E+0002   2.73521942138672E+0002   2.74096099853516E+0002   2.74662200927734E+0002   2.75204223632813E+0002   2.75702178955078E+0002   2.76133666992188E+0002   2.76477294921875E+0002   2.76717254638672E+0002   2.76847900390625E+0002   2.76876159667969E+0002   2.76820129394531E+0002   2.76705230712891E+0002   2.76558959960938E+0002   2.76406677246094E+0002   2.76269073486328E+0002   2.76161315917969E+0002   2.76093139648438E+0002   2.76069549560547E+0002   2.76091461181641E+0002   2.76156402587891E+0002   2.76259002685547E+0002   2.76391296386719E+0002   2.76542938232422E+0002   2.76701660156250E+0002   2.76853973388672E+0002   2.76986114501953E+0002   2.77085601806641E+0002   2.77142791748047E+0002   2.77151428222656E+0002   2.77108856201172E+0002   2.77014831542969E+0002   2.76870544433594E+0002   2.76677703857422E+0002   2.76438018798828E+0002   2.76153167724609E+0002   2.75824737548828E+0002   2.75454559326172E+0002   2.75044677734375E+0002   2.74597595214844E+0002   2.74116424560547E+0002   2.73604949951172E+0002   2.73067718505859E+0002   2.72510406494141E+0002   2.71941406250000E+0002   2.71372314453125E+0002   2.70815979003906E+0002   2.70283477783203E+0002   2.69805145263672E+0002   2.69430969238281E+0002   2.69161254882813E+0002   2.69000000000000E+0002   2.69000000000000E+0002   2.69000000000000E+0002   2.69000000000000E+0002   2.69000000000000E+0002   2.69000000000000E+0002   2.69000000000000E+0002   2.69000000000000E+0002   2.69000000000000E+0002   2.69000000000000E+0002   2.69000000000000E+0002   2.69000000000000E+0002   2.69000000000000E+0002   2.69000000000000E+0002   2.69000000000000E+0002   2.69000000000000E+0002   2.69000000000000E+0002   2.69000000000000E+0002   2.69000000000000E+0002   2.69000000000000E+0002   2.69000000000000E+0002   2.69000000000000E+0002   2.69000000000000E+0002   2.69000000000000E+0002   2.69000000000000E+0002   2.69000000000000E+0002   2.69000000000000E+0002   2.69000000000000E+0002   2.69000000000000E+0002   2.69000000000000E+0002   2.69000000000000E+0002   2.69000000000000E+0002   2.69000000000000E+0002   2.69000000000000E+0002   2.69000000000000E+0002   2.69000000000000E+0002   2.69000000000000E+0002   2.69000000000000E+0002   2.69000000000000E+0002   2.69000000000000E+0002   2.69000000000000E+0002   2.69000000000000E+0002   2.69000000000000E+0002   2.69000000000000E+0002   2.69031555175781E+0002   2.69041198730469E+0002   2.69075378417969E+0002   2.69113952636719E+0002   2.69157928466797E+0002   2.69196136474609E+0002   2.69217834472656E+0002   2.69238922119141E+0002   2.69255126953125E+0002   2.69265808105469E+0002   2.69265502929688E+0002   2.69251800537109E+0002   2.69231475830078E+0002   2.69204528808594E+0002   2.69173217773438E+0002   2.69128692626953E+0002   2.69072540283203E+0002   2.69019439697266E+0002   2.69000000000000E+0002   2.69000000000000E+0002   2.69000000000000E+0002   2.69000000000000E+0002   2.69000000000000E+0002   2.69000000000000E+0002   2.69000000000000E+0002   2.69000000000000E+0002   2.69000000000000E+0002   2.69000000000000E+0002   2.69000000000000E+0002   2.69000000000000E+0002   2.69000000000000E+0002   2.69000000000000E+0002   2.69000000000000E+0002   2.69000000000000E+0002   2.69000000000000E+0002   2.69000000000000E+0002   2.69000000000000E+0002   2.69000000000000E+0002   2.69000000000000E+0002   2.69000000000000E+0002   2.69000000000000E+0002   2.69000000000000E+0002   2.69000000000000E+0002   2.69000000000000E+0002   2.69000000000000E+0002   2.69000000000000E+0002   2.69000000000000E+0002   2.69000000000000E+0002   2.69000000000000E+0002   2.69000000000000E+0002   2.69000000000000E+0002   2.69000000000000E+0002   2.69000000000000E+0002   2.69000000000000E+0002   2.69000000000000E+0002   2.69000000000000E+0002   2.69000000000000E+0002   2.69000000000000E+0002   2.69000000000000E+0002   2.69000000000000E+0002   2.69000000000000E+0002   2.69000000000000E+0002   2.69000000000000E+0002   2.69000000000000E+0002   2.69000000000000E+0002   2.69000000000000E+0002   2.69000000000000E+0002   2.69000000000000E+0002   2.69000000000000E+0002   2.69000000000000E+0002   2.69000000000000E+0002   2.69000000000000E+0002   2.69000000000000E+0002   2.69000000000000E+0002   2.69000000000000E+0002   2.69000000000000E+0002   2.69000000000000E+0002   2.69000000000000E+0002   2.69000000000000E+0002   2.69000000000000E+0002   2.69000000000000E+0002   2.69000000000000E+0002   2.69000000000000E+0002   2.69000000000000E+0002   2.69000000000000E+0002   2.69000000000000E+0002   2.69000000000000E+0002   2.69000000000000E+0002   2.69000000000000E+0002   2.69000000000000E+0002   2.69000000000000E+0002   2.69000000000000E+0002   2.69000000000000E+0002   2.69000000000000E+0002   2.69000000000000E+0002   2.69000000000000E+0002   2.69000000000000E+0002   2.69000000000000E+0002   2.69000000000000E+0002   2.69000000000000E+0002   2.69000000000000E+0002   2.69000000000000E+0002   2.69000000000000E+0002   2.69000000000000E+0002   2.69000000000000E+0002   2.69000000000000E+0002   2.69000000000000E+0002   2.69000000000000E+0002   2.69000000000000E+0002   2.69000000000000E+0002   2.69000000000000E+0002   2.69000000000000E+0002   2.69000000000000E+0002   2.69000000000000E+0002   2.69000000000000E+0002   2.69000000000000E+0002   2.69000000000000E+0002   2.69000000000000E+0002   2.69000000000000E+0002   2.69000000000000E+0002   2.69000000000000E+0002   2.69000000000000E+0002   2.69000000000000E+0002   2.69000000000000E+0002   2.69000000000000E+0002
   2.69000000000000E+0002   2.69000000000000E+0002   2.69000000000000E+0002   2.69000000000000E+0002   2.69000000000000E+0002   2.69000000000000E+0002   2.69000000000000E+0002   2.69265441894531E+0002   2.69649932861328E+0002   2.70070373535156E+0002   2.70515441894531E+0002   2.70979583740234E+0002   2.71459991455078E+0002   2.71953948974609E+0002   2.72457702636719E+0002   2.72965911865234E+0002   2.73470977783203E+0002   2.73962768554688E+0002   2.74428619384766E+0002   2.74853790283203E+0002   2.75222900390625E+0002   2.75522064208984E+0002   2.75741699218750E+0002   2.75878875732422E+0002   2.75938507080078E+0002   2.75932678222656E+0002   2.75878509521484E+0002   2.75795104980469E+0002   2.75700927734375E+0002   2.75611968994141E+0002   2.75540588378906E+0002   2.75495361328125E+0002   2.75481109619141E+0002   2.75499359130859E+0002   2.75548675537109E+0002   2.75625061035156E+0002   2.75722290039063E+0002   2.75832214355469E+0002   2.75945251464844E+0002   2.76050964355469E+0002   2.76138885498047E+0002   2.76199462890625E+0002   2.76224822998047E+0002   2.76209411621094E+0002   2.76149871826172E+0002   2.76044708251953E+0002   2.75893646240234E+0002   2.75697143554688E+0002   2.75455902099609E+0002   2.75170837402344E+0002   2.74842895507813E+0002   2.74473144531250E+0002   2.74062896728516E+0002   2.73613891601563E+0002   2.73128448486328E+0002   2.72609771728516E+0002   2.72062011718750E+0002   2.71489868164063E+0002   2.70902252197266E+0002   2.70324157714844E+0002   2.69768096923828E+0002   2.69304382324219E+0002   2.69000000000000E+0002   2.69000000000000E+0002   2.69000000000000E+0002   2.69000000000000E+0002   2.69000000000000E+0002   2.69000000000000E+0002   2.69000000000000E+0002   2.69000000000000E+0002   2.69000000000000E+0002   2.69000000000000E+0002   2.69000000000000E+0002   2.69000000000000E+0002   2.69000000000000E+0002   2.69000000000000E+0002   2.69000000000000E+0002   2.69000000000000E+0002   2.69000000000000E+0002   2.69000000000000E+0002   2.69000000000000E+0002   2.69000000000000E+0002   2.69000000000000E+0002   2.69000000000000E+0002   2.69000000000000E+0002   2.69000000000000E+0002   2.69000000000000E+0002   2.69000000000000E+0002   2.69000000000000E+0002   2.69000000000000E+0002   2.69000000000000E+0002   2.69000000000000E+0002   2.69000000000000E+0002   2.69000000000000E+0002   2.69000000000000E+0002   2.69000000000000E+0002   2.69000000000000E+0002   2.69000000000000E+0002   2.69000000000000E+0002   2.69000000000000E+0002   2.69000000000000E+0002   2.69000000000000E+0002   2.69000000000000E+0002   2.69000000000000E+0002   2.69000000000000E+0002   2.69000000000000E+0002   2.69000000000000E+0002   2.69000000000000E+0002   2.69000000000000E+0002   2.69000000000000E+0002   2.69000000000000E+0002   2.69000000000000E+0002   2.69000000000000E+0002   2.69000000000000E+0002   2.69000000000000E+0002   2.69011566162109E+0002   2.69026184082031E+0002   2.69040527343750E+0002   2.69057678222656E+0002   2.69066345214844E+0002   2.69048553466797E+0002   2.69035461425781E+0002   2.69017181396484E+0002   2.69000000000000E+0002   2.69000000000000E+0002   2.69000000000000E+0002   2.69000000000000E+0002   2.69000000000000E+0002   2.69000000000000E+0002   2.69000000000000E+0002   2.69000000000000E+0002   2.69000000000000E+0002   2.69000000000000E+0002   2.69000000000000E+0002   2.69000000000000E+0002   2.69000000000000E+0002   2.69000000000000E+0002   2.69000000000000E+0002   2.69000000000000E+0002   2.69000000000000E+0002   2.69000000000000E+0002   2.69000000000000E+0002   2.69000000000000E+0002   2.69000000000000E+0002   2.69000000000000E+0002   2.69000000000000E+0002   2.69000000000000E+0002   2.69000000000000E+0002   2.69000000000000E+0002   2.69000000000000E+0002   2.69000000000000E+0002   2.69000000000000E+0002   2.69000000000000E+0002   2.69000000000000E+0002   2.69000000000000E+0002   2.69000000000000E+0002   2.69000000000000E+0002   2.69000000000000E+0002   2.69000000000000E+0002   2.69000000000000E+0002   2.69000000000000E+0002   2.69000000000000E+0002   2.69000000000000E+0002   2.69000000000000E+0002   2.69000000000000E+0002   2.69000000000000E+0002   2.69000000000000E+0002   2.69000000000000E+0002   2.69000000000000E+0002   2.69000000000000E+0002   2.69000000000000E+0002   2.69000000000000E+0002   2.69000000000000E+0002   2.69000000000000E+0002   2.69000000000000E+0002   2.69000000000000E+0002   2.69000000000000E+0002   2.69000000000000E+0002   2.69000000000000E+0002   2.69000000000000E+0002   2.69000000000000E+0002   2.69000000000000E+0002   2.69000000000000E+0002   2.69000000000000E+0002   2.69000000000000E+0002   2.69000000000000E+0002   2.69000000000000E+0002   2.69000000000000E+0002   2.69000000000000E+0002   2.69000000000000E+0002   2.69000000000000E+0002   2.69000000000000E+0002   2.69000000000000E+0002   2.69000000000000E+0002   2.69000000000000E+0002   2.69000000000000E+0002   2.69000000000000E+0002   2.69000000000000E+0002   2.69000000000000E+0002   2.69000000000000E+0002   2.69000000000000E+0002   2.69000000000000E+0002   2.69000000000000E+0002   2.69000000000000E+0002   2.69000000000000E+0002   2.69000000000000E+0002   2.69000000000000E+0002   2.69000000000000E+0002   2.69000000000000E+0002   2.69000000000000E+0002   2.69000000000000E+0002   2.69000000000000E+0002   2.69000000000000E+0002   2.69000000000000E+0002   2.69000000000000E+0002   2.69000000000000E+0002   2.69000000000000E+0002   2.69000000000000E+0002   2.69000000000000E+0002   2.69000000000000E+0002   2.69000000000000E+0002   2.69000000000000E+0002   2.69000000000000E+0002   2.69000000000000E+0002   2.69000000000000E+0002   2.69000000000000E+0002   2.69000000000000E+0002   2.69000000000000E+0002   2.69000000000000E+0002   2.69000000000000E+0002   2.69000000000000E+0002   2.69000000000000E+0002   2.69000000000000E+0002   2.69000000000000E+0002
   2.69000000000000E+0002   2.69000000000000E+0002   2.69000000000000E+0002   2.69000000000000E+0002   2.69000000000000E+0002   2.69000000000000E+0002   2.69000000000000E+0002   2.69081817626953E+0002   2.69385772705078E+0002   2.69771606445313E+0002   2.70184600830078E+0002   2.70613922119141E+0002   2.71055175781250E+0002   2.71504943847656E+0002   2.71959136962891E+0002   2.72412628173828E+0002   2.72858642578125E+0002   2.73288909912109E+0002   2.73693542480469E+0002   2.74061706542969E+0002   2.74382751464844E+0002   2.74647491455078E+0002   2.74849914550781E+0002   2.74988586425781E+0002   2.75067138671875E+0002   2.75093933105469E+0002   2.75080871582031E+0002   2.75041503906250E+0002   2.74989379882813E+0002   2.74936614990234E+0002   2.74893127441406E+0002   2.74866027832031E+0002   2.74859680175781E+0002   2.74875762939453E+0002   2.74913513183594E+0002   2.74970001220703E+0002   2.75040344238281E+0002   2.75118225097656E+0002   2.75196105957031E+0002   2.75265869140625E+0002   2.75319335937500E+0002   2.75348876953125E+0002   2.75348052978516E+0002   2.75311828613281E+0002   2.75236724853516E+0002   2.75120605468750E+0002   2.74962280273438E+0002   2.74761322021484E+0002   2.74517669677734E+0002   2.74231475830078E+0002   2.73902954101563E+0002   2.73532440185547E+0002   2.73120300292969E+0002   2.72667419433594E+0002   2.72175476074219E+0002   2.71647491455078E+0002   2.71089508056641E+0002   2.70509674072266E+0002   2.69905609130859E+0002   2.69368835449219E+0002   2.69000000000000E+0002   2.69000000000000E+0002   2.69000000000000E+0002   2.69000000000000E+0002   2.69000000000000E+0002   2.69000000000000E+0002   2.69000000000000E+0002   2.69000000000000E+0002   2.69000000000000E+0002   2.69000000000000E+0002   2.69000000000000E+0002   2.69000000000000E+0002   2.69000000000000E+0002   2.69000000000000E+0002   2.69000000000000E+0002   2.69000000000000E+0002   2.69000000000000E+0002   2.69000000000000E+0002   2.69000000000000E+0002   2.69000000000000E+0002   2.69000000000000E+0002   2.69000000000000E+0002   2.69000000000000E+0002   2.69000000000000E+0002   2.69000000000000E+0002   2.69000000000000E+0002   2.69000000000000E+0002   2.69000000000000E+0002   2.69000000000000E+0002   2.69000000000000E+0002   2.69000000000000E+0002   2.69000000000000E+0002   2.69000000000000E+0002   2.69000000000000E+0002   2.69000000000000E+0002   2.69000000000000E+0002   2.69000000000000E+0002   2.69000000000000E+0002   2.69000000000000E+0002   2.69000000000000E+0002   2.69000000000000E+0002   2.69000000000000E+0002   2.69000000000000E+0002   2.69000000000000E+0002   2.69000000000000E+0002   2.69000000000000E+0002   2.69000000000000E+0002   2.69000000000000E+0002   2.69000000000000E+0002   2.69000000000000E+0002   2.69000000000000E+0002   2.69000000000000E+0002   2.69000000000000E+0002   2.69000000000000E+0002   2.69000000000000E+0002   2.69000000000000E+0002   2.69000000000000E+0002   2.69000000000000E+0002   2.69000000000000E+0002   2.69000000000000E+0002   2.69000000000000E+0002   2.69000000000000E+0002   2.69000000000000E+0002   2.69000000000000E+0002   2.69000000000000E+0002   2.69000000000000E+0002   2.69000000000000E+0002   2.69000000000000E+0002   2.69000000000000E+0002   2.69000000000000E+0002   2.69000000000000E+0002   2.69000000000000E+0002   2.69000000000000E+0002   2.69000000000000E+0002   2.69000000000000E+0002   2.69000000000000E+0002   2.69000000000000E+0002   2.69000000000000E+0002   2.69000000000000E+0002   2.69000000000000E+0002   2.69000000000000E+0002   2.69000000000000E+0002   2.69000000000000E+0002   2.69000000000000E+0002   2.69000000000000E+0002   2.69000000000000E+0002   2.69000000000000E+0002   2.69000000000000E+0002   2.69000000000000E+0002   2.69000000000000E+0002   2.69000000000000E+0002   2.69000000000000E+0002   2.69000000000000E+0002   2.69000000000000E+0002   2.69000000000000E+0002   2.69000000000000E+0002   2.69000000000000E+0002   2.69000000000000E+0002   2.69000000000000E+0002   2.69000000000000E+0002   2.69000000000000E+0002   2.69000000000000E+0002   2.69000000000000E+0002   2.69000000000000E+0002   2.69000000000000E+0002   2.69000000000000E+0002   2.69000000000000E+0002   2.69000000000000E+0002   2.69000000000000E+0002   2.69000000000000E+0002   2.69000000000000E+0002   2.69000000000000E+0002   2.69000000000000E+0002   2.69000000000000E+0002   2.69000000000000E+0002   2.69000000000000E+0002   2.69000000000000E+0002   2.69000000000000E+0002   2.69000000000000E+0002   2.69000000000000E+0002   2.69000000000000E+0002   2.69000000000000E+0002   2.69000000000000E+0002   2.69000000000000E+0002   2.69000000000000E+0002   2.69000000000000E+0002   2.69000000000000E+0002   2.69000000000000E+0002   2.69000000000000E+0002   2.69000000000000E+0002   2.69000000000000E+0002   2.69000000000000E+0002   2.69000000000000E+0002   2.69000000000000E+0002   2.69000000000000E+0002   2.69000000000000E+0002   2.69000000000000E+0002   2.69000000000000E+0002   2.69000000000000E+0002   2.69000000000000E+0002   2.69000000000000E+0002   2.69000000000000E+0002   2.69000000000000E+0002   2.69000000000000E+0002   2.69000000000000E+0002   2.69000000000000E+0002   2.69000000000000E+0002   2.69000000000000E+0002   2.69000000000000E+0002   2.69000000000000E+0002   2.69000000000000E+0002   2.69000000000000E+0002   2.69000000000000E+0002   2.69000000000000E+0002   2.69000000000000E+0002   2.69000000000000E+0002   2.69000000000000E+0002   2.69000000000000E+0002   2.69000000000000E+0002   2.69000000000000E+0002   2.69000000000000E+0002   2.69000000000000E+0002   2.69000000000000E+0002   2.69000000000000E+0002   2.69000000000000E+0002   2.69000000000000E+0002   2.69000000000000E+0002   2.69000000000000E+0002   2.69000000000000E+0002   2.69000000000000E+0002   2.69000000000000E+0002   2.69000000000000E+0002   2.69000000000000E+0002   2.69000000000000E+0002
   2.69000000000000E+0002   2.69000000000000E+0002   2.69000000000000E+0002   2.69000000000000E+0002   2.69000000000000E+0002   2.69000000000000E+0002   2.69000000000000E+0002   2.69000000000000E+0002   2.69127044677734E+0002   2.69466064453125E+0002   2.69843719482422E+0002   2.70238372802734E+0002   2.70642517089844E+0002   2.71051574707031E+0002   2.71461212158203E+0002   2.71866546630859E+0002   2.72261871337891E+0002   2.72640502929688E+0002   2.72994873046875E+0002   2.73317047119141E+0002   2.73599487304688E+0002   2.73835998535156E+0002   2.74022796630859E+0002   2.74159240722656E+0002   2.74248077392578E+0002   2.74295379638672E+0002   2.74309539794922E+0002   2.74300415039063E+0002   2.74278015136719E+0002   2.74251556396484E+0002   2.74228790283203E+0002   2.74215515136719E+0002   2.74215423583984E+0002   2.74230163574219E+0002   2.74259338378906E+0002   2.74300750732422E+0002   2.74350677490234E+0002   2.74404113769531E+0002   2.74455108642578E+0002   2.74497192382813E+0002   2.74523864746094E+0002   2.74528900146484E+0002   2.74506896972656E+0002   2.74453338623047E+0002   2.74364807128906E+0002   2.74238800048828E+0002   2.74073638916016E+0002   2.73868286132813E+0002   2.73622039794922E+0002   2.73334503173828E+0002   2.73005249023438E+0002   2.72633758544922E+0002   2.72219451904297E+0002   2.71762298583984E+0002   2.71263763427734E+0002   2.70727813720703E+0002   2.70165313720703E+0002   2.69619079589844E+0002   2.69128814697266E+0002   2.69000000000000E+0002   2.69000000000000E+0002   2.69000000000000E+0002   2.69000000000000E+0002   2.69000000000000E+0002   2.69000000000000E+0002   2.69000000000000E+0002   2.69000000000000E+0002   2.69000000000000E+0002   2.69000000000000E+0002   2.69000000000000E+0002   2.69000000000000E+0002   2.69000000000000E+0002   2.69000000000000E+0002   2.69000000000000E+0002   2.69000000000000E+0002   2.69000000000000E+0002   2.69000000000000E+0002   2.69000000000000E+0002   2.69000000000000E+0002   2.69000000000000E+0002   2.69000000000000E+0002   2.69000000000000E+0002   2.69000000000000E+0002   2.69000000000000E+0002   2.69000000000000E+0002   2.69000000000000E+0002   2.69000000000000E+0002   2.69000000000000E+0002   2.69000000000000E+0002   2.69000000000000E+0002   2.69000000000000E+0002   2.69000000000000E+0002   2.69000000000000E+0002   2.69000000000000E+0002   2.69000000000000E+0002   2.69000000000000E+0002   2.69000000000000E+0002   2.69000000000000E+0002   2.69000000000000E+0002   2.69000000000000E+0002   2.69000000000000E+0002   2.69000000000000E+0002   2.69000000000000E+0002   2.69000000000000E+0002   2.69000000000000E+0002   2.69000000000000E+0002   2.69000000000000E+0002   2.69000000000000E+0002   2.69000000000000E+0002   2.69000000000000E+0002   2.69000000000000E+0002   2.69000000000000E+0002   2.69000000000000E+0002   2.69000000000000E+0002   2.69000000000000E+0002   2.69000000000000E+0002   2.69000000000000E+0002   2.69000000000000E+0002   2.69000000000000E+0002   2.69000000000000E+0002   2.69000000000000E+0002   2.69000000000000E+0002   2.69000000000000E+0002   2.69000000000000E+0002   2.69000000000000E+0002   2.69000000000000E+0002   2.69000000000000E+0002   2.69000000000000E+0002   2.69000000000000E+0002   2.69000000000000E+0002   2.69000000000000E+0002   2.69000000000000E+0002   2.69000000000000E+0002   2.69000000000000E+0002   2.69000000000000E+0002   2.69000000000000E+0002   2.69000000000000E+0002   2.69000000000000E+0002   2.69000000000000E+0002   2.69000000000000E+0002   2.69000000000000E+0002   2.69000000000000E+0002   2.69000000000000E+0002   2.69000000000000E+0002   2.69000000000000E+0002   2.69000000000000E+0002   2.69000000000000E+0002   2.69000000000000E+0002   2.69000000000000E+0002   2.69000000000000E+0002   2.69000000000000E+0002   2.69000000000000E+0002   2.69000000000000E+0002   2.69000000000000E+0002   2.69000000000000E+0002   2.69000000000000E+0002   2.69000000000000E+0002   2.69000000000000E+0002   2.69000000000000E+0002   2.69000000000000E+0002   2.69000000000000E+0002   2.69000000000000E+0002   2.69000000000000E+0002   2.69000000000000E+0002   2.69000000000000E+0002   2.69000000000000E+0002   2.69000000000000E+0002   2.69000000000000E+0002   2.69000000000000E+0002   2.69000000000000E+0002   2.69000000000000E+0002   2.69000000000000E+0002   2.69000000000000E+0002   2.69000000000000E+0002   2.69000000000000E+0002   2.69000000000000E+0002   2.69000000000000E+0002   2.69000000000000E+0002   2.69000000000000E+0002   2.69000000000000E+0002   2.69000000000000E+0002   2.69000000000000E+0002   2.69000000000000E+0002   2.69000000000000E+0002   2.69000000000000E+0002   2.69000000000000E+0002   2.69000000000000E+0002   2.69000000000000E+0002   2.69000000000000E+0002   2.69000000000000E+0002   2.69000000000000E+0002   2.69000000000000E+0002   2.69000000000000E+0002   2.69000000000000E+0002   2.69000000000000E+0002   2.69000000000000E+0002   2.69000000000000E+0002   2.69000000000000E+0002   2.69000000000000E+0002   2.69000000000000E+0002   2.69000000000000E+0002   2.69000000000000E+0002   2.69000000000000E+0002   2.69000000000000E+0002   2.69000000000000E+0002   2.69000000000000E+0002   2.69000000000000E+0002   2.69000000000000E+0002   2.69000000000000E+0002   2.69000000000000E+0002   2.69000000000000E+0002   2.69000000000000E+0002   2.69000000000000E+0002   2.69000000000000E+0002   2.69000000000000E+0002   2.69000000000000E+0002   2.69000000000000E+0002   2.69000000000000E+0002   2.69000000000000E+0002   2.69000000000000E+0002   2.69000000000000E+0002   2.69000000000000E+0002   2.69000000000000E+0002   2.69000000000000E+0002   2.69000000000000E+0002   2.69000000000000E+0002   2.69000000000000E+0002   2.69000000000000E+0002   2.69000000000000E+0002   2.69000000000000E+0002   2.69000000000000E+0002   2.69000000000000E+0002   2.69000000000000E+0002   2.69000000000000E+0002
   2.69000000000000E+0002   2.69000000000000E+0002   2.69000000000000E+0002   2.69000000000000E+0002   2.69000000000000E+0002   2.69000000000000E+0002   2.69000000000000E+0002   2.69000000000000E+0002   2.69000000000000E+0002   2.69174194335938E+0002   2.69502044677734E+0002   2.69858917236328E+0002   2.70227020263672E+0002   2.70598449707031E+0002   2.70967803955078E+0002   2.71330474853516E+0002   2.71681762695313E+0002   2.72016357421875E+0002   2.72328521728516E+0002   2.72612396240234E+0002   2.72862518310547E+0002   2.73074768066406E+0002   2.73246643066406E+0002   2.73377990722656E+0002   2.73471008300781E+0002   2.73530120849609E+0002   2.73561553955078E+0002   2.73572509765625E+0002   2.73570495605469E+0002   2.73562500000000E+0002   2.73554595947266E+0002   2.73551422119141E+0002   2.73556030273438E+0002   2.73569824218750E+0002   2.73592620849609E+0002   2.73622802734375E+0002   2.73657379150391E+0002   2.73692382812500E+0002   2.73722991943359E+0002   2.73744018554688E+0002   2.73750122070313E+0002   2.73736175537109E+0002   2.73697509765625E+0002   2.73630035400391E+0002   2.73530517578125E+0002   2.73396270751953E+0002   2.73225311279297E+0002   2.73016204833984E+0002   2.72767822265625E+0002   2.72479431152344E+0002   2.72150238037109E+0002   2.71779144287109E+0002   2.71364288330078E+0002   2.70904937744141E+0002   2.70405059814453E+0002   2.69875213623047E+0002   2.69344970703125E+0002   2.69000000000000E+0002   2.69000000000000E+0002   2.69000000000000E+0002   2.69000000000000E+0002   2.69000000000000E+0002   2.69000000000000E+0002   2.69000000000000E+0002   2.69000000000000E+0002   2.69000000000000E+0002   2.69000000000000E+0002   2.69000000000000E+0002   2.69000000000000E+0002   2.69000000000000E+0002   2.69000000000000E+0002   2.69000000000000E+0002   2.69000000000000E+0002   2.69000000000000E+0002   2.69000000000000E+0002   2.69000000000000E+0002   2.69000000000000E+0002   2.69000000000000E+0002   2.69000000000000E+0002   2.69000000000000E+0002   2.69000000000000E+0002   2.69000000000000E+0002   2.69000000000000E+0002   2.69000000000000E+0002   2.69000000000000E+0002   2.69000000000000E+0002   2.69000000000000E+0002   2.69000000000000E+0002   2.69000000000000E+0002   2.69000000000000E+0002   2.69000000000000E+0002   2.69000000000000E+0002   2.69000000000000E+0002   2.69000000000000E+0002   2.69000000000000E+0002   2.69000000000000E+0002   2.69000000000000E+0002   2.69000000000000E+0002   2.69000000000000E+0002   2.69000000000000E+0002   2.69000000000000E+0002   2.69000000000000E+0002   2.69000000000000E+0002   2.69000000000000E+0002   2.69000000000000E+0002   2.69000000000000E+0002   2.69000000000000E+0002   2.69000000000000E+0002   2.69000000000000E+0002   2.69000000000000E+0002   2.69000000000000E+0002   2.69000000000000E+0002   2.69000000000000E+0002   2.69000000000000E+0002   2.69000000000000E+0002   2.69000000000000E+0002   2.69000000000000E+0002   2.69000000000000E+0002   2.69000000000000E+0002   2.69000000000000E+0002   2.69000000000000E+0002   2.69000000000000E+0002   2.69000000000000E+0002   2.69000000000000E+0002   2.69000000000000E+0002   2.69000000000000E+0002   2.69000000000000E+0002   2.69000000000000E+0002   2.69000000000000E+0002   2.69000000000000E+0002   2.69000000000000E+0002   2.69000000000000E+0002   2.69000000000000E+0002   2.69000000000000E+0002   2.69000000000000E+0002   2.69000000000000E+0002   2.69000000000000E+0002   2.69000000000000E+0002   2.69000000000000E+0002   2.69000000000000E+0002   2.69000000000000E+0002   2.69000000000000E+0002   2.69000000000000E+0002   2.69000000000000E+0002   2.69000000000000E+0002   2.69000000000000E+0002   2.69000000000000E+0002   2.69000000000000E+0002   2.69000000000000E+0002   2.69000000000000E+0002   2.69000000000000E+0002   2.69000000000000E+0002   2.69000000000000E+0002   2.69000000000000E+0002   2.69000000000000E+0002   2.69000000000000E+0002   2.69000000000000E+0002   2.69000000000000E+0002   2.69000000000000E+0002   2.69000000000000E+0002   2.69000000000000E+0002   2.69000000000000E+0002   2.69000000000000E+0002   2.69000000000000E+0002   2.69000000000000E+0002   2.69000000000000E+0002   2.69000000000000E+0002   2.69000000000000E+0002   2.69000000000000E+0002   2.69000000000000E+0002   2.69000000000000E+0002   2.69000000000000E+0002   2.69000000000000E+0002   2.69000000000000E+0002   2.69000000000000E+0002   2.69000000000000E+0002   2.69000000000000E+0002   2.69000000000000E+0002   2.69000000000000E+0002   2.69000000000000E+0002   2.69000000000000E+0002   2.69000000000000E+0002   2.69000000000000E+0002   2.69000000000000E+0002   2.69000000000000E+0002   2.69000000000000E+0002   2.69000000000000E+0002   2.69000000000000E+0002   2.69000000000000E+0002   2.69000000000000E+0002   2.69000000000000E+0002   2.69000000000000E+0002   2.69000000000000E+0002   2.69000000000000E+0002   2.69000000000000E+0002   2.69000000000000E+0002   2.69000000000000E+0002   2.69000000000000E+0002   2.69000000000000E+0002   2.69000000000000E+0002   2.69000000000000E+0002   2.69000000000000E+0002   2.69000000000000E+0002   2.69000000000000E+0002   2.69000000000000E+0002   2.69000000000000E+0002   2.69000000000000E+0002   2.69000000000000E+0002   2.69000000000000E+0002   2.69000000000000E+0002   2.69000000000000E+0002   2.69000000000000E+0002   2.69000000000000E+0002   2.69000000000000E+0002   2.69000000000000E+0002   2.69000000000000E+0002   2.69000000000000E+0002   2.69000000000000E+0002   2.69000000000000E+0002   2.69000000000000E+0002   2.69000000000000E+0002   2.69000000000000E+0002   2.69000000000000E+0002   2.69000000000000E+0002   2.69000000000000E+0002   2.69000000000000E+0002   2.69000000000000E+0002   2.69000000000000E+0002   2.69000000000000E+0002   2.69000000000000E+0002   2.69000000000000E+0002   2.69000000000000E+0002   2.69000000000000E+0002   2.69000000000000E+0002
   2.69000000000000E+0002   2.69000000000000E+0002   2.69000000000000E+0002   2.69000000000000E+0002   2.69000000000000E+0002   2.69000000000000E+0002   2.69000000000000E+0002   2.69000000000000E+0002   2.69000000000000E+0002   2.69000000000000E+0002   2.69179412841797E+0002   2.69484619140625E+0002   2.69814453125000E+0002   2.70150146484375E+0002   2.70482177734375E+0002   2.70806243896484E+0002   2.71118530273438E+0002   2.71414825439453E+0002   2.71690673828125E+0002   2.71941680908203E+0002   2.72163848876953E+0002   2.72354278564453E+0002   2.72511505126953E+0002   2.72635528564453E+0002   2.72728179931641E+0002   2.72792785644531E+0002   2.72834075927734E+0002   2.72857513427734E+0002   2.72868743896484E+0002   2.72873168945313E+0002   2.72875457763672E+0002   2.72879302978516E+0002   2.72887176513672E+0002   2.72900238037109E+0002   2.72918365478516E+0002   2.72940277099609E+0002   2.72963562011719E+0002   2.72984954833984E+0002   2.73000488281250E+0002   2.73005828857422E+0002   2.72996551513672E+0002   2.72968322753906E+0002   2.72917022705078E+0002   2.72838958740234E+0002   2.72731048583984E+0002   2.72590606689453E+0002   2.72415374755859E+0002   2.72203613281250E+0002   2.71954040527344E+0002   2.71665863037109E+0002   2.71338531494141E+0002   2.70971557617188E+0002   2.70562194824219E+0002   2.70107666015625E+0002   2.69625579833984E+0002   2.69158416748047E+0002   2.69000000000000E+0002   2.69000000000000E+0002   2.69000000000000E+0002   2.69000000000000E+0002   2.69000000000000E+0002   2.69000000000000E+0002   2.69000000000000E+0002   2.69000000000000E+0002   2.69000000000000E+0002   2.69000000000000E+0002   2.69000000000000E+0002   2.69000000000000E+0002   2.69000000000000E+0002   2.69000000000000E+0002   2.69000000000000E+0002   2.69000000000000E+0002   2.69000000000000E+0002   2.69000000000000E+0002   2.69000000000000E+0002   2.69000000000000E+0002   2.69000000000000E+0002   2.69000000000000E+0002   2.69000000000000E+0002   2.69000000000000E+0002   2.69000000000000E+0002   2.69000000000000E+0002   2.69000000000000E+0002   2.69000000000000E+0002   2.69000000000000E+0002   2.69000000000000E+0002   2.69000000000000E+0002   2.69000000000000E+0002   2.69000000000000E+0002   2.69000000000000E+0002   2.69000000000000E+0002   2.69000000000000E+0002   2.69000000000000E+0002   2.69000000000000E+0002   2.69000000000000E+0002   2.69000000000000E+0002   2.69000000000000E+0002   2.69000000000000E+0002   2.69000000000000E+0002   2.69000000000000E+0002   2.69000000000000E+0002   2.69000000000000E+0002   2.69000000000000E+0002   2.69000000000000E+0002   2.69000000000000E+0002   2.69000000000000E+0002   2.69000000000000E+0002   2.69000000000000E+0002   2.69000000000000E+0002   2.69000000000000E+0002   2.69000000000000E+0002   2.69000000000000E+0002   2.69000000000000E+0002   2.69000000000000E+0002   2.69000000000000E+0002   2.69000000000000E+0002   2.69000000000000E+0002   2.69000000000000E+0002   2.69000000000000E+0002   2.69000000000000E+0002   2.69000000000000E+0002   2.69000000000000E+0002   2.69000000000000E+0002   2.69000000000000E+0002   2.69000000000000E+0002   2.69000000000000E+0002   2.69000000000000E+0002   2.69000000000000E+0002   2.69000000000000E+0002   2.69000000000000E+0002   2.69000000000000E+0002   2.69000000000000E+0002   2.69000000000000E+0002   2.69000000000000E+0002   2.69000000000000E+0002   2.69000000000000E+0002   2.69000000000000E+0002   2.69000000000000E+0002   2.69000000000000E+0002   2.69000000000000E+0002   2.69000000000000E+0002   2.69000000000000E+0002   2.69000000000000E+0002   2.69000000000000E+0002   2.69000000000000E+0002   2.69000000000000E+0002   2.69000000000000E+0002   2.69000000000000E+0002   2.69000000000000E+0002   2.69000000000000E+0002   2.69000000000000E+0002   2.69000000000000E+0002   2.69000000000000E+0002   2.69000000000000E+0002   2.69000000000000E+0002   2.69000000000000E+0002   2.69000000000000E+0002   2.69000000000000E+0002   2.69000000000000E+0002   2.69000000000000E+0002   2.69000000000000E+0002   2.69000000000000E+0002   2.69000000000000E+0002   2.69000000000000E+0002   2.69000000000000E+0002   2.69000000000000E+0002   2.69000000000000E+0002   2.69000000000000E+0002   2.69000000000000E+0002   2.69000000000000E+0002   2.69000000000000E+0002   2.69000000000000E+0002   2.69000000000000E+0002   2.69000000000000E+0002   2.69000000000000E+0002   2.69000000000000E+0002   2.69000000000000E+0002   2.69000000000000E+0002   2.69000000000000E+0002   2.69000000000000E+0002   2.69000000000000E+0002   2.69000000000000E+0002   2.69000000000000E+0002   2.69000000000000E+0002   2.69000000000000E+0002   2.69000000000000E+0002   2.69000000000000E+0002   2.69000000000000E+0002   2.69000000000000E+0002   2.69000000000000E+0002   2.69000000000000E+0002   2.69000000000000E+0002   2.69000000000000E+0002   2.69000000000000E+0002   2.69000000000000E+0002   2.69000000000000E+0002   2.69000000000000E+0002   2.69000000000000E+0002   2.69000000000000E+0002   2.69000000000000E+0002   2.69000000000000E+0002   2.69000000000000E+0002   2.69000000000000E+0002   2.69000000000000E+0002   2.69000000000000E+0002   2.69000000000000E+0002   2.69000000000000E+0002   2.69000000000000E+0002   2.69000000000000E+0002   2.69000000000000E+0002   2.69000000000000E+0002   2.69000000000000E+0002   2.69000000000000E+0002   2.69000000000000E+0002   2.69000000000000E+0002   2.69000000000000E+0002   2.69000000000000E+0002   2.69000000000000E+0002   2.69000000000000E+0002   2.69000000000000E+0002   2.69000000000000E+0002   2.69000000000000E+0002   2.69000000000000E+0002   2.69000000000000E+0002   2.69000000000000E+0002   2.69000000000000E+0002   2.69000000000000E+0002   2.69000000000000E+0002   2.69000000000000E+0002   2.69000000000000E+0002   2.69000000000000E+0002   2.69000000000000E+0002   2.69000000000000E+0002   2.69000000000000E+0002
   2.69000000000000E+0002   2.69000000000000E+0002   2.69000000000000E+0002   2.69000000000000E+0002   2.69000000000000E+0002   2.69000000000000E+0002   2.69000000000000E+0002   2.69000000000000E+0002   2.69000000000000E+0002   2.69000000000000E+0002   2.69000000000000E+0002   2.69140258789063E+0002   2.69416046142578E+0002   2.69714416503906E+0002   2.70007965087891E+0002   2.70295562744141E+0002   2.70572357177734E+0002   2.70834289550781E+0002   2.71078186035156E+0002   2.71300262451172E+0002   2.71497344970703E+0002   2.71667480468750E+0002   2.71809906005859E+0002   2.71924865722656E+0002   2.72013702392578E+0002   2.72079010009766E+0002   2.72124572753906E+0002   2.72154724121094E+0002   2.72173828125000E+0002   2.72185882568359E+0002   2.72194610595703E+0002   2.72203002929688E+0002   2.72213012695313E+0002   2.72225463867188E+0002   2.72240234375000E+0002   2.72256256103516E+0002   2.72271606445313E+0002   2.72283416748047E+0002   2.72288208007813E+0002   2.72282348632813E+0002   2.72262084960938E+0002   2.72223693847656E+0002   2.72163482666016E+0002   2.72078002929688E+0002   2.71964385986328E+0002   2.71820037841797E+0002   2.71642517089844E+0002   2.71429687500000E+0002   2.71180267333984E+0002   2.70893920898438E+0002   2.70571258544922E+0002   2.70215576171875E+0002   2.69832763671875E+0002   2.69403961181641E+0002   2.69020172119141E+0002   2.69000000000000E+0002   2.69000000000000E+0002   2.69000000000000E+0002   2.69000000000000E+0002   2.69000000000000E+0002   2.69000000000000E+0002   2.69000000000000E+0002   2.69000000000000E+0002   2.69000000000000E+0002   2.69000000000000E+0002   2.69000000000000E+0002   2.69000000000000E+0002   2.69000000000000E+0002   2.69000000000000E+0002   2.69000000000000E+0002   2.69000000000000E+0002   2.69000000000000E+0002   2.69000000000000E+0002   2.69000000000000E+0002   2.69000000000000E+0002   2.69000000000000E+0002   2.69000000000000E+0002   2.69000000000000E+0002   2.69000000000000E+0002   2.69000000000000E+0002   2.69000000000000E+0002   2.69000000000000E+0002   2.69000000000000E+0002   2.69000000000000E+0002   2.69000000000000E+0002   2.69000000000000E+0002   2.69000000000000E+0002   2.69000000000000E+0002   2.69000000000000E+0002   2.69000000000000E+0002   2.69000000000000E+0002   2.69000000000000E+0002   2.69000000000000E+0002   2.69000000000000E+0002   2.69000000000000E+0002   2.69000000000000E+0002   2.69000000000000E+0002   2.69000000000000E+0002   2.69000000000000E+0002   2.69000000000000E+0002   2.69000000000000E+0002   2.69000000000000E+0002   2.69000000000000E+0002   2.69000000000000E+0002   2.69000000000000E+0002   2.69000000000000E+0002   2.69000000000000E+0002   2.69000000000000E+0002   2.69000000000000E+0002   2.69000000000000E+0002   2.69000000000000E+0002   2.69000000000000E+0002   2.69000000000000E+0002   2.69000000000000E+0002   2.69000000000000E+0002   2.69000000000000E+0002   2.69000000000000E+0002   2.69000000000000E+0002   2.69000000000000E+0002   2.69000000000000E+0002   2.69000000000000E+0002   2.69000000000000E+0002   2.69000000000000E+0002   2.69000000000000E+0002   2.69000000000000E+0002   2.69000000000000E+0002   2.69000000000000E+0002   2.69000000000000E+0002   2.69000000000000E+0002   2.69000000000000E+0002   2.69000000000000E+0002   2.69000000000000E+0002   2.69000000000000E+0002   2.69000000000000E+0002   2.69000000000000E+0002   2.69000000000000E+0002   2.69000000000000E+0002   2.69000000000000E+0002   2.69000000000000E+0002   2.69000000000000E+0002   2.69000000000000E+0002   2.69000000000000E+0002   2.69000000000000E+0002   2.69000000000000E+0002   2.69000000000000E+0002   2.69000000000000E+0002   2.69000000000000E+0002   2.69000000000000E+0002   2.69000000000000E+0002   2.69000000000000E+0002   2.69000000000000E+0002   2.69000000000000E+0002   2.69000000000000E+0002   2.69000000000000E+0002   2.69000000000000E+0002   2.69000000000000E+0002   2.69000000000000E+0002   2.69000000000000E+0002   2.69000000000000E+0002   2.69000000000000E+0002   2.69000000000000E+0002   2.69000000000000E+0002   2.69000000000000E+0002   2.69000000000000E+0002   2.69000000000000E+0002   2.69000000000000E+0002   2.69000000000000E+0002   2.69000000000000E+0002   2.69000000000000E+0002   2.69000000000000E+0002   2.69000000000000E+0002   2.69000000000000E+0002   2.69000000000000E+0002   2.69000000000000E+0002   2.69000000000000E+0002   2.69000000000000E+0002   2.69000000000000E+0002   2.69000000000000E+0002   2.69000000000000E+0002   2.69000000000000E+0002   2.69000000000000E+0002   2.69000000000000E+0002   2.69000000000000E+0002   2.69000000000000E+0002   2.69000000000000E+0002   2.69000000000000E+0002   2.69000000000000E+0002   2.69000000000000E+0002   2.69000000000000E+0002   2.69000000000000E+0002   2.69000000000000E+0002   2.69000000000000E+0002   2.69000000000000E+0002   2.69000000000000E+0002   2.69000000000000E+0002   2.69000000000000E+0002   2.69000000000000E+0002   2.69000000000000E+0002   2.69000000000000E+0002   2.69000000000000E+0002   2.69000000000000E+0002   2.69000000000000E+0002   2.69000000000000E+0002   2.69000000000000E+0002   2.69000000000000E+0002   2.69000000000000E+0002   2.69000000000000E+0002   2.69000000000000E+0002   2.69000000000000E+0002   2.69000000000000E+0002   2.69000000000000E+0002   2.69000000000000E+0002   2.69000000000000E+0002   2.69000000000000E+0002   2.69000000000000E+0002   2.69000000000000E+0002   2.69000000000000E+0002   2.69000000000000E+0002   2.69000000000000E+0002   2.69000000000000E+0002   2.69000000000000E+0002   2.69000000000000E+0002   2.69000000000000E+0002   2.69000000000000E+0002   2.69000000000000E+0002   2.69000000000000E+0002   2.69000000000000E+0002   2.69000000000000E+0002   2.69000000000000E+0002   2.69000000000000E+0002   2.69000000000000E+0002   2.69000000000000E+0002   2.69000000000000E+0002   2.69000000000000E+0002
   2.69000000000000E+0002   2.69000000000000E+0002   2.69000000000000E+0002   2.69000000000000E+0002   2.69000000000000E+0002   2.69000000000000E+0002   2.69000000000000E+0002   2.69000000000000E+0002   2.69000000000000E+0002   2.69000000000000E+0002   2.69000000000000E+0002   2.69000000000000E+0002   2.69068084716797E+0002   2.69312591552734E+0002   2.69550292968750E+0002   2.69802886962891E+0002   2.70044555664063E+0002   2.70273864746094E+0002   2.70489013671875E+0002   2.70685119628906E+0002   2.70858703613281E+0002   2.71009094238281E+0002   2.71136474609375E+0002   2.71240997314453E+0002   2.71323303222656E+0002   2.71385406494141E+0002   2.71430816650391E+0002   2.71463317871094E+0002   2.71486175537109E+0002   2.71502197265625E+0002   2.71514282226563E+0002   2.71525207519531E+0002   2.71536560058594E+0002   2.71548583984375E+0002   2.71560974121094E+0002   2.71573059082031E+0002   2.71583343505859E+0002   2.71589111328125E+0002   2.71586914062500E+0002   2.71573547363281E+0002   2.71546020507813E+0002   2.71501251220703E+0002   2.71435699462891E+0002   2.71345794677734E+0002   2.71229064941406E+0002   2.71083618164063E+0002   2.70906677246094E+0002   2.70694976806641E+0002   2.70447906494141E+0002   2.70167236328125E+0002   2.69855407714844E+0002   2.69521148681641E+0002   2.69217620849609E+0002   2.69000000000000E+0002   2.69000000000000E+0002   2.69000000000000E+0002   2.69000000000000E+0002   2.69000000000000E+0002   2.69000000000000E+0002   2.69000000000000E+0002   2.69000000000000E+0002   2.69000000000000E+0002   2.69000000000000E+0002   2.69000000000000E+0002   2.69000000000000E+0002   2.69000000000000E+0002   2.69000000000000E+0002   2.69000000000000E+0002   2.69000000000000E+0002   2.69000000000000E+0002   2.69000000000000E+0002   2.69000000000000E+0002   2.69000000000000E+0002   2.69000000000000E+0002   2.69000000000000E+0002   2.69000000000000E+0002   2.69000000000000E+0002   2.69000000000000E+0002   2.69000000000000E+0002   2.69000000000000E+0002   2.69000000000000E+0002   2.69000000000000E+0002   2.69000000000000E+0002   2.69000000000000E+0002   2.69000000000000E+0002   2.69000000000000E+0002   2.69000000000000E+0002   2.69000000000000E+0002   2.69000000000000E+0002   2.69000000000000E+0002   2.69000000000000E+0002   2.69000000000000E+0002   2.69000000000000E+0002   2.69000000000000E+0002   2.69000000000000E+0002   2.69000000000000E+0002   2.69000000000000E+0002   2.69000000000000E+0002   2.69000000000000E+0002   2.69000000000000E+0002   2.69000000000000E+0002   2.69000000000000E+0002   2.69000000000000E+0002   2.69000000000000E+0002   2.69000000000000E+0002   2.69000000000000E+0002   2.69000000000000E+0002   2.69000000000000E+0002   2.69000000000000E+0002   2.69000000000000E+0002   2.69000000000000E+0002   2.69000000000000E+0002   2.69000000000000E+0002   2.69000000000000E+0002   2.69000000000000E+0002   2.69000000000000E+0002   2.69000000000000E+0002   2.69000000000000E+0002   2.69000000000000E+0002   2.69000000000000E+0002   2.69000000000000E+0002   2.69000000000000E+0002   2.69000000000000E+0002   2.69000000000000E+0002   2.69000000000000E+0002   2.69000000000000E+0002   2.69000000000000E+0002   2.69000000000000E+0002   2.69000000000000E+0002   2.69000000000000E+0002   2.69000000000000E+0002   2.69000000000000E+0002   2.69000000000000E+0002   2.69000000000000E+0002   2.69000000000000E+0002   2.69000000000000E+0002   2.69000000000000E+0002   2.69000000000000E+0002   2.69000000000000E+0002   2.69000000000000E+0002   2.69000000000000E+0002   2.69000000000000E+0002   2.69000000000000E+0002   2.69000000000000E+0002   2.69000000000000E+0002   2.69000000000000E+0002   2.69000000000000E+0002   2.69000000000000E+0002   2.69000000000000E+0002   2.69000000000000E+0002   2.69000000000000E+0002   2.69000000000000E+0002   2.69000000000000E+0002   2.69000000000000E+0002   2.69000000000000E+0002   2.69000000000000E+0002   2.69000000000000E+0002   2.69000000000000E+0002   2.69000000000000E+0002   2.69000000000000E+0002   2.69000000000000E+0002   2.69000000000000E+0002   2.69000000000000E+0002   2.69000000000000E+0002   2.69000000000000E+0002   2.69000000000000E+0002   2.69000000000000E+0002   2.69000000000000E+0002   2.69000000000000E+0002   2.69000000000000E+0002   2.69000000000000E+0002   2.69000000000000E+0002   2.69000000000000E+0002   2.69000000000000E+0002   2.69000000000000E+0002   2.69000000000000E+0002   2.69000000000000E+0002   2.69000000000000E+0002   2.69000000000000E+0002   2.69000000000000E+0002   2.69000000000000E+0002   2.69000000000000E+0002   2.69000000000000E+0002   2.69000000000000E+0002   2.69000000000000E+0002   2.69000000000000E+0002   2.69000000000000E+0002   2.69000000000000E+0002   2.69000000000000E+0002   2.69000000000000E+0002   2.69000000000000E+0002   2.69000000000000E+0002   2.69000000000000E+0002   2.69000000000000E+0002   2.69000000000000E+0002   2.69000000000000E+0002   2.69000000000000E+0002   2.69000000000000E+0002   2.69000000000000E+0002   2.69000000000000E+0002   2.69000000000000E+0002   2.69000000000000E+0002   2.69000000000000E+0002   2.69000000000000E+0002   2.69000000000000E+0002   2.69000000000000E+0002   2.69000000000000E+0002   2.69000000000000E+0002   2.69000000000000E+0002   2.69000000000000E+0002   2.69000000000000E+0002   2.69000000000000E+0002   2.69000000000000E+0002   2.69000000000000E+0002   2.69000000000000E+0002   2.69000000000000E+0002   2.69000000000000E+0002   2.69000000000000E+0002   2.69000000000000E+0002   2.69000000000000E+0002   2.69000000000000E+0002   2.69000000000000E+0002   2.69000000000000E+0002   2.69000000000000E+0002   2.69000000000000E+0002   2.69000000000000E+0002   2.69000000000000E+0002   2.69000000000000E+0002   2.69000000000000E+0002   2.69000000000000E+0002   2.69000000000000E+0002   2.69000000000000E+0002   2.69000000000000E+0002   2.69000000000000E+0002
   2.69000000000000E+0002   2.69000000000000E+0002   2.69000000000000E+0002   2.69000000000000E+0002   2.69000000000000E+0002   2.69000000000000E+0002   2.69000000000000E+0002   2.69000000000000E+0002   2.69000000000000E+0002   2.69000000000000E+0002   2.69000000000000E+0002   2.69000000000000E+0002   2.69000000000000E+0002   2.69000000000000E+0002   2.69131378173828E+0002   2.69350280761719E+0002   2.69540771484375E+0002   2.69735656738281E+0002   2.69924591064453E+0002   2.70096710205078E+0002   2.70246063232422E+0002   2.70375946044922E+0002   2.70487884521484E+0002   2.70581298828125E+0002   2.70654876708984E+0002   2.70709991455078E+0002   2.70751312255859E+0002   2.70782867431641E+0002   2.70806701660156E+0002   2.70823699951172E+0002   2.70836181640625E+0002   2.70847991943359E+0002   2.70860565185547E+0002   2.70872558593750E+0002   2.70883056640625E+0002   2.70892639160156E+0002   2.70900573730469E+0002   2.70903839111328E+0002   2.70898010253906E+0002   2.70879974365234E+0002   2.70848358154297E+0002   2.70800964355469E+0002   2.70733947753906E+0002   2.70642517089844E+0002   2.70524902343750E+0002   2.70381988525391E+0002   2.70211456298828E+0002   2.70005004882813E+0002   2.69765228271484E+0002   2.69503356933594E+0002   2.69230682373047E+0002   2.69000000000000E+0002   2.69000000000000E+0002   2.69000000000000E+0002   2.69000000000000E+0002   2.69000000000000E+0002   2.69000000000000E+0002   2.69000000000000E+0002   2.69000000000000E+0002   2.69000000000000E+0002   2.69000000000000E+0002   2.69000000000000E+0002   2.69000000000000E+0002   2.69000000000000E+0002   2.69000000000000E+0002   2.69000000000000E+0002   2.69000000000000E+0002   2.69000000000000E+0002   2.69000000000000E+0002   2.69000000000000E+0002   2.69000000000000E+0002   2.69000000000000E+0002   2.69000000000000E+0002   2.69000000000000E+0002   2.69000000000000E+0002   2.69000000000000E+0002   2.69000000000000E+0002   2.69000000000000E+0002   2.69000000000000E+0002   2.69000000000000E+0002   2.69000000000000E+0002   2.69000000000000E+0002   2.69000000000000E+0002   2.69000000000000E+0002   2.69000000000000E+0002   2.69000000000000E+0002   2.69000000000000E+0002   2.69000000000000E+0002   2.69000000000000E+0002   2.69000000000000E+0002   2.69000000000000E+0002   2.69000000000000E+0002   2.69000000000000E+0002   2.69000000000000E+0002   2.69000000000000E+0002   2.69000000000000E+0002   2.69000000000000E+0002   2.69000000000000E+0002   2.69000000000000E+0002   2.69000000000000E+0002   2.69000000000000E+0002   2.69000000000000E+0002   2.69000000000000E+0002   2.69000000000000E+0002   2.69000000000000E+0002   2.69000000000000E+0002   2.69000000000000E+0002   2.69000000000000E+0002   2.69000000000000E+0002   2.69000000000000E+0002   2.69000000000000E+0002   2.69000000000000E+0002   2.69000000000000E+0002   2.69000000000000E+0002   2.69000000000000E+0002   2.69000000000000E+0002   2.69000000000000E+0002   2.69000000000000E+0002   2.69000000000000E+0002   2.69000000000000E+0002   2.69000000000000E+0002   2.69000000000000E+0002   2.69000000000000E+0002   2.69000000000000E+0002   2.69000000000000E+0002   2.69000000000000E+0002   2.69000000000000E+0002   2.69000000000000E+0002   2.69000000000000E+0002   2.69000000000000E+0002   2.69000000000000E+0002   2.69000000000000E+0002   2.69000000000000E+0002   2.69000000000000E+0002   2.69000000000000E+0002   2.69000000000000E+0002   2.69000000000000E+0002   2.69000000000000E+0002   2.69000000000000E+0002   2.69000000000000E+0002   2.69000000000000E+0002   2.69000000000000E+0002   2.69000000000000E+0002   2.69000000000000E+0002   2.69000000000000E+0002   2.69000000000000E+0002   2.69000000000000E+0002   2.69000000000000E+0002   2.69000000000000E+0002   2.69000000000000E+0002   2.69000000000000E+0002   2.69000000000000E+0002   2.69000000000000E+0002   2.69000000000000E+0002   2.69000000000000E+0002   2.69000000000000E+0002   2.69000000000000E+0002   2.69000000000000E+0002   2.69000000000000E+0002   2.69000000000000E+0002   2.69000000000000E+0002   2.69000000000000E+0002   2.69000000000000E+0002   2.69000000000000E+0002   2.69000000000000E+0002   2.69000000000000E+0002   2.69000000000000E+0002   2.69000000000000E+0002   2.69000000000000E+0002   2.69000000000000E+0002   2.69000000000000E+0002   2.69000000000000E+0002   2.69000000000000E+0002   2.69000000000000E+0002   2.69000000000000E+0002   2.69000000000000E+0002   2.69000000000000E+0002   2.69000000000000E+0002   2.69000000000000E+0002   2.69000000000000E+0002   2.69000000000000E+0002   2.69000000000000E+0002   2.69000000000000E+0002   2.69000000000000E+0002   2.69000000000000E+0002   2.69000000000000E+0002   2.69000000000000E+0002   2.69000000000000E+0002   2.69000000000000E+0002   2.69000000000000E+0002   2.69000000000000E+0002   2.69000000000000E+0002   2.69000000000000E+0002   2.69000000000000E+0002   2.69000000000000E+0002   2.69000000000000E+0002   2.69000000000000E+0002   2.69000000000000E+0002   2.69000000000000E+0002   2.69000000000000E+0002   2.69000000000000E+0002   2.69000000000000E+0002   2.69000000000000E+0002   2.69000000000000E+0002   2.69000000000000E+0002   2.69000000000000E+0002   2.69000000000000E+0002   2.69000000000000E+0002   2.69000000000000E+0002   2.69000000000000E+0002   2.69000000000000E+0002   2.69000000000000E+0002   2.69000000000000E+0002   2.69000000000000E+0002   2.69000000000000E+0002   2.69000000000000E+0002   2.69000000000000E+0002   2.69000000000000E+0002   2.69000000000000E+0002   2.69000000000000E+0002   2.69000000000000E+0002   2.69000000000000E+0002   2.69000000000000E+0002   2.69000000000000E+0002   2.69000000000000E+0002   2.69000000000000E+0002   2.69000000000000E+0002   2.69000000000000E+0002   2.69000000000000E+0002   2.69000000000000E+0002   2.69000000000000E+0002   2.69000000000000E+0002   2.69000000000000E+0002   2.69000000000000E+0002
   2.69000000000000E+0002   2.69000000000000E+0002   2.69000000000000E+0002   2.69000000000000E+0002   2.69000000000000E+0002   2.69000000000000E+0002   2.69000000000000E+0002   2.69000000000000E+0002   2.69000000000000E+0002   2.69000000000000E+0002   2.69000000000000E+0002   2.69000000000000E+0002   2.69000000000000E+0002   2.69000000000000E+0002   2.69000000000000E+0002   2.69000000000000E+0002   2.69094055175781E+0002   2.69240234375000E+0002   2.69399078369141E+0002   2.69547485351563E+0002   2.69663208007813E+0002   2.69769866943359E+0002   2.69865447998047E+0002   2.69948455810547E+0002   2.70011535644531E+0002   2.70053924560547E+0002   2.70087127685547E+0002   2.70115325927734E+0002   2.70139770507813E+0002   2.70155303955078E+0002   2.70163696289063E+0002   2.70174835205078E+0002   2.70190338134766E+0002   2.70203155517578E+0002   2.70210479736328E+0002   2.70218261718750E+0002   2.70226745605469E+0002   2.70232238769531E+0002   2.70225921630859E+0002   2.70204345703125E+0002   2.70171051025391E+0002   2.70125274658203E+0002   2.70063140869141E+0002   2.69973449707031E+0002   2.69855926513672E+0002   2.69720520019531E+0002   2.69573516845703E+0002   2.69385528564453E+0002   2.69169860839844E+0002   2.69000000000000E+0002   2.69000000000000E+0002   2.69000000000000E+0002   2.69000000000000E+0002   2.69000000000000E+0002   2.69000000000000E+0002   2.69000000000000E+0002   2.69000000000000E+0002   2.69000000000000E+0002   2.69000000000000E+0002   2.69000000000000E+0002   2.69000000000000E+0002   2.69000000000000E+0002   2.69000000000000E+0002   2.69000000000000E+0002   2.69000000000000E+0002   2.69000000000000E+0002   2.69000000000000E+0002   2.69000000000000E+0002   2.69000000000000E+0002   2.69000000000000E+0002   2.69000000000000E+0002   2.69000000000000E+0002   2.69000000000000E+0002   2.69000000000000E+0002   2.69000000000000E+0002   2.69000000000000E+0002   2.69000000000000E+0002   2.69000000000000E+0002   2.69000000000000E+0002   2.69000000000000E+0002   2.69000000000000E+0002   2.69000000000000E+0002   2.69000000000000E+0002   2.69000000000000E+0002   2.69000000000000E+0002   2.69000000000000E+0002   2.69000000000000E+0002   2.69000000000000E+0002   2.69000000000000E+0002   2.69000000000000E+0002   2.69000000000000E+0002   2.69000000000000E+0002   2.69000000000000E+0002   2.69000000000000E+0002   2.69000000000000E+0002   2.69000000000000E+0002   2.69000000000000E+0002   2.69000000000000E+0002   2.69000000000000E+0002   2.69000000000000E+0002   2.69000000000000E+0002   2.69000000000000E+0002   2.69000000000000E+0002   2.69000000000000E+0002   2.69000000000000E+0002   2.69000000000000E+0002   2.69000000000000E+0002   2.69000000000000E+0002   2.69000000000000E+0002   2.69000000000000E+0002   2.69000000000000E+0002   2.69000000000000E+0002   2.69000000000000E+0002   2.69000000000000E+0002   2.69000000000000E+0002   2.69000000000000E+0002   2.69000000000000E+0002   2.69000000000000E+0002   2.69000000000000E+0002   2.69000000000000E+0002   2.69000000000000E+0002   2.69000000000000E+0002   2.69000000000000E+0002   2.69000000000000E+0002   2.69000000000000E+0002   2.69000000000000E+0002   2.69000000000000E+0002   2.69000000000000E+0002   2.69000000000000E+0002   2.69000000000000E+0002   2.69000000000000E+0002   2.69000000000000E+0002   2.69000000000000E+0002   2.69000000000000E+0002   2.69000000000000E+0002   2.69000000000000E+0002   2.69000000000000E+0002   2.69000000000000E+0002   2.69000000000000E+0002   2.69000000000000E+0002   2.69000000000000E+0002   2.69000000000000E+0002   2.69000000000000E+0002   2.69000000000000E+0002   2.69000000000000E+0002   2.69000000000000E+0002   2.69000000000000E+0002   2.69000000000000E+0002   2.69000000000000E+0002   2.69000000000000E+0002   2.69000000000000E+0002   2.69000000000000E+0002   2.69000000000000E+0002   2.69000000000000E+0002   2.69000000000000E+0002   2.69000000000000E+0002   2.69000000000000E+0002   2.69000000000000E+0002   2.69000000000000E+0002   2.69000000000000E+0002   2.69000000000000E+0002   2.69000000000000E+0002   2.69000000000000E+0002   2.69000000000000E+0002   2.69000000000000E+0002   2.69000000000000E+0002   2.69000000000000E+0002   2.69000000000000E+0002   2.69000000000000E+0002   2.69000000000000E+0002   2.69000000000000E+0002   2.69000000000000E+0002   2.69000000000000E+0002   2.69000000000000E+0002   2.69000000000000E+0002   2.69000000000000E+0002   2.69000000000000E+0002   2.69000000000000E+0002   2.69000000000000E+0002   2.69000000000000E+0002   2.69000000000000E+0002   2.69000000000000E+0002   2.69000000000000E+0002   2.69000000000000E+0002   2.69000000000000E+0002   2.69000000000000E+0002   2.69000000000000E+0002   2.69000000000000E+0002   2.69000000000000E+0002   2.69000000000000E+0002   2.69000000000000E+0002   2.69000000000000E+0002   2.69000000000000E+0002   2.69000000000000E+0002   2.69000000000000E+0002   2.69000000000000E+0002   2.69000000000000E+0002   2.69000000000000E+0002   2.69000000000000E+0002   2.69000000000000E+0002   2.69000000000000E+0002   2.69000000000000E+0002   2.69000000000000E+0002   2.69000000000000E+0002   2.69000000000000E+0002   2.69000000000000E+0002   2.69000000000000E+0002   2.69000000000000E+0002   2.69000000000000E+0002   2.69000000000000E+0002   2.69000000000000E+0002   2.69000000000000E+0002   2.69000000000000E+0002   2.69000000000000E+0002   2.69000000000000E+0002   2.69000000000000E+0002   2.69000000000000E+0002   2.69000000000000E+0002   2.69000000000000E+0002   2.69000000000000E+0002   2.69000000000000E+0002   2.69000000000000E+0002   2.69000000000000E+0002   2.69000000000000E+0002   2.69000000000000E+0002   2.69000000000000E+0002   2.69000000000000E+0002   2.69000000000000E+0002   2.69000000000000E+0002   2.69000000000000E+0002   2.69000000000000E+0002   2.69000000000000E+0002   2.69000000000000E+0002   2.69000000000000E+0002
   2.69000000000000E+0002   2.69000000000000E+0002   2.69000000000000E+0002   2.69000000000000E+0002   2.69000000000000E+0002   2.69000000000000E+0002   2.69000000000000E+0002   2.69000000000000E+0002   2.69000000000000E+0002   2.69000000000000E+0002   2.69000000000000E+0002   2.69000000000000E+0002   2.69000000000000E+0002   2.69000000000000E+0002   2.69000000000000E+0002   2.69000000000000E+0002   2.69000000000000E+0002   2.69000000000000E+0002   2.69000000000000E+0002   2.69098266601563E+0002   2.69141601562500E+0002   2.69218383789063E+0002   2.69289459228516E+0002   2.69364379882813E+0002   2.69416412353516E+0002   2.69431335449219E+0002   2.69453765869141E+0002   2.69475067138672E+0002   2.69505401611328E+0002   2.69518066406250E+0002   2.69510894775391E+0002   2.69519897460938E+0002   2.69544464111328E+0002   2.69561706542969E+0002   2.69556854248047E+0002   2.69563873291016E+0002   2.69574584960938E+0002   2.69591156005859E+0002   2.69588409423828E+0002   2.69558776855469E+0002   2.69527496337891E+0002   2.69487365722656E+0002   2.69445831298828E+0002   2.69365570068359E+0002   2.69249877929688E+0002   2.69137420654297E+0002   2.69051666259766E+0002   2.69000000000000E+0002   2.69000000000000E+0002   2.69000000000000E+0002   2.69000000000000E+0002   2.69000000000000E+0002   2.69000000000000E+0002   2.69000000000000E+0002   2.69000000000000E+0002   2.69000000000000E+0002   2.69000000000000E+0002   2.69000000000000E+0002   2.69000000000000E+0002   2.69000000000000E+0002   2.69000000000000E+0002   2.69000000000000E+0002   2.69000000000000E+0002   2.69000000000000E+0002   2.69000000000000E+0002   2.69000000000000E+0002   2.69000000000000E+0002   2.69000000000000E+0002   2.69000000000000E+0002   2.69000000000000E+0002   2.69000000000000E+0002   2.69000000000000E+0002   2.69000000000000E+0002   2.69000000000000E+0002   2.69000000000000E+0002   2.69000000000000E+0002   2.69000000000000E+0002   2.69000000000000E+0002   2.69000000000000E+0002   2.69000000000000E+0002   2.69000000000000E+0002   2.69000000000000E+0002   2.69000000000000E+0002   2.69000000000000E+0002   2.69000000000000E+0002   2.69000000000000E+0002   2.69000000000000E+0002   2.69000000000000E+0002   2.69000000000000E+0002   2.69000000000000E+0002   2.69000000000000E+0002   2.69000000000000E+0002   2.69000000000000E+0002   2.69000000000000E+0002   2.69000000000000E+0002   2.69000000000000E+0002   2.69000000000000E+0002   2.69000000000000E+0002   2.69000000000000E+0002   2.69000000000000E+0002   2.69000000000000E+0002   2.69000000000000E+0002   2.69000000000000E+0002   2.69000000000000E+0002   2.69000000000000E+0002   2.69000000000000E+0002   2.69000000000000E+0002   2.69000000000000E+0002   2.69000000000000E+0002   2.69000000000000E+0002   2.69000000000000E+0002   2.69000000000000E+0002   2.69000000000000E+0002   2.69000000000000E+0002   2.69000000000000E+0002   2.69000000000000E+0002   2.69000000000000E+0002   2.69000000000000E+0002   2.69000000000000E+0002   2.69000000000000E+0002   2.69000000000000E+0002   2.69000000000000E+0002   2.69000000000000E+0002   2.69000000000000E+0002   2.69000000000000E+0002   2.69000000000000E+0002   2.69000000000000E+0002   2.69000000000000E+0002   2.69000000000000E+0002   2.69000000000000E+0002   2.69000000000000E+0002   2.69000000000000E+0002   2.69000000000000E+0002   2.69000000000000E+0002   2.69000000000000E+0002   2.69000000000000E+0002   2.69000000000000E+0002   2.69000000000000E+0002   2.69000000000000E+0002   2.69000000000000E+0002   2.69000000000000E+0002   2.69000000000000E+0002   2.69000000000000E+0002   2.69000000000000E+0002   2.69000000000000E+0002   2.69000000000000E+0002   2.69000000000000E+0002   2.69000000000000E+0002   2.69000000000000E+0002   2.69000000000000E+0002   2.69000000000000E+0002   2.69000000000000E+0002   2.69000000000000E+0002   2.69000000000000E+0002   2.69000000000000E+0002   2.69000000000000E+0002   2.69000000000000E+0002   2.69000000000000E+0002   2.69000000000000E+0002   2.69000000000000E+0002   2.69000000000000E+0002   2.69000000000000E+0002   2.69000000000000E+0002   2.69000000000000E+0002   2.69000000000000E+0002   2.69000000000000E+0002   2.69000000000000E+0002   2.69000000000000E+0002   2.69000000000000E+0002   2.69000000000000E+0002   2.69000000000000E+0002   2.69000000000000E+0002   2.69000000000000E+0002   2.69000000000000E+0002   2.69000000000000E+0002   2.69000000000000E+0002   2.69000000000000E+0002   2.69000000000000E+0002   2.69000000000000E+0002   2.69000000000000E+0002   2.69000000000000E+0002   2.69000000000000E+0002   2.69000000000000E+0002   2.69000000000000E+0002   2.69000000000000E+0002   2.69000000000000E+0002   2.69000000000000E+0002   2.69000000000000E+0002   2.69000000000000E+0002   2.69000000000000E+0002   2.69000000000000E+0002   2.69000000000000E+0002   2.69000000000000E+0002   2.69000000000000E+0002   2.69000000000000E+0002   2.69000000000000E+0002   2.69000000000000E+0002   2.69000000000000E+0002   2.69000000000000E+0002   2.69000000000000E+0002   2.69000000000000E+0002   2.69000000000000E+0002   2.69000000000000E+0002   2.69000000000000E+0002   2.69000000000000E+0002   2.69000000000000E+0002   2.69000000000000E+0002   2.69000000000000E+0002   2.69000000000000E+0002   2.69000000000000E+0002   2.69000000000000E+0002   2.69000000000000E+0002   2.69000000000000E+0002   2.69000000000000E+0002   2.69000000000000E+0002   2.69000000000000E+0002   2.69000000000000E+0002   2.69000000000000E+0002   2.69000000000000E+0002   2.69000000000000E+0002   2.69000000000000E+0002   2.69000000000000E+0002   2.69000000000000E+0002   2.69000000000000E+0002   2.69000000000000E+0002   2.69000000000000E+0002   2.69000000000000E+0002   2.69000000000000E+0002   2.69000000000000E+0002   2.69000000000000E+0002   2.69000000000000E+0002   2.69000000000000E+0002   2.69000000000000E+0002   2.69000000000000E+0002
   2.69000000000000E+0002   2.69000000000000E+0002   2.69000000000000E+0002   2.69000000000000E+0002   2.69000000000000E+0002   2.69000000000000E+0002   2.69000000000000E+0002   2.69000000000000E+0002   2.69000000000000E+0002   2.69000000000000E+0002   2.69000000000000E+0002   2.69000000000000E+0002   2.69000000000000E+0002   2.69000000000000E+0002   2.69000000000000E+0002   2.69000000000000E+0002   2.69000000000000E+0002   2.69000000000000E+0002   2.69000000000000E+0002   2.69000000000000E+0002   2.69000000000000E+0002   2.69000000000000E+0002   2.69000000000000E+0002   2.69000000000000E+0002   2.69000000000000E+0002   2.69000000000000E+0002   2.69000000000000E+0002   2.69000000000000E+0002   2.69000000000000E+0002   2.69000000000000E+0002   2.69000000000000E+0002   2.69000000000000E+0002   2.69000000000000E+0002   2.69000000000000E+0002   2.69000000000000E+0002   2.69012481689453E+0002   2.69019897460938E+0002   2.69059814453125E+0002   2.69072998046875E+0002   2.69024475097656E+0002   2.69000000000000E+0002   2.69000000000000E+0002   2.69000000000000E+0002   2.69000000000000E+0002   2.69000000000000E+0002   2.69000000000000E+0002   2.69000000000000E+0002   2.69000000000000E+0002   2.69000000000000E+0002   2.69000000000000E+0002   2.69000000000000E+0002   2.69000000000000E+0002   2.69000000000000E+0002   2.69000000000000E+0002   2.69000000000000E+0002   2.69000000000000E+0002   2.69000000000000E+0002   2.69000000000000E+0002   2.69000000000000E+0002   2.69000000000000E+0002   2.69000000000000E+0002   2.69000000000000E+0002   2.69000000000000E+0002   2.69000000000000E+0002   2.69000000000000E+0002   2.69000000000000E+0002   2.69000000000000E+0002   2.69000000000000E+0002   2.69000000000000E+0002   2.69000000000000E+0002   2.69000000000000E+0002   2.69000000000000E+0002   2.69000000000000E+0002   2.69000000000000E+0002   2.69000000000000E+0002   2.69000000000000E+0002   2.69000000000000E+0002   2.69000000000000E+0002   2.69000000000000E+0002   2.69000000000000E+0002   2.69000000000000E+0002   2.69000000000000E+0002   2.69000000000000E+0002   2.69000000000000E+0002   2.69000000000000E+0002   2.69000000000000E+0002   2.69000000000000E+0002   2.69000000000000E+0002   2.69000000000000E+0002   2.69000000000000E+0002   2.69000000000000E+0002   2.69000000000000E+0002   2.69000000000000E+0002   2.69000000000000E+0002   2.69000000000000E+0002   2.69000000000000E+0002   2.69000000000000E+0002   2.69000000000000E+0002   2.69000000000000E+0002   2.69000000000000E+0002   2.69000000000000E+0002   2.69000000000000E+0002   2.69000000000000E+0002   2.69000000000000E+0002   2.69000000000000E+0002   2.69000000000000E+0002   2.69000000000000E+0002   2.69000000000000E+0002   2.69000000000000E+0002   2.69000000000000E+0002   2.69000000000000E+0002   2.69000000000000E+0002   2.69000000000000E+0002   2.69000000000000E+0002   2.69000000000000E+0002   2.69000000000000E+0002   2.69000000000000E+0002   2.69000000000000E+0002   2.69000000000000E+0002   2.69000000000000E+0002   2.69000000000000E+0002   2.69000000000000E+0002   2.69000000000000E+0002   2.69000000000000E+0002   2.69000000000000E+0002   2.69000000000000E+0002   2.69000000000000E+0002   2.69000000000000E+0002   2.69000000000000E+0002   2.69000000000000E+0002   2.69000000000000E+0002   2.69000000000000E+0002   2.69000000000000E+0002   2.69000000000000E+0002   2.69000000000000E+0002   2.69000000000000E+0002   2.69000000000000E+0002   2.69000000000000E+0002   2.69000000000000E+0002   2.69000000000000E+0002   2.69000000000000E+0002   2.69000000000000E+0002   2.69000000000000E+0002   2.69000000000000E+0002   2.69000000000000E+0002   2.69000000000000E+0002   2.69000000000000E+0002   2.69000000000000E+0002   2.69000000000000E+0002   2.69000000000000E+0002   2.69000000000000E+0002   2.69000000000000E+0002   2.69000000000000E+0002   2.69000000000000E+0002   2.69000000000000E+0002   2.69000000000000E+0002   2.69000000000000E+0002   2.69000000000000E+0002   2.69000000000000E+0002   2.69000000000000E+0002   2.69000000000000E+0002   2.69000000000000E+0002   2.69000000000000E+0002   2.69000000000000E+0002   2.69000000000000E+0002   2.69000000000000E+0002   2.69000000000000E+0002   2.69000000000000E+0002   2.69000000000000E+0002   2.69000000000000E+0002   2.69000000000000E+0002   2.69000000000000E+0002   2.69000000000000E+0002   2.69000000000000E+0002   2.69000000000000E+0002   2.69000000000000E+0002   2.69000000000000E+0002   2.69000000000000E+0002   2.69000000000000E+0002   2.69000000000000E+0002   2.69000000000000E+0002   2.69000000000000E+0002   2.69000000000000E+0002   2.69000000000000E+0002   2.69000000000000E+0002   2.69000000000000E+0002   2.69000000000000E+0002   2.69000000000000E+0002   2.69000000000000E+0002   2.69000000000000E+0002   2.69000000000000E+0002   2.69000000000000E+0002   2.69000000000000E+0002   2.69000000000000E+0002   2.69000000000000E+0002   2.69000000000000E+0002   2.69000000000000E+0002   2.69000000000000E+0002   2.69000000000000E+0002   2.69000000000000E+0002   2.69000000000000E+0002   2.69000000000000E+0002   2.69000000000000E+0002   2.69000000000000E+0002   2.69000000000000E+0002   2.69000000000000E+0002   2.69000000000000E+0002   2.69000000000000E+0002   2.69000000000000E+0002   2.69000000000000E+0002   2.69000000000000E+0002   2.69000000000000E+0002   2.69000000000000E+0002   2.69000000000000E+0002   2.69000000000000E+0002   2.69000000000000E+0002   2.69000000000000E+0002   2.69000000000000E+0002   2.69000000000000E+0002   2.69000000000000E+0002   2.69000000000000E+0002   2.69000000000000E+0002   2.69000000000000E+0002   2.69000000000000E+0002   2.69000000000000E+0002   2.69000000000000E+0002   2.69000000000000E+0002   2.69000000000000E+0002   2.69000000000000E+0002   2.69000000000000E+0002   2.69000000000000E+0002   2.69000000000000E+0002   2.69000000000000E+0002   2.69000000000000E+0002
   2.69000000000000E+0002   2.69000000000000E+0002   2.69000000000000E+0002   2.69000000000000E+0002   2.69000000000000E+0002   2.69000000000000E+0002   2.69000000000000E+0002   2.69000000000000E+0002   2.69000000000000E+0002   2.69000000000000E+0002   2.69000000000000E+0002   2.69000000000000E+0002   2.69000000000000E+0002   2.69000000000000E+0002   2.69000000000000E+0002   2.69000000000000E+0002   2.69000000000000E+0002   2.69000000000000E+0002   2.69000000000000E+0002   2.69000000000000E+0002   2.69000000000000E+0002   2.69000000000000E+0002   2.69000000000000E+0002   2.69000000000000E+0002   2.69000000000000E+0002   2.69000000000000E+0002   2.69000000000000E+0002   2.69000000000000E+0002   2.69000000000000E+0002   2.69000000000000E+0002   2.69000000000000E+0002   2.69000000000000E+0002   2.69000000000000E+0002   2.69000000000000E+0002   2.69000000000000E+0002   2.69000000000000E+0002   2.69000000000000E+0002   2.69000000000000E+0002   2.69000000000000E+0002   2.69000000000000E+0002   2.69000000000000E+0002   2.69000000000000E+0002   2.69000000000000E+0002   2.69000000000000E+0002   2.69000000000000E+0002   2.69000000000000E+0002   2.69000000000000E+0002   2.69000000000000E+0002   2.69000000000000E+0002   2.69000000000000E+0002   2.69000000000000E+0002   2.69000000000000E+0002   2.69000000000000E+0002   2.69000000000000E+0002   2.69000000000000E+0002   2.69000000000000E+0002   2.69000000000000E+0002   2.69000000000000E+0002   2.69000000000000E+0002   2.69000000000000E+0002   2.69000000000000E+0002   2.69000000000000E+0002   2.69000000000000E+0002   2.69000000000000E+0002   2.69000000000000E+0002   2.69000000000000E+0002   2.69000000000000E+0002   2.69000000000000E+0002   2.69000000000000E+0002   2.69000000000000E+0002   2.69000000000000E+0002   2.69000000000000E+0002   2.69000000000000E+0002   2.69000000000000E+0002   2.69000000000000E+0002   2.69000000000000E+0002   2.69000000000000E+0002   2.69000000000000E+0002   2.69000000000000E+0002   2.69000000000000E+0002   2.69000000000000E+0002   2.69000000000000E+0002   2.69000000000000E+0002   2.69000000000000E+0002   2.69000000000000E+0002   2.69000000000000E+0002   2.69000000000000E+0002   2.69000000000000E+0002   2.69000000000000E+0002   2.69000000000000E+0002   2.69000000000000E+0002   2.69000000000000E+0002   2.69000000000000E+0002   2.69000000000000E+0002   2.69000000000000E+0002   2.69000000000000E+0002   2.69000000000000E+0002   2.69000000000000E+0002   2.69000000000000E+0002   2.69000000000000E+0002   2.69000000000000E+0002   2.69000000000000E+0002   2.69000000000000E+0002   2.69000000000000E+0002   2.69000000000000E+0002   2.69000000000000E+0002   2.69000000000000E+0002   2.69000000000000E+0002   2.69000000000000E+0002   2.69000000000000E+0002   2.69000000000000E+0002   2.69000000000000E+0002   2.69000000000000E+0002   2.69000000000000E+0002   2.69000000000000E+0002   2.69000000000000E+0002   2.69000000000000E+0002   2.69000000000000E+0002   2.69000000000000E+0002   2.69000000000000E+0002   2.69000000000000E+0002   2.69000000000000E+0002   2.69000000000000E+0002   2.69000000000000E+0002   2.69000000000000E+0002   2.69000000000000E+0002   2.69000000000000E+0002   2.69000000000000E+0002   2.69000000000000E+0002   2.69000000000000E+0002   2.69000000000000E+0002   2.69000000000000E+0002   2.69000000000000E+0002   2.69000000000000E+0002   2.69000000000000E+0002   2.69000000000000E+0002   2.69000000000000E+0002   2.69000000000000E+0002   2.69000000000000E+0002   2.69000000000000E+0002   2.69000000000000E+0002   2.69000000000000E+0002   2.69000000000000E+0002   2.69000000000000E+0002   2.69000000000000E+0002   2.69000000000000E+0002   2.69000000000000E+0002   2.69000000000000E+0002   2.69000000000000E+0002   2.69000000000000E+0002   2.69000000000000E+0002   2.69000000000000E+0002   2.69000000000000E+0002   2.69000000000000E+0002   2.69000000000000E+0002   2.69000000000000E+0002   2.69000000000000E+0002   2.69000000000000E+0002   2.69000000000000E+0002   2.69000000000000E+0002   2.69000000000000E+0002   2.69000000000000E+0002   2.69000000000000E+0002   2.69000000000000E+0002   2.69000000000000E+0002   2.69000000000000E+0002   2.69000000000000E+0002   2.69000000000000E+0002   2.69000000000000E+0002   2.69000000000000E+0002   2.69000000000000E+0002   2.69000000000000E+0002   2.69000000000000E+0002   2.69000000000000E+0002   2.69000000000000E+0002   2.69000000000000E+0002   2.69000000000000E+0002   2.69000000000000E+0002   2.69000000000000E+0002   2.69000000000000E+0002   2.69000000000000E+0002   2.69000000000000E+0002   2.69000000000000E+0002   2.69000000000000E+0002   2.69000000000000E+0002   2.69000000000000E+0002   2.69000000000000E+0002   2.69000000000000E+0002   2.69000000000000E+0002   2.69000000000000E+0002   2.69000000000000E+0002   2.69000000000000E+0002   2.69000000000000E+0002   2.69000000000000E+0002   2.69000000000000E+0002   2.69000000000000E+0002   2.69000000000000E+0002   2.69000000000000E+0002   2.69000000000000E+0002   2.69000000000000E+0002   2.69000000000000E+0002   2.69000000000000E+0002   2.69000000000000E+0002   2.69000000000000E+0002   2.69000000000000E+0002   2.69000000000000E+0002   2.69000000000000E+0002   2.69000000000000E+0002   2.69000000000000E+0002   2.69000000000000E+0002   2.69000000000000E+0002   2.69000000000000E+0002   2.69000000000000E+0002   2.69000000000000E+0002   2.69000000000000E+0002   2.69000000000000E+0002   2.69000000000000E+0002   2.69000000000000E+0002   2.69000000000000E+0002   2.69000000000000E+0002   2.69000000000000E+0002   2.69000000000000E+0002   2.69000000000000E+0002   2.69000000000000E+0002   2.69000000000000E+0002   2.69000000000000E+0002   2.69000000000000E+0002   2.69000000000000E+0002   2.69000000000000E+0002   2.69000000000000E+0002   2.69000000000000E+0002   2.69000000000000E+0002   2.69000000000000E+0002   2.69000000000000E+0002
   2.69000000000000E+0002   2.69000000000000E+0002   2.69000000000000E+0002   2.69000000000000E+0002   2.69000000000000E+0002   2.69000000000000E+0002   2.69000000000000E+0002   2.69000000000000E+0002   2.69000000000000E+0002   2.69000000000000E+0002   2.69000000000000E+0002   2.69000000000000E+0002   2.69000000000000E+0002   2.69000000000000E+0002   2.69000000000000E+0002   2.69000000000000E+0002   2.69000000000000E+0002   2.69000000000000E+0002   2.69000000000000E+0002   2.69000000000000E+0002   2.69000000000000E+0002   2.69000000000000E+0002   2.69000000000000E+0002   2.69000000000000E+0002   2.69000000000000E+0002   2.69000000000000E+0002   2.69000000000000E+0002   2.69000000000000E+0002   2.69000000000000E+0002   2.69000000000000E+0002   2.69000000000000E+0002   2.69000000000000E+0002   2.69000000000000E+0002   2.69000000000000E+0002   2.69000000000000E+0002   2.69000000000000E+0002   2.69000000000000E+0002   2.69000000000000E+0002   2.69000000000000E+0002   2.69000000000000E+0002   2.69000000000000E+0002   2.69000000000000E+0002   2.69000000000000E+0002   2.69000000000000E+0002   2.69000000000000E+0002   2.69000000000000E+0002   2.69000000000000E+0002   2.69000000000000E+0002   2.69000000000000E+0002   2.69000000000000E+0002   2.69000000000000E+0002   2.69000000000000E+0002   2.69000000000000E+0002   2.69000000000000E+0002   2.69000000000000E+0002   2.69000000000000E+0002   2.69000000000000E+0002   2.69000000000000E+0002   2.69000000000000E+0002   2.69000000000000E+0002   2.69000000000000E+0002   2.69000000000000E+0002   2.69000000000000E+0002   2.69000000000000E+0002   2.69000000000000E+0002   2.69000000000000E+0002   2.69000000000000E+0002   2.69000000000000E+0002   2.69000000000000E+0002   2.69000000000000E+0002   2.69000000000000E+0002   2.69000000000000E+0002   2.69000000000000E+0002   2.69000000000000E+0002   2.69000000000000E+0002   2.69000000000000E+0002   2.69000000000000E+0002   2.69000000000000E+0002   2.69000000000000E+0002   2.69000000000000E+0002   2.69000000000000E+0002   2.69000000000000E+0002   2.69000000000000E+0002   2.69000000000000E+0002   2.69000000000000E+0002   2.69000000000000E+0002   2.69000000000000E+0002   2.69000000000000E+0002   2.69000000000000E+0002   2.69000000000000E+0002   2.69000000000000E+0002   2.69000000000000E+0002   2.69000000000000E+0002   2.69000000000000E+0002   2.69000000000000E+0002   2.69000000000000E+0002   2.69000000000000E+0002   2.69000000000000E+0002   2.69000000000000E+0002   2.69000000000000E+0002   2.69000000000000E+0002   2.69000000000000E+0002   2.69000000000000E+0002   2.69000000000000E+0002   2.69000000000000E+0002   2.69000000000000E+0002   2.69000000000000E+0002   2.69000000000000E+0002   2.69000000000000E+0002   2.69000000000000E+0002   2.69000000000000E+0002   2.69000000000000E+0002   2.69000000000000E+0002   2.69000000000000E+0002   2.69000000000000E+0002   2.69000000000000E+0002   2.69000000000000E+0002   2.69000000000000E+0002   2.69000000000000E+0002   2.69000000000000E+0002   2.69000000000000E+0002   2.69000000000000E+0002   2.69000000000000E+0002   2.69000000000000E+0002   2.69000000000000E+0002   2.69000000000000E+0002   2.69000000000000E+0002   2.69000000000000E+0002   2.69000000000000E+0002   2.69000000000000E+0002   2.69000000000000E+0002   2.69000000000000E+0002   2.69000000000000E+0002   2.69000000000000E+0002   2.69000000000000E+0002   2.69000000000000E+0002   2.69000000000000E+0002   2.69000000000000E+0002   2.69000000000000E+0002   2.69000000000000E+0002   2.69000000000000E+0002   2.69000000000000E+0002   2.69000000000000E+0002   2.69000000000000E+0002   2.69000000000000E+0002   2.69000000000000E+0002   2.69000000000000E+0002   2.69000000000000E+0002   2.69000000000000E+0002   2.69000000000000E+0002   2.69000000000000E+0002   2.69000000000000E+0002   2.69000000000000E+0002   2.69000000000000E+0002   2.69000000000000E+0002   2.69000000000000E+0002   2.69000000000000E+0002   2.69000000000000E+0002   2.69000000000000E+0002   2.69000000000000E+0002   2.69000000000000E+0002   2.69000000000000E+0002   2.69000000000000E+0002   2.69000000000000E+0002   2.69000000000000E+0002   2.69000000000000E+0002   2.69000000000000E+0002   2.69000000000000E+0002   2.69000000000000E+0002   2.69000000000000E+0002   2.69000000000000E+0002   2.69000000000000E+0002   2.69000000000000E+0002   2.69000000000000E+0002   2.69000000000000E+0002   2.69000000000000E+0002   2.69000000000000E+0002   2.69000000000000E+0002   2.69000000000000E+0002   2.69000000000000E+0002   2.69000000000000E+0002   2.69000000000000E+0002   2.69000000000000E+0002   2.69000000000000E+0002   2.69000000000000E+0002   2.69000000000000E+0002   2.69000000000000E+0002   2.69000000000000E+0002   2.69000000000000E+0002   2.69000000000000E+0002   2.69000000000000E+0002   2.69000000000000E+0002   2.69000000000000E+0002   2.69000000000000E+0002   2.69000000000000E+0002   2.69000000000000E+0002   2.69000000000000E+0002   2.69000000000000E+0002   2.69000000000000E+0002   2.69000000000000E+0002   2.69000000000000E+0002   2.69000000000000E+0002   2.69000000000000E+0002   2.69000000000000E+0002   2.69000000000000E+0002   2.69000000000000E+0002   2.69000000000000E+0002   2.69000000000000E+0002   2.69000000000000E+0002   2.69000000000000E+0002   2.69000000000000E+0002   2.69000000000000E+0002   2.69000000000000E+0002   2.69000000000000E+0002   2.69000000000000E+0002   2.69000000000000E+0002   2.69000000000000E+0002   2.69000000000000E+0002   2.69000000000000E+0002   2.69000000000000E+0002   2.69000000000000E+0002   2.69000000000000E+0002   2.69000000000000E+0002   2.69000000000000E+0002   2.69000000000000E+0002   2.69000000000000E+0002   2.69000000000000E+0002   2.69000000000000E+0002   2.69000000000000E+0002   2.69000000000000E+0002   2.69000000000000E+0002   2.69000000000000E+0002   2.69000000000000E+0002   2.69000000000000E+0002
   2.69000000000000E+0002   2.69000000000000E+0002   2.69000000000000E+0002   2.69000000000000E+0002   2.69000000000000E+0002   2.69000000000000E+0002   2.69000000000000E+0002   2.69000000000000E+0002   2.69000000000000E+0002   2.69000000000000E+0002   2.69000000000000E+0002   2.69000000000000E+0002   2.69000000000000E+0002   2.69000000000000E+0002   2.69000000000000E+0002   2.69000000000000E+0002   2.69000000000000E+0002   2.69000000000000E+0002   2.69000000000000E+0002   2.69000000000000E+0002   2.69000000000000E+0002   2.69000000000000E+0002   2.69000000000000E+0002   2.69000000000000E+0002   2.69000000000000E+0002   2.69000000000000E+0002   2.69000000000000E+0002   2.69000000000000E+0002   2.69000000000000E+0002   2.69000000000000E+0002   2.69000000000000E+0002   2.69000000000000E+0002   2.69000000000000E+0002   2.69000000000000E+0002   2.69000000000000E+0002   2.69000000000000E+0002   2.69000000000000E+0002   2.69000000000000E+0002   2.69000000000000E+0002   2.69000000000000E+0002   2.69000000000000E+0002   2.69000000000000E+0002   2.69000000000000E+0002   2.69000000000000E+0002   2.69000000000000E+0002   2.69000000000000E+0002   2.69000000000000E+0002   2.69000000000000E+0002   2.69000000000000E+0002   2.69000000000000E+0002   2.69000000000000E+0002   2.69000000000000E+0002   2.69000000000000E+0002   2.69000000000000E+0002   2.69000000000000E+0002   2.69000000000000E+0002   2.69000000000000E+0002   2.69000000000000E+0002   2.69000000000000E+0002   2.69000000000000E+0002   2.69000000000000E+0002   2.69000000000000E+0002   2.69000000000000E+0002   2.69000000000000E+0002   2.69000000000000E+0002   2.69000000000000E+0002   2.69000000000000E+0002   2.69000000000000E+0002   2.69000000000000E+0002   2.69000000000000E+0002   2.69000000000000E+0002   2.69000000000000E+0002   2.69000000000000E+0002   2.69000000000000E+0002   2.69000000000000E+0002   2.69000000000000E+0002   2.69000000000000E+0002   2.69000000000000E+0002   2.69000000000000E+0002   2.69000000000000E+0002   2.69000000000000E+0002   2.69000000000000E+0002   2.69000000000000E+0002   2.69000000000000E+0002   2.69000000000000E+0002   2.69000000000000E+0002   2.69000000000000E+0002   2.69000000000000E+0002   2.69000000000000E+0002   2.69000000000000E+0002   2.69000000000000E+0002   2.69000000000000E+0002   2.69000000000000E+0002   2.69000000000000E+0002   2.69000000000000E+0002   2.69000000000000E+0002   2.69000000000000E+0002   2.69000000000000E+0002   2.69000000000000E+0002   2.69000000000000E+0002   2.69000000000000E+0002   2.69000000000000E+0002   2.69000000000000E+0002   2.69000000000000E+0002   2.69000000000000E+0002   2.69000000000000E+0002   2.69000000000000E+0002   2.69000000000000E+0002   2.69000000000000E+0002   2.69000000000000E+0002   2.69000000000000E+0002   2.69000000000000E+0002   2.69000000000000E+0002   2.69000000000000E+0002   2.69000000000000E+0002   2.69000000000000E+0002   2.69000000000000E+0002   2.69000000000000E+0002   2.69000000000000E+0002   2.69000000000000E+0002   2.69000000000000E+0002   2.69000000000000E+0002   2.69000000000000E+0002   2.69000000000000E+0002   2.69000000000000E+0002   2.69000000000000E+0002   2.69000000000000E+0002   2.69000000000000E+0002   2.69000000000000E+0002   2.69000000000000E+0002   2.69000000000000E+0002   2.69000000000000E+0002   2.69000000000000E+0002   2.69000000000000E+0002   2.69000000000000E+0002   2.69000000000000E+0002   2.69000000000000E+0002   2.69000000000000E+0002   2.69000000000000E+0002   2.69000000000000E+0002   2.69000000000000E+0002   2.69000000000000E+0002   2.69000000000000E+0002   2.69000000000000E+0002   2.69000000000000E+0002   2.69000000000000E+0002   2.69000000000000E+0002   2.69000000000000E+0002   2.69000000000000E+0002   2.69000000000000E+0002   2.69000000000000E+0002   2.69000000000000E+0002   2.69000000000000E+0002   2.69000000000000E+0002   2.69000000000000E+0002   2.69000000000000E+0002   2.69000000000000E+0002   2.69000000000000E+0002   2.69000000000000E+0002   2.69000000000000E+0002   2.69000000000000E+0002   2.69000000000000E+0002   2.69000000000000E+0002   2.69000000000000E+0002   2.69000000000000E+0002   2.69000000000000E+0002   2.69000000000000E+0002   2.69000000000000E+0002   2.69000000000000E+0002   2.69000000000000E+0002   2.69000000000000E+0002   2.69000000000000E+0002   2.69000000000000E+0002   2.69000000000000E+0002   2.69000000000000E+0002   2.69000000000000E+0002   2.69000000000000E+0002   2.69000000000000E+0002   2.69000000000000E+0002   2.69000000000000E+0002   2.69000000000000E+0002   2.69000000000000E+0002   2.69000000000000E+0002   2.69000000000000E+0002   2.69000000000000E+0002   2.69000000000000E+0002   2.69000000000000E+0002   2.69000000000000E+0002   2.69000000000000E+0002   2.69000000000000E+0002   2.69000000000000E+0002   2.69000000000000E+0002   2.69000000000000E+0002   2.69000000000000E+0002   2.69000000000000E+0002   2.69000000000000E+0002   2.69000000000000E+0002   2.69000000000000E+0002   2.69000000000000E+0002   2.69000000000000E+0002   2.69000000000000E+0002   2.69000000000000E+0002   2.69000000000000E+0002   2.69000000000000E+0002   2.69000000000000E+0002   2.69000000000000E+0002   2.69000000000000E+0002   2.69000000000000E+0002   2.69000000000000E+0002   2.69000000000000E+0002   2.69000000000000E+0002   2.69000000000000E+0002   2.69000000000000E+0002   2.69000000000000E+0002   2.69000000000000E+0002   2.69000000000000E+0002   2.69000000000000E+0002   2.69000000000000E+0002   2.69000000000000E+0002   2.69000000000000E+0002   2.69000000000000E+0002   2.69000000000000E+0002   2.69000000000000E+0002   2.69000000000000E+0002   2.69000000000000E+0002   2.69000000000000E+0002   2.69000000000000E+0002   2.69000000000000E+0002   2.69000000000000E+0002   2.69000000000000E+0002   2.69000000000000E+0002   2.69000000000000E+0002   2.69000000000000E+0002   2.69000000000000E+0002
   2.69000000000000E+0002   2.69000000000000E+0002   2.69000000000000E+0002   2.69000000000000E+0002   2.69000000000000E+0002   2.69000000000000E+0002   2.69000000000000E+0002   2.69000000000000E+0002   2.69000000000000E+0002   2.69000000000000E+0002   2.69000000000000E+0002   2.69000000000000E+0002   2.69000000000000E+0002   2.69000000000000E+0002   2.69000000000000E+0002   2.69000000000000E+0002   2.69000000000000E+0002   2.69000000000000E+0002   2.69000000000000E+0002   2.69000000000000E+0002   2.69000000000000E+0002   2.69000000000000E+0002   2.69000000000000E+0002   2.69000000000000E+0002   2.69000000000000E+0002   2.69000000000000E+0002   2.69000000000000E+0002   2.69000000000000E+0002   2.69000000000000E+0002   2.69000000000000E+0002   2.69000000000000E+0002   2.69000000000000E+0002   2.69000000000000E+0002   2.69000000000000E+0002   2.69000000000000E+0002   2.69000000000000E+0002   2.69000000000000E+0002   2.69000000000000E+0002   2.69000000000000E+0002   2.69000000000000E+0002   2.69000000000000E+0002   2.69000000000000E+0002   2.69000000000000E+0002   2.69000000000000E+0002   2.69000000000000E+0002   2.69000000000000E+0002   2.69000000000000E+0002   2.69000000000000E+0002   2.69000000000000E+0002   2.69000000000000E+0002   2.69000000000000E+0002   2.69000000000000E+0002   2.69000000000000E+0002   2.69000000000000E+0002   2.69000000000000E+0002   2.69000000000000E+0002   2.69000000000000E+0002   2.69000000000000E+0002   2.69000000000000E+0002   2.69000000000000E+0002   2.69000000000000E+0002   2.69000000000000E+0002   2.69000000000000E+0002   2.69000000000000E+0002   2.69000000000000E+0002   2.69000000000000E+0002   2.69000000000000E+0002   2.69000000000000E+0002   2.69000000000000E+0002   2.69000000000000E+0002   2.69000000000000E+0002   2.69000000000000E+0002   2.69000000000000E+0002   2.69000000000000E+0002   2.69000000000000E+0002   2.69000000000000E+0002   2.69000000000000E+0002   2.69000000000000E+0002   2.69000000000000E+0002   2.69000000000000E+0002   2.69000000000000E+0002   2.69000000000000E+0002   2.69000000000000E+0002   2.69000000000000E+0002   2.69000000000000E+0002   2.69000000000000E+0002   2.69000000000000E+0002   2.69000000000000E+0002   2.69000000000000E+0002   2.69000000000000E+0002   2.69000000000000E+0002   2.69000000000000E+0002   2.69000000000000E+0002   2.69000000000000E+0002   2.69000000000000E+0002   2.69000000000000E+0002   2.69000000000000E+0002   2.69000000000000E+0002   2.69000000000000E+0002   2.69000000000000E+0002   2.69000000000000E+0002   2.69000000000000E+0002   2.69000000000000E+0002   2.69000000000000E+0002   2.69000000000000E+0002   2.69000000000000E+0002   2.69000000000000E+0002   2.69000000000000E+0002   2.69000000000000E+0002   2.69000000000000E+0002   2.69000000000000E+0002   2.69000000000000E+0002   2.69000000000000E+0002   2.69000000000000E+0002   2.69000000000000E+0002   2.69000000000000E+0002   2.69000000000000E+0002   2.69000000000000E+0002   2.69000000000000E+0002   2.69000000000000E+0002   2.69000000000000E+0002   2.69000000000000E+0002   2.69000000000000E+0002   2.69000000000000E+0002   2.69000000000000E+0002   2.69000000000000E+0002   2.69000000000000E+0002   2.69000000000000E+0002   2.69000000000000E+0002   2.69000000000000E+0002   2.69000000000000E+0002   2.69000000000000E+0002   2.69000000000000E+0002   2.69000000000000E+0002   2.69000000000000E+0002   2.69000000000000E+0002   2.69000000000000E+0002   2.69000000000000E+0002   2.69000000000000E+0002   2.69000000000000E+0002   2.69000000000000E+0002   2.69000000000000E+0002   2.69000000000000E+0002   2.69000000000000E+0002   2.69000000000000E+0002   2.69000000000000E+0002   2.69000000000000E+0002   2.69000000000000E+0002   2.69000000000000E+0002   2.69000000000000E+0002   2.69000000000000E+0002   2.69000000000000E+0002   2.69000000000000E+0002   2.69000000000000E+0002   2.69000000000000E+0002   2.69000000000000E+0002   2.69000000000000E+0002   2.69000000000000E+0002   2.69000000000000E+0002   2.69000000000000E+0002   2.69000000000000E+0002   2.69000000000000E+0002   2.69000000000000E+0002   2.69000000000000E+0002   2.69000000000000E+0002   2.69000000000000E+0002   2.69000000000000E+0002   2.69000000000000E+0002   2.69000000000000E+0002   2.69000000000000E+0002   2.69000000000000E+0002   2.69000000000000E+0002   2.69000000000000E+0002   2.69000000000000E+0002   2.69000000000000E+0002   2.69000000000000E+0002   2.69000000000000E+0002   2.69000000000000E+0002   2.69000000000000E+0002   2.69000000000000E+0002   2.69000000000000E+0002   2.69000000000000E+0002   2.69000000000000E+0002   2.69000000000000E+0002   2.69000000000000E+0002   2.69000000000000E+0002   2.69000000000000E+0002   2.69000000000000E+0002   2.69000000000000E+0002   2.69000000000000E+0002   2.69000000000000E+0002   2.69000000000000E+0002   2.69000000000000E+0002   2.69000000000000E+0002   2.69000000000000E+0002   2.69000000000000E+0002   2.69000000000000E+0002   2.69000000000000E+0002   2.69000000000000E+0002   2.69000000000000E+0002   2.69000000000000E+0002   2.69000000000000E+0002   2.69000000000000E+0002   2.69000000000000E+0002   2.69000000000000E+0002   2.69000000000000E+0002   2.69000000000000E+0002   2.69000000000000E+0002   2.69000000000000E+0002   2.69000000000000E+0002   2.69000000000000E+0002   2.69000000000000E+0002   2.69000000000000E+0002   2.69000000000000E+0002   2.69000000000000E+0002   2.69000000000000E+0002   2.69000000000000E+0002   2.69000000000000E+0002   2.69000000000000E+0002   2.69000000000000E+0002   2.69000000000000E+0002   2.69000000000000E+0002   2.69000000000000E+0002   2.69000000000000E+0002   2.69000000000000E+0002   2.69000000000000E+0002   2.69000000000000E+0002   2.69000000000000E+0002   2.69000000000000E+0002   2.69000000000000E+0002   2.69000000000000E+0002   2.69000000000000E+0002   2.69000000000000E+0002   2.69000000000000E+0002
