DSAA
234  134
 5.72000000000000E+0004   6.88500000000000E+0004
 7.78000000000000E+0004   8.44500000000000E+0004
-2.83325073242188E+0003  -2.77272583007813E+0003
  -2.82965551757813E+0003  -2.82995288085938E+0003  -2.83023583984375E+0003  -2.83050195312500E+0003  -2.83074731445313E+0003  -2.83096630859375E+0003  -2.83115405273438E+0003  -2.83130688476563E+0003  -2.83142846679688E+0003  -2.83152465820313E+0003  -2.83160083007813E+0003  -2.83166259765625E+0003  -2.83171289062500E+0003  -2.83175390625000E+0003  -2.83178808593750E+0003  -2.83181738281250E+0003  -2.83184228515625E+0003  -2.83186328125000E+0003  -2.83188061523438E+0003  -2.83189477539063E+0003  -2.83190649414063E+0003  -2.83191601562500E+0003  -2.83192431640625E+0003  -2.83193188476563E+0003  -2.83193872070313E+0003  -2.83194506835938E+0003  -2.83195166015625E+0003  -2.83195849609375E+0003  -2.83196582031250E+0003  -2.83197387695313E+0003  -2.83198339843750E+0003  -2.83199414062500E+0003  -2.83200610351563E+0003  -2.83201904296875E+0003  -2.83203271484375E+0003  -2.83204687500000E+0003  -2.83206152343750E+0003  -2.83207666015625E+0003  -2.83209155273438E+0003  -2.83210668945313E+0003  -2.83212182617188E+0003  -2.83213671875000E+0003  -2.83215136718750E+0003  -2.83216601562500E+0003  -2.83218041992188E+0003  -2.83219458007813E+0003  -2.83220825195313E+0003  -2.83222143554688E+0003  -2.83223413085938E+0003  -2.83224609375000E+0003  -2.83225732421875E+0003  -2.83226733398438E+0003  -2.83227636718750E+0003  -2.83228442382813E+0003  -2.83229101562500E+0003  -2.83229614257813E+0003  -2.83230004882813E+0003  -2.83230249023438E+0003  -2.83230322265625E+0003  -2.83230224609375E+0003  -2.83229956054688E+0003  -2.83229516601563E+0003  -2.83228857421875E+0003  -2.83228051757813E+0003  -2.83227050781250E+0003  -2.83225878906250E+0003  -2.83224560546875E+0003  -2.83223095703125E+0003  -2.83221508789063E+0003  -2.83219799804688E+0003  -2.83218017578125E+0003  -2.83216137695313E+0003  -2.83214208984375E+0003  -2.83212280273438E+0003  -2.83210351562500E+0003  -2.83208471679688E+0003  -2.83206640625000E+0003  -2.83204858398438E+0003  -2.83203198242188E+0003  -2.83201611328125E+0003  -2.83200170898438E+0003  -2.83198828125000E+0003  -2.83197583007813E+0003  -2.83196411132813E+0003  -2.83195288085938E+0003  -2.83194165039063E+0003  -2.83193066406250E+0003  -2.83192016601563E+0003  -2.83191113281250E+0003  -2.83190356445313E+0003  -2.83189746093750E+0003  -2.83189306640625E+0003  -2.83189013671875E+0003  -2.83188842773438E+0003  -2.83188793945313E+0003  -2.83188818359375E+0003  -2.83188891601563E+0003  -2.83189038085938E+0003  -2.83189184570313E+0003  -2.83189282226563E+0003  -2.83189282226563E+0003  -2.83189160156250E+0003  -2.83188916015625E+0003  -2.83188598632813E+0003  -2.83188232421875E+0003  -2.83187915039063E+0003  -2.83187622070313E+0003  -2.83187377929688E+0003  -2.83187231445313E+0003  -2.83187158203125E+0003  -2.83187182617188E+0003  -2.83187280273438E+0003  -2.83187426757813E+0003  -2.83187597656250E+0003  -2.83187792968750E+0003  -2.83187890625000E+0003  -2.83187841796875E+0003  -2.83187646484375E+0003  -2.83187500000000E+0003  -2.83187500000000E+0003  -2.83187792968750E+0003  -2.83188354492188E+0003  -2.83189062500000E+0003  -2.83189819335938E+0003  -2.83190454101563E+0003  -2.83190917968750E+0003  -2.83191235351563E+0003  -2.83191357421875E+0003  -2.83191333007813E+0003  -2.83191064453125E+0003  -2.83190454101563E+0003  -2.83189379882813E+0003  -2.83187792968750E+0003  -2.83185742187500E+0003  -2.83183227539063E+0003  -2.83180395507813E+0003  -2.83177148437500E+0003  -2.83173754882813E+0003  -2.83169995117188E+0003  -2.83166235351563E+0003  -2.83162182617188E+0003  -2.83158178710938E+0003  -2.83154003906250E+0003  -2.83149731445313E+0003  -2.83145263671875E+0003  -2.83140722656250E+0003  -2.83136230468750E+0003  -2.83131884765625E+0003  -2.83127587890625E+0003  -2.83123413085938E+0003  -2.83119384765625E+0003  -2.83115502929688E+0003  -2.83111889648438E+0003  -2.83108398437500E+0003  -2.83105200195313E+0003  -2.83102172851563E+0003  -2.83099389648438E+0003  -2.83096777343750E+0003  -2.83094360351563E+0003  -2.83092114257813E+0003  -2.83089990234375E+0003  -2.83087988281250E+0003  -2.83086059570313E+0003  -2.83084204101563E+0003  -2.83082373046875E+0003  -2.83080566406250E+0003  -2.83078686523438E+0003  -2.83076831054688E+0003  -2.83074926757813E+0003  -2.83073071289063E+0003  -2.83071191406250E+0003  -2.83069482421875E+0003  -2.83068090820313E+0003  -2.83067016601563E+0003  -2.83066357421875E+0003  -2.83065966796875E+0003  -2.83065869140625E+0003  -2.83066040039063E+0003  -2.83066479492188E+0003  -2.83067431640625E+0003  -2.83068823242188E+0003  -2.83070410156250E+0003  -2.83072216796875E+0003  -2.83074438476563E+0003  -2.83077124023438E+0003  -2.83077246093750E+0003  -2.83077514648438E+0003  -2.83079272460938E+0003  -2.83082080078125E+0003  -2.83086132812500E+0003  -2.83091162109375E+0003  -2.83097119140625E+0003  -2.83103881835938E+0003  -2.83111450195313E+0003  -2.83119726562500E+0003  -2.83126293945313E+0003  -2.83131909179688E+0003  -2.83137719726563E+0003  -2.83143505859375E+0003  -2.83149438476563E+0003  -2.83155224609375E+0003  -2.83160937500000E+0003  -2.83166870117188E+0003  -2.83172631835938E+0003  -2.83178320312500E+0003  -2.83183740234375E+0003  -2.83188940429688E+0003  -2.83194091796875E+0003  -2.83198608398438E+0003  -2.83201538085938E+0003  -2.83202587890625E+0003  -2.83201733398438E+0003  -2.83199584960938E+0003  -2.83196655273438E+0003  -2.83193457031250E+0003  -2.83190258789063E+0003  -2.83187109375000E+0003  -2.83183984375000E+0003  -2.83180981445313E+0003  -2.83178051757813E+0003  -2.83175195312500E+0003  -2.83172412109375E+0003  -2.83169702148438E+0003  -2.83167016601563E+0003  -2.83164282226563E+0003  -2.83161474609375E+0003  -2.83158496093750E+0003  -2.83154931640625E+0003  -2.83150048828125E+0003  -2.83143212890625E+0003  -2.83133691406250E+0003  -2.83120458984375E+0003  -2.83102563476563E+0003  -2.83079370117188E+0003
  -2.82971264648438E+0003  -2.83000170898438E+0003  -2.83027587890625E+0003  -2.83053320312500E+0003  -2.83077050781250E+0003  -2.83098437500000E+0003  -2.83117163085938E+0003  -2.83132958984375E+0003  -2.83146093750000E+0003  -2.83156958007813E+0003  -2.83165917968750E+0003  -2.83173388671875E+0003  -2.83179614257813E+0003  -2.83184765625000E+0003  -2.83189135742188E+0003  -2.83192846679688E+0003  -2.83196020507813E+0003  -2.83198681640625E+0003  -2.83200903320313E+0003  -2.83202734375000E+0003  -2.83204248046875E+0003  -2.83205493164063E+0003  -2.83206567382813E+0003  -2.83207495117188E+0003  -2.83208349609375E+0003  -2.83209130859375E+0003  -2.83209887695313E+0003  -2.83210644531250E+0003  -2.83211450195313E+0003  -2.83212329101563E+0003  -2.83213354492188E+0003  -2.83214477539063E+0003  -2.83215747070313E+0003  -2.83217089843750E+0003  -2.83218505859375E+0003  -2.83219995117188E+0003  -2.83221508789063E+0003  -2.83223071289063E+0003  -2.83224633789063E+0003  -2.83226171875000E+0003  -2.83227734375000E+0003  -2.83229248046875E+0003  -2.83230786132813E+0003  -2.83232275390625E+0003  -2.83233764648438E+0003  -2.83235205078125E+0003  -2.83236621093750E+0003  -2.83237988281250E+0003  -2.83239306640625E+0003  -2.83240551757813E+0003  -2.83241723632813E+0003  -2.83242797851563E+0003  -2.83243774414063E+0003  -2.83244628906250E+0003  -2.83245361328125E+0003  -2.83245971679688E+0003  -2.83246411132813E+0003  -2.83246728515625E+0003  -2.83246850585938E+0003  -2.83246801757813E+0003  -2.83246582031250E+0003  -2.83246142578125E+0003  -2.83245507812500E+0003  -2.83244653320313E+0003  -2.83243627929688E+0003  -2.83242407226563E+0003  -2.83241015625000E+0003  -2.83239428710938E+0003  -2.83237719726563E+0003  -2.83235839843750E+0003  -2.83233862304688E+0003  -2.83231787109375E+0003  -2.83229638671875E+0003  -2.83227465820313E+0003  -2.83225292968750E+0003  -2.83223120117188E+0003  -2.83220971679688E+0003  -2.83218847656250E+0003  -2.83216772460938E+0003  -2.83214794921875E+0003  -2.83212963867188E+0003  -2.83211254882813E+0003  -2.83209692382813E+0003  -2.83208154296875E+0003  -2.83206616210938E+0003  -2.83204980468750E+0003  -2.83203271484375E+0003  -2.83201513671875E+0003  -2.83199804687500E+0003  -2.83198168945313E+0003  -2.83196606445313E+0003  -2.83195092773438E+0003  -2.83193603515625E+0003  -2.83192089843750E+0003  -2.83190576171875E+0003  -2.83189086914063E+0003  -2.83187670898438E+0003  -2.83186425781250E+0003  -2.83185351562500E+0003  -2.83184301757813E+0003  -2.83183251953125E+0003  -2.83182128906250E+0003  -2.83180957031250E+0003  -2.83179785156250E+0003  -2.83178613281250E+0003  -2.83177514648438E+0003  -2.83176513671875E+0003  -2.83175585937500E+0003  -2.83174731445313E+0003  -2.83173974609375E+0003  -2.83173266601563E+0003  -2.83172607421875E+0003  -2.83172021484375E+0003  -2.83171459960938E+0003  -2.83170971679688E+0003  -2.83170458984375E+0003  -2.83169799804688E+0003  -2.83169018554688E+0003  -2.83168261718750E+0003  -2.83167626953125E+0003  -2.83167138671875E+0003  -2.83166796875000E+0003  -2.83166455078125E+0003  -2.83166113281250E+0003  -2.83165600585938E+0003  -2.83164868164063E+0003  -2.83163769531250E+0003  -2.83162500000000E+0003  -2.83161059570313E+0003  -2.83159179687500E+0003  -2.83156811523438E+0003  -2.83154101562500E+0003  -2.83150854492188E+0003  -2.83147387695313E+0003  -2.83143359375000E+0003  -2.83139453125000E+0003  -2.83134765625000E+0003  -2.83130615234375E+0003  -2.83125659179688E+0003  -2.83121215820313E+0003  -2.83116162109375E+0003  -2.83111523437500E+0003  -2.83106640625000E+0003  -2.83101904296875E+0003  -2.83097167968750E+0003  -2.83092504882813E+0003  -2.83088012695313E+0003  -2.83083813476563E+0003  -2.83079833984375E+0003  -2.83076098632813E+0003  -2.83072656250000E+0003  -2.83069458007813E+0003  -2.83066601562500E+0003  -2.83063989257813E+0003  -2.83061645507813E+0003  -2.83059570312500E+0003  -2.83057690429688E+0003  -2.83056005859375E+0003  -2.83054492187500E+0003  -2.83053051757813E+0003  -2.83051660156250E+0003  -2.83050292968750E+0003  -2.83048876953125E+0003  -2.83047363281250E+0003  -2.83045727539063E+0003  -2.83043920898438E+0003  -2.83041894531250E+0003  -2.83039697265625E+0003  -2.83037304687500E+0003  -2.83034741210938E+0003  -2.83032055664063E+0003  -2.83029345703125E+0003  -2.83026635742188E+0003  -2.83024023437500E+0003  -2.83021484375000E+0003  -2.83018994140625E+0003  -2.83016577148438E+0003  -2.83014306640625E+0003  -2.83012329101563E+0003  -2.83010815429688E+0003  -2.83009692382813E+0003  -2.83008715820313E+0003  -2.83007934570313E+0003  -2.83002783203125E+0003  -2.82997290039063E+0003  -2.82992773437500E+0003  -2.82989819335938E+0003  -2.82988842773438E+0003  -2.82989746093750E+0003  -2.82992431640625E+0003  -2.82996704101563E+0003  -2.83002490234375E+0003  -2.83009594726563E+0003  -2.83017968750000E+0003  -2.83027490234375E+0003  -2.83038061523438E+0003  -2.83049389648438E+0003  -2.83059228515625E+0003  -2.83066674804688E+0003  -2.83074682617188E+0003  -2.83082592773438E+0003  -2.83090844726563E+0003  -2.83099926757813E+0003  -2.83109301757813E+0003  -2.83119506835938E+0003  -2.83129760742188E+0003  -2.83139038085938E+0003  -2.83148559570313E+0003  -2.83157763671875E+0003  -2.83164721679688E+0003  -2.83169897460938E+0003  -2.83173120117188E+0003  -2.83174804687500E+0003  -2.83175390625000E+0003  -2.83175317382813E+0003  -2.83174707031250E+0003  -2.83173608398438E+0003  -2.83172045898438E+0003  -2.83170141601563E+0003  -2.83167968750000E+0003  -2.83165551757813E+0003  -2.83163061523438E+0003  -2.83160644531250E+0003  -2.83158227539063E+0003  -2.83155761718750E+0003  -2.83153320312500E+0003  -2.83151025390625E+0003  -2.83148461914063E+0003  -2.83145068359375E+0003  -2.83140161132813E+0003  -2.83132934570313E+0003  -2.83121704101563E+0003  -2.83104760742188E+0003  -2.83081665039063E+0003
  -2.82976611328125E+0003  -2.83004833984375E+0003  -2.83031542968750E+0003  -2.83056616210938E+0003  -2.83079785156250E+0003  -2.83100830078125E+0003  -2.83119531250000E+0003  -2.83135742187500E+0003  -2.83149584960938E+0003  -2.83161376953125E+0003  -2.83171386718750E+0003  -2.83179907226563E+0003  -2.83187109375000E+0003  -2.83193212890625E+0003  -2.83198437500000E+0003  -2.83202905273438E+0003  -2.83206762695313E+0003  -2.83210009765625E+0003  -2.83212768554688E+0003  -2.83215063476563E+0003  -2.83216967773438E+0003  -2.83218579101563E+0003  -2.83219921875000E+0003  -2.83221118164063E+0003  -2.83222167968750E+0003  -2.83223095703125E+0003  -2.83223999023438E+0003  -2.83224853515625E+0003  -2.83225756835938E+0003  -2.83226708984375E+0003  -2.83227758789063E+0003  -2.83228930664063E+0003  -2.83230224609375E+0003  -2.83231591796875E+0003  -2.83233032226563E+0003  -2.83234521484375E+0003  -2.83236035156250E+0003  -2.83237573242188E+0003  -2.83239111328125E+0003  -2.83240625000000E+0003  -2.83242163085938E+0003  -2.83243652343750E+0003  -2.83245141601563E+0003  -2.83246606445313E+0003  -2.83248071289063E+0003  -2.83249487304688E+0003  -2.83250878906250E+0003  -2.83252246093750E+0003  -2.83253540039063E+0003  -2.83254785156250E+0003  -2.83255981445313E+0003  -2.83257055664063E+0003  -2.83258056640625E+0003  -2.83258959960938E+0003  -2.83259716796875E+0003  -2.83260351562500E+0003  -2.83260864257813E+0003  -2.83261206054688E+0003  -2.83261352539063E+0003  -2.83261352539063E+0003  -2.83261132812500E+0003  -2.83260717773438E+0003  -2.83260083007813E+0003  -2.83259228515625E+0003  -2.83258154296875E+0003  -2.83256884765625E+0003  -2.83255419921875E+0003  -2.83253784179688E+0003  -2.83251953125000E+0003  -2.83249951171875E+0003  -2.83247827148438E+0003  -2.83245556640625E+0003  -2.83243237304688E+0003  -2.83240844726563E+0003  -2.83238452148438E+0003  -2.83236010742188E+0003  -2.83233520507813E+0003  -2.83230981445313E+0003  -2.83228442382813E+0003  -2.83225927734375E+0003  -2.83223535156250E+0003  -2.83221289062500E+0003  -2.83219189453125E+0003  -2.83217089843750E+0003  -2.83214892578125E+0003  -2.83212426757813E+0003  -2.83209765625000E+0003  -2.83206909179688E+0003  -2.83203979492188E+0003  -2.83201000976563E+0003  -2.83197949218750E+0003  -2.83194799804688E+0003  -2.83191528320313E+0003  -2.83188085937500E+0003  -2.83184472656250E+0003  -2.83180786132813E+0003  -2.83177294921875E+0003  -2.83174340820313E+0003  -2.83171777343750E+0003  -2.83169433593750E+0003  -2.83167187500000E+0003  -2.83165014648438E+0003  -2.83162841796875E+0003  -2.83160742187500E+0003  -2.83158740234375E+0003  -2.83156860351563E+0003  -2.83155126953125E+0003  -2.83153417968750E+0003  -2.83151855468750E+0003  -2.83150268554688E+0003  -2.83148779296875E+0003  -2.83147241210938E+0003  -2.83145825195313E+0003  -2.83144335937500E+0003  -2.83142993164063E+0003  -2.83141601562500E+0003  -2.83140136718750E+0003  -2.83138525390625E+0003  -2.83136865234375E+0003  -2.83135253906250E+0003  -2.83133593750000E+0003  -2.83131884765625E+0003  -2.83129907226563E+0003  -2.83128002929688E+0003  -2.83125830078125E+0003  -2.83123291015625E+0003  -2.83119970703125E+0003  -2.83116625976563E+0003  -2.83113305664063E+0003  -2.83109228515625E+0003  -2.83104516601563E+0003  -2.83099755859375E+0003  -2.83094506835938E+0003  -2.83087353515625E+0003  -2.83077026367188E+0003  -2.83068017578125E+0003  -2.83059252929688E+0003  -2.83052661132813E+0003  -2.83047119140625E+0003  -2.83043627929688E+0003  -2.83041162109375E+0003  -2.83040063476563E+0003  -2.83038891601563E+0003  -2.83033886718750E+0003  -2.83029028320313E+0003  -2.83024462890625E+0003  -2.83020361328125E+0003  -2.83016699218750E+0003  -2.83013452148438E+0003  -2.83010620117188E+0003  -2.83008251953125E+0003  -2.83006274414063E+0003  -2.83004736328125E+0003  -2.83003564453125E+0003  -2.83002709960938E+0003  -2.83002124023438E+0003  -2.83001782226563E+0003  -2.83001586914063E+0003  -2.83001489257813E+0003  -2.83001367187500E+0003  -2.83001220703125E+0003  -2.83000903320313E+0003  -2.83000390625000E+0003  -2.82999584960938E+0003  -2.82998437500000E+0003  -2.82996923828125E+0003  -2.82994995117188E+0003  -2.82992626953125E+0003  -2.82989819335938E+0003  -2.82986621093750E+0003  -2.82983007812500E+0003  -2.82979052734375E+0003  -2.82974780273438E+0003  -2.82970214843750E+0003  -2.82965380859375E+0003  -2.82960253906250E+0003  -2.82954956054688E+0003  -2.82949584960938E+0003  -2.82944335937500E+0003  -2.82939331054688E+0003  -2.82934545898438E+0003  -2.82928564453125E+0003  -2.82916601562500E+0003  -2.82904809570313E+0003  -2.82893774414063E+0003  -2.82884155273438E+0003  -2.82876586914063E+0003  -2.82871704101563E+0003  -2.82869482421875E+0003  -2.82869750976563E+0003  -2.82872363281250E+0003  -2.82877172851563E+0003  -2.82884008789063E+0003  -2.82892700195313E+0003  -2.82903076171875E+0003  -2.82914965820313E+0003  -2.82928198242188E+0003  -2.82942675781250E+0003  -2.82958203125000E+0003  -2.82968676757813E+0003  -2.82979321289063E+0003  -2.82990454101563E+0003  -2.83002685546875E+0003  -2.83016040039063E+0003  -2.83030737304688E+0003  -2.83046069335938E+0003  -2.83060961914063E+0003  -2.83076855468750E+0003  -2.83092114257813E+0003  -2.83104785156250E+0003  -2.83115942382813E+0003  -2.83125122070313E+0003  -2.83132128906250E+0003  -2.83137719726563E+0003  -2.83142211914063E+0003  -2.83145385742188E+0003  -2.83147387695313E+0003  -2.83148413085938E+0003  -2.83148364257813E+0003  -2.83147583007813E+0003  -2.83146362304688E+0003  -2.83144848632813E+0003  -2.83143310546875E+0003  -2.83141796875000E+0003  -2.83140112304688E+0003  -2.83138427734375E+0003  -2.83136914062500E+0003  -2.83135595703125E+0003  -2.83133935546875E+0003  -2.83131420898438E+0003  -2.83127539062500E+0003  -2.83119262695313E+0003  -2.83103295898438E+0003  -2.83079907226563E+0003
  -2.82981665039063E+0003  -2.83009326171875E+0003  -2.83035473632813E+0003  -2.83060034179688E+0003  -2.83082812500000E+0003  -2.83103637695313E+0003  -2.83122363281250E+0003  -2.83138867187500E+0003  -2.83153271484375E+0003  -2.83165771484375E+0003  -2.83176611328125E+0003  -2.83185961914063E+0003  -2.83194042968750E+0003  -2.83200976562500E+0003  -2.83206982421875E+0003  -2.83212182617188E+0003  -2.83216699218750E+0003  -2.83220532226563E+0003  -2.83223828125000E+0003  -2.83226586914063E+0003  -2.83228930664063E+0003  -2.83230908203125E+0003  -2.83232592773438E+0003  -2.83234033203125E+0003  -2.83235278320313E+0003  -2.83236401367188E+0003  -2.83237426757813E+0003  -2.83238378906250E+0003  -2.83239355468750E+0003  -2.83240332031250E+0003  -2.83241406250000E+0003  -2.83242602539063E+0003  -2.83243847656250E+0003  -2.83245190429688E+0003  -2.83246557617188E+0003  -2.83247973632813E+0003  -2.83249414062500E+0003  -2.83250878906250E+0003  -2.83252319335938E+0003  -2.83253735351563E+0003  -2.83255151367188E+0003  -2.83256567382813E+0003  -2.83257934570313E+0003  -2.83259301757813E+0003  -2.83260644531250E+0003  -2.83261987304688E+0003  -2.83263281250000E+0003  -2.83264550781250E+0003  -2.83265795898438E+0003  -2.83266967773438E+0003  -2.83268090820313E+0003  -2.83269140625000E+0003  -2.83270092773438E+0003  -2.83270947265625E+0003  -2.83271704101563E+0003  -2.83272338867188E+0003  -2.83272802734375E+0003  -2.83273144531250E+0003  -2.83273291015625E+0003  -2.83273242187500E+0003  -2.83273022460938E+0003  -2.83272558593750E+0003  -2.83271875000000E+0003  -2.83270971679688E+0003  -2.83269848632813E+0003  -2.83268530273438E+0003  -2.83266992187500E+0003  -2.83265283203125E+0003  -2.83263354492188E+0003  -2.83261254882813E+0003  -2.83258984375000E+0003  -2.83256591796875E+0003  -2.83254101562500E+0003  -2.83251562500000E+0003  -2.83248950195313E+0003  -2.83246240234375E+0003  -2.83243408203125E+0003  -2.83240356445313E+0003  -2.83237133789063E+0003  -2.83233862304688E+0003  -2.83230615234375E+0003  -2.83227490234375E+0003  -2.83224438476563E+0003  -2.83221289062500E+0003  -2.83217895507813E+0003  -2.83214111328125E+0003  -2.83209912109375E+0003  -2.83205395507813E+0003  -2.83200659179688E+0003  -2.83195727539063E+0003  -2.83190576171875E+0003  -2.83185205078125E+0003  -2.83179565429688E+0003  -2.83173632812500E+0003  -2.83167407226563E+0003  -2.83161108398438E+0003  -2.83155297851563E+0003  -2.83150561523438E+0003  -2.83146582031250E+0003  -2.83143090820313E+0003  -2.83139843750000E+0003  -2.83136865234375E+0003  -2.83133837890625E+0003  -2.83131103515625E+0003  -2.83128564453125E+0003  -2.83126000976563E+0003  -2.83123754882813E+0003  -2.83121337890625E+0003  -2.83119238281250E+0003  -2.83116894531250E+0003  -2.83114794921875E+0003  -2.83112426757813E+0003  -2.83110278320313E+0003  -2.83107788085938E+0003  -2.83105566406250E+0003  -2.83103100585938E+0003  -2.83100585937500E+0003  -2.83097827148438E+0003  -2.83094921875000E+0003  -2.83091845703125E+0003  -2.83088574218750E+0003  -2.83085058593750E+0003  -2.83081054687500E+0003  -2.83076977539063E+0003  -2.83072436523438E+0003  -2.83067309570313E+0003  -2.83061352539063E+0003  -2.83055224609375E+0003  -2.83049169921875E+0003  -2.83042578125000E+0003  -2.83035620117188E+0003  -2.83026660156250E+0003  -2.83012255859375E+0003  -2.82998168945313E+0003  -2.82984667968750E+0003  -2.82972534179688E+0003  -2.82961914062500E+0003  -2.82953564453125E+0003  -2.82947534179688E+0003  -2.82943945312500E+0003  -2.82942260742188E+0003  -2.82942236328125E+0003  -2.82943481445313E+0003  -2.82945605468750E+0003  -2.82945898437500E+0003  -2.82941528320313E+0003  -2.82937792968750E+0003  -2.82934716796875E+0003  -2.82932275390625E+0003  -2.82930517578125E+0003  -2.82929394531250E+0003  -2.82928979492188E+0003  -2.82929199218750E+0003  -2.82929931640625E+0003  -2.82931103515625E+0003  -2.82932592773438E+0003  -2.82934301757813E+0003  -2.82936083984375E+0003  -2.82937841796875E+0003  -2.82939501953125E+0003  -2.82940893554688E+0003  -2.82941967773438E+0003  -2.82942626953125E+0003  -2.82942797851563E+0003  -2.82942382812500E+0003  -2.82941357421875E+0003  -2.82939648437500E+0003  -2.82937231445313E+0003  -2.82934106445313E+0003  -2.82930224609375E+0003  -2.82925634765625E+0003  -2.82920312500000E+0003  -2.82914282226563E+0003  -2.82907592773438E+0003  -2.82900244140625E+0003  -2.82892285156250E+0003  -2.82883813476563E+0003  -2.82874951171875E+0003  -2.82865844726563E+0003  -2.82856640625000E+0003  -2.82845996093750E+0003  -2.82827856445313E+0003  -2.82809277343750E+0003  -2.82790893554688E+0003  -2.82773413085938E+0003  -2.82757739257813E+0003  -2.82744750976563E+0003  -2.82735156250000E+0003  -2.82729003906250E+0003  -2.82726171875000E+0003  -2.82726562500000E+0003  -2.82729980468750E+0003  -2.82736157226563E+0003  -2.82744873046875E+0003  -2.82755834960938E+0003  -2.82768798828125E+0003  -2.82783666992188E+0003  -2.82800390625000E+0003  -2.82818847656250E+0003  -2.82838745117188E+0003  -2.82853002929688E+0003  -2.82867358398438E+0003  -2.82883056640625E+0003  -2.82900195312500E+0003  -2.82918725585938E+0003  -2.82938525390625E+0003  -2.82959594726563E+0003  -2.82981933593750E+0003  -2.83003955078125E+0003  -2.83024316406250E+0003  -2.83042797851563E+0003  -2.83059106445313E+0003  -2.83072753906250E+0003  -2.83084814453125E+0003  -2.83094921875000E+0003  -2.83103125000000E+0003  -2.83109204101563E+0003  -2.83113989257813E+0003  -2.83116381835938E+0003  -2.83117797851563E+0003  -2.83118652343750E+0003  -2.83118945312500E+0003  -2.83118774414063E+0003  -2.83118652343750E+0003  -2.83118408203125E+0003  -2.83117968750000E+0003  -2.83117211914063E+0003  -2.83117138671875E+0003  -2.83116992187500E+0003  -2.83116235351563E+0003  -2.83116699218750E+0003  -2.83112841796875E+0003  -2.83097534179688E+0003  -2.83073266601563E+0003
  -2.82986596679688E+0003  -2.83013720703125E+0003  -2.83039428710938E+0003  -2.83063574218750E+0003  -2.83086035156250E+0003  -2.83106713867188E+0003  -2.83125488281250E+0003  -2.83142236328125E+0003  -2.83157055664063E+0003  -2.83170166015625E+0003  -2.83181689453125E+0003  -2.83191772460938E+0003  -2.83200610351563E+0003  -2.83208325195313E+0003  -2.83215039062500E+0003  -2.83220947265625E+0003  -2.83226049804688E+0003  -2.83230493164063E+0003  -2.83234277343750E+0003  -2.83237524414063E+0003  -2.83240258789063E+0003  -2.83242578125000E+0003  -2.83244555664063E+0003  -2.83246264648438E+0003  -2.83247705078125E+0003  -2.83248974609375E+0003  -2.83250097656250E+0003  -2.83251123046875E+0003  -2.83252099609375E+0003  -2.83253100585938E+0003  -2.83254125976563E+0003  -2.83255249023438E+0003  -2.83256420898438E+0003  -2.83257617187500E+0003  -2.83258886718750E+0003  -2.83260156250000E+0003  -2.83261425781250E+0003  -2.83262719726563E+0003  -2.83263989257813E+0003  -2.83265209960938E+0003  -2.83266455078125E+0003  -2.83267651367188E+0003  -2.83268847656250E+0003  -2.83270019531250E+0003  -2.83271166992188E+0003  -2.83272338867188E+0003  -2.83273461914063E+0003  -2.83274584960938E+0003  -2.83275659179688E+0003  -2.83276708984375E+0003  -2.83277709960938E+0003  -2.83278613281250E+0003  -2.83279467773438E+0003  -2.83280224609375E+0003  -2.83280859375000E+0003  -2.83281396484375E+0003  -2.83281787109375E+0003  -2.83282006835938E+0003  -2.83282055664063E+0003  -2.83281933593750E+0003  -2.83281567382813E+0003  -2.83281005859375E+0003  -2.83280200195313E+0003  -2.83279174804688E+0003  -2.83277929687500E+0003  -2.83276513671875E+0003  -2.83274877929688E+0003  -2.83273071289063E+0003  -2.83271069335938E+0003  -2.83268847656250E+0003  -2.83266479492188E+0003  -2.83263964843750E+0003  -2.83261352539063E+0003  -2.83258666992188E+0003  -2.83255908203125E+0003  -2.83252954101563E+0003  -2.83249682617188E+0003  -2.83245971679688E+0003  -2.83241845703125E+0003  -2.83237426757813E+0003  -2.83232812500000E+0003  -2.83228173828125E+0003  -2.83223461914063E+0003  -2.83218530273438E+0003  -2.83213159179688E+0003  -2.83207202148438E+0003  -2.83200708007813E+0003  -2.83193896484375E+0003  -2.83186791992188E+0003  -2.83179321289063E+0003  -2.83171508789063E+0003  -2.83163476562500E+0003  -2.83155102539063E+0003  -2.83146386718750E+0003  -2.83137548828125E+0003  -2.83128955078125E+0003  -2.83121313476563E+0003  -2.83115087890625E+0003  -2.83109814453125E+0003  -2.83105395507813E+0003  -2.83101318359375E+0003  -2.83097851562500E+0003  -2.83094189453125E+0003  -2.83091040039063E+0003  -2.83088183593750E+0003  -2.83085131835938E+0003  -2.83082568359375E+0003  -2.83079711914063E+0003  -2.83077197265625E+0003  -2.83074365234375E+0003  -2.83071679687500E+0003  -2.83068701171875E+0003  -2.83065771484375E+0003  -2.83062524414063E+0003  -2.83059326171875E+0003  -2.83055834960938E+0003  -2.83052001953125E+0003  -2.83047680664063E+0003  -2.83042944335938E+0003  -2.83037915039063E+0003  -2.83032470703125E+0003  -2.83026586914063E+0003  -2.83020214843750E+0003  -2.83013305664063E+0003  -2.83005615234375E+0003  -2.82997167968750E+0003  -2.82988159179688E+0003  -2.82978930664063E+0003  -2.82969677734375E+0003  -2.82960449218750E+0003  -2.82946484375000E+0003  -2.82928027343750E+0003  -2.82909497070313E+0003  -2.82891528320313E+0003  -2.82874780273438E+0003  -2.82859887695313E+0003  -2.82847387695313E+0003  -2.82837841796875E+0003  -2.82831689453125E+0003  -2.82828735351563E+0003  -2.82828344726563E+0003  -2.82830078125000E+0003  -2.82833422851563E+0003  -2.82837890625000E+0003  -2.82842968750000E+0003  -2.82847558593750E+0003  -2.82844165039063E+0003  -2.82841601562500E+0003  -2.82839941406250E+0003  -2.82839208984375E+0003  -2.82839428710938E+0003  -2.82840673828125E+0003  -2.82842895507813E+0003  -2.82845874023438E+0003  -2.82849438476563E+0003  -2.82853344726563E+0003  -2.82857446289063E+0003  -2.82861523437500E+0003  -2.82865429687500E+0003  -2.82869042968750E+0003  -2.82872216796875E+0003  -2.82874829101563E+0003  -2.82876806640625E+0003  -2.82878051757813E+0003  -2.82878515625000E+0003  -2.82878076171875E+0003  -2.82876733398438E+0003  -2.82874389648438E+0003  -2.82871020507813E+0003  -2.82866577148438E+0003  -2.82861059570313E+0003  -2.82854418945313E+0003  -2.82846679687500E+0003  -2.82837890625000E+0003  -2.82828076171875E+0003  -2.82817285156250E+0003  -2.82805615234375E+0003  -2.82793164062500E+0003  -2.82780004882813E+0003  -2.82766259765625E+0003  -2.82743310546875E+0003  -2.82718164062500E+0003  -2.82692407226563E+0003  -2.82666845703125E+0003  -2.82642431640625E+0003  -2.82620214843750E+0003  -2.82601269531250E+0003  -2.82586450195313E+0003  -2.82575976562500E+0003  -2.82569799804688E+0003  -2.82567773437500E+0003  -2.82569702148438E+0003  -2.82575195312500E+0003  -2.82583837890625E+0003  -2.82595239257813E+0003  -2.82609033203125E+0003  -2.82625122070313E+0003  -2.82643481445313E+0003  -2.82664038085938E+0003  -2.82686547851563E+0003  -2.82709594726563E+0003  -2.82726440429688E+0003  -2.82745043945313E+0003  -2.82765478515625E+0003  -2.82787866210938E+0003  -2.82812280273438E+0003  -2.82838940429688E+0003  -2.82867407226563E+0003  -2.82896313476563E+0003  -2.82924340820313E+0003  -2.82950463867188E+0003  -2.82974169921875E+0003  -2.82995458984375E+0003  -2.83014599609375E+0003  -2.83031420898438E+0003  -2.83045898437500E+0003  -2.83057739257813E+0003  -2.83067529296875E+0003  -2.83074169921875E+0003  -2.83079394531250E+0003  -2.83083374023438E+0003  -2.83086425781250E+0003  -2.83088549804688E+0003  -2.83090502929688E+0003  -2.83092163085938E+0003  -2.83093408203125E+0003  -2.83093847656250E+0003  -2.83095092773438E+0003  -2.83096142578125E+0003  -2.83096191406250E+0003  -2.83099365234375E+0003  -2.83098608398438E+0003  -2.83083862304688E+0003  -2.83059350585938E+0003
  -2.82991455078125E+0003  -2.83018139648438E+0003  -2.83043408203125E+0003  -2.83067211914063E+0003  -2.83089428710938E+0003  -2.83109985351563E+0003  -2.83128784179688E+0003  -2.83145776367188E+0003  -2.83161010742188E+0003  -2.83174633789063E+0003  -2.83186743164063E+0003  -2.83197509765625E+0003  -2.83207055664063E+0003  -2.83215454101563E+0003  -2.83222851562500E+0003  -2.83229370117188E+0003  -2.83235058593750E+0003  -2.83240014648438E+0003  -2.83244287109375E+0003  -2.83247949218750E+0003  -2.83251049804688E+0003  -2.83253686523438E+0003  -2.83255932617188E+0003  -2.83257812500000E+0003  -2.83259399414063E+0003  -2.83260766601563E+0003  -2.83261938476563E+0003  -2.83262963867188E+0003  -2.83263916015625E+0003  -2.83264819335938E+0003  -2.83265747070313E+0003  -2.83266723632813E+0003  -2.83267700195313E+0003  -2.83268725585938E+0003  -2.83269750976563E+0003  -2.83270800781250E+0003  -2.83271826171875E+0003  -2.83272827148438E+0003  -2.83273828125000E+0003  -2.83274780273438E+0003  -2.83275732421875E+0003  -2.83276635742188E+0003  -2.83277539062500E+0003  -2.83278442382813E+0003  -2.83279321289063E+0003  -2.83280224609375E+0003  -2.83281103515625E+0003  -2.83281982421875E+0003  -2.83282836914063E+0003  -2.83283642578125E+0003  -2.83284423828125E+0003  -2.83285131835938E+0003  -2.83285766601563E+0003  -2.83286303710938E+0003  -2.83286767578125E+0003  -2.83287109375000E+0003  -2.83287280273438E+0003  -2.83287329101563E+0003  -2.83287158203125E+0003  -2.83286791992188E+0003  -2.83286230468750E+0003  -2.83285424804688E+0003  -2.83284375000000E+0003  -2.83283105468750E+0003  -2.83281640625000E+0003  -2.83280029296875E+0003  -2.83278222656250E+0003  -2.83276269531250E+0003  -2.83274121093750E+0003  -2.83271777343750E+0003  -2.83269262695313E+0003  -2.83266577148438E+0003  -2.83263793945313E+0003  -2.83260937500000E+0003  -2.83257958984375E+0003  -2.83254638671875E+0003  -2.83250756835938E+0003  -2.83246093750000E+0003  -2.83240625000000E+0003  -2.83234521484375E+0003  -2.83227929687500E+0003  -2.83220996093750E+0003  -2.83213745117188E+0003  -2.83206079101563E+0003  -2.83197851562500E+0003  -2.83188867187500E+0003  -2.83179345703125E+0003  -2.83169604492188E+0003  -2.83159594726563E+0003  -2.83149194335938E+0003  -2.83138232421875E+0003  -2.83127221679688E+0003  -2.83115966796875E+0003  -2.83104565429688E+0003  -2.83093457031250E+0003  -2.83083251953125E+0003  -2.83074438476563E+0003  -2.83067163085938E+0003  -2.83061157226563E+0003  -2.83056079101563E+0003  -2.83051611328125E+0003  -2.83047680664063E+0003  -2.83043945312500E+0003  -2.83040600585938E+0003  -2.83037573242188E+0003  -2.83034643554688E+0003  -2.83031982421875E+0003  -2.83029248046875E+0003  -2.83026562500000E+0003  -2.83023706054688E+0003  -2.83020703125000E+0003  -2.83017456054688E+0003  -2.83014013671875E+0003  -2.83010229492188E+0003  -2.83006079101563E+0003  -2.83001416015625E+0003  -2.82996044921875E+0003  -2.82989819335938E+0003  -2.82982885742188E+0003  -2.82975317382813E+0003  -2.82967138671875E+0003  -2.82958276367188E+0003  -2.82948706054688E+0003  -2.82938256835938E+0003  -2.82926806640625E+0003  -2.82914453125000E+0003  -2.82901611328125E+0003  -2.82888696289063E+0003  -2.82876074218750E+0003  -2.82859252929688E+0003  -2.82836523437500E+0003  -2.82813354492188E+0003  -2.82790478515625E+0003  -2.82768627929688E+0003  -2.82748608398438E+0003  -2.82731176757813E+0003  -2.82717138671875E+0003  -2.82707080078125E+0003  -2.82701513671875E+0003  -2.82700073242188E+0003  -2.82701879882813E+0003  -2.82706201171875E+0003  -2.82712402343750E+0003  -2.82719848632813E+0003  -2.82727905273438E+0003  -2.82736035156250E+0003  -2.82741870117188E+0003  -2.82739746093750E+0003  -2.82738696289063E+0003  -2.82738842773438E+0003  -2.82740356445313E+0003  -2.82743286132813E+0003  -2.82747656250000E+0003  -2.82753125000000E+0003  -2.82759326171875E+0003  -2.82765917968750E+0003  -2.82772607421875E+0003  -2.82779174804688E+0003  -2.82785424804688E+0003  -2.82791113281250E+0003  -2.82796142578125E+0003  -2.82800366210938E+0003  -2.82803710937500E+0003  -2.82806127929688E+0003  -2.82807519531250E+0003  -2.82807812500000E+0003  -2.82806909179688E+0003  -2.82804785156250E+0003  -2.82801318359375E+0003  -2.82796484375000E+0003  -2.82790209960938E+0003  -2.82782470703125E+0003  -2.82773217773438E+0003  -2.82762548828125E+0003  -2.82750488281250E+0003  -2.82737084960938E+0003  -2.82722412109375E+0003  -2.82706469726563E+0003  -2.82689355468750E+0003  -2.82666210937500E+0003  -2.82635864257813E+0003  -2.82603735351563E+0003  -2.82570825195313E+0003  -2.82538061523438E+0003  -2.82506616210938E+0003  -2.82477661132813E+0003  -2.82452465820313E+0003  -2.82432250976563E+0003  -2.82417382812500E+0003  -2.82407983398438E+0003  -2.82403833007813E+0003  -2.82404565429688E+0003  -2.82409643554688E+0003  -2.82418481445313E+0003  -2.82430346679688E+0003  -2.82444750976563E+0003  -2.82461596679688E+0003  -2.82480810546875E+0003  -2.82502246093750E+0003  -2.82525732421875E+0003  -2.82550878906250E+0003  -2.82573315429688E+0003  -2.82593408203125E+0003  -2.82616162109375E+0003  -2.82641796875000E+0003  -2.82670434570313E+0003  -2.82702026367188E+0003  -2.82736083984375E+0003  -2.82771289062500E+0003  -2.82806396484375E+0003  -2.82840185546875E+0003  -2.82871948242188E+0003  -2.82901538085938E+0003  -2.82928808593750E+0003  -2.82953491210938E+0003  -2.82975415039063E+0003  -2.82994311523438E+0003  -2.83010253906250E+0003  -2.83023046875000E+0003  -2.83033300781250E+0003  -2.83041430664063E+0003  -2.83048046875000E+0003  -2.83053515625000E+0003  -2.83058129882813E+0003  -2.83061865234375E+0003  -2.83064990234375E+0003  -2.83067675781250E+0003  -2.83070385742188E+0003  -2.83072680664063E+0003  -2.83074169921875E+0003  -2.83075683593750E+0003  -2.83072509765625E+0003  -2.83058886718750E+0003  -2.83036547851563E+0003
  -2.82996459960938E+0003  -2.83022729492188E+0003  -2.83047631835938E+0003  -2.83071142578125E+0003  -2.83093164062500E+0003  -2.83113623046875E+0003  -2.83132470703125E+0003  -2.83149658203125E+0003  -2.83165234375000E+0003  -2.83179321289063E+0003  -2.83191992187500E+0003  -2.83203344726563E+0003  -2.83213500976563E+0003  -2.83222534179688E+0003  -2.83230541992188E+0003  -2.83237622070313E+0003  -2.83243823242188E+0003  -2.83249243164063E+0003  -2.83253906250000E+0003  -2.83257934570313E+0003  -2.83261352539063E+0003  -2.83264233398438E+0003  -2.83266650390625E+0003  -2.83268676757813E+0003  -2.83270361328125E+0003  -2.83271752929688E+0003  -2.83272875976563E+0003  -2.83273852539063E+0003  -2.83274682617188E+0003  -2.83275439453125E+0003  -2.83276147460938E+0003  -2.83276879882813E+0003  -2.83277612304688E+0003  -2.83278344726563E+0003  -2.83279052734375E+0003  -2.83279736328125E+0003  -2.83280419921875E+0003  -2.83281054687500E+0003  -2.83281665039063E+0003  -2.83282250976563E+0003  -2.83282788085938E+0003  -2.83283325195313E+0003  -2.83283837890625E+0003  -2.83284375000000E+0003  -2.83284887695313E+0003  -2.83285400390625E+0003  -2.83285937500000E+0003  -2.83286474609375E+0003  -2.83286987304688E+0003  -2.83287500000000E+0003  -2.83287939453125E+0003  -2.83288354492188E+0003  -2.83288671875000E+0003  -2.83288916015625E+0003  -2.83289062500000E+0003  -2.83289062500000E+0003  -2.83288940429688E+0003  -2.83288623046875E+0003  -2.83288110351563E+0003  -2.83287402343750E+0003  -2.83286450195313E+0003  -2.83285253906250E+0003  -2.83283813476563E+0003  -2.83282128906250E+0003  -2.83280297851563E+0003  -2.83278295898438E+0003  -2.83276196289063E+0003  -2.83273925781250E+0003  -2.83271435546875E+0003  -2.83268725585938E+0003  -2.83265795898438E+0003  -2.83262646484375E+0003  -2.83259350585938E+0003  -2.83255932617188E+0003  -2.83252270507813E+0003  -2.83248046875000E+0003  -2.83242944335938E+0003  -2.83236645507813E+0003  -2.83229125976563E+0003  -2.83220629882813E+0003  -2.83211352539063E+0003  -2.83201513671875E+0003  -2.83191113281250E+0003  -2.83180224609375E+0003  -2.83168652343750E+0003  -2.83156274414063E+0003  -2.83143432617188E+0003  -2.83130444335938E+0003  -2.83117016601563E+0003  -2.83103320312500E+0003  -2.83088940429688E+0003  -2.83074804687500E+0003  -2.83060888671875E+0003  -2.83047314453125E+0003  -2.83034619140625E+0003  -2.83023364257813E+0003  -2.83013891601563E+0003  -2.83006274414063E+0003  -2.83000170898438E+0003  -2.82995141601563E+0003  -2.82990844726563E+0003  -2.82987084960938E+0003  -2.82983740234375E+0003  -2.82980810546875E+0003  -2.82978149414063E+0003  -2.82975732421875E+0003  -2.82973413085938E+0003  -2.82971093750000E+0003  -2.82968676757813E+0003  -2.82966088867188E+0003  -2.82963208007813E+0003  -2.82959936523438E+0003  -2.82956225585938E+0003  -2.82951928710938E+0003  -2.82946923828125E+0003  -2.82941015625000E+0003  -2.82933984375000E+0003  -2.82925756835938E+0003  -2.82916357421875E+0003  -2.82905908203125E+0003  -2.82894433593750E+0003  -2.82881958007813E+0003  -2.82868408203125E+0003  -2.82853759765625E+0003  -2.82837890625000E+0003  -2.82821093750000E+0003  -2.82803930664063E+0003  -2.82786987304688E+0003  -2.82768823242188E+0003  -2.82741918945313E+0003  -2.82714013671875E+0003  -2.82685888671875E+0003  -2.82658398437500E+0003  -2.82632470703125E+0003  -2.82608886718750E+0003  -2.82588793945313E+0003  -2.82573193359375E+0003  -2.82562768554688E+0003  -2.82558129882813E+0003  -2.82558666992188E+0003  -2.82563159179688E+0003  -2.82570629882813E+0003  -2.82580102539063E+0003  -2.82590844726563E+0003  -2.82602099609375E+0003  -2.82613232421875E+0003  -2.82623583984375E+0003  -2.82627563476563E+0003  -2.82626879882813E+0003  -2.82627758789063E+0003  -2.82630541992188E+0003  -2.82635449218750E+0003  -2.82642407226563E+0003  -2.82650830078125E+0003  -2.82660107421875E+0003  -2.82669775390625E+0003  -2.82679443359375E+0003  -2.82688842773438E+0003  -2.82697680664063E+0003  -2.82705761718750E+0003  -2.82712841796875E+0003  -2.82718872070313E+0003  -2.82723779296875E+0003  -2.82727490234375E+0003  -2.82729956054688E+0003  -2.82731079101563E+0003  -2.82730786132813E+0003  -2.82728979492188E+0003  -2.82725610351563E+0003  -2.82720581054688E+0003  -2.82713793945313E+0003  -2.82705175781250E+0003  -2.82694702148438E+0003  -2.82682421875000E+0003  -2.82668359375000E+0003  -2.82652563476563E+0003  -2.82635034179688E+0003  -2.82615820312500E+0003  -2.82594970703125E+0003  -2.82562084960938E+0003  -2.82525585937500E+0003  -2.82487036132813E+0003  -2.82447485351563E+0003  -2.82408056640625E+0003  -2.82369970703125E+0003  -2.82334399414063E+0003  -2.82303027343750E+0003  -2.82277441406250E+0003  -2.82258349609375E+0003  -2.82246240234375E+0003  -2.82240649414063E+0003  -2.82240917968750E+0003  -2.82246289062500E+0003  -2.82255786132813E+0003  -2.82268457031250E+0003  -2.82283666992188E+0003  -2.82301196289063E+0003  -2.82320922851563E+0003  -2.82342578125000E+0003  -2.82365966796875E+0003  -2.82391064453125E+0003  -2.82417773437500E+0003  -2.82438110351563E+0003  -2.82462011718750E+0003  -2.82489965820313E+0003  -2.82521948242188E+0003  -2.82557519531250E+0003  -2.82596020507813E+0003  -2.82636230468750E+0003  -2.82677099609375E+0003  -2.82717504882813E+0003  -2.82756713867188E+0003  -2.82794287109375E+0003  -2.82829785156250E+0003  -2.82862768554688E+0003  -2.82892895507813E+0003  -2.82919775390625E+0003  -2.82943139648438E+0003  -2.82962817382813E+0003  -2.82979052734375E+0003  -2.82992382812500E+0003  -2.83003393554688E+0003  -2.83012646484375E+0003  -2.83020385742188E+0003  -2.83026831054688E+0003  -2.83032324218750E+0003  -2.83037231445313E+0003  -2.83041406250000E+0003  -2.83044409179688E+0003  -2.83045849609375E+0003  -2.83045092773438E+0003  -2.83039648437500E+0003  -2.83026855468750E+0003  -2.83006787109375E+0003
  -2.83001733398438E+0003  -2.83027661132813E+0003  -2.83052294921875E+0003  -2.83075537109375E+0003  -2.83097387695313E+0003  -2.83117773437500E+0003  -2.83136694335938E+0003  -2.83154052734375E+0003  -2.83169946289063E+0003  -2.83184423828125E+0003  -2.83197558593750E+0003  -2.83209448242188E+0003  -2.83220141601563E+0003  -2.83229711914063E+0003  -2.83238232421875E+0003  -2.83245776367188E+0003  -2.83252416992188E+0003  -2.83258203125000E+0003  -2.83263232421875E+0003  -2.83267529296875E+0003  -2.83271166992188E+0003  -2.83274218750000E+0003  -2.83276782226563E+0003  -2.83278857421875E+0003  -2.83280541992188E+0003  -2.83281860351563E+0003  -2.83282910156250E+0003  -2.83283715820313E+0003  -2.83284326171875E+0003  -2.83284838867188E+0003  -2.83285253906250E+0003  -2.83285644531250E+0003  -2.83286010742188E+0003  -2.83286328125000E+0003  -2.83286596679688E+0003  -2.83286840820313E+0003  -2.83287036132813E+0003  -2.83287207031250E+0003  -2.83287329101563E+0003  -2.83287402343750E+0003  -2.83287451171875E+0003  -2.83287500000000E+0003  -2.83287524414063E+0003  -2.83287573242188E+0003  -2.83287597656250E+0003  -2.83287670898438E+0003  -2.83287744140625E+0003  -2.83287841796875E+0003  -2.83287939453125E+0003  -2.83287988281250E+0003  -2.83288012695313E+0003  -2.83287988281250E+0003  -2.83287890625000E+0003  -2.83287695312500E+0003  -2.83287377929688E+0003  -2.83286938476563E+0003  -2.83286328125000E+0003  -2.83285522460938E+0003  -2.83284497070313E+0003  -2.83283251953125E+0003  -2.83281762695313E+0003  -2.83279980468750E+0003  -2.83277929687500E+0003  -2.83275659179688E+0003  -2.83273193359375E+0003  -2.83270581054688E+0003  -2.83267871093750E+0003  -2.83264965820313E+0003  -2.83261791992188E+0003  -2.83258276367188E+0003  -2.83254394531250E+0003  -2.83250195312500E+0003  -2.83245727539063E+0003  -2.83240991210938E+0003  -2.83235791015625E+0003  -2.83229736328125E+0003  -2.83222412109375E+0003  -2.83213525390625E+0003  -2.83203051757813E+0003  -2.83191455078125E+0003  -2.83178930664063E+0003  -2.83165722656250E+0003  -2.83151782226563E+0003  -2.83137329101563E+0003  -2.83122290039063E+0003  -2.83106396484375E+0003  -2.83090063476563E+0003  -2.83073413085938E+0003  -2.83056201171875E+0003  -2.83038867187500E+0003  -2.83021386718750E+0003  -2.83004418945313E+0003  -2.82988403320313E+0003  -2.82973535156250E+0003  -2.82960205078125E+0003  -2.82948828125000E+0003  -2.82939526367188E+0003  -2.82932324218750E+0003  -2.82926831054688E+0003  -2.82922583007813E+0003  -2.82919189453125E+0003  -2.82916406250000E+0003  -2.82914086914063E+0003  -2.82912158203125E+0003  -2.82910473632813E+0003  -2.82908984375000E+0003  -2.82907543945313E+0003  -2.82906030273438E+0003  -2.82904345703125E+0003  -2.82902343750000E+0003  -2.82899926757813E+0003  -2.82896899414063E+0003  -2.82893188476563E+0003  -2.82888598632813E+0003  -2.82882934570313E+0003  -2.82875952148438E+0003  -2.82867407226563E+0003  -2.82857202148438E+0003  -2.82845336914063E+0003  -2.82831811523438E+0003  -2.82816699218750E+0003  -2.82800000000000E+0003  -2.82781835937500E+0003  -2.82762304687500E+0003  -2.82741479492188E+0003  -2.82719824218750E+0003  -2.82698022460938E+0003  -2.82676806640625E+0003  -2.82648168945313E+0003  -2.82615869140625E+0003  -2.82582641601563E+0003  -2.82549438476563E+0003  -2.82517236328125E+0003  -2.82486889648438E+0003  -2.82459301757813E+0003  -2.82435864257813E+0003  -2.82418066406250E+0003  -2.82406811523438E+0003  -2.82402685546875E+0003  -2.82405029296875E+0003  -2.82412182617188E+0003  -2.82422778320313E+0003  -2.82435571289063E+0003  -2.82449511718750E+0003  -2.82463916015625E+0003  -2.82478027343750E+0003  -2.82491137695313E+0003  -2.82502319335938E+0003  -2.82502246093750E+0003  -2.82503662109375E+0003  -2.82507861328125E+0003  -2.82515136718750E+0003  -2.82525366210938E+0003  -2.82537500000000E+0003  -2.82550512695313E+0003  -2.82563867187500E+0003  -2.82577050781250E+0003  -2.82589794921875E+0003  -2.82601782226563E+0003  -2.82612670898438E+0003  -2.82622290039063E+0003  -2.82630517578125E+0003  -2.82637304687500E+0003  -2.82642602539063E+0003  -2.82646337890625E+0003  -2.82648461914063E+0003  -2.82648901367188E+0003  -2.82647631835938E+0003  -2.82644531250000E+0003  -2.82639501953125E+0003  -2.82632446289063E+0003  -2.82623242187500E+0003  -2.82611865234375E+0003  -2.82598291015625E+0003  -2.82582519531250E+0003  -2.82564526367188E+0003  -2.82544360351563E+0003  -2.82522070312500E+0003  -2.82494262695313E+0003  -2.82456005859375E+0003  -2.82414160156250E+0003  -2.82370043945313E+0003  -2.82324877929688E+0003  -2.82279858398438E+0003  -2.82236035156250E+0003  -2.82194628906250E+0003  -2.82157592773438E+0003  -2.82127050781250E+0003  -2.82104150390625E+0003  -2.82090258789063E+0003  -2.82084252929688E+0003  -2.82084936523438E+0003  -2.82091723632813E+0003  -2.82102612304688E+0003  -2.82116503906250E+0003  -2.82132934570313E+0003  -2.82151538085938E+0003  -2.82171923828125E+0003  -2.82193725585938E+0003  -2.82216650390625E+0003  -2.82241162109375E+0003  -2.82267187500000E+0003  -2.82289965820313E+0003  -2.82313647460938E+0003  -2.82342895507813E+0003  -2.82377124023438E+0003  -2.82415356445313E+0003  -2.82456665039063E+0003  -2.82500048828125E+0003  -2.82544653320313E+0003  -2.82589672851563E+0003  -2.82634472656250E+0003  -2.82678442382813E+0003  -2.82721020507813E+0003  -2.82761621093750E+0003  -2.82799633789063E+0003  -2.82834472656250E+0003  -2.82865551757813E+0003  -2.82892358398438E+0003  -2.82915039062500E+0003  -2.82934130859375E+0003  -2.82950219726563E+0003  -2.82963818359375E+0003  -2.82975292968750E+0003  -2.82984985351563E+0003  -2.82993188476563E+0003  -2.83000244140625E+0003  -2.83005859375000E+0003  -2.83009521484375E+0003  -2.83010742187500E+0003  -2.83008837890625E+0003  -2.83002490234375E+0003  -2.82990307617188E+0003  -2.82971850585938E+0003
  -2.83007495117188E+0003  -2.83033154296875E+0003  -2.83057543945313E+0003  -2.83080615234375E+0003  -2.83102343750000E+0003  -2.83122680664063E+0003  -2.83141650390625E+0003  -2.83159179687500E+0003  -2.83175317382813E+0003  -2.83190136718750E+0003  -2.83203662109375E+0003  -2.83215966796875E+0003  -2.83227099609375E+0003  -2.83237109375000E+0003  -2.83246044921875E+0003  -2.83253979492188E+0003  -2.83260937500000E+0003  -2.83267016601563E+0003  -2.83272265625000E+0003  -2.83276757812500E+0003  -2.83280541992188E+0003  -2.83283691406250E+0003  -2.83286254882813E+0003  -2.83288305664063E+0003  -2.83289892578125E+0003  -2.83291088867188E+0003  -2.83291918945313E+0003  -2.83292480468750E+0003  -2.83292797851563E+0003  -2.83292944335938E+0003  -2.83292968750000E+0003  -2.83292919921875E+0003  -2.83292773437500E+0003  -2.83292553710938E+0003  -2.83292285156250E+0003  -2.83291943359375E+0003  -2.83291552734375E+0003  -2.83291113281250E+0003  -2.83290625000000E+0003  -2.83290087890625E+0003  -2.83289526367188E+0003  -2.83288964843750E+0003  -2.83288403320313E+0003  -2.83287817382813E+0003  -2.83287280273438E+0003  -2.83286767578125E+0003  -2.83286279296875E+0003  -2.83285815429688E+0003  -2.83285351562500E+0003  -2.83284887695313E+0003  -2.83284350585938E+0003  -2.83283764648438E+0003  -2.83283081054688E+0003  -2.83282299804688E+0003  -2.83281396484375E+0003  -2.83280322265625E+0003  -2.83279052734375E+0003  -2.83277587890625E+0003  -2.83275878906250E+0003  -2.83273901367188E+0003  -2.83271630859375E+0003  -2.83269067382813E+0003  -2.83266162109375E+0003  -2.83263012695313E+0003  -2.83259594726563E+0003  -2.83256030273438E+0003  -2.83252270507813E+0003  -2.83248217773438E+0003  -2.83243750000000E+0003  -2.83238720703125E+0003  -2.83233129882813E+0003  -2.83227050781250E+0003  -2.83220507812500E+0003  -2.83213427734375E+0003  -2.83205541992188E+0003  -2.83196533203125E+0003  -2.83185986328125E+0003  -2.83173608398438E+0003  -2.83159545898438E+0003  -2.83144360351563E+0003  -2.83128051757813E+0003  -2.83111035156250E+0003  -2.83093139648438E+0003  -2.83074633789063E+0003  -2.83055639648438E+0003  -2.83035766601563E+0003  -2.83015307617188E+0003  -2.82994628906250E+0003  -2.82973852539063E+0003  -2.82953125000000E+0003  -2.82932812500000E+0003  -2.82913647460938E+0003  -2.82896240234375E+0003  -2.82881079101563E+0003  -2.82868359375000E+0003  -2.82858154296875E+0003  -2.82850366210938E+0003  -2.82844873046875E+0003  -2.82841259765625E+0003  -2.82839013671875E+0003  -2.82837695312500E+0003  -2.82836840820313E+0003  -2.82836328125000E+0003  -2.82836108398438E+0003  -2.82836035156250E+0003  -2.82836010742188E+0003  -2.82835961914063E+0003  -2.82835717773438E+0003  -2.82835180664063E+0003  -2.82834228515625E+0003  -2.82832641601563E+0003  -2.82830249023438E+0003  -2.82826904296875E+0003  -2.82822387695313E+0003  -2.82816406250000E+0003  -2.82808691406250E+0003  -2.82798950195313E+0003  -2.82786987304688E+0003  -2.82772729492188E+0003  -2.82756103515625E+0003  -2.82737060546875E+0003  -2.82715673828125E+0003  -2.82692309570313E+0003  -2.82667260742188E+0003  -2.82640893554688E+0003  -2.82613842773438E+0003  -2.82586962890625E+0003  -2.82559057617188E+0003  -2.82522314453125E+0003  -2.82484692382813E+0003  -2.82446411132813E+0003  -2.82408447265625E+0003  -2.82371752929688E+0003  -2.82336962890625E+0003  -2.82304614257813E+0003  -2.82276611328125E+0003  -2.82255102539063E+0003  -2.82241503906250E+0003  -2.82236621093750E+0003  -2.82239575195313E+0003  -2.82248632812500E+0003  -2.82261865234375E+0003  -2.82277490234375E+0003  -2.82294287109375E+0003  -2.82311621093750E+0003  -2.82328662109375E+0003  -2.82344531250000E+0003  -2.82357836914063E+0003  -2.82362719726563E+0003  -2.82364599609375E+0003  -2.82370263671875E+0003  -2.82380371093750E+0003  -2.82394482421875E+0003  -2.82411206054688E+0003  -2.82428857421875E+0003  -2.82446679687500E+0003  -2.82464160156250E+0003  -2.82481005859375E+0003  -2.82496875000000E+0003  -2.82511376953125E+0003  -2.82524243164063E+0003  -2.82535375976563E+0003  -2.82544726562500E+0003  -2.82552050781250E+0003  -2.82557324218750E+0003  -2.82560595703125E+0003  -2.82561938476563E+0003  -2.82561303710938E+0003  -2.82558642578125E+0003  -2.82553857421875E+0003  -2.82546850585938E+0003  -2.82537475585938E+0003  -2.82525683593750E+0003  -2.82511303710938E+0003  -2.82494238281250E+0003  -2.82474267578125E+0003  -2.82451538085938E+0003  -2.82426245117188E+0003  -2.82391870117188E+0003  -2.82349316406250E+0003  -2.82303125000000E+0003  -2.82254663085938E+0003  -2.82205224609375E+0003  -2.82156127929688E+0003  -2.82108471679688E+0003  -2.82062792968750E+0003  -2.82021752929688E+0003  -2.81987939453125E+0003  -2.81962329101563E+0003  -2.81947631835938E+0003  -2.81941967773438E+0003  -2.81943750000000E+0003  -2.81952661132813E+0003  -2.81965527343750E+0003  -2.81981176757813E+0003  -2.81999291992188E+0003  -2.82019335937500E+0003  -2.82040673828125E+0003  -2.82063037109375E+0003  -2.82085913085938E+0003  -2.82110278320313E+0003  -2.82135400390625E+0003  -2.82158984375000E+0003  -2.82181420898438E+0003  -2.82211303710938E+0003  -2.82246533203125E+0003  -2.82285595703125E+0003  -2.82327661132813E+0003  -2.82372045898438E+0003  -2.82418139648438E+0003  -2.82465161132813E+0003  -2.82512695312500E+0003  -2.82560473632813E+0003  -2.82608056640625E+0003  -2.82654736328125E+0003  -2.82699633789063E+0003  -2.82741748046875E+0003  -2.82780102539063E+0003  -2.82813769531250E+0003  -2.82842773437500E+0003  -2.82867626953125E+0003  -2.82888891601563E+0003  -2.82907128906250E+0003  -2.82922656250000E+0003  -2.82935839843750E+0003  -2.82946923828125E+0003  -2.82956176757813E+0003  -2.82963305664063E+0003  -2.82967871093750E+0003  -2.82969335937500E+0003  -2.82967236328125E+0003  -2.82960766601563E+0003  -2.82949218750000E+0003  -2.82932055664063E+0003
  -2.83013818359375E+0003  -2.83039282226563E+0003  -2.83063500976563E+0003  -2.83086450195313E+0003  -2.83108081054688E+0003  -2.83128417968750E+0003  -2.83147436523438E+0003  -2.83165087890625E+0003  -2.83181445312500E+0003  -2.83196533203125E+0003  -2.83210351562500E+0003  -2.83222998046875E+0003  -2.83234448242188E+0003  -2.83244775390625E+0003  -2.83254028320313E+0003  -2.83262207031250E+0003  -2.83269409179688E+0003  -2.83275659179688E+0003  -2.83281054687500E+0003  -2.83285620117188E+0003  -2.83289453125000E+0003  -2.83292578125000E+0003  -2.83295068359375E+0003  -2.83296997070313E+0003  -2.83298388671875E+0003  -2.83299340820313E+0003  -2.83299877929688E+0003  -2.83300073242188E+0003  -2.83299975585938E+0003  -2.83299658203125E+0003  -2.83299169921875E+0003  -2.83298535156250E+0003  -2.83297802734375E+0003  -2.83296923828125E+0003  -2.83295971679688E+0003  -2.83294946289063E+0003  -2.83293823242188E+0003  -2.83292651367188E+0003  -2.83291430664063E+0003  -2.83290161132813E+0003  -2.83288867187500E+0003  -2.83287573242188E+0003  -2.83286279296875E+0003  -2.83285009765625E+0003  -2.83283740234375E+0003  -2.83282519531250E+0003  -2.83281372070313E+0003  -2.83280249023438E+0003  -2.83279101562500E+0003  -2.83277954101563E+0003  -2.83276757812500E+0003  -2.83275463867188E+0003  -2.83274072265625E+0003  -2.83272534179688E+0003  -2.83270849609375E+0003  -2.83268969726563E+0003  -2.83266870117188E+0003  -2.83264526367188E+0003  -2.83261914062500E+0003  -2.83258984375000E+0003  -2.83255737304688E+0003  -2.83252099609375E+0003  -2.83248046875000E+0003  -2.83243652343750E+0003  -2.83238940429688E+0003  -2.83233911132813E+0003  -2.83228564453125E+0003  -2.83222753906250E+0003  -2.83216284179688E+0003  -2.83208984375000E+0003  -2.83200805664063E+0003  -2.83191918945313E+0003  -2.83182373046875E+0003  -2.83171923828125E+0003  -2.83160229492188E+0003  -2.83147045898438E+0003  -2.83132250976563E+0003  -2.83115576171875E+0003  -2.83097363281250E+0003  -2.83078002929688E+0003  -2.83057470703125E+0003  -2.83036157226563E+0003  -2.83014062500000E+0003  -2.82991235351563E+0003  -2.82967773437500E+0003  -2.82943530273438E+0003  -2.82918750000000E+0003  -2.82893920898438E+0003  -2.82869409179688E+0003  -2.82845458984375E+0003  -2.82822729492188E+0003  -2.82802026367188E+0003  -2.82784204101563E+0003  -2.82769873046875E+0003  -2.82759082031250E+0003  -2.82751464843750E+0003  -2.82746752929688E+0003  -2.82744580078125E+0003  -2.82744384765625E+0003  -2.82745556640625E+0003  -2.82747436523438E+0003  -2.82749536132813E+0003  -2.82751684570313E+0003  -2.82753857421875E+0003  -2.82756005859375E+0003  -2.82758032226563E+0003  -2.82759863281250E+0003  -2.82761352539063E+0003  -2.82762426757813E+0003  -2.82762915039063E+0003  -2.82762646484375E+0003  -2.82761352539063E+0003  -2.82758837890625E+0003  -2.82754833984375E+0003  -2.82748999023438E+0003  -2.82740966796875E+0003  -2.82730346679688E+0003  -2.82716870117188E+0003  -2.82700317382813E+0003  -2.82680493164063E+0003  -2.82657226562500E+0003  -2.82630688476563E+0003  -2.82601489257813E+0003  -2.82570239257813E+0003  -2.82537719726563E+0003  -2.82504760742188E+0003  -2.82472387695313E+0003  -2.82435620117188E+0003  -2.82393457031250E+0003  -2.82350927734375E+0003  -2.82307910156250E+0003  -2.82265283203125E+0003  -2.82224096679688E+0003  -2.82184277343750E+0003  -2.82145874023438E+0003  -2.82111083984375E+0003  -2.82082958984375E+0003  -2.82064404296875E+0003  -2.82057495117188E+0003  -2.82059765625000E+0003  -2.82070239257813E+0003  -2.82085791015625E+0003  -2.82104394531250E+0003  -2.82123876953125E+0003  -2.82144458007813E+0003  -2.82164526367188E+0003  -2.82183520507813E+0003  -2.82198925781250E+0003  -2.82208251953125E+0003  -2.82211206054688E+0003  -2.82218627929688E+0003  -2.82231933593750E+0003  -2.82249975585938E+0003  -2.82272045898438E+0003  -2.82294775390625E+0003  -2.82317700195313E+0003  -2.82339819335938E+0003  -2.82361425781250E+0003  -2.82381909179688E+0003  -2.82400805664063E+0003  -2.82417749023438E+0003  -2.82432666015625E+0003  -2.82445361328125E+0003  -2.82455322265625E+0003  -2.82462402343750E+0003  -2.82467016601563E+0003  -2.82469335937500E+0003  -2.82469409179688E+0003  -2.82467285156250E+0003  -2.82462963867188E+0003  -2.82456445312500E+0003  -2.82447558593750E+0003  -2.82436035156250E+0003  -2.82421508789063E+0003  -2.82403588867188E+0003  -2.82381835937500E+0003  -2.82356494140625E+0003  -2.82328271484375E+0003  -2.82288281250000E+0003  -2.82242333984375E+0003  -2.82192944335938E+0003  -2.82141528320313E+0003  -2.82089355468750E+0003  -2.82037866210938E+0003  -2.81988476562500E+0003  -2.81940795898438E+0003  -2.81898242187500E+0003  -2.81863696289063E+0003  -2.81838134765625E+0003  -2.81823364257813E+0003  -2.81818359375000E+0003  -2.81821777343750E+0003  -2.81832397460938E+0003  -2.81847802734375E+0003  -2.81866235351563E+0003  -2.81886572265625E+0003  -2.81908251953125E+0003  -2.81930932617188E+0003  -2.81954150390625E+0003  -2.81977612304688E+0003  -2.82001953125000E+0003  -2.82026635742188E+0003  -2.82051684570313E+0003  -2.82072851562500E+0003  -2.82102001953125E+0003  -2.82136328125000E+0003  -2.82174243164063E+0003  -2.82214990234375E+0003  -2.82258154296875E+0003  -2.82303515625000E+0003  -2.82349951171875E+0003  -2.82397216796875E+0003  -2.82445849609375E+0003  -2.82495825195313E+0003  -2.82546533203125E+0003  -2.82596801757813E+0003  -2.82645019531250E+0003  -2.82689697265625E+0003  -2.82729516601563E+0003  -2.82764257812500E+0003  -2.82794458007813E+0003  -2.82820629882813E+0003  -2.82843359375000E+0003  -2.82862939453125E+0003  -2.82879614257813E+0003  -2.82893627929688E+0003  -2.82905175781250E+0003  -2.82913989257813E+0003  -2.82919726562500E+0003  -2.82921948242188E+0003  -2.82920312500000E+0003  -2.82914355468750E+0003  -2.82903588867188E+0003  -2.82887622070313E+0003
  -2.83020654296875E+0003  -2.83045996093750E+0003  -2.83070092773438E+0003  -2.83092944335938E+0003  -2.83114526367188E+0003  -2.83134863281250E+0003  -2.83153930664063E+0003  -2.83171679687500E+0003  -2.83188183593750E+0003  -2.83203466796875E+0003  -2.83217504882813E+0003  -2.83230371093750E+0003  -2.83242041015625E+0003  -2.83252587890625E+0003  -2.83262011718750E+0003  -2.83270361328125E+0003  -2.83277661132813E+0003  -2.83284008789063E+0003  -2.83289428710938E+0003  -2.83293969726563E+0003  -2.83297729492188E+0003  -2.83300732421875E+0003  -2.83303051757813E+0003  -2.83304736328125E+0003  -2.83305859375000E+0003  -2.83306469726563E+0003  -2.83306591796875E+0003  -2.83306347656250E+0003  -2.83305737304688E+0003  -2.83304858398438E+0003  -2.83303735351563E+0003  -2.83302441406250E+0003  -2.83300976562500E+0003  -2.83299365234375E+0003  -2.83297607421875E+0003  -2.83295751953125E+0003  -2.83293798828125E+0003  -2.83291796875000E+0003  -2.83289721679688E+0003  -2.83287622070313E+0003  -2.83285473632813E+0003  -2.83283325195313E+0003  -2.83281201171875E+0003  -2.83279077148438E+0003  -2.83276977539063E+0003  -2.83274951171875E+0003  -2.83272973632813E+0003  -2.83271069335938E+0003  -2.83269140625000E+0003  -2.83267211914063E+0003  -2.83265185546875E+0003  -2.83263061523438E+0003  -2.83260815429688E+0003  -2.83258374023438E+0003  -2.83255737304688E+0003  -2.83252880859375E+0003  -2.83249731445313E+0003  -2.83246313476563E+0003  -2.83242553710938E+0003  -2.83238427734375E+0003  -2.83233886718750E+0003  -2.83228881835938E+0003  -2.83223339843750E+0003  -2.83217309570313E+0003  -2.83210791015625E+0003  -2.83203833007813E+0003  -2.83196362304688E+0003  -2.83188232421875E+0003  -2.83179248046875E+0003  -2.83169140625000E+0003  -2.83157885742188E+0003  -2.83145751953125E+0003  -2.83132421875000E+0003  -2.83117822265625E+0003  -2.83101464843750E+0003  -2.83083251953125E+0003  -2.83063476562500E+0003  -2.83041845703125E+0003  -2.83018798828125E+0003  -2.82994702148438E+0003  -2.82969799804688E+0003  -2.82944067382813E+0003  -2.82917431640625E+0003  -2.82890087890625E+0003  -2.82862060546875E+0003  -2.82833398437500E+0003  -2.82804443359375E+0003  -2.82775732421875E+0003  -2.82747753906250E+0003  -2.82721044921875E+0003  -2.82696362304688E+0003  -2.82674780273438E+0003  -2.82657250976563E+0003  -2.82644677734375E+0003  -2.82636743164063E+0003  -2.82632739257813E+0003  -2.82632080078125E+0003  -2.82634179687500E+0003  -2.82638305664063E+0003  -2.82643676757813E+0003  -2.82649511718750E+0003  -2.82655175781250E+0003  -2.82660546875000E+0003  -2.82665649414063E+0003  -2.82670458984375E+0003  -2.82674975585938E+0003  -2.82679125976563E+0003  -2.82682788085938E+0003  -2.82685864257813E+0003  -2.82688256835938E+0003  -2.82689697265625E+0003  -2.82689916992188E+0003  -2.82688696289063E+0003  -2.82685668945313E+0003  -2.82680371093750E+0003  -2.82672290039063E+0003  -2.82660937500000E+0003  -2.82645898437500E+0003  -2.82626831054688E+0003  -2.82603466796875E+0003  -2.82575415039063E+0003  -2.82542968750000E+0003  -2.82507080078125E+0003  -2.82468872070313E+0003  -2.82429565429688E+0003  -2.82390405273438E+0003  -2.82352416992188E+0003  -2.82307763671875E+0003  -2.82261254882813E+0003  -2.82214819335938E+0003  -2.82167065429688E+0003  -2.82117919921875E+0003  -2.82069628906250E+0003  -2.82021582031250E+0003  -2.81973437500000E+0003  -2.81928466796875E+0003  -2.81890771484375E+0003  -2.81865429687500E+0003  -2.81856225585938E+0003  -2.81858496093750E+0003  -2.81871875000000E+0003  -2.81891748046875E+0003  -2.81915307617188E+0003  -2.81939208984375E+0003  -2.81963793945313E+0003  -2.81987207031250E+0003  -2.82009228515625E+0003  -2.82027343750000E+0003  -2.82041479492188E+0003  -2.82046923828125E+0003  -2.82057299804688E+0003  -2.82074023437500E+0003  -2.82095678710938E+0003  -2.82122534179688E+0003  -2.82149853515625E+0003  -2.82177539062500E+0003  -2.82203930664063E+0003  -2.82230346679688E+0003  -2.82255444335938E+0003  -2.82278735351563E+0003  -2.82300219726563E+0003  -2.82319604492188E+0003  -2.82336425781250E+0003  -2.82349536132813E+0003  -2.82358618164063E+0003  -2.82364501953125E+0003  -2.82367749023438E+0003  -2.82368481445313E+0003  -2.82366894531250E+0003  -2.82363378906250E+0003  -2.82358007812500E+0003  -2.82350585937500E+0003  -2.82340405273438E+0003  -2.82326416015625E+0003  -2.82307934570313E+0003  -2.82284399414063E+0003  -2.82256079101563E+0003  -2.82225219726563E+0003  -2.82181079101563E+0003  -2.82133007812500E+0003  -2.82081909179688E+0003  -2.82028955078125E+0003  -2.81975610351563E+0003  -2.81922998046875E+0003  -2.81872802734375E+0003  -2.81825537109375E+0003  -2.81784082031250E+0003  -2.81750830078125E+0003  -2.81726928710938E+0003  -2.81713208007813E+0003  -2.81709521484375E+0003  -2.81715112304688E+0003  -2.81728222656250E+0003  -2.81746630859375E+0003  -2.81768139648438E+0003  -2.81791064453125E+0003  -2.81814843750000E+0003  -2.81839233398438E+0003  -2.81863720703125E+0003  -2.81888134765625E+0003  -2.81912622070313E+0003  -2.81937524414063E+0003  -2.81963696289063E+0003  -2.81985083007813E+0003  -2.82011254882813E+0003  -2.82042578125000E+0003  -2.82077832031250E+0003  -2.82115795898438E+0003  -2.82156298828125E+0003  -2.82199536132813E+0003  -2.82243896484375E+0003  -2.82289355468750E+0003  -2.82336987304688E+0003  -2.82387133789063E+0003  -2.82439794921875E+0003  -2.82493676757813E+0003  -2.82546606445313E+0003  -2.82596484375000E+0003  -2.82641528320313E+0003  -2.82681250000000E+0003  -2.82716210937500E+0003  -2.82746899414063E+0003  -2.82773828125000E+0003  -2.82797290039063E+0003  -2.82817407226563E+0003  -2.82834326171875E+0003  -2.82848193359375E+0003  -2.82858813476563E+0003  -2.82865893554688E+0003  -2.82869213867188E+0003  -2.82868457031250E+0003  -2.82863330078125E+0003  -2.82853540039063E+0003  -2.82838793945313E+0003
  -2.83027880859375E+0003  -2.83053149414063E+0003  -2.83077172851563E+0003  -2.83099975585938E+0003  -2.83121533203125E+0003  -2.83141870117188E+0003  -2.83160937500000E+0003  -2.83178784179688E+0003  -2.83195385742188E+0003  -2.83210766601563E+0003  -2.83224926757813E+0003  -2.83237915039063E+0003  -2.83249731445313E+0003  -2.83260375976563E+0003  -2.83269873046875E+0003  -2.83278247070313E+0003  -2.83285571289063E+0003  -2.83291870117188E+0003  -2.83297192382813E+0003  -2.83301635742188E+0003  -2.83305200195313E+0003  -2.83308007812500E+0003  -2.83310034179688E+0003  -2.83311401367188E+0003  -2.83312133789063E+0003  -2.83312304687500E+0003  -2.83311962890625E+0003  -2.83311157226563E+0003  -2.83309936523438E+0003  -2.83308398437500E+0003  -2.83306567382813E+0003  -2.83304492187500E+0003  -2.83302221679688E+0003  -2.83299731445313E+0003  -2.83297119140625E+0003  -2.83294335937500E+0003  -2.83291479492188E+0003  -2.83288525390625E+0003  -2.83285498046875E+0003  -2.83282421875000E+0003  -2.83279345703125E+0003  -2.83276220703125E+0003  -2.83273120117188E+0003  -2.83270043945313E+0003  -2.83266992187500E+0003  -2.83264013671875E+0003  -2.83261108398438E+0003  -2.83258276367188E+0003  -2.83255468750000E+0003  -2.83252612304688E+0003  -2.83249658203125E+0003  -2.83246582031250E+0003  -2.83243334960938E+0003  -2.83239843750000E+0003  -2.83236108398438E+0003  -2.83232055664063E+0003  -2.83227709960938E+0003  -2.83222973632813E+0003  -2.83217822265625E+0003  -2.83212207031250E+0003  -2.83206079101563E+0003  -2.83199340820313E+0003  -2.83191943359375E+0003  -2.83183862304688E+0003  -2.83175146484375E+0003  -2.83165820312500E+0003  -2.83155786132813E+0003  -2.83144824218750E+0003  -2.83132885742188E+0003  -2.83119677734375E+0003  -2.83105004882813E+0003  -2.83089086914063E+0003  -2.83071337890625E+0003  -2.83051806640625E+0003  -2.83030419921875E+0003  -2.83007006835938E+0003  -2.82982031250000E+0003  -2.82955419921875E+0003  -2.82927465820313E+0003  -2.82898535156250E+0003  -2.82868847656250E+0003  -2.82838378906250E+0003  -2.82807177734375E+0003  -2.82775366210938E+0003  -2.82743090820313E+0003  -2.82710424804688E+0003  -2.82677807617188E+0003  -2.82645800781250E+0003  -2.82614965820313E+0003  -2.82585913085938E+0003  -2.82559667968750E+0003  -2.82537524414063E+0003  -2.82520800781250E+0003  -2.82510571289063E+0003  -2.82506152343750E+0003  -2.82506274414063E+0003  -2.82510083007813E+0003  -2.82516772460938E+0003  -2.82525512695313E+0003  -2.82535327148438E+0003  -2.82545361328125E+0003  -2.82554833984375E+0003  -2.82563671875000E+0003  -2.82571875000000E+0003  -2.82579565429688E+0003  -2.82586743164063E+0003  -2.82593432617188E+0003  -2.82599584960938E+0003  -2.82605078125000E+0003  -2.82609765625000E+0003  -2.82613354492188E+0003  -2.82615576171875E+0003  -2.82616064453125E+0003  -2.82614404296875E+0003  -2.82609936523438E+0003  -2.82601953125000E+0003  -2.82589770507813E+0003  -2.82572753906250E+0003  -2.82550537109375E+0003  -2.82522802734375E+0003  -2.82489184570313E+0003  -2.82450097656250E+0003  -2.82406835937500E+0003  -2.82361059570313E+0003  -2.82314843750000E+0003  -2.82269726562500E+0003  -2.82226562500000E+0003  -2.82175537109375E+0003  -2.82126123046875E+0003  -2.82076513671875E+0003  -2.82022753906250E+0003  -2.81964062500000E+0003  -2.81903540039063E+0003  -2.81841259765625E+0003  -2.81777685546875E+0003  -2.81718212890625E+0003  -2.81669287109375E+0003  -2.81636791992188E+0003  -2.81625073242188E+0003  -2.81630688476563E+0003  -2.81650195312500E+0003  -2.81678198242188E+0003  -2.81709960937500E+0003  -2.81741284179688E+0003  -2.81770654296875E+0003  -2.81797509765625E+0003  -2.81821948242188E+0003  -2.81843408203125E+0003  -2.81862817382813E+0003  -2.81872143554688E+0003  -2.81886718750000E+0003  -2.81906835937500E+0003  -2.81931884765625E+0003  -2.81961206054688E+0003  -2.81992065429688E+0003  -2.82023632812500E+0003  -2.82054663085938E+0003  -2.82085742187500E+0003  -2.82115429687500E+0003  -2.82143090820313E+0003  -2.82169189453125E+0003  -2.82193237304688E+0003  -2.82214428710938E+0003  -2.82230834960938E+0003  -2.82241723632813E+0003  -2.82248754882813E+0003  -2.82252929687500E+0003  -2.82254418945313E+0003  -2.82253588867188E+0003  -2.82251391601563E+0003  -2.82247363281250E+0003  -2.82242016601563E+0003  -2.82234130859375E+0003  -2.82221069335938E+0003  -2.82202514648438E+0003  -2.82177636718750E+0003  -2.82146386718750E+0003  -2.82113305664063E+0003  -2.82068505859375E+0003  -2.82020117187500E+0003  -2.81969042968750E+0003  -2.81915991210938E+0003  -2.81862573242188E+0003  -2.81810205078125E+0003  -2.81760595703125E+0003  -2.81715283203125E+0003  -2.81676342773438E+0003  -2.81645629882813E+0003  -2.81624218750000E+0003  -2.81612719726563E+0003  -2.81611401367188E+0003  -2.81619873046875E+0003  -2.81636157226563E+0003  -2.81657861328125E+0003  -2.81682543945313E+0003  -2.81708300781250E+0003  -2.81734570312500E+0003  -2.81760961914063E+0003  -2.81787109375000E+0003  -2.81812817382813E+0003  -2.81838183593750E+0003  -2.81863574218750E+0003  -2.81889672851563E+0003  -2.81910400390625E+0003  -2.81933325195313E+0003  -2.81960742187500E+0003  -2.81991943359375E+0003  -2.82026196289063E+0003  -2.82063671875000E+0003  -2.82104052734375E+0003  -2.82145751953125E+0003  -2.82189135742188E+0003  -2.82234863281250E+0003  -2.82283715820313E+0003  -2.82336718750000E+0003  -2.82392626953125E+0003  -2.82448706054688E+0003  -2.82502441406250E+0003  -2.82551562500000E+0003  -2.82595410156250E+0003  -2.82634423828125E+0003  -2.82669091796875E+0003  -2.82699853515625E+0003  -2.82726904296875E+0003  -2.82750292968750E+0003  -2.82770068359375E+0003  -2.82786230468750E+0003  -2.82798681640625E+0003  -2.82807275390625E+0003  -2.82811791992188E+0003  -2.82812109375000E+0003  -2.82808007812500E+0003  -2.82799316406250E+0003  -2.82785839843750E+0003
  -2.83035449218750E+0003  -2.83060668945313E+0003  -2.83084643554688E+0003  -2.83107421875000E+0003  -2.83128955078125E+0003  -2.83149267578125E+0003  -2.83168359375000E+0003  -2.83186206054688E+0003  -2.83202832031250E+0003  -2.83218237304688E+0003  -2.83232446289063E+0003  -2.83245458984375E+0003  -2.83257299804688E+0003  -2.83267944335938E+0003  -2.83277392578125E+0003  -2.83285717773438E+0003  -2.83292919921875E+0003  -2.83299072265625E+0003  -2.83304223632813E+0003  -2.83308422851563E+0003  -2.83311743164063E+0003  -2.83314208984375E+0003  -2.83315869140625E+0003  -2.83316821289063E+0003  -2.83317065429688E+0003  -2.83316699218750E+0003  -2.83315771484375E+0003  -2.83314331054688E+0003  -2.83312426757813E+0003  -2.83310131835938E+0003  -2.83307519531250E+0003  -2.83304589843750E+0003  -2.83301416015625E+0003  -2.83298022460938E+0003  -2.83294433593750E+0003  -2.83290673828125E+0003  -2.83286791992188E+0003  -2.83282788085938E+0003  -2.83278735351563E+0003  -2.83274633789063E+0003  -2.83270458984375E+0003  -2.83266284179688E+0003  -2.83262084960938E+0003  -2.83257885742188E+0003  -2.83253759765625E+0003  -2.83249707031250E+0003  -2.83245751953125E+0003  -2.83241894531250E+0003  -2.83238061523438E+0003  -2.83234179687500E+0003  -2.83230175781250E+0003  -2.83226025390625E+0003  -2.83221630859375E+0003  -2.83216967773438E+0003  -2.83211962890625E+0003  -2.83206567382813E+0003  -2.83200781250000E+0003  -2.83194506835938E+0003  -2.83187695312500E+0003  -2.83180322265625E+0003  -2.83172314453125E+0003  -2.83163598632813E+0003  -2.83154077148438E+0003  -2.83143774414063E+0003  -2.83132617187500E+0003  -2.83120581054688E+0003  -2.83107690429688E+0003  -2.83093554687500E+0003  -2.83078271484375E+0003  -2.83061474609375E+0003  -2.83042724609375E+0003  -2.83022167968750E+0003  -2.82999633789063E+0003  -2.82975000000000E+0003  -2.82948315429688E+0003  -2.82919750976563E+0003  -2.82889599609375E+0003  -2.82858105468750E+0003  -2.82825488281250E+0003  -2.82792016601563E+0003  -2.82757910156250E+0003  -2.82723242187500E+0003  -2.82688134765625E+0003  -2.82652734375000E+0003  -2.82617065429688E+0003  -2.82581274414063E+0003  -2.82545727539063E+0003  -2.82511010742188E+0003  -2.82477661132813E+0003  -2.82446191406250E+0003  -2.82418115234375E+0003  -2.82395214843750E+0003  -2.82379370117188E+0003  -2.82371923828125E+0003  -2.82371533203125E+0003  -2.82376049804688E+0003  -2.82384350585938E+0003  -2.82395678710938E+0003  -2.82408959960938E+0003  -2.82423168945313E+0003  -2.82437280273438E+0003  -2.82450512695313E+0003  -2.82462670898438E+0003  -2.82473803710938E+0003  -2.82484008789063E+0003  -2.82493505859375E+0003  -2.82502514648438E+0003  -2.82511230468750E+0003  -2.82519409179688E+0003  -2.82526831054688E+0003  -2.82533105468750E+0003  -2.82537866210938E+0003  -2.82540551757813E+0003  -2.82540600585938E+0003  -2.82537182617188E+0003  -2.82529321289063E+0003  -2.82515869140625E+0003  -2.82495971679688E+0003  -2.82469335937500E+0003  -2.82435888671875E+0003  -2.82395898437500E+0003  -2.82350048828125E+0003  -2.82299731445313E+0003  -2.82247241210938E+0003  -2.82194873046875E+0003  -2.82145141601563E+0003  -2.82098754882813E+0003  -2.82044018554688E+0003  -2.81991113281250E+0003  -2.81936132812500E+0003  -2.81873706054688E+0003  -2.81802978515625E+0003  -2.81725000000000E+0003  -2.81641455078125E+0003  -2.81555395507813E+0003  -2.81474682617188E+0003  -2.81408715820313E+0003  -2.81366430664063E+0003  -2.81354833984375E+0003  -2.81369677734375E+0003  -2.81401513671875E+0003  -2.81442895507813E+0003  -2.81487280273438E+0003  -2.81528906250000E+0003  -2.81564599609375E+0003  -2.81594995117188E+0003  -2.81621582031250E+0003  -2.81645874023438E+0003  -2.81669262695313E+0003  -2.81683813476563E+0003  -2.81703369140625E+0003  -2.81727294921875E+0003  -2.81754809570313E+0003  -2.81785424804688E+0003  -2.81818383789063E+0003  -2.81853076171875E+0003  -2.81888745117188E+0003  -2.81924609375000E+0003  -2.81959423828125E+0003  -2.81992114257813E+0003  -2.82022509765625E+0003  -2.82050390625000E+0003  -2.82074951171875E+0003  -2.82093847656250E+0003  -2.82106103515625E+0003  -2.82114257812500E+0003  -2.82119677734375E+0003  -2.82122924804688E+0003  -2.82124194335938E+0003  -2.82124365234375E+0003  -2.82121655273438E+0003  -2.82117456054688E+0003  -2.82110620117188E+0003  -2.82097216796875E+0003  -2.82078076171875E+0003  -2.82053247070313E+0003  -2.82023022460938E+0003  -2.81991357421875E+0003  -2.81948950195313E+0003  -2.81902490234375E+0003  -2.81852905273438E+0003  -2.81801342773438E+0003  -2.81749389648438E+0003  -2.81698754882813E+0003  -2.81651269531250E+0003  -2.81608642578125E+0003  -2.81572802734375E+0003  -2.81545483398438E+0003  -2.81527441406250E+0003  -2.81519140625000E+0003  -2.81520947265625E+0003  -2.81532739257813E+0003  -2.81552319335938E+0003  -2.81577294921875E+0003  -2.81605126953125E+0003  -2.81633764648438E+0003  -2.81662597656250E+0003  -2.81691186523438E+0003  -2.81719140625000E+0003  -2.81746166992188E+0003  -2.81772509765625E+0003  -2.81798388671875E+0003  -2.81824194335938E+0003  -2.81843847656250E+0003  -2.81864013671875E+0003  -2.81887719726563E+0003  -2.81914746093750E+0003  -2.81945019531250E+0003  -2.81978662109375E+0003  -2.82015380859375E+0003  -2.82054223632813E+0003  -2.82095361328125E+0003  -2.82138500976563E+0003  -2.82185644531250E+0003  -2.82238867187500E+0003  -2.82295678710938E+0003  -2.82353369140625E+0003  -2.82409448242188E+0003  -2.82461352539063E+0003  -2.82508276367188E+0003  -2.82550537109375E+0003  -2.82588525390625E+0003  -2.82622631835938E+0003  -2.82652905273438E+0003  -2.82679296875000E+0003  -2.82701733398438E+0003  -2.82720117187500E+0003  -2.82734423828125E+0003  -2.82744531250000E+0003  -2.82750366210938E+0003  -2.82751831054688E+0003  -2.82748876953125E+0003  -2.82741406250000E+0003  -2.82729296875000E+0003
  -2.83043286132813E+0003  -2.83068457031250E+0003  -2.83092407226563E+0003  -2.83115136718750E+0003  -2.83136645507813E+0003  -2.83156909179688E+0003  -2.83175952148438E+0003  -2.83193774414063E+0003  -2.83210375976563E+0003  -2.83225756835938E+0003  -2.83239916992188E+0003  -2.83252856445313E+0003  -2.83264599609375E+0003  -2.83275122070313E+0003  -2.83284448242188E+0003  -2.83292578125000E+0003  -2.83299584960938E+0003  -2.83305493164063E+0003  -2.83310351562500E+0003  -2.83314208984375E+0003  -2.83317138671875E+0003  -2.83319189453125E+0003  -2.83320385742188E+0003  -2.83320800781250E+0003  -2.83320483398438E+0003  -2.83319506835938E+0003  -2.83317895507813E+0003  -2.83315722656250E+0003  -2.83313061523438E+0003  -2.83309960937500E+0003  -2.83306469726563E+0003  -2.83302636718750E+0003  -2.83298486328125E+0003  -2.83294091796875E+0003  -2.83289477539063E+0003  -2.83284692382813E+0003  -2.83279736328125E+0003  -2.83274633789063E+0003  -2.83269458007813E+0003  -2.83264208984375E+0003  -2.83258886718750E+0003  -2.83253515625000E+0003  -2.83248095703125E+0003  -2.83242700195313E+0003  -2.83237329101563E+0003  -2.83232080078125E+0003  -2.83226977539063E+0003  -2.83221972656250E+0003  -2.83217016601563E+0003  -2.83211987304688E+0003  -2.83206835937500E+0003  -2.83201489257813E+0003  -2.83195825195313E+0003  -2.83189819335938E+0003  -2.83183374023438E+0003  -2.83176489257813E+0003  -2.83169042968750E+0003  -2.83160986328125E+0003  -2.83152246093750E+0003  -2.83142871093750E+0003  -2.83132788085938E+0003  -2.83121850585938E+0003  -2.83110034179688E+0003  -2.83097265625000E+0003  -2.83083422851563E+0003  -2.83068481445313E+0003  -2.83052514648438E+0003  -2.83035107421875E+0003  -2.83016113281250E+0003  -2.82995166015625E+0003  -2.82971875000000E+0003  -2.82946386718750E+0003  -2.82918676757813E+0003  -2.82888769531250E+0003  -2.82856762695313E+0003  -2.82823071289063E+0003  -2.82788037109375E+0003  -2.82752050781250E+0003  -2.82715356445313E+0003  -2.82678198242188E+0003  -2.82640698242188E+0003  -2.82603051757813E+0003  -2.82565332031250E+0003  -2.82527563476563E+0003  -2.82489770507813E+0003  -2.82451904296875E+0003  -2.82414331054688E+0003  -2.82377612304688E+0003  -2.82342065429688E+0003  -2.82308251953125E+0003  -2.82278173828125E+0003  -2.82254370117188E+0003  -2.82239160156250E+0003  -2.82234179687500E+0003  -2.82237036132813E+0003  -2.82244995117188E+0003  -2.82256958007813E+0003  -2.82271948242188E+0003  -2.82288671875000E+0003  -2.82306250000000E+0003  -2.82323950195313E+0003  -2.82340649414063E+0003  -2.82355932617188E+0003  -2.82369677734375E+0003  -2.82381958007813E+0003  -2.82393139648438E+0003  -2.82404028320313E+0003  -2.82415161132813E+0003  -2.82426098632813E+0003  -2.82436328125000E+0003  -2.82445532226563E+0003  -2.82453125000000E+0003  -2.82458300781250E+0003  -2.82460180664063E+0003  -2.82457885742188E+0003  -2.82450122070313E+0003  -2.82435034179688E+0003  -2.82411450195313E+0003  -2.82379248046875E+0003  -2.82338940429688E+0003  -2.82292065429688E+0003  -2.82240209960938E+0003  -2.82184301757813E+0003  -2.82126635742188E+0003  -2.82069970703125E+0003  -2.82017675781250E+0003  -2.81970483398438E+0003  -2.81914965820313E+0003  -2.81857763671875E+0003  -2.81795556640625E+0003  -2.81723193359375E+0003  -2.81638183593750E+0003  -2.81539208984375E+0003  -2.81429370117188E+0003  -2.81314868164063E+0003  -2.81206518554688E+0003  -2.81117260742188E+0003  -2.81062182617188E+0003  -2.81054272460938E+0003  -2.81084326171875E+0003  -2.81134106445313E+0003  -2.81192993164063E+0003  -2.81252929687500E+0003  -2.81306103515625E+0003  -2.81348095703125E+0003  -2.81380883789063E+0003  -2.81408154296875E+0003  -2.81433789062500E+0003  -2.81458715820313E+0003  -2.81478686523438E+0003  -2.81503735351563E+0003  -2.81532006835938E+0003  -2.81562207031250E+0003  -2.81594506835938E+0003  -2.81629296875000E+0003  -2.81666821289063E+0003  -2.81706713867188E+0003  -2.81747509765625E+0003  -2.81787524414063E+0003  -2.81825073242188E+0003  -2.81859106445313E+0003  -2.81889624023438E+0003  -2.81915820312500E+0003  -2.81935693359375E+0003  -2.81948999023438E+0003  -2.81958276367188E+0003  -2.81965454101563E+0003  -2.81971801757813E+0003  -2.81977368164063E+0003  -2.81981542968750E+0003  -2.81981835937500E+0003  -2.81977539062500E+0003  -2.81967895507813E+0003  -2.81951416015625E+0003  -2.81930175781250E+0003  -2.81906738281250E+0003  -2.81882226562500E+0003  -2.81856787109375E+0003  -2.81819628906250E+0003  -2.81777978515625E+0003  -2.81732446289063E+0003  -2.81684497070313E+0003  -2.81635839843750E+0003  -2.81588256835938E+0003  -2.81543676757813E+0003  -2.81504223632813E+0003  -2.81471826171875E+0003  -2.81448339843750E+0003  -2.81434277343750E+0003  -2.81429931640625E+0003  -2.81435498046875E+0003  -2.81450732421875E+0003  -2.81473535156250E+0003  -2.81501538085938E+0003  -2.81532250976563E+0003  -2.81563696289063E+0003  -2.81595141601563E+0003  -2.81625976562500E+0003  -2.81655712890625E+0003  -2.81684033203125E+0003  -2.81711132812500E+0003  -2.81737329101563E+0003  -2.81762817382813E+0003  -2.81781396484375E+0003  -2.81799707031250E+0003  -2.81820703125000E+0003  -2.81844433593750E+0003  -2.81870996093750E+0003  -2.81900708007813E+0003  -2.81933593750000E+0003  -2.81969335937500E+0003  -2.82007983398438E+0003  -2.82048852539063E+0003  -2.82094824218750E+0003  -2.82147753906250E+0003  -2.82204296875000E+0003  -2.82262060546875E+0003  -2.82318945312500E+0003  -2.82372314453125E+0003  -2.82421191406250E+0003  -2.82465820312500E+0003  -2.82506445312500E+0003  -2.82543310546875E+0003  -2.82576342773438E+0003  -2.82605395507813E+0003  -2.82630224609375E+0003  -2.82650708007813E+0003  -2.82666748046875E+0003  -2.82678344726563E+0003  -2.82685522460938E+0003  -2.82688232421875E+0003  -2.82686474609375E+0003  -2.82680273437500E+0003  -2.82669580078125E+0003
  -2.83051245117188E+0003  -2.83076391601563E+0003  -2.83100317382813E+0003  -2.83122998046875E+0003  -2.83144458007813E+0003  -2.83164648437500E+0003  -2.83183618164063E+0003  -2.83201367187500E+0003  -2.83217846679688E+0003  -2.83233105468750E+0003  -2.83247119140625E+0003  -2.83259912109375E+0003  -2.83271459960938E+0003  -2.83281762695313E+0003  -2.83290844726563E+0003  -2.83298706054688E+0003  -2.83305371093750E+0003  -2.83310913085938E+0003  -2.83315380859375E+0003  -2.83318798828125E+0003  -2.83321240234375E+0003  -2.83322753906250E+0003  -2.83323388671875E+0003  -2.83323193359375E+0003  -2.83322216796875E+0003  -2.83320532226563E+0003  -2.83318164062500E+0003  -2.83315209960938E+0003  -2.83311718750000E+0003  -2.83307739257813E+0003  -2.83303320312500E+0003  -2.83298510742188E+0003  -2.83293383789063E+0003  -2.83287963867188E+0003  -2.83282275390625E+0003  -2.83276367187500E+0003  -2.83270288085938E+0003  -2.83264038085938E+0003  -2.83257690429688E+0003  -2.83251196289063E+0003  -2.83244628906250E+0003  -2.83237988281250E+0003  -2.83231298828125E+0003  -2.83224560546875E+0003  -2.83217895507813E+0003  -2.83211328125000E+0003  -2.83204980468750E+0003  -2.83198754882813E+0003  -2.83192578125000E+0003  -2.83186352539063E+0003  -2.83179907226563E+0003  -2.83173168945313E+0003  -2.83166088867188E+0003  -2.83158544921875E+0003  -2.83150488281250E+0003  -2.83141870117188E+0003  -2.83132592773438E+0003  -2.83122583007813E+0003  -2.83111767578125E+0003  -2.83100170898438E+0003  -2.83087817382813E+0003  -2.83074414062500E+0003  -2.83059960937500E+0003  -2.83044360351563E+0003  -2.83027636718750E+0003  -2.83009643554688E+0003  -2.82990234375000E+0003  -2.82969140625000E+0003  -2.82946093750000E+0003  -2.82920678710938E+0003  -2.82892675781250E+0003  -2.82862255859375E+0003  -2.82829492187500E+0003  -2.82794580078125E+0003  -2.82757788085938E+0003  -2.82719604492188E+0003  -2.82680493164063E+0003  -2.82640893554688E+0003  -2.82601123046875E+0003  -2.82561376953125E+0003  -2.82521801757813E+0003  -2.82482495117188E+0003  -2.82443457031250E+0003  -2.82404663085938E+0003  -2.82365869140625E+0003  -2.82326904296875E+0003  -2.82288281250000E+0003  -2.82250659179688E+0003  -2.82214086914063E+0003  -2.82179101562500E+0003  -2.82148291015625E+0003  -2.82124316406250E+0003  -2.82109301757813E+0003  -2.82104711914063E+0003  -2.82107568359375E+0003  -2.82115600585938E+0003  -2.82127807617188E+0003  -2.82143090820313E+0003  -2.82159667968750E+0003  -2.82177880859375E+0003  -2.82197583007813E+0003  -2.82217236328125E+0003  -2.82235546875000E+0003  -2.82252368164063E+0003  -2.82266967773438E+0003  -2.82279638671875E+0003  -2.82291918945313E+0003  -2.82305053710938E+0003  -2.82318237304688E+0003  -2.82330444335938E+0003  -2.82342041015625E+0003  -2.82352050781250E+0003  -2.82359277343750E+0003  -2.82362622070313E+0003  -2.82361254882813E+0003  -2.82353857421875E+0003  -2.82337500000000E+0003  -2.82310400390625E+0003  -2.82273339843750E+0003  -2.82226831054688E+0003  -2.82173364257813E+0003  -2.82116992187500E+0003  -2.82057446289063E+0003  -2.81996215820313E+0003  -2.81937792968750E+0003  -2.81884814453125E+0003  -2.81836743164063E+0003  -2.81781665039063E+0003  -2.81721435546875E+0003  -2.81653735351563E+0003  -2.81572875976563E+0003  -2.81474755859375E+0003  -2.81356420898438E+0003  -2.81221826171875E+0003  -2.81079760742188E+0003  -2.80944042968750E+0003  -2.80831152343750E+0003  -2.80763110351563E+0003  -2.80759326171875E+0003  -2.80804980468750E+0003  -2.80872485351563E+0003  -2.80947778320313E+0003  -2.81021508789063E+0003  -2.81083837890625E+0003  -2.81129125976563E+0003  -2.81161230468750E+0003  -2.81186425781250E+0003  -2.81211157226563E+0003  -2.81234936523438E+0003  -2.81259912109375E+0003  -2.81290429687500E+0003  -2.81323071289063E+0003  -2.81355737304688E+0003  -2.81389404296875E+0003  -2.81425537109375E+0003  -2.81465502929688E+0003  -2.81509497070313E+0003  -2.81555297851563E+0003  -2.81600463867188E+0003  -2.81642553710938E+0003  -2.81679931640625E+0003  -2.81712353515625E+0003  -2.81739111328125E+0003  -2.81758935546875E+0003  -2.81772314453125E+0003  -2.81782177734375E+0003  -2.81791186523438E+0003  -2.81801660156250E+0003  -2.81813183593750E+0003  -2.81822875976563E+0003  -2.81827075195313E+0003  -2.81822216796875E+0003  -2.81808178710938E+0003  -2.81787524414063E+0003  -2.81764477539063E+0003  -2.81743725585938E+0003  -2.81726049804688E+0003  -2.81709741210938E+0003  -2.81681201171875E+0003  -2.81647192382813E+0003  -2.81608154296875E+0003  -2.81565771484375E+0003  -2.81521875000000E+0003  -2.81478271484375E+0003  -2.81437231445313E+0003  -2.81401123046875E+0003  -2.81372314453125E+0003  -2.81352832031250E+0003  -2.81343115234375E+0003  -2.81343090820313E+0003  -2.81352709960938E+0003  -2.81371459960938E+0003  -2.81397460937500E+0003  -2.81428344726563E+0003  -2.81461865234375E+0003  -2.81496118164063E+0003  -2.81530151367188E+0003  -2.81563281250000E+0003  -2.81594775390625E+0003  -2.81624194335938E+0003  -2.81651928710938E+0003  -2.81678222656250E+0003  -2.81703515625000E+0003  -2.81720947265625E+0003  -2.81738305664063E+0003  -2.81757739257813E+0003  -2.81779248046875E+0003  -2.81803076171875E+0003  -2.81829687500000E+0003  -2.81859326171875E+0003  -2.81892089843750E+0003  -2.81928295898438E+0003  -2.81968212890625E+0003  -2.82013183593750E+0003  -2.82063891601563E+0003  -2.82118652343750E+0003  -2.82175390625000E+0003  -2.82231860351563E+0003  -2.82285522460938E+0003  -2.82335375976563E+0003  -2.82381518554688E+0003  -2.82424047851563E+0003  -2.82463037109375E+0003  -2.82498315429688E+0003  -2.82529565429688E+0003  -2.82556469726563E+0003  -2.82578759765625E+0003  -2.82596386718750E+0003  -2.82609423828125E+0003  -2.82617871093750E+0003  -2.82621850585938E+0003  -2.82621362304688E+0003  -2.82616455078125E+0003  -2.82607202148438E+0003
  -2.83059277343750E+0003  -2.83084399414063E+0003  -2.83108276367188E+0003  -2.83130883789063E+0003  -2.83152246093750E+0003  -2.83172338867188E+0003  -2.83191186523438E+0003  -2.83208764648438E+0003  -2.83225073242188E+0003  -2.83240136718750E+0003  -2.83253930664063E+0003  -2.83266455078125E+0003  -2.83277709960938E+0003  -2.83287695312500E+0003  -2.83296411132813E+0003  -2.83303881835938E+0003  -2.83310131835938E+0003  -2.83315185546875E+0003  -2.83319140625000E+0003  -2.83322045898438E+0003  -2.83323901367188E+0003  -2.83324780273438E+0003  -2.83324755859375E+0003  -2.83323828125000E+0003  -2.83322119140625E+0003  -2.83319628906250E+0003  -2.83316455078125E+0003  -2.83312646484375E+0003  -2.83308251953125E+0003  -2.83303344726563E+0003  -2.83297949218750E+0003  -2.83292163085938E+0003  -2.83286010742188E+0003  -2.83279516601563E+0003  -2.83272753906250E+0003  -2.83265722656250E+0003  -2.83258471679688E+0003  -2.83251049804688E+0003  -2.83243432617188E+0003  -2.83235693359375E+0003  -2.83227807617188E+0003  -2.83219824218750E+0003  -2.83211743164063E+0003  -2.83203637695313E+0003  -2.83195556640625E+0003  -2.83187622070313E+0003  -2.83179931640625E+0003  -2.83172436523438E+0003  -2.83165014648438E+0003  -2.83157446289063E+0003  -2.83149560546875E+0003  -2.83141284179688E+0003  -2.83132568359375E+0003  -2.83123291015625E+0003  -2.83113378906250E+0003  -2.83102832031250E+0003  -2.83091503906250E+0003  -2.83079370117188E+0003  -2.83066333007813E+0003  -2.83052392578125E+0003  -2.83037500000000E+0003  -2.83021484375000E+0003  -2.83004223632813E+0003  -2.82985668945313E+0003  -2.82965747070313E+0003  -2.82944287109375E+0003  -2.82921118164063E+0003  -2.82895947265625E+0003  -2.82868530273438E+0003  -2.82838549804688E+0003  -2.82805883789063E+0003  -2.82770751953125E+0003  -2.82733471679688E+0003  -2.82694360351563E+0003  -2.82653808593750E+0003  -2.82612280273438E+0003  -2.82570312500000E+0003  -2.82528417968750E+0003  -2.82486938476563E+0003  -2.82445971679688E+0003  -2.82405639648438E+0003  -2.82365869140625E+0003  -2.82326611328125E+0003  -2.82287744140625E+0003  -2.82248730468750E+0003  -2.82209521484375E+0003  -2.82171093750000E+0003  -2.82133911132813E+0003  -2.82098071289063E+0003  -2.82063964843750E+0003  -2.82034521484375E+0003  -2.82011621093750E+0003  -2.81996240234375E+0003  -2.81989135742188E+0003  -2.81988037109375E+0003  -2.81991137695313E+0003  -2.81997900390625E+0003  -2.82007983398438E+0003  -2.82019970703125E+0003  -2.82034814453125E+0003  -2.82052856445313E+0003  -2.82073266601563E+0003  -2.82093920898438E+0003  -2.82114038085938E+0003  -2.82131689453125E+0003  -2.82146435546875E+0003  -2.82160083007813E+0003  -2.82174682617188E+0003  -2.82188769531250E+0003  -2.82200610351563E+0003  -2.82213354492188E+0003  -2.82224218750000E+0003  -2.82232104492188E+0003  -2.82236059570313E+0003  -2.82234667968750E+0003  -2.82228051757813E+0003  -2.82212109375000E+0003  -2.82182885742188E+0003  -2.82142700195313E+0003  -2.82093115234375E+0003  -2.82036035156250E+0003  -2.81976904296875E+0003  -2.81915771484375E+0003  -2.81853906250000E+0003  -2.81795678710938E+0003  -2.81742480468750E+0003  -2.81693237304688E+0003  -2.81639941406250E+0003  -2.81578393554688E+0003  -2.81508325195313E+0003  -2.81423071289063E+0003  -2.81317285156250E+0003  -2.81186596679688E+0003  -2.81035498046875E+0003  -2.80874389648438E+0003  -2.80719360351563E+0003  -2.80589648437500E+0003  -2.80511816406250E+0003  -2.80509521484375E+0003  -2.80564282226563E+0003  -2.80642480468750E+0003  -2.80727416992188E+0003  -2.80808203125000E+0003  -2.80873339843750E+0003  -2.80916186523438E+0003  -2.80942504882813E+0003  -2.80961328125000E+0003  -2.80982055664063E+0003  -2.81001757812500E+0003  -2.81031201171875E+0003  -2.81066943359375E+0003  -2.81103686523438E+0003  -2.81138256835938E+0003  -2.81172607421875E+0003  -2.81209423828125E+0003  -2.81251318359375E+0003  -2.81299023437500E+0003  -2.81349633789063E+0003  -2.81399755859375E+0003  -2.81446118164063E+0003  -2.81486474609375E+0003  -2.81520312500000E+0003  -2.81546972656250E+0003  -2.81565429687500E+0003  -2.81577075195313E+0003  -2.81586059570313E+0003  -2.81596508789063E+0003  -2.81612084960938E+0003  -2.81631420898438E+0003  -2.81648388671875E+0003  -2.81656933593750E+0003  -2.81651586914063E+0003  -2.81633325195313E+0003  -2.81608081054688E+0003  -2.81583081054688E+0003  -2.81565576171875E+0003  -2.81555883789063E+0003  -2.81550170898438E+0003  -2.81534399414063E+0003  -2.81510693359375E+0003  -2.81480371093750E+0003  -2.81445385742188E+0003  -2.81407495117188E+0003  -2.81368652343750E+0003  -2.81331420898438E+0003  -2.81298681640625E+0003  -2.81273315429688E+0003  -2.81257763671875E+0003  -2.81252294921875E+0003  -2.81256591796875E+0003  -2.81270263671875E+0003  -2.81292602539063E+0003  -2.81321752929688E+0003  -2.81355590820313E+0003  -2.81392041015625E+0003  -2.81429199218750E+0003  -2.81465942382813E+0003  -2.81501391601563E+0003  -2.81534545898438E+0003  -2.81564892578125E+0003  -2.81592895507813E+0003  -2.81619165039063E+0003  -2.81644262695313E+0003  -2.81660424804688E+0003  -2.81677661132813E+0003  -2.81696606445313E+0003  -2.81717187500000E+0003  -2.81739575195313E+0003  -2.81764282226563E+0003  -2.81791748046875E+0003  -2.81822314453125E+0003  -2.81856445312500E+0003  -2.81894799804688E+0003  -2.81937939453125E+0003  -2.81986279296875E+0003  -2.82038916015625E+0003  -2.82093872070313E+0003  -2.82148974609375E+0003  -2.82201977539063E+0003  -2.82251953125000E+0003  -2.82298803710938E+0003  -2.82342504882813E+0003  -2.82382958984375E+0003  -2.82419848632813E+0003  -2.82452758789063E+0003  -2.82481298828125E+0003  -2.82505102539063E+0003  -2.82524096679688E+0003  -2.82538403320313E+0003  -2.82548071289063E+0003  -2.82553247070313E+0003  -2.82554003906250E+0003  -2.82550439453125E+0003  -2.82542651367188E+0003
  -2.83067309570313E+0003  -2.83092382812500E+0003  -2.83116162109375E+0003  -2.83138671875000E+0003  -2.83159887695313E+0003  -2.83179809570313E+0003  -2.83198461914063E+0003  -2.83215820312500E+0003  -2.83231884765625E+0003  -2.83246655273438E+0003  -2.83260131835938E+0003  -2.83272314453125E+0003  -2.83283178710938E+0003  -2.83292749023438E+0003  -2.83301000976563E+0003  -2.83307958984375E+0003  -2.83313671875000E+0003  -2.83318164062500E+0003  -2.83321508789063E+0003  -2.83323754882813E+0003  -2.83324926757813E+0003  -2.83325073242188E+0003  -2.83324267578125E+0003  -2.83322558593750E+0003  -2.83319995117188E+0003  -2.83316650390625E+0003  -2.83312597656250E+0003  -2.83307861328125E+0003  -2.83302514648438E+0003  -2.83296630859375E+0003  -2.83290283203125E+0003  -2.83283496093750E+0003  -2.83276293945313E+0003  -2.83268750000000E+0003  -2.83260888671875E+0003  -2.83252709960938E+0003  -2.83244287109375E+0003  -2.83235620117188E+0003  -2.83226757812500E+0003  -2.83217675781250E+0003  -2.83208447265625E+0003  -2.83199072265625E+0003  -2.83189550781250E+0003  -2.83179980468750E+0003  -2.83170434570313E+0003  -2.83161059570313E+0003  -2.83152026367188E+0003  -2.83143188476563E+0003  -2.83134423828125E+0003  -2.83125366210938E+0003  -2.83115844726563E+0003  -2.83105834960938E+0003  -2.83095312500000E+0003  -2.83084106445313E+0003  -2.83072167968750E+0003  -2.83059448242188E+0003  -2.83045849609375E+0003  -2.83031347656250E+0003  -2.83015917968750E+0003  -2.82999438476563E+0003  -2.82981860351563E+0003  -2.82963012695313E+0003  -2.82942797851563E+0003  -2.82921118164063E+0003  -2.82897802734375E+0003  -2.82872705078125E+0003  -2.82845654296875E+0003  -2.82816406250000E+0003  -2.82784716796875E+0003  -2.82750317382813E+0003  -2.82713232421875E+0003  -2.82673901367188E+0003  -2.82632812500000E+0003  -2.82590478515625E+0003  -2.82547387695313E+0003  -2.82504028320313E+0003  -2.82460888671875E+0003  -2.82418457031250E+0003  -2.82376928710938E+0003  -2.82336254882813E+0003  -2.82296264648438E+0003  -2.82256762695313E+0003  -2.82217529296875E+0003  -2.82178881835938E+0003  -2.82140185546875E+0003  -2.82101708984375E+0003  -2.82064599609375E+0003  -2.82029101562500E+0003  -2.81995874023438E+0003  -2.81965478515625E+0003  -2.81939453125000E+0003  -2.81918310546875E+0003  -2.81901782226563E+0003  -2.81889428710938E+0003  -2.81880249023438E+0003  -2.81873242187500E+0003  -2.81868627929688E+0003  -2.81866918945313E+0003  -2.81868554687500E+0003  -2.81874438476563E+0003  -2.81885717773438E+0003  -2.81902929687500E+0003  -2.81923974609375E+0003  -2.81946557617188E+0003  -2.81968115234375E+0003  -2.81987011718750E+0003  -2.82004052734375E+0003  -2.82020312500000E+0003  -2.82033374023438E+0003  -2.82041650390625E+0003  -2.82050170898438E+0003  -2.82056909179688E+0003  -2.82062182617188E+0003  -2.82065527343750E+0003  -2.82064501953125E+0003  -2.82059350585938E+0003  -2.82045068359375E+0003  -2.82016430664063E+0003  -2.81976098632813E+0003  -2.81927636718750E+0003  -2.81872363281250E+0003  -2.81813867187500E+0003  -2.81753857421875E+0003  -2.81694287109375E+0003  -2.81637841796875E+0003  -2.81585400390625E+0003  -2.81536181640625E+0003  -2.81487719726563E+0003  -2.81427734375000E+0003  -2.81359448242188E+0003  -2.81275708007813E+0003  -2.81170336914063E+0003  -2.81038403320313E+0003  -2.80884692382813E+0003  -2.80720581054688E+0003  -2.80563159179688E+0003  -2.80432104492188E+0003  -2.80352441406250E+0003  -2.80345825195313E+0003  -2.80395434570313E+0003  -2.80469897460938E+0003  -2.80551708984375E+0003  -2.80628076171875E+0003  -2.80685815429688E+0003  -2.80717456054688E+0003  -2.80730664062500E+0003  -2.80737084960938E+0003  -2.80744409179688E+0003  -2.80762255859375E+0003  -2.80795776367188E+0003  -2.80836621093750E+0003  -2.80877197265625E+0003  -2.80913110351563E+0003  -2.80947460937500E+0003  -2.80984472656250E+0003  -2.81027929687500E+0003  -2.81079077148438E+0003  -2.81134179687500E+0003  -2.81188940429688E+0003  -2.81238989257813E+0003  -2.81281494140625E+0003  -2.81315820312500E+0003  -2.81341040039063E+0003  -2.81355737304688E+0003  -2.81362304687500E+0003  -2.81367846679688E+0003  -2.81379028320313E+0003  -2.81401367187500E+0003  -2.81431787109375E+0003  -2.81459033203125E+0003  -2.81473510742188E+0003  -2.81468041992188E+0003  -2.81444653320313E+0003  -2.81412573242188E+0003  -2.81383349609375E+0003  -2.81368847656250E+0003  -2.81369213867188E+0003  -2.81377368164063E+0003  -2.81378930664063E+0003  -2.81368676757813E+0003  -2.81349438476563E+0003  -2.81323535156250E+0003  -2.81292871093750E+0003  -2.81259350585938E+0003  -2.81226025390625E+0003  -2.81196386718750E+0003  -2.81173925781250E+0003  -2.81161694335938E+0003  -2.81159936523438E+0003  -2.81168164062500E+0003  -2.81185693359375E+0003  -2.81211669921875E+0003  -2.81244165039063E+0003  -2.81281225585938E+0003  -2.81320849609375E+0003  -2.81361206054688E+0003  -2.81400878906250E+0003  -2.81438671875000E+0003  -2.81473315429688E+0003  -2.81504248046875E+0003  -2.81532202148438E+0003  -2.81558154296875E+0003  -2.81581591796875E+0003  -2.81597558593750E+0003  -2.81615356445313E+0003  -2.81634716796875E+0003  -2.81655444335938E+0003  -2.81677587890625E+0003  -2.81701684570313E+0003  -2.81728222656250E+0003  -2.81757690429688E+0003  -2.81790600585938E+0003  -2.81827465820313E+0003  -2.81868823242188E+0003  -2.81915039062500E+0003  -2.81965380859375E+0003  -2.82018017578125E+0003  -2.82071069335938E+0003  -2.82122729492188E+0003  -2.82172070312500E+0003  -2.82218896484375E+0003  -2.82263012695313E+0003  -2.82304174804688E+0003  -2.82341992187500E+0003  -2.82376000976563E+0003  -2.82405639648438E+0003  -2.82430517578125E+0003  -2.82450585937500E+0003  -2.82465942382813E+0003  -2.82476733398438E+0003  -2.82483032226563E+0003  -2.82485009765625E+0003  -2.82482739257813E+0003  -2.82476391601563E+0003
  -2.83075244140625E+0003  -2.83100219726563E+0003  -2.83123876953125E+0003  -2.83146240234375E+0003  -2.83167260742188E+0003  -2.83186962890625E+0003  -2.83205346679688E+0003  -2.83222387695313E+0003  -2.83238134765625E+0003  -2.83252514648438E+0003  -2.83265576171875E+0003  -2.83277319335938E+0003  -2.83287695312500E+0003  -2.83296728515625E+0003  -2.83304418945313E+0003  -2.83310791015625E+0003  -2.83315844726563E+0003  -2.83319677734375E+0003  -2.83322290039063E+0003  -2.83323779296875E+0003  -2.83324169921875E+0003  -2.83323510742188E+0003  -2.83321850585938E+0003  -2.83319238281250E+0003  -2.83315771484375E+0003  -2.83311499023438E+0003  -2.83306469726563E+0003  -2.83300781250000E+0003  -2.83294458007813E+0003  -2.83287573242188E+0003  -2.83280224609375E+0003  -2.83272436523438E+0003  -2.83264208984375E+0003  -2.83255615234375E+0003  -2.83246630859375E+0003  -2.83237329101563E+0003  -2.83227709960938E+0003  -2.83217797851563E+0003  -2.83207617187500E+0003  -2.83197216796875E+0003  -2.83186596679688E+0003  -2.83175805664063E+0003  -2.83164819335938E+0003  -2.83153759765625E+0003  -2.83142724609375E+0003  -2.83131835937500E+0003  -2.83121362304688E+0003  -2.83111181640625E+0003  -2.83100903320313E+0003  -2.83090209960938E+0003  -2.83078906250000E+0003  -2.83066967773438E+0003  -2.83054467773438E+0003  -2.83041186523438E+0003  -2.83027050781250E+0003  -2.83011962890625E+0003  -2.82995922851563E+0003  -2.82978881835938E+0003  -2.82960791015625E+0003  -2.82941552734375E+0003  -2.82921093750000E+0003  -2.82899243164063E+0003  -2.82875927734375E+0003  -2.82851000976563E+0003  -2.82824267578125E+0003  -2.82795581054688E+0003  -2.82764819335938E+0003  -2.82731713867188E+0003  -2.82696093750000E+0003  -2.82657763671875E+0003  -2.82616845703125E+0003  -2.82574023437500E+0003  -2.82530029296875E+0003  -2.82485595703125E+0003  -2.82441333007813E+0003  -2.82397680664063E+0003  -2.82355029296875E+0003  -2.82313671875000E+0003  -2.82273486328125E+0003  -2.82234130859375E+0003  -2.82194970703125E+0003  -2.82156005859375E+0003  -2.82117163085938E+0003  -2.82078930664063E+0003  -2.82041162109375E+0003  -2.82004272460938E+0003  -2.81969262695313E+0003  -2.81936840820313E+0003  -2.81907836914063E+0003  -2.81882910156250E+0003  -2.81861425781250E+0003  -2.81842138671875E+0003  -2.81823388671875E+0003  -2.81803662109375E+0003  -2.81782910156250E+0003  -2.81761669921875E+0003  -2.81740844726563E+0003  -2.81721655273438E+0003  -2.81706176757813E+0003  -2.81696923828125E+0003  -2.81696704101563E+0003  -2.81707421875000E+0003  -2.81726806640625E+0003  -2.81751513671875E+0003  -2.81777880859375E+0003  -2.81802758789063E+0003  -2.81824804687500E+0003  -2.81842553710938E+0003  -2.81852636718750E+0003  -2.81853906250000E+0003  -2.81851049804688E+0003  -2.81847265625000E+0003  -2.81845947265625E+0003  -2.81847851562500E+0003  -2.81849291992188E+0003  -2.81846801757813E+0003  -2.81834716796875E+0003  -2.81809594726563E+0003  -2.81773510742188E+0003  -2.81729370117188E+0003  -2.81679418945313E+0003  -2.81625903320313E+0003  -2.81570654296875E+0003  -2.81515600585938E+0003  -2.81462744140625E+0003  -2.81412866210938E+0003  -2.81365576171875E+0003  -2.81320507812500E+0003  -2.81270166015625E+0003  -2.81207788085938E+0003  -2.81131396484375E+0003  -2.81034838867188E+0003  -2.80913037109375E+0003  -2.80771166992188E+0003  -2.80620825195313E+0003  -2.80478320312500E+0003  -2.80361523437500E+0003  -2.80288085937500E+0003  -2.80272045898438E+0003  -2.80302905273438E+0003  -2.80359521484375E+0003  -2.80425317382813E+0003  -2.80485424804688E+0003  -2.80525366210938E+0003  -2.80537329101563E+0003  -2.80530419921875E+0003  -2.80518457031250E+0003  -2.80505444335938E+0003  -2.80521484375000E+0003  -2.80558032226563E+0003  -2.80603247070313E+0003  -2.80647045898438E+0003  -2.80683789062500E+0003  -2.80717895507813E+0003  -2.80755029296875E+0003  -2.80800097656250E+0003  -2.80854638671875E+0003  -2.80914111328125E+0003  -2.80973168945313E+0003  -2.81026416015625E+0003  -2.81070336914063E+0003  -2.81104321289063E+0003  -2.81127001953125E+0003  -2.81135888671875E+0003  -2.81134716796875E+0003  -2.81134667968750E+0003  -2.81145874023438E+0003  -2.81176171875000E+0003  -2.81220141601563E+0003  -2.81259838867188E+0003  -2.81281567382813E+0003  -2.81276562500000E+0003  -2.81247631835938E+0003  -2.81206933593750E+0003  -2.81171508789063E+0003  -2.81159936523438E+0003  -2.81172265625000E+0003  -2.81197241210938E+0003  -2.81219750976563E+0003  -2.81225122070313E+0003  -2.81218115234375E+0003  -2.81202001953125E+0003  -2.81178906250000E+0003  -2.81150781250000E+0003  -2.81121166992188E+0003  -2.81094091796875E+0003  -2.81073828125000E+0003  -2.81063989257813E+0003  -2.81064990234375E+0003  -2.81076391601563E+0003  -2.81097363281250E+0003  -2.81126708984375E+0003  -2.81162646484375E+0003  -2.81203173828125E+0003  -2.81246289062500E+0003  -2.81290087890625E+0003  -2.81332910156250E+0003  -2.81373144531250E+0003  -2.81409301757813E+0003  -2.81440673828125E+0003  -2.81468432617188E+0003  -2.81493945312500E+0003  -2.81514428710938E+0003  -2.81531323242188E+0003  -2.81550195312500E+0003  -2.81570678710938E+0003  -2.81592382812500E+0003  -2.81615283203125E+0003  -2.81639868164063E+0003  -2.81666674804688E+0003  -2.81696191406250E+0003  -2.81728857421875E+0003  -2.81765087890625E+0003  -2.81805224609375E+0003  -2.81849584960938E+0003  -2.81897509765625E+0003  -2.81947534179688E+0003  -2.81998168945313E+0003  -2.82047949218750E+0003  -2.82096069335938E+0003  -2.82142211914063E+0003  -2.82186059570313E+0003  -2.82227246093750E+0003  -2.82265356445313E+0003  -2.82299780273438E+0003  -2.82330004882813E+0003  -2.82355541992188E+0003  -2.82376367187500E+0003  -2.82392553710938E+0003  -2.82404272460938E+0003  -2.82411621093750E+0003  -2.82414721679688E+0003  -2.82413745117188E+0003  -2.82408764648438E+0003
  -2.83083081054688E+0003  -2.83107934570313E+0003  -2.83131396484375E+0003  -2.83153515625000E+0003  -2.83174291992188E+0003  -2.83193676757813E+0003  -2.83211718750000E+0003  -2.83228369140625E+0003  -2.83243676757813E+0003  -2.83257592773438E+0003  -2.83270141601563E+0003  -2.83281323242188E+0003  -2.83291113281250E+0003  -2.83299511718750E+0003  -2.83306542968750E+0003  -2.83312207031250E+0003  -2.83316503906250E+0003  -2.83319555664063E+0003  -2.83321362304688E+0003  -2.83321997070313E+0003  -2.83321508789063E+0003  -2.83319946289063E+0003  -2.83317358398438E+0003  -2.83313818359375E+0003  -2.83309375000000E+0003  -2.83304101562500E+0003  -2.83298095703125E+0003  -2.83291381835938E+0003  -2.83284057617188E+0003  -2.83276196289063E+0003  -2.83267822265625E+0003  -2.83258984375000E+0003  -2.83249731445313E+0003  -2.83240039062500E+0003  -2.83229956054688E+0003  -2.83219482421875E+0003  -2.83208666992188E+0003  -2.83197485351563E+0003  -2.83186035156250E+0003  -2.83174291992188E+0003  -2.83162304687500E+0003  -2.83150122070313E+0003  -2.83137670898438E+0003  -2.83125122070313E+0003  -2.83112670898438E+0003  -2.83100341796875E+0003  -2.83088330078125E+0003  -2.83076562500000E+0003  -2.83064575195313E+0003  -2.83052099609375E+0003  -2.83038916015625E+0003  -2.83025024414063E+0003  -2.83010400390625E+0003  -2.82994946289063E+0003  -2.82978442382813E+0003  -2.82960913085938E+0003  -2.82942285156250E+0003  -2.82922558593750E+0003  -2.82901684570313E+0003  -2.82879565429688E+0003  -2.82856127929688E+0003  -2.82831225585938E+0003  -2.82804760742188E+0003  -2.82776586914063E+0003  -2.82746533203125E+0003  -2.82714453125000E+0003  -2.82680175781250E+0003  -2.82643603515625E+0003  -2.82604589843750E+0003  -2.82563012695313E+0003  -2.82519140625000E+0003  -2.82473828125000E+0003  -2.82428027343750E+0003  -2.82382666015625E+0003  -2.82338476562500E+0003  -2.82295874023438E+0003  -2.82254833984375E+0003  -2.82215185546875E+0003  -2.82176416015625E+0003  -2.82138232421875E+0003  -2.82100000000000E+0003  -2.82061743164063E+0003  -2.82023779296875E+0003  -2.81986157226563E+0003  -2.81949584960938E+0003  -2.81914819335938E+0003  -2.81882739257813E+0003  -2.81854077148438E+0003  -2.81829638671875E+0003  -2.81809887695313E+0003  -2.81792773437500E+0003  -2.81774951171875E+0003  -2.81753198242188E+0003  -2.81724926757813E+0003  -2.81691137695313E+0003  -2.81654199218750E+0003  -2.81615625000000E+0003  -2.81577075195313E+0003  -2.81541992187500E+0003  -2.81514501953125E+0003  -2.81499780273438E+0003  -2.81501611328125E+0003  -2.81517944335938E+0003  -2.81544677734375E+0003  -2.81575805664063E+0003  -2.81605590820313E+0003  -2.81630639648438E+0003  -2.81647583007813E+0003  -2.81651928710938E+0003  -2.81642456054688E+0003  -2.81625317382813E+0003  -2.81608007812500E+0003  -2.81598461914063E+0003  -2.81599389648438E+0003  -2.81604052734375E+0003  -2.81605444335938E+0003  -2.81597534179688E+0003  -2.81577685546875E+0003  -2.81547778320313E+0003  -2.81510229492188E+0003  -2.81467456054688E+0003  -2.81421362304688E+0003  -2.81373291015625E+0003  -2.81324633789063E+0003  -2.81276904296875E+0003  -2.81230834960938E+0003  -2.81186669921875E+0003  -2.81144604492188E+0003  -2.81104541015625E+0003  -2.81054199218750E+0003  -2.80988867187500E+0003  -2.80906323242188E+0003  -2.80801806640625E+0003  -2.80679809570313E+0003  -2.80550878906250E+0003  -2.80429541015625E+0003  -2.80330712890625E+0003  -2.80265161132813E+0003  -2.80240380859375E+0003  -2.80251635742188E+0003  -2.80286987304688E+0003  -2.80331640625000E+0003  -2.80369848632813E+0003  -2.80386791992188E+0003  -2.80374975585938E+0003  -2.80344775390625E+0003  -2.80300561523438E+0003  -2.80275708007813E+0003  -2.80287353515625E+0003  -2.80324291992188E+0003  -2.80371435546875E+0003  -2.80416845703125E+0003  -2.80453979492188E+0003  -2.80488281250000E+0003  -2.80526513671875E+0003  -2.80574023437500E+0003  -2.80632397460938E+0003  -2.80696362304688E+0003  -2.80759716796875E+0003  -2.80816137695313E+0003  -2.80861572265625E+0003  -2.80895385742188E+0003  -2.80915917968750E+0003  -2.80919775390625E+0003  -2.80911816406250E+0003  -2.80906835937500E+0003  -2.80918041992188E+0003  -2.80955273437500E+0003  -2.81011132812500E+0003  -2.81062036132813E+0003  -2.81090747070313E+0003  -2.81087011718750E+0003  -2.81054199218750E+0003  -2.81006689453125E+0003  -2.80966650390625E+0003  -2.80959130859375E+0003  -2.80982983398438E+0003  -2.81021459960938E+0003  -2.81062768554688E+0003  -2.81082714843750E+0003  -2.81088476562500E+0003  -2.81084082031250E+0003  -2.81067602539063E+0003  -2.81043823242188E+0003  -2.81017138671875E+0003  -2.80992065429688E+0003  -2.80973315429688E+0003  -2.80964941406250E+0003  -2.80967626953125E+0003  -2.80981079101563E+0003  -2.81004467773438E+0003  -2.81036645507813E+0003  -2.81075683593750E+0003  -2.81119531250000E+0003  -2.81166113281250E+0003  -2.81213427734375E+0003  -2.81259497070313E+0003  -2.81302368164063E+0003  -2.81340307617188E+0003  -2.81372607421875E+0003  -2.81400708007813E+0003  -2.81426342773438E+0003  -2.81443969726563E+0003  -2.81462329101563E+0003  -2.81482812500000E+0003  -2.81504882812500E+0003  -2.81528125000000E+0003  -2.81552416992188E+0003  -2.81578247070313E+0003  -2.81606103515625E+0003  -2.81636425781250E+0003  -2.81669604492188E+0003  -2.81705786132813E+0003  -2.81745190429688E+0003  -2.81787988281250E+0003  -2.81833618164063E+0003  -2.81881005859375E+0003  -2.81929052734375E+0003  -2.81976684570313E+0003  -2.82023193359375E+0003  -2.82068188476563E+0003  -2.82111230468750E+0003  -2.82151928710938E+0003  -2.82189721679688E+0003  -2.82224072265625E+0003  -2.82254418945313E+0003  -2.82280273437500E+0003  -2.82301562500000E+0003  -2.82318408203125E+0003  -2.82330908203125E+0003  -2.82339208984375E+0003  -2.82343408203125E+0003  -2.82343652343750E+0003  -2.82340039062500E+0003
  -2.83090795898438E+0003  -2.83115454101563E+0003  -2.83138696289063E+0003  -2.83160498046875E+0003  -2.83180908203125E+0003  -2.83199902343750E+0003  -2.83217504882813E+0003  -2.83233666992188E+0003  -2.83248413085938E+0003  -2.83261767578125E+0003  -2.83273681640625E+0003  -2.83284204101563E+0003  -2.83293286132813E+0003  -2.83300952148438E+0003  -2.83307202148438E+0003  -2.83312036132813E+0003  -2.83315502929688E+0003  -2.83317651367188E+0003  -2.83318554687500E+0003  -2.83318261718750E+0003  -2.83316821289063E+0003  -2.83314282226563E+0003  -2.83310717773438E+0003  -2.83306176757813E+0003  -2.83300732421875E+0003  -2.83294458007813E+0003  -2.83287426757813E+0003  -2.83279711914063E+0003  -2.83271362304688E+0003  -2.83262475585938E+0003  -2.83253051757813E+0003  -2.83243164062500E+0003  -2.83232836914063E+0003  -2.83222045898438E+0003  -2.83210791015625E+0003  -2.83199121093750E+0003  -2.83187084960938E+0003  -2.83174658203125E+0003  -2.83161914062500E+0003  -2.83148852539063E+0003  -2.83135546875000E+0003  -2.83122070312500E+0003  -2.83108276367188E+0003  -2.83094287109375E+0003  -2.83080493164063E+0003  -2.83066821289063E+0003  -2.83053247070313E+0003  -2.83039648437500E+0003  -2.83025732421875E+0003  -2.83011328125000E+0003  -2.82996191406250E+0003  -2.82980273437500E+0003  -2.82963500976563E+0003  -2.82945727539063E+0003  -2.82926806640625E+0003  -2.82906738281250E+0003  -2.82885473632813E+0003  -2.82863012695313E+0003  -2.82839331054688E+0003  -2.82814331054688E+0003  -2.82787915039063E+0003  -2.82759985351563E+0003  -2.82730444335938E+0003  -2.82699169921875E+0003  -2.82665966796875E+0003  -2.82630712890625E+0003  -2.82593310546875E+0003  -2.82553759765625E+0003  -2.82512084960938E+0003  -2.82468261718750E+0003  -2.82422656250000E+0003  -2.82376220703125E+0003  -2.82329931640625E+0003  -2.82284863281250E+0003  -2.82241723632813E+0003  -2.82201049804688E+0003  -2.82162133789063E+0003  -2.82124121093750E+0003  -2.82086572265625E+0003  -2.82048999023438E+0003  -2.82011206054688E+0003  -2.81973168945313E+0003  -2.81935278320313E+0003  -2.81898168945313E+0003  -2.81862768554688E+0003  -2.81830102539063E+0003  -2.81800805664063E+0003  -2.81775292968750E+0003  -2.81754394531250E+0003  -2.81738696289063E+0003  -2.81724853515625E+0003  -2.81707617187500E+0003  -2.81682324218750E+0003  -2.81645434570313E+0003  -2.81599194335938E+0003  -2.81547705078125E+0003  -2.81493041992188E+0003  -2.81437011718750E+0003  -2.81383764648438E+0003  -2.81338598632813E+0003  -2.81309057617188E+0003  -2.81301171875000E+0003  -2.81313525390625E+0003  -2.81341479492188E+0003  -2.81375683593750E+0003  -2.81407348632813E+0003  -2.81431811523438E+0003  -2.81444580078125E+0003  -2.81439843750000E+0003  -2.81415747070313E+0003  -2.81379833984375E+0003  -2.81344213867188E+0003  -2.81327563476563E+0003  -2.81335400390625E+0003  -2.81349096679688E+0003  -2.81354833984375E+0003  -2.81350341796875E+0003  -2.81335522460938E+0003  -2.81312084960938E+0003  -2.81282006835938E+0003  -2.81247387695313E+0003  -2.81209790039063E+0003  -2.81169921875000E+0003  -2.81128662109375E+0003  -2.81086767578125E+0003  -2.81045117187500E+0003  -2.81004541015625E+0003  -2.80965917968750E+0003  -2.80929907226563E+0003  -2.80893750000000E+0003  -2.80846801757813E+0003  -2.80780297851563E+0003  -2.80695336914063E+0003  -2.80595092773438E+0003  -2.80488012695313E+0003  -2.80386083984375E+0003  -2.80301635742188E+0003  -2.80242163085938E+0003  -2.80212451171875E+0003  -2.80210522460938E+0003  -2.80228930664063E+0003  -2.80254321289063E+0003  -2.80271118164063E+0003  -2.80265307617188E+0003  -2.80230200195313E+0003  -2.80166381835938E+0003  -2.80102783203125E+0003  -2.80065380859375E+0003  -2.80069189453125E+0003  -2.80101660156250E+0003  -2.80146289062500E+0003  -2.80190527343750E+0003  -2.80227563476563E+0003  -2.80263159179688E+0003  -2.80304174804688E+0003  -2.80355688476563E+0003  -2.80418872070313E+0003  -2.80487890625000E+0003  -2.80555932617188E+0003  -2.80616088867188E+0003  -2.80663916015625E+0003  -2.80698901367188E+0003  -2.80719262695313E+0003  -2.80721459960938E+0003  -2.80710986328125E+0003  -2.80704272460938E+0003  -2.80715942382813E+0003  -2.80756982421875E+0003  -2.80819311523438E+0003  -2.80876928710938E+0003  -2.80910864257813E+0003  -2.80909765625000E+0003  -2.80877246093750E+0003  -2.80828930664063E+0003  -2.80787377929688E+0003  -2.80779199218750E+0003  -2.80808862304688E+0003  -2.80858544921875E+0003  -2.80910644531250E+0003  -2.80944433593750E+0003  -2.80957397460938E+0003  -2.80958984375000E+0003  -2.80952026367188E+0003  -2.80938427734375E+0003  -2.80914550781250E+0003  -2.80890844726563E+0003  -2.80872998046875E+0003  -2.80865087890625E+0003  -2.80868066406250E+0003  -2.80882031250000E+0003  -2.80906396484375E+0003  -2.80940332031250E+0003  -2.80981762695313E+0003  -2.81028417968750E+0003  -2.81078149414063E+0003  -2.81128735351563E+0003  -2.81177954101563E+0003  -2.81223730468750E+0003  -2.81264160156250E+0003  -2.81298461914063E+0003  -2.81328247070313E+0003  -2.81352368164063E+0003  -2.81370825195313E+0003  -2.81391430664063E+0003  -2.81413916015625E+0003  -2.81437890625000E+0003  -2.81462915039063E+0003  -2.81488964843750E+0003  -2.81516430664063E+0003  -2.81545727539063E+0003  -2.81577270507813E+0003  -2.81611279296875E+0003  -2.81647802734375E+0003  -2.81686816406250E+0003  -2.81728344726563E+0003  -2.81771972656250E+0003  -2.81816943359375E+0003  -2.81862500000000E+0003  -2.81907934570313E+0003  -2.81952661132813E+0003  -2.81996191406250E+0003  -2.82038061523438E+0003  -2.82077807617188E+0003  -2.82114916992188E+0003  -2.82148803710938E+0003  -2.82178930664063E+0003  -2.82204809570313E+0003  -2.82226367187500E+0003  -2.82243676757813E+0003  -2.82256884765625E+0003  -2.82266040039063E+0003  -2.82271289062500E+0003  -2.82272705078125E+0003  -2.82270385742188E+0003
  -2.83098388671875E+0003  -2.83122778320313E+0003  -2.83145678710938E+0003  -2.83167114257813E+0003  -2.83187060546875E+0003  -2.83205566406250E+0003  -2.83222583007813E+0003  -2.83238159179688E+0003  -2.83252246093750E+0003  -2.83264892578125E+0003  -2.83276074218750E+0003  -2.83285791015625E+0003  -2.83294042968750E+0003  -2.83300854492188E+0003  -2.83306201171875E+0003  -2.83310131835938E+0003  -2.83312646484375E+0003  -2.83313842773438E+0003  -2.83313769531250E+0003  -2.83312451171875E+0003  -2.83310009765625E+0003  -2.83306445312500E+0003  -2.83301831054688E+0003  -2.83296264648438E+0003  -2.83289794921875E+0003  -2.83282495117188E+0003  -2.83274462890625E+0003  -2.83265722656250E+0003  -2.83256372070313E+0003  -2.83246435546875E+0003  -2.83235961914063E+0003  -2.83224975585938E+0003  -2.83213500976563E+0003  -2.83201538085938E+0003  -2.83189086914063E+0003  -2.83176171875000E+0003  -2.83162890625000E+0003  -2.83149218750000E+0003  -2.83135229492188E+0003  -2.83120898437500E+0003  -2.83106298828125E+0003  -2.83091552734375E+0003  -2.83076562500000E+0003  -2.83061328125000E+0003  -2.83046215820313E+0003  -2.83031103515625E+0003  -2.83015917968750E+0003  -2.83000488281250E+0003  -2.82984643554688E+0003  -2.82968237304688E+0003  -2.82951074218750E+0003  -2.82933056640625E+0003  -2.82914038085938E+0003  -2.82893896484375E+0003  -2.82872534179688E+0003  -2.82849926757813E+0003  -2.82826049804688E+0003  -2.82800878906250E+0003  -2.82774438476563E+0003  -2.82746655273438E+0003  -2.82717382812500E+0003  -2.82686596679688E+0003  -2.82654125976563E+0003  -2.82619921875000E+0003  -2.82583813476563E+0003  -2.82545727539063E+0003  -2.82505639648438E+0003  -2.82463818359375E+0003  -2.82420483398438E+0003  -2.82375781250000E+0003  -2.82330078125000E+0003  -2.82284130859375E+0003  -2.82238842773438E+0003  -2.82195263671875E+0003  -2.82153979492188E+0003  -2.82115576171875E+0003  -2.82079028320313E+0003  -2.82042407226563E+0003  -2.82005493164063E+0003  -2.81967846679688E+0003  -2.81929443359375E+0003  -2.81890551757813E+0003  -2.81851855468750E+0003  -2.81814331054688E+0003  -2.81779052734375E+0003  -2.81747143554688E+0003  -2.81719018554688E+0003  -2.81694799804688E+0003  -2.81675341796875E+0003  -2.81661328125000E+0003  -2.81648535156250E+0003  -2.81630395507813E+0003  -2.81601293945313E+0003  -2.81557153320313E+0003  -2.81501171875000E+0003  -2.81438842773438E+0003  -2.81372485351563E+0003  -2.81303833007813E+0003  -2.81237255859375E+0003  -2.81178588867188E+0003  -2.81137109375000E+0003  -2.81120629882813E+0003  -2.81128369140625E+0003  -2.81155273437500E+0003  -2.81189160156250E+0003  -2.81218603515625E+0003  -2.81238281250000E+0003  -2.81243066406250E+0003  -2.81225317382813E+0003  -2.81181298828125E+0003  -2.81116943359375E+0003  -2.81052124023438E+0003  -2.81032446289063E+0003  -2.81069970703125E+0003  -2.81109252929688E+0003  -2.81118017578125E+0003  -2.81110961914063E+0003  -2.81098217773438E+0003  -2.81080249023438E+0003  -2.81057495117188E+0003  -2.81030932617188E+0003  -2.81001342773438E+0003  -2.80969116210938E+0003  -2.80934594726563E+0003  -2.80898095703125E+0003  -2.80860546875000E+0003  -2.80823413085938E+0003  -2.80788232421875E+0003  -2.80756298828125E+0003  -2.80725610351563E+0003  -2.80691796875000E+0003  -2.80650097656250E+0003  -2.80584912109375E+0003  -2.80503247070313E+0003  -2.80413867187500E+0003  -2.80326928710938E+0003  -2.80253051757813E+0003  -2.80198413085938E+0003  -2.80166894531250E+0003  -2.80157910156250E+0003  -2.80166259765625E+0003  -2.80179052734375E+0003  -2.80180688476563E+0003  -2.80157202148438E+0003  -2.80090136718750E+0003  -2.80009765625000E+0003  -2.79934741210938E+0003  -2.79885986328125E+0003  -2.79877368164063E+0003  -2.79898071289063E+0003  -2.79933496093750E+0003  -2.79972460937500E+0003  -2.80008666992188E+0003  -2.80046972656250E+0003  -2.80093041992188E+0003  -2.80150659179688E+0003  -2.80220117187500E+0003  -2.80295166015625E+0003  -2.80368823242188E+0003  -2.80433911132813E+0003  -2.80485961914063E+0003  -2.80524462890625E+0003  -2.80548120117188E+0003  -2.80554150390625E+0003  -2.80547875976563E+0003  -2.80544384765625E+0003  -2.80557373046875E+0003  -2.80597509765625E+0003  -2.80657934570313E+0003  -2.80715209960938E+0003  -2.80751440429688E+0003  -2.80755078125000E+0003  -2.80729687500000E+0003  -2.80685815429688E+0003  -2.80647631835938E+0003  -2.80646166992188E+0003  -2.80680883789063E+0003  -2.80733862304688E+0003  -2.80787377929688E+0003  -2.80825732421875E+0003  -2.80839794921875E+0003  -2.80841455078125E+0003  -2.80835449218750E+0003  -2.80824633789063E+0003  -2.80811401367188E+0003  -2.80791040039063E+0003  -2.80773535156250E+0003  -2.80764990234375E+0003  -2.80766625976563E+0003  -2.80779077148438E+0003  -2.80802563476563E+0003  -2.80836669921875E+0003  -2.80879321289063E+0003  -2.80927954101563E+0003  -2.80980126953125E+0003  -2.81033422851563E+0003  -2.81085620117188E+0003  -2.81134667968750E+0003  -2.81178662109375E+0003  -2.81216748046875E+0003  -2.81250244140625E+0003  -2.81273120117188E+0003  -2.81295654296875E+0003  -2.81319384765625E+0003  -2.81344262695313E+0003  -2.81370214843750E+0003  -2.81397070312500E+0003  -2.81424902343750E+0003  -2.81454052734375E+0003  -2.81484863281250E+0003  -2.81517675781250E+0003  -2.81552612304688E+0003  -2.81589526367188E+0003  -2.81628344726563E+0003  -2.81668896484375E+0003  -2.81710888671875E+0003  -2.81753833007813E+0003  -2.81797241210938E+0003  -2.81840649414063E+0003  -2.81883569335938E+0003  -2.81925537109375E+0003  -2.81966040039063E+0003  -2.82004614257813E+0003  -2.82040747070313E+0003  -2.82073901367188E+0003  -2.82103564453125E+0003  -2.82129248046875E+0003  -2.82150903320313E+0003  -2.82168579101563E+0003  -2.82182373046875E+0003  -2.82192333984375E+0003  -2.82198535156250E+0003  -2.82201098632813E+0003  -2.82200024414063E+0003
  -2.83105786132813E+0003  -2.83129833984375E+0003  -2.83152343750000E+0003  -2.83173291015625E+0003  -2.83192700195313E+0003  -2.83210571289063E+0003  -2.83226904296875E+0003  -2.83241723632813E+0003  -2.83255029296875E+0003  -2.83266845703125E+0003  -2.83277148437500E+0003  -2.83285937500000E+0003  -2.83293261718750E+0003  -2.83299096679688E+0003  -2.83303442382813E+0003  -2.83306347656250E+0003  -2.83307836914063E+0003  -2.83307983398438E+0003  -2.83306835937500E+0003  -2.83304467773438E+0003  -2.83300952148438E+0003  -2.83296313476563E+0003  -2.83290673828125E+0003  -2.83284033203125E+0003  -2.83276513671875E+0003  -2.83268188476563E+0003  -2.83259130859375E+0003  -2.83249365234375E+0003  -2.83238989257813E+0003  -2.83227978515625E+0003  -2.83216406250000E+0003  -2.83204248046875E+0003  -2.83191577148438E+0003  -2.83178369140625E+0003  -2.83164672851563E+0003  -2.83150488281250E+0003  -2.83135937500000E+0003  -2.83121044921875E+0003  -2.83105834960938E+0003  -2.83090332031250E+0003  -2.83074536132813E+0003  -2.83058569335938E+0003  -2.83042431640625E+0003  -2.83026123046875E+0003  -2.83009716796875E+0003  -2.82993164062500E+0003  -2.82976367187500E+0003  -2.82959179687500E+0003  -2.82941455078125E+0003  -2.82923071289063E+0003  -2.82903833007813E+0003  -2.82883642578125E+0003  -2.82862377929688E+0003  -2.82839892578125E+0003  -2.82816113281250E+0003  -2.82791015625000E+0003  -2.82764624023438E+0003  -2.82736914062500E+0003  -2.82707885742188E+0003  -2.82677490234375E+0003  -2.82645581054688E+0003  -2.82612133789063E+0003  -2.82577001953125E+0003  -2.82540161132813E+0003  -2.82501538085938E+0003  -2.82461083984375E+0003  -2.82418945312500E+0003  -2.82375781250000E+0003  -2.82332031250000E+0003  -2.82287915039063E+0003  -2.82243652343750E+0003  -2.82199755859375E+0003  -2.82157006835938E+0003  -2.82116333007813E+0003  -2.82078149414063E+0003  -2.82042309570313E+0003  -2.82007519531250E+0003  -2.81971655273438E+0003  -2.81934204101563E+0003  -2.81895336914063E+0003  -2.81855249023438E+0003  -2.81814257812500E+0003  -2.81773242187500E+0003  -2.81733447265625E+0003  -2.81696240234375E+0003  -2.81662841796875E+0003  -2.81633642578125E+0003  -2.81608447265625E+0003  -2.81588012695313E+0003  -2.81572851562500E+0003  -2.81558471679688E+0003  -2.81537866210938E+0003  -2.81505224609375E+0003  -2.81456323242188E+0003  -2.81394799804688E+0003  -2.81326660156250E+0003  -2.81254199218750E+0003  -2.81179150390625E+0003  -2.81105737304688E+0003  -2.81039965820313E+0003  -2.80991748046875E+0003  -2.80969531250000E+0003  -2.80972656250000E+0003  -2.80995751953125E+0003  -2.81025219726563E+0003  -2.81048315429688E+0003  -2.81059545898438E+0003  -2.81053149414063E+0003  -2.81019653320313E+0003  -2.80952636718750E+0003  -2.80853906250000E+0003  -2.80744653320313E+0003  -2.80715991210938E+0003  -2.80820068359375E+0003  -2.80908447265625E+0003  -2.80905419921875E+0003  -2.80888769531250E+0003  -2.80875219726563E+0003  -2.80861474609375E+0003  -2.80845214843750E+0003  -2.80825756835938E+0003  -2.80802880859375E+0003  -2.80776806640625E+0003  -2.80747656250000E+0003  -2.80715478515625E+0003  -2.80681298828125E+0003  -2.80647070312500E+0003  -2.80614892578125E+0003  -2.80586669921875E+0003  -2.80560839843750E+0003  -2.80533276367188E+0003  -2.80499194335938E+0003  -2.80454003906250E+0003  -2.80396923828125E+0003  -2.80319580078125E+0003  -2.80242724609375E+0003  -2.80176269531250E+0003  -2.80125659179688E+0003  -2.80094360351563E+0003  -2.80082812500000E+0003  -2.80087402343750E+0003  -2.80094921875000E+0003  -2.80083300781250E+0003  -2.80037231445313E+0003  -2.79963427734375E+0003  -2.79876489257813E+0003  -2.79795751953125E+0003  -2.79737939453125E+0003  -2.79713818359375E+0003  -2.79716918945313E+0003  -2.79737719726563E+0003  -2.79767944335938E+0003  -2.79802612304688E+0003  -2.79844677734375E+0003  -2.79897509765625E+0003  -2.79962963867188E+0003  -2.80039941406250E+0003  -2.80121948242188E+0003  -2.80202026367188E+0003  -2.80273168945313E+0003  -2.80331005859375E+0003  -2.80375195312500E+0003  -2.80405029296875E+0003  -2.80419189453125E+0003  -2.80422143554688E+0003  -2.80425488281250E+0003  -2.80440136718750E+0003  -2.80475317382813E+0003  -2.80526831054688E+0003  -2.80577734375000E+0003  -2.80613720703125E+0003  -2.80624218750000E+0003  -2.80608276367188E+0003  -2.80577392578125E+0003  -2.80555322265625E+0003  -2.80563378906250E+0003  -2.80599877929688E+0003  -2.80649096679688E+0003  -2.80695214843750E+0003  -2.80724560546875E+0003  -2.80737304687500E+0003  -2.80732666015625E+0003  -2.80722778320313E+0003  -2.80712011718750E+0003  -2.80701708984375E+0003  -2.80692065429688E+0003  -2.80674438476563E+0003  -2.80663989257813E+0003  -2.80662426757813E+0003  -2.80671264648438E+0003  -2.80691870117188E+0003  -2.80724707031250E+0003  -2.80767553710938E+0003  -2.80817504882813E+0003  -2.80871679687500E+0003  -2.80927490234375E+0003  -2.80982861328125E+0003  -2.81035864257813E+0003  -2.81084741210938E+0003  -2.81128491210938E+0003  -2.81162084960938E+0003  -2.81191455078125E+0003  -2.81219433593750E+0003  -2.81246923828125E+0003  -2.81274340820313E+0003  -2.81302099609375E+0003  -2.81330541992188E+0003  -2.81360009765625E+0003  -2.81390722656250E+0003  -2.81422949218750E+0003  -2.81456909179688E+0003  -2.81492602539063E+0003  -2.81529882812500E+0003  -2.81568554687500E+0003  -2.81608398437500E+0003  -2.81649194335938E+0003  -2.81690576171875E+0003  -2.81732299804688E+0003  -2.81773999023438E+0003  -2.81815258789063E+0003  -2.81855664062500E+0003  -2.81894726562500E+0003  -2.81931982421875E+0003  -2.81966992187500E+0003  -2.81999243164063E+0003  -2.82028271484375E+0003  -2.82053662109375E+0003  -2.82075317382813E+0003  -2.82093261718750E+0003  -2.82107568359375E+0003  -2.82118261718750E+0003  -2.82125415039063E+0003  -2.82129028320313E+0003  -2.82129199218750E+0003
  -2.83113012695313E+0003  -2.83136645507813E+0003  -2.83158618164063E+0003  -2.83178979492188E+0003  -2.83197705078125E+0003  -2.83214819335938E+0003  -2.83230346679688E+0003  -2.83244287109375E+0003  -2.83256665039063E+0003  -2.83267504882813E+0003  -2.83276782226563E+0003  -2.83284545898438E+0003  -2.83290771484375E+0003  -2.83295507812500E+0003  -2.83298754882813E+0003  -2.83300512695313E+0003  -2.83300903320313E+0003  -2.83299926757813E+0003  -2.83297680664063E+0003  -2.83294213867188E+0003  -2.83289599609375E+0003  -2.83283886718750E+0003  -2.83277148437500E+0003  -2.83269458007813E+0003  -2.83260864257813E+0003  -2.83251464843750E+0003  -2.83241333007813E+0003  -2.83230493164063E+0003  -2.83219018554688E+0003  -2.83206860351563E+0003  -2.83194091796875E+0003  -2.83180688476563E+0003  -2.83166748046875E+0003  -2.83152270507813E+0003  -2.83137280273438E+0003  -2.83121826171875E+0003  -2.83106030273438E+0003  -2.83089892578125E+0003  -2.83073510742188E+0003  -2.83056909179688E+0003  -2.83040063476563E+0003  -2.83023046875000E+0003  -2.83005883789063E+0003  -2.82988525390625E+0003  -2.82970922851563E+0003  -2.82952978515625E+0003  -2.82934643554688E+0003  -2.82915771484375E+0003  -2.82896240234375E+0003  -2.82875903320313E+0003  -2.82854663085938E+0003  -2.82832348632813E+0003  -2.82808911132813E+0003  -2.82784204101563E+0003  -2.82758129882813E+0003  -2.82730737304688E+0003  -2.82702001953125E+0003  -2.82671948242188E+0003  -2.82640600585938E+0003  -2.82607861328125E+0003  -2.82573632812500E+0003  -2.82537841796875E+0003  -2.82500390625000E+0003  -2.82461352539063E+0003  -2.82420776367188E+0003  -2.82378662109375E+0003  -2.82335375976563E+0003  -2.82292016601563E+0003  -2.82249291992188E+0003  -2.82206982421875E+0003  -2.82165209960938E+0003  -2.82124707031250E+0003  -2.82086132812500E+0003  -2.82049951171875E+0003  -2.82016113281250E+0003  -2.81983300781250E+0003  -2.81949755859375E+0003  -2.81913696289063E+0003  -2.81874462890625E+0003  -2.81832592773438E+0003  -2.81788598632813E+0003  -2.81743139648438E+0003  -2.81697363281250E+0003  -2.81652856445313E+0003  -2.81611279296875E+0003  -2.81574169921875E+0003  -2.81541821289063E+0003  -2.81513818359375E+0003  -2.81490405273438E+0003  -2.81471728515625E+0003  -2.81453564453125E+0003  -2.81429614257813E+0003  -2.81394433593750E+0003  -2.81344165039063E+0003  -2.81281884765625E+0003  -2.81212890625000E+0003  -2.81139501953125E+0003  -2.81063598632813E+0003  -2.80989697265625E+0003  -2.80923828125000E+0003  -2.80875317382813E+0003  -2.80851757812500E+0003  -2.80851440429688E+0003  -2.80868383789063E+0003  -2.80889819335938E+0003  -2.80903784179688E+0003  -2.80904541015625E+0003  -2.80885791015625E+0003  -2.80837036132813E+0003  -2.80750439453125E+0003  -2.80624218750000E+0003  -2.80453857421875E+0003  -2.80394360351563E+0003  -2.80624072265625E+0003  -2.80778930664063E+0003  -2.80714965820313E+0003  -2.80683593750000E+0003  -2.80669506835938E+0003  -2.80659545898438E+0003  -2.80648754882813E+0003  -2.80635034179688E+0003  -2.80617407226563E+0003  -2.80596044921875E+0003  -2.80571020507813E+0003  -2.80542187500000E+0003  -2.80510717773438E+0003  -2.80478857421875E+0003  -2.80449121093750E+0003  -2.80423779296875E+0003  -2.80401538085938E+0003  -2.80378369140625E+0003  -2.80349389648438E+0003  -2.80309790039063E+0003  -2.80261010742188E+0003  -2.80207910156250E+0003  -2.80139184570313E+0003  -2.80078173828125E+0003  -2.80030957031250E+0003  -2.80000683593750E+0003  -2.79988427734375E+0003  -2.79991235351563E+0003  -2.79988085937500E+0003  -2.79963720703125E+0003  -2.79917285156250E+0003  -2.79843090820313E+0003  -2.79755834960938E+0003  -2.79673876953125E+0003  -2.79609594726563E+0003  -2.79571044921875E+0003  -2.79556616210938E+0003  -2.79562402343750E+0003  -2.79583300781250E+0003  -2.79615917968750E+0003  -2.79661523437500E+0003  -2.79721313476563E+0003  -2.79794897460938E+0003  -2.79879638671875E+0003  -2.79968823242188E+0003  -2.80055468750000E+0003  -2.80132885742188E+0003  -2.80196850585938E+0003  -2.80246997070313E+0003  -2.80283154296875E+0003  -2.80304980468750E+0003  -2.80316162109375E+0003  -2.80325170898438E+0003  -2.80340478515625E+0003  -2.80369702148438E+0003  -2.80411254882813E+0003  -2.80454614257813E+0003  -2.80489892578125E+0003  -2.80507983398438E+0003  -2.80501977539063E+0003  -2.80490405273438E+0003  -2.80486669921875E+0003  -2.80505322265625E+0003  -2.80543432617188E+0003  -2.80587280273438E+0003  -2.80623046875000E+0003  -2.80639013671875E+0003  -2.80638574218750E+0003  -2.80629199218750E+0003  -2.80611840820313E+0003  -2.80599145507813E+0003  -2.80591088867188E+0003  -2.80584936523438E+0003  -2.80573730468750E+0003  -2.80560107421875E+0003  -2.80553491210938E+0003  -2.80556811523438E+0003  -2.80572924804688E+0003  -2.80603564453125E+0003  -2.80646289062500E+0003  -2.80697753906250E+0003  -2.80754589843750E+0003  -2.80813818359375E+0003  -2.80873437500000E+0003  -2.80931665039063E+0003  -2.80986767578125E+0003  -2.81031860351563E+0003  -2.81072558593750E+0003  -2.81109667968750E+0003  -2.81143530273438E+0003  -2.81174731445313E+0003  -2.81204345703125E+0003  -2.81233422851563E+0003  -2.81263012695313E+0003  -2.81293774414063E+0003  -2.81325878906250E+0003  -2.81359375000000E+0003  -2.81394335937500E+0003  -2.81430737304688E+0003  -2.81468359375000E+0003  -2.81506958007813E+0003  -2.81546362304688E+0003  -2.81586303710938E+0003  -2.81626586914063E+0003  -2.81666967773438E+0003  -2.81707250976563E+0003  -2.81747070312500E+0003  -2.81786010742188E+0003  -2.81823657226563E+0003  -2.81859619140625E+0003  -2.81893457031250E+0003  -2.81924780273438E+0003  -2.81953125000000E+0003  -2.81978149414063E+0003  -2.81999755859375E+0003  -2.82017944335938E+0003  -2.82032714843750E+0003  -2.82044091796875E+0003  -2.82052099609375E+0003  -2.82056762695313E+0003  -2.82058081054688E+0003
  -2.83120019531250E+0003  -2.83143139648438E+0003  -2.83164501953125E+0003  -2.83184130859375E+0003  -2.83202050781250E+0003  -2.83218261718750E+0003  -2.83232836914063E+0003  -2.83245751953125E+0003  -2.83257055664063E+0003  -2.83266748046875E+0003  -2.83274853515625E+0003  -2.83281420898438E+0003  -2.83286425781250E+0003  -2.83289941406250E+0003  -2.83291967773438E+0003  -2.83292529296875E+0003  -2.83291723632813E+0003  -2.83289575195313E+0003  -2.83286206054688E+0003  -2.83281616210938E+0003  -2.83275903320313E+0003  -2.83269116210938E+0003  -2.83261279296875E+0003  -2.83252490234375E+0003  -2.83242773437500E+0003  -2.83232226562500E+0003  -2.83220947265625E+0003  -2.83208935546875E+0003  -2.83196240234375E+0003  -2.83182836914063E+0003  -2.83168750000000E+0003  -2.83154052734375E+0003  -2.83138769531250E+0003  -2.83122998046875E+0003  -2.83106689453125E+0003  -2.83089965820313E+0003  -2.83072900390625E+0003  -2.83055590820313E+0003  -2.83038110351563E+0003  -2.83020507812500E+0003  -2.83002783203125E+0003  -2.82984863281250E+0003  -2.82966772460938E+0003  -2.82948437500000E+0003  -2.82929711914063E+0003  -2.82910522460938E+0003  -2.82890747070313E+0003  -2.82870312500000E+0003  -2.82849072265625E+0003  -2.82826928710938E+0003  -2.82803759765625E+0003  -2.82779516601563E+0003  -2.82754052734375E+0003  -2.82727294921875E+0003  -2.82699194335938E+0003  -2.82669750976563E+0003  -2.82638989257813E+0003  -2.82606909179688E+0003  -2.82573559570313E+0003  -2.82538842773438E+0003  -2.82502636718750E+0003  -2.82464892578125E+0003  -2.82425585937500E+0003  -2.82384912109375E+0003  -2.82343115234375E+0003  -2.82300292968750E+0003  -2.82256933593750E+0003  -2.82214575195313E+0003  -2.82174047851563E+0003  -2.82134667968750E+0003  -2.82096484375000E+0003  -2.82060888671875E+0003  -2.82027832031250E+0003  -2.81997387695313E+0003  -2.81968725585938E+0003  -2.81939599609375E+0003  -2.81907641601563E+0003  -2.81870483398438E+0003  -2.81827563476563E+0003  -2.81780004882813E+0003  -2.81729003906250E+0003  -2.81675830078125E+0003  -2.81622119140625E+0003  -2.81569970703125E+0003  -2.81521362304688E+0003  -2.81478247070313E+0003  -2.81440869140625E+0003  -2.81408593750000E+0003  -2.81381079101563E+0003  -2.81357836914063E+0003  -2.81335278320313E+0003  -2.81308325195313E+0003  -2.81272436523438E+0003  -2.81224047851563E+0003  -2.81165185546875E+0003  -2.81099658203125E+0003  -2.81029736328125E+0003  -2.80957788085938E+0003  -2.80888745117188E+0003  -2.80828808593750E+0003  -2.80785815429688E+0003  -2.80765527343750E+0003  -2.80764282226563E+0003  -2.80775122070313E+0003  -2.80787597656250E+0003  -2.80791845703125E+0003  -2.80782080078125E+0003  -2.80751831054688E+0003  -2.80690942382813E+0003  -2.80592358398438E+0003  -2.80455664062500E+0003  -2.80278198242188E+0003  -2.80219921875000E+0003  -2.80453833007813E+0003  -2.80601391601563E+0003  -2.80529931640625E+0003  -2.80497192382813E+0003  -2.80484936523438E+0003  -2.80478320312500E+0003  -2.80471435546875E+0003  -2.80461645507813E+0003  -2.80447729492188E+0003  -2.80429785156250E+0003  -2.80407763671875E+0003  -2.80381469726563E+0003  -2.80352099609375E+0003  -2.80322045898438E+0003  -2.80293969726563E+0003  -2.80270361328125E+0003  -2.80249975585938E+0003  -2.80228906250000E+0003  -2.80202416992188E+0003  -2.80165917968750E+0003  -2.80120654296875E+0003  -2.80071166992188E+0003  -2.80022290039063E+0003  -2.79966796875000E+0003  -2.79922363281250E+0003  -2.79892919921875E+0003  -2.79879492187500E+0003  -2.79872607421875E+0003  -2.79858789062500E+0003  -2.79834765625000E+0003  -2.79790698242188E+0003  -2.79721386718750E+0003  -2.79639453125000E+0003  -2.79560327148438E+0003  -2.79493237304688E+0003  -2.79444677734375E+0003  -2.79416943359375E+0003  -2.79410595703125E+0003  -2.79423461914063E+0003  -2.79453759765625E+0003  -2.79501733398438E+0003  -2.79567138671875E+0003  -2.79647778320313E+0003  -2.79739672851563E+0003  -2.79835839843750E+0003  -2.79929125976563E+0003  -2.80012963867188E+0003  -2.80082910156250E+0003  -2.80137792968750E+0003  -2.80177246093750E+0003  -2.80201806640625E+0003  -2.80215332031250E+0003  -2.80225610351563E+0003  -2.80239892578125E+0003  -2.80264184570313E+0003  -2.80298315429688E+0003  -2.80336206054688E+0003  -2.80371826171875E+0003  -2.80394360351563E+0003  -2.80403588867188E+0003  -2.80410644531250E+0003  -2.80424121093750E+0003  -2.80453930664063E+0003  -2.80495874023438E+0003  -2.80536767578125E+0003  -2.80563183593750E+0003  -2.80563842773438E+0003  -2.80545288085938E+0003  -2.80519067382813E+0003  -2.80496118164063E+0003  -2.80482543945313E+0003  -2.80476806640625E+0003  -2.80474487304688E+0003  -2.80468969726563E+0003  -2.80451074218750E+0003  -2.80437670898438E+0003  -2.80433740234375E+0003  -2.80444213867188E+0003  -2.80472290039063E+0003  -2.80515356445313E+0003  -2.80569433593750E+0003  -2.80630517578125E+0003  -2.80695117187500E+0003  -2.80761083984375E+0003  -2.80823803710938E+0003  -2.80881835937500E+0003  -2.80935913085938E+0003  -2.80985498046875E+0003  -2.81030126953125E+0003  -2.81069360351563E+0003  -2.81103540039063E+0003  -2.81134472656250E+0003  -2.81164062500000E+0003  -2.81194116210938E+0003  -2.81225756835938E+0003  -2.81258911132813E+0003  -2.81293505859375E+0003  -2.81329394531250E+0003  -2.81366430664063E+0003  -2.81404418945313E+0003  -2.81443066406250E+0003  -2.81482226562500E+0003  -2.81521630859375E+0003  -2.81561157226563E+0003  -2.81600585937500E+0003  -2.81639746093750E+0003  -2.81678344726563E+0003  -2.81716015625000E+0003  -2.81752441406250E+0003  -2.81787207031250E+0003  -2.81819970703125E+0003  -2.81850415039063E+0003  -2.81878125000000E+0003  -2.81902807617188E+0003  -2.81924365234375E+0003  -2.81942749023438E+0003  -2.81957983398438E+0003  -2.81970019531250E+0003  -2.81978857421875E+0003  -2.81984472656250E+0003  -2.81986865234375E+0003
  -2.83126806640625E+0003  -2.83149316406250E+0003  -2.83169921875000E+0003  -2.83188696289063E+0003  -2.83205639648438E+0003  -2.83220825195313E+0003  -2.83234252929688E+0003  -2.83245971679688E+0003  -2.83256030273438E+0003  -2.83264428710938E+0003  -2.83271215820313E+0003  -2.83276440429688E+0003  -2.83280102539063E+0003  -2.83282275390625E+0003  -2.83282958984375E+0003  -2.83282250976563E+0003  -2.83280175781250E+0003  -2.83276831054688E+0003  -2.83272290039063E+0003  -2.83266625976563E+0003  -2.83259814453125E+0003  -2.83251953125000E+0003  -2.83243017578125E+0003  -2.83233081054688E+0003  -2.83222167968750E+0003  -2.83210400390625E+0003  -2.83197802734375E+0003  -2.83184472656250E+0003  -2.83170410156250E+0003  -2.83155639648438E+0003  -2.83140234375000E+0003  -2.83124194335938E+0003  -2.83107519531250E+0003  -2.83090356445313E+0003  -2.83072729492188E+0003  -2.83054711914063E+0003  -2.83036425781250E+0003  -2.83018017578125E+0003  -2.82999560546875E+0003  -2.82981103515625E+0003  -2.82962573242188E+0003  -2.82943896484375E+0003  -2.82925000000000E+0003  -2.82905786132813E+0003  -2.82886083984375E+0003  -2.82865795898438E+0003  -2.82844750976563E+0003  -2.82822851562500E+0003  -2.82800073242188E+0003  -2.82776293945313E+0003  -2.82751416015625E+0003  -2.82725439453125E+0003  -2.82698217773438E+0003  -2.82669726562500E+0003  -2.82639916992188E+0003  -2.82608764648438E+0003  -2.82576342773438E+0003  -2.82542651367188E+0003  -2.82507690429688E+0003  -2.82471386718750E+0003  -2.82433666992188E+0003  -2.82394433593750E+0003  -2.82353808593750E+0003  -2.82312182617188E+0003  -2.82269970703125E+0003  -2.82227539062500E+0003  -2.82185449218750E+0003  -2.82144946289063E+0003  -2.82107006835938E+0003  -2.82071508789063E+0003  -2.82038720703125E+0003  -2.82009448242188E+0003  -2.81983276367188E+0003  -2.81959838867188E+0003  -2.81937426757813E+0003  -2.81912695312500E+0003  -2.81882202148438E+0003  -2.81842724609375E+0003  -2.81793701171875E+0003  -2.81737207031250E+0003  -2.81675512695313E+0003  -2.81610864257813E+0003  -2.81545703125000E+0003  -2.81482568359375E+0003  -2.81424047851563E+0003  -2.81372534179688E+0003  -2.81328442382813E+0003  -2.81290942382813E+0003  -2.81259252929688E+0003  -2.81232421875000E+0003  -2.81207324218750E+0003  -2.81179687500000E+0003  -2.81145458984375E+0003  -2.81101269531250E+0003  -2.81048291015625E+0003  -2.80989184570313E+0003  -2.80926245117188E+0003  -2.80862060546875E+0003  -2.80801733398438E+0003  -2.80751293945313E+0003  -2.80717260742188E+0003  -2.80703735351563E+0003  -2.80705371093750E+0003  -2.80714257812500E+0003  -2.80721386718750E+0003  -2.80718505859375E+0003  -2.80700292968750E+0003  -2.80661083984375E+0003  -2.80592919921875E+0003  -2.80491601562500E+0003  -2.80362133789063E+0003  -2.80228295898438E+0003  -2.80187988281250E+0003  -2.80291186523438E+0003  -2.80368457031250E+0003  -2.80352978515625E+0003  -2.80334521484375E+0003  -2.80326293945313E+0003  -2.80321728515625E+0003  -2.80316406250000E+0003  -2.80308325195313E+0003  -2.80296459960938E+0003  -2.80280712890625E+0003  -2.80260791015625E+0003  -2.80236401367188E+0003  -2.80208642578125E+0003  -2.80179809570313E+0003  -2.80152490234375E+0003  -2.80129077148438E+0003  -2.80108422851563E+0003  -2.80087011718750E+0003  -2.80060668945313E+0003  -2.80025488281250E+0003  -2.79982592773438E+0003  -2.79935937500000E+0003  -2.79889746093750E+0003  -2.79847900390625E+0003  -2.79807226562500E+0003  -2.79777587890625E+0003  -2.79755786132813E+0003  -2.79738208007813E+0003  -2.79721191406250E+0003  -2.79696166992188E+0003  -2.79655297851563E+0003  -2.79594213867188E+0003  -2.79522045898438E+0003  -2.79450219726563E+0003  -2.79385595703125E+0003  -2.79333764648438E+0003  -2.79299121093750E+0003  -2.79284936523438E+0003  -2.79291772460938E+0003  -2.79319604492188E+0003  -2.79368188476563E+0003  -2.79436474609375E+0003  -2.79521826171875E+0003  -2.79619702148438E+0003  -2.79722534179688E+0003  -2.79822802734375E+0003  -2.79913940429688E+0003  -2.79990258789063E+0003  -2.80047436523438E+0003  -2.80084082031250E+0003  -2.80102563476563E+0003  -2.80109252929688E+0003  -2.80114770507813E+0003  -2.80126464843750E+0003  -2.80147705078125E+0003  -2.80178125000000E+0003  -2.80213916015625E+0003  -2.80251928710938E+0003  -2.80280468750000E+0003  -2.80304248046875E+0003  -2.80328320312500E+0003  -2.80357885742188E+0003  -2.80400170898438E+0003  -2.80449584960938E+0003  -2.80492065429688E+0003  -2.80512011718750E+0003  -2.80496020507813E+0003  -2.80454785156250E+0003  -2.80405981445313E+0003  -2.80366601562500E+0003  -2.80350683593750E+0003  -2.80352319335938E+0003  -2.80357641601563E+0003  -2.80355322265625E+0003  -2.80334570312500E+0003  -2.80312963867188E+0003  -2.80300439453125E+0003  -2.80304541015625E+0003  -2.80330322265625E+0003  -2.80374877929688E+0003  -2.80433447265625E+0003  -2.80500903320313E+0003  -2.80570849609375E+0003  -2.80642700195313E+0003  -2.80714086914063E+0003  -2.80782666015625E+0003  -2.80846435546875E+0003  -2.80904248046875E+0003  -2.80955126953125E+0003  -2.80998217773438E+0003  -2.81033935546875E+0003  -2.81064868164063E+0003  -2.81093847656250E+0003  -2.81123535156250E+0003  -2.81155468750000E+0003  -2.81189331054688E+0003  -2.81224829101563E+0003  -2.81261547851563E+0003  -2.81299194335938E+0003  -2.81337573242188E+0003  -2.81376416015625E+0003  -2.81415527343750E+0003  -2.81454687500000E+0003  -2.81493725585938E+0003  -2.81532495117188E+0003  -2.81570849609375E+0003  -2.81608520507813E+0003  -2.81645214843750E+0003  -2.81680615234375E+0003  -2.81714428710938E+0003  -2.81746337890625E+0003  -2.81776074218750E+0003  -2.81803295898438E+0003  -2.81827734375000E+0003  -2.81849291992188E+0003  -2.81867919921875E+0003  -2.81883569335938E+0003  -2.81896240234375E+0003  -2.81905859375000E+0003  -2.81912402343750E+0003  -2.81915820312500E+0003
  -2.83133276367188E+0003  -2.83155029296875E+0003  -2.83174780273438E+0003  -2.83192553710938E+0003  -2.83208422851563E+0003  -2.83222387695313E+0003  -2.83234545898438E+0003  -2.83244921875000E+0003  -2.83253564453125E+0003  -2.83260498046875E+0003  -2.83265820312500E+0003  -2.83269555664063E+0003  -2.83271728515625E+0003  -2.83272436523438E+0003  -2.83271728515625E+0003  -2.83269653320313E+0003  -2.83266284179688E+0003  -2.83261694335938E+0003  -2.83255981445313E+0003  -2.83249194335938E+0003  -2.83241308593750E+0003  -2.83232324218750E+0003  -2.83222241210938E+0003  -2.83211083984375E+0003  -2.83198876953125E+0003  -2.83185717773438E+0003  -2.83171728515625E+0003  -2.83156933593750E+0003  -2.83141406250000E+0003  -2.83125195312500E+0003  -2.83108349609375E+0003  -2.83090869140625E+0003  -2.83072778320313E+0003  -2.83054199218750E+0003  -2.83035229492188E+0003  -2.83015942382813E+0003  -2.82996484375000E+0003  -2.82977050781250E+0003  -2.82957714843750E+0003  -2.82938525390625E+0003  -2.82919360351563E+0003  -2.82900048828125E+0003  -2.82880517578125E+0003  -2.82860571289063E+0003  -2.82840039062500E+0003  -2.82818774414063E+0003  -2.82796606445313E+0003  -2.82773486328125E+0003  -2.82749316406250E+0003  -2.82724096679688E+0003  -2.82697778320313E+0003  -2.82670312500000E+0003  -2.82641650390625E+0003  -2.82611718750000E+0003  -2.82580493164063E+0003  -2.82547973632813E+0003  -2.82514208984375E+0003  -2.82479199218750E+0003  -2.82442944335938E+0003  -2.82405395507813E+0003  -2.82366479492188E+0003  -2.82326220703125E+0003  -2.82284790039063E+0003  -2.82242797851563E+0003  -2.82200927734375E+0003  -2.82159814453125E+0003  -2.82120019531250E+0003  -2.82082153320313E+0003  -2.82047241210938E+0003  -2.82016552734375E+0003  -2.81990625000000E+0003  -2.81969140625000E+0003  -2.81951318359375E+0003  -2.81936108398438E+0003  -2.81920898437500E+0003  -2.81901025390625E+0003  -2.81871777343750E+0003  -2.81828686523438E+0003  -2.81771191406250E+0003  -2.81702758789063E+0003  -2.81626977539063E+0003  -2.81547436523438E+0003  -2.81467529296875E+0003  -2.81390527343750E+0003  -2.81319677734375E+0003  -2.81257934570313E+0003  -2.81206005859375E+0003  -2.81162988281250E+0003  -2.81127905273438E+0003  -2.81099462890625E+0003  -2.81074438476563E+0003  -2.81048706054688E+0003  -2.81018237304688E+0003  -2.80979663085938E+0003  -2.80933715820313E+0003  -2.80882763671875E+0003  -2.80829003906250E+0003  -2.80775122070313E+0003  -2.80725878906250E+0003  -2.80686767578125E+0003  -2.80663378906250E+0003  -2.80658813476563E+0003  -2.80666723632813E+0003  -2.80678466796875E+0003  -2.80685058593750E+0003  -2.80678540039063E+0003  -2.80654614257813E+0003  -2.80609301757813E+0003  -2.80537988281250E+0003  -2.80440478515625E+0003  -2.80326635742188E+0003  -2.80219824218750E+0003  -2.80168115234375E+0003  -2.80183618164063E+0003  -2.80207763671875E+0003  -2.80207519531250E+0003  -2.80199658203125E+0003  -2.80194409179688E+0003  -2.80189697265625E+0003  -2.80183544921875E+0003  -2.80175122070313E+0003  -2.80163867187500E+0003  -2.80149267578125E+0003  -2.80130786132813E+0003  -2.80107836914063E+0003  -2.80081225585938E+0003  -2.80053125000000E+0003  -2.80025683593750E+0003  -2.80001000976563E+0003  -2.79978222656250E+0003  -2.79954443359375E+0003  -2.79926489257813E+0003  -2.79891455078125E+0003  -2.79850341796875E+0003  -2.79806250000000E+0003  -2.79762426757813E+0003  -2.79721850585938E+0003  -2.79685449218750E+0003  -2.79653222656250E+0003  -2.79625830078125E+0003  -2.79603295898438E+0003  -2.79581250000000E+0003  -2.79554003906250E+0003  -2.79516162109375E+0003  -2.79464526367188E+0003  -2.79404541015625E+0003  -2.79343334960938E+0003  -2.79286059570313E+0003  -2.79237377929688E+0003  -2.79202148437500E+0003  -2.79184692382813E+0003  -2.79187646484375E+0003  -2.79212646484375E+0003  -2.79259497070313E+0003  -2.79327270507813E+0003  -2.79414086914063E+0003  -2.79515795898438E+0003  -2.79624169921875E+0003  -2.79731298828125E+0003  -2.79830737304688E+0003  -2.79914428710938E+0003  -2.79971630859375E+0003  -2.79998486328125E+0003  -2.80000878906250E+0003  -2.79990625000000E+0003  -2.79985644531250E+0003  -2.79994775390625E+0003  -2.80016357421875E+0003  -2.80047631835938E+0003  -2.80085180664063E+0003  -2.80127490234375E+0003  -2.80163061523438E+0003  -2.80199609375000E+0003  -2.80238110351563E+0003  -2.80281884765625E+0003  -2.80337231445313E+0003  -2.80397119140625E+0003  -2.80445507812500E+0003  -2.80462402343750E+0003  -2.80429833984375E+0003  -2.80363037109375E+0003  -2.80287744140625E+0003  -2.80229321289063E+0003  -2.80208886718750E+0003  -2.80215649414063E+0003  -2.80227539062500E+0003  -2.80229931640625E+0003  -2.80208056640625E+0003  -2.80178637695313E+0003  -2.80157373046875E+0003  -2.80154785156250E+0003  -2.80178125000000E+0003  -2.80224194335938E+0003  -2.80287353515625E+0003  -2.80362011718750E+0003  -2.80443066406250E+0003  -2.80526953125000E+0003  -2.80610351562500E+0003  -2.80689892578125E+0003  -2.80762817382813E+0003  -2.80827661132813E+0003  -2.80883203125000E+0003  -2.80928588867188E+0003  -2.80964550781250E+0003  -2.80994531250000E+0003  -2.81022119140625E+0003  -2.81050927734375E+0003  -2.81082739257813E+0003  -2.81117065429688E+0003  -2.81153320312500E+0003  -2.81190820312500E+0003  -2.81229101562500E+0003  -2.81267968750000E+0003  -2.81307104492188E+0003  -2.81346337890625E+0003  -2.81385424804688E+0003  -2.81424243164063E+0003  -2.81462646484375E+0003  -2.81500463867188E+0003  -2.81537475585938E+0003  -2.81573461914063E+0003  -2.81608129882813E+0003  -2.81641259765625E+0003  -2.81672558593750E+0003  -2.81701757812500E+0003  -2.81728662109375E+0003  -2.81752978515625E+0003  -2.81774609375000E+0003  -2.81793505859375E+0003  -2.81809594726563E+0003  -2.81822851562500E+0003  -2.81833203125000E+0003  -2.81840600585938E+0003  -2.81844995117188E+0003
  -2.83139233398438E+0003  -2.83160180664063E+0003  -2.83178979492188E+0003  -2.83195629882813E+0003  -2.83210253906250E+0003  -2.83222900390625E+0003  -2.83233618164063E+0003  -2.83242480468750E+0003  -2.83249560546875E+0003  -2.83254931640625E+0003  -2.83258642578125E+0003  -2.83260766601563E+0003  -2.83261352539063E+0003  -2.83260522460938E+0003  -2.83258325195313E+0003  -2.83254833984375E+0003  -2.83250122070313E+0003  -2.83244262695313E+0003  -2.83237329101563E+0003  -2.83229345703125E+0003  -2.83220288085938E+0003  -2.83210107421875E+0003  -2.83198779296875E+0003  -2.83186254882813E+0003  -2.83172607421875E+0003  -2.83157958984375E+0003  -2.83142456054688E+0003  -2.83126171875000E+0003  -2.83109179687500E+0003  -2.83091479492188E+0003  -2.83073095703125E+0003  -2.83054052734375E+0003  -2.83034472656250E+0003  -2.83014453125000E+0003  -2.82994116210938E+0003  -2.82973559570313E+0003  -2.82953002929688E+0003  -2.82932617187500E+0003  -2.82912548828125E+0003  -2.82892749023438E+0003  -2.82873046875000E+0003  -2.82853271484375E+0003  -2.82833203125000E+0003  -2.82812695312500E+0003  -2.82791503906250E+0003  -2.82769458007813E+0003  -2.82746362304688E+0003  -2.82722167968750E+0003  -2.82696875000000E+0003  -2.82670458984375E+0003  -2.82642919921875E+0003  -2.82614257812500E+0003  -2.82584375000000E+0003  -2.82553222656250E+0003  -2.82520800781250E+0003  -2.82487109375000E+0003  -2.82452148437500E+0003  -2.82415942382813E+0003  -2.82378491210938E+0003  -2.82339794921875E+0003  -2.82299829101563E+0003  -2.82258740234375E+0003  -2.82216894531250E+0003  -2.82175024414063E+0003  -2.82134008789063E+0003  -2.82094628906250E+0003  -2.82057470703125E+0003  -2.82023046875000E+0003  -2.81992602539063E+0003  -2.81968041992188E+0003  -2.81950024414063E+0003  -2.81937402343750E+0003  -2.81928710937500E+0003  -2.81922460937500E+0003  -2.81915063476563E+0003  -2.81900390625000E+0003  -2.81872216796875E+0003  -2.81824536132813E+0003  -2.81756884765625E+0003  -2.81674267578125E+0003  -2.81581933593750E+0003  -2.81485107421875E+0003  -2.81388330078125E+0003  -2.81295654296875E+0003  -2.81211010742188E+0003  -2.81138110351563E+0003  -2.81078027343750E+0003  -2.81030200195313E+0003  -2.80993237304688E+0003  -2.80965063476563E+0003  -2.80942065429688E+0003  -2.80919873046875E+0003  -2.80894262695313E+0003  -2.80861791992188E+0003  -2.80823193359375E+0003  -2.80780761718750E+0003  -2.80736889648438E+0003  -2.80694189453125E+0003  -2.80656933593750E+0003  -2.80629858398438E+0003  -2.80617724609375E+0003  -2.80622875976563E+0003  -2.80638476562500E+0003  -2.80655541992188E+0003  -2.80664379882813E+0003  -2.80656860351563E+0003  -2.80629370117188E+0003  -2.80579663085938E+0003  -2.80506713867188E+0003  -2.80413525390625E+0003  -2.80311523437500E+0003  -2.80216723632813E+0003  -2.80151416015625E+0003  -2.80123046875000E+0003  -2.80111523437500E+0003  -2.80102368164063E+0003  -2.80094213867188E+0003  -2.80086547851563E+0003  -2.80078564453125E+0003  -2.80069702148438E+0003  -2.80059716796875E+0003  -2.80048120117188E+0003  -2.80034008789063E+0003  -2.80016455078125E+0003  -2.79994555664063E+0003  -2.79968798828125E+0003  -2.79940942382813E+0003  -2.79912768554688E+0003  -2.79885888671875E+0003  -2.79859838867188E+0003  -2.79832617187500E+0003  -2.79802172851563E+0003  -2.79766674804688E+0003  -2.79726855468750E+0003  -2.79684912109375E+0003  -2.79643066406250E+0003  -2.79603344726563E+0003  -2.79566479492188E+0003  -2.79532641601563E+0003  -2.79502172851563E+0003  -2.79474951171875E+0003  -2.79448437500000E+0003  -2.79419311523438E+0003  -2.79384252929688E+0003  -2.79341186523438E+0003  -2.79292944335938E+0003  -2.79243432617188E+0003  -2.79196093750000E+0003  -2.79154565429688E+0003  -2.79123120117188E+0003  -2.79106030273438E+0003  -2.79106835937500E+0003  -2.79128149414063E+0003  -2.79170581054688E+0003  -2.79234228515625E+0003  -2.79318774414063E+0003  -2.79421020507813E+0003  -2.79532299804688E+0003  -2.79644750976563E+0003  -2.79752856445313E+0003  -2.79845385742188E+0003  -2.79901586914063E+0003  -2.79913061523438E+0003  -2.79890844726563E+0003  -2.79854956054688E+0003  -2.79835766601563E+0003  -2.79845312500000E+0003  -2.79872753906250E+0003  -2.79909936523438E+0003  -2.79952563476563E+0003  -2.79999926757813E+0003  -2.80042553710938E+0003  -2.80088818359375E+0003  -2.80137963867188E+0003  -2.80192626953125E+0003  -2.80259326171875E+0003  -2.80329980468750E+0003  -2.80386718750000E+0003  -2.80403662109375E+0003  -2.80356372070313E+0003  -2.80264916992188E+0003  -2.80163208007813E+0003  -2.80086181640625E+0003  -2.80063842773438E+0003  -2.80079223632813E+0003  -2.80099609375000E+0003  -2.80105664062500E+0003  -2.80081347656250E+0003  -2.80044506835938E+0003  -2.80015356445313E+0003  -2.80007153320313E+0003  -2.80029150390625E+0003  -2.80077856445313E+0003  -2.80146972656250E+0003  -2.80230078125000E+0003  -2.80321337890625E+0003  -2.80416186523438E+0003  -2.80510375976563E+0003  -2.80599584960938E+0003  -2.80680297851563E+0003  -2.80750732421875E+0003  -2.80809692382813E+0003  -2.80856518554688E+0003  -2.80892382812500E+0003  -2.80921386718750E+0003  -2.80947827148438E+0003  -2.80975903320313E+0003  -2.81007690429688E+0003  -2.81042529296875E+0003  -2.81079516601563E+0003  -2.81117773437500E+0003  -2.81156762695313E+0003  -2.81196142578125E+0003  -2.81235717773438E+0003  -2.81275195312500E+0003  -2.81314404296875E+0003  -2.81353173828125E+0003  -2.81391406250000E+0003  -2.81428906250000E+0003  -2.81465551757813E+0003  -2.81501049804688E+0003  -2.81535253906250E+0003  -2.81567895507813E+0003  -2.81598754882813E+0003  -2.81627661132813E+0003  -2.81654345703125E+0003  -2.81678613281250E+0003  -2.81700390625000E+0003  -2.81719580078125E+0003  -2.81736108398438E+0003  -2.81749926757813E+0003  -2.81760961914063E+0003  -2.81769165039063E+0003  -2.81774438476563E+0003
  -2.83144531250000E+0003  -2.83164599609375E+0003  -2.83182324218750E+0003  -2.83197778320313E+0003  -2.83211059570313E+0003  -2.83222241210938E+0003  -2.83231396484375E+0003  -2.83238647460938E+0003  -2.83244042968750E+0003  -2.83247680664063E+0003  -2.83249682617188E+0003  -2.83250097656250E+0003  -2.83249047851563E+0003  -2.83246606445313E+0003  -2.83242871093750E+0003  -2.83237915039063E+0003  -2.83231835937500E+0003  -2.83224633789063E+0003  -2.83216406250000E+0003  -2.83207128906250E+0003  -2.83196777343750E+0003  -2.83185229492188E+0003  -2.83172436523438E+0003  -2.83158422851563E+0003  -2.83143212890625E+0003  -2.83127001953125E+0003  -2.83109912109375E+0003  -2.83092065429688E+0003  -2.83073510742188E+0003  -2.83054272460938E+0003  -2.83034326171875E+0003  -2.83013696289063E+0003  -2.82992553710938E+0003  -2.82971044921875E+0003  -2.82949291992188E+0003  -2.82927539062500E+0003  -2.82905932617188E+0003  -2.82884667968750E+0003  -2.82863940429688E+0003  -2.82843627929688E+0003  -2.82823535156250E+0003  -2.82803417968750E+0003  -2.82783007812500E+0003  -2.82762109375000E+0003  -2.82740454101563E+0003  -2.82717822265625E+0003  -2.82694018554688E+0003  -2.82668994140625E+0003  -2.82642773437500E+0003  -2.82615405273438E+0003  -2.82586938476563E+0003  -2.82557299804688E+0003  -2.82526440429688E+0003  -2.82494262695313E+0003  -2.82460742187500E+0003  -2.82425878906250E+0003  -2.82389721679688E+0003  -2.82352246093750E+0003  -2.82313500976563E+0003  -2.82273559570313E+0003  -2.82232592773438E+0003  -2.82190869140625E+0003  -2.82148901367188E+0003  -2.82107617187500E+0003  -2.82067871093750E+0003  -2.82030371093750E+0003  -2.81995898437500E+0003  -2.81965551757813E+0003  -2.81940844726563E+0003  -2.81923535156250E+0003  -2.81914111328125E+0003  -2.81910791015625E+0003  -2.81911718750000E+0003  -2.81914868164063E+0003  -2.81915747070313E+0003  -2.81906567382813E+0003  -2.81879370117188E+0003  -2.81826513671875E+0003  -2.81747583007813E+0003  -2.81649365234375E+0003  -2.81539013671875E+0003  -2.81423535156250E+0003  -2.81308715820313E+0003  -2.81199340820313E+0003  -2.81099707031250E+0003  -2.81013720703125E+0003  -2.80944287109375E+0003  -2.80893310546875E+0003  -2.80858203125000E+0003  -2.80834033203125E+0003  -2.80815698242188E+0003  -2.80798266601563E+0003  -2.80777612304688E+0003  -2.80750683593750E+0003  -2.80718505859375E+0003  -2.80683642578125E+0003  -2.80648706054688E+0003  -2.80616455078125E+0003  -2.80590478515625E+0003  -2.80574658203125E+0003  -2.80572827148438E+0003  -2.80586621093750E+0003  -2.80609179687500E+0003  -2.80631347656250E+0003  -2.80643041992188E+0003  -2.80635791015625E+0003  -2.80606445312500E+0003  -2.80554003906250E+0003  -2.80480371093750E+0003  -2.80390307617188E+0003  -2.80293994140625E+0003  -2.80203002929688E+0003  -2.80130346679688E+0003  -2.80081787109375E+0003  -2.80050122070313E+0003  -2.80028320312500E+0003  -2.80011621093750E+0003  -2.79997070312500E+0003  -2.79983935546875E+0003  -2.79971679687500E+0003  -2.79959838867188E+0003  -2.79947583007813E+0003  -2.79933618164063E+0003  -2.79916674804688E+0003  -2.79895507812500E+0003  -2.79870263671875E+0003  -2.79842260742188E+0003  -2.79812866210938E+0003  -2.79783349609375E+0003  -2.79753613281250E+0003  -2.79722705078125E+0003  -2.79689575195313E+0003  -2.79653393554688E+0003  -2.79614599609375E+0003  -2.79574462890625E+0003  -2.79534228515625E+0003  -2.79495092773438E+0003  -2.79457617187500E+0003  -2.79422167968750E+0003  -2.79389086914063E+0003  -2.79358447265625E+0003  -2.79329003906250E+0003  -2.79298925781250E+0003  -2.79266503906250E+0003  -2.79230541992188E+0003  -2.79192358398438E+0003  -2.79153881835938E+0003  -2.79116918945313E+0003  -2.79083764648438E+0003  -2.79057885742188E+0003  -2.79042944335938E+0003  -2.79042382812500E+0003  -2.79059155273438E+0003  -2.79094970703125E+0003  -2.79151416015625E+0003  -2.79229858398438E+0003  -2.79328198242188E+0003  -2.79437597656250E+0003  -2.79550341796875E+0003  -2.79662011718750E+0003  -2.79759179687500E+0003  -2.79812792968750E+0003  -2.79810351562500E+0003  -2.79767187500000E+0003  -2.79709326171875E+0003  -2.79678686523438E+0003  -2.79691601562500E+0003  -2.79727099609375E+0003  -2.79771362304688E+0003  -2.79819482421875E+0003  -2.79871118164063E+0003  -2.79918994140625E+0003  -2.79970556640625E+0003  -2.80025097656250E+0003  -2.80085253906250E+0003  -2.80158081054688E+0003  -2.80235083007813E+0003  -2.80297583007813E+0003  -2.80315893554688E+0003  -2.80261059570313E+0003  -2.80156030273438E+0003  -2.80039331054688E+0003  -2.79952050781250E+0003  -2.79931225585938E+0003  -2.79954956054688E+0003  -2.79982641601563E+0003  -2.79992163085938E+0003  -2.79966528320313E+0003  -2.79925439453125E+0003  -2.79891381835938E+0003  -2.79879467773438E+0003  -2.79900219726563E+0003  -2.79950146484375E+0003  -2.80022583007813E+0003  -2.80110815429688E+0003  -2.80208520507813E+0003  -2.80310546875000E+0003  -2.80411938476563E+0003  -2.80507641601563E+0003  -2.80593603515625E+0003  -2.80667968750000E+0003  -2.80729516601563E+0003  -2.80777783203125E+0003  -2.80814233398438E+0003  -2.80843359375000E+0003  -2.80869848632813E+0003  -2.80898144531250E+0003  -2.80930493164063E+0003  -2.80966088867188E+0003  -2.81003955078125E+0003  -2.81043041992188E+0003  -2.81082739257813E+0003  -2.81122753906250E+0003  -2.81162817382813E+0003  -2.81202661132813E+0003  -2.81242114257813E+0003  -2.81281005859375E+0003  -2.81319238281250E+0003  -2.81356640625000E+0003  -2.81393041992188E+0003  -2.81428295898438E+0003  -2.81462182617188E+0003  -2.81494531250000E+0003  -2.81525146484375E+0003  -2.81553833007813E+0003  -2.81580419921875E+0003  -2.81604736328125E+0003  -2.81626684570313E+0003  -2.81646166992188E+0003  -2.81663110351563E+0003  -2.81677465820313E+0003  -2.81689135742188E+0003  -2.81698046875000E+0003  -2.81704150390625E+0003
  -2.83149023437500E+0003  -2.83168139648438E+0003  -2.83184716796875E+0003  -2.83198876953125E+0003  -2.83210717773438E+0003  -2.83220312500000E+0003  -2.83227807617188E+0003  -2.83233300781250E+0003  -2.83236889648438E+0003  -2.83238720703125E+0003  -2.83238916015625E+0003  -2.83237573242188E+0003  -2.83234814453125E+0003  -2.83230737304688E+0003  -2.83225439453125E+0003  -2.83219018554688E+0003  -2.83211499023438E+0003  -2.83202929687500E+0003  -2.83193286132813E+0003  -2.83182592773438E+0003  -2.83170703125000E+0003  -2.83157592773438E+0003  -2.83143188476563E+0003  -2.83127514648438E+0003  -2.83110644531250E+0003  -2.83092797851563E+0003  -2.83074047851563E+0003  -2.83054516601563E+0003  -2.83034301757813E+0003  -2.83013378906250E+0003  -2.82991772460938E+0003  -2.82969506835938E+0003  -2.82946777343750E+0003  -2.82923779296875E+0003  -2.82900708007813E+0003  -2.82877783203125E+0003  -2.82855200195313E+0003  -2.82833154296875E+0003  -2.82811840820313E+0003  -2.82791137695313E+0003  -2.82770776367188E+0003  -2.82750439453125E+0003  -2.82729833984375E+0003  -2.82708715820313E+0003  -2.82686791992188E+0003  -2.82663818359375E+0003  -2.82639526367188E+0003  -2.82613916015625E+0003  -2.82587060546875E+0003  -2.82559033203125E+0003  -2.82529882812500E+0003  -2.82499536132813E+0003  -2.82467871093750E+0003  -2.82434741210938E+0003  -2.82400097656250E+0003  -2.82363940429688E+0003  -2.82326367187500E+0003  -2.82287402343750E+0003  -2.82247094726563E+0003  -2.82205834960938E+0003  -2.82163891601563E+0003  -2.82121704101563E+0003  -2.82080004882813E+0003  -2.82039550781250E+0003  -2.82001245117188E+0003  -2.81965820312500E+0003  -2.81934326171875E+0003  -2.81908349609375E+0003  -2.81889624023438E+0003  -2.81879809570313E+0003  -2.81879101562500E+0003  -2.81885302734375E+0003  -2.81896069335938E+0003  -2.81908984375000E+0003  -2.81918457031250E+0003  -2.81915039062500E+0003  -2.81888891601563E+0003  -2.81830615234375E+0003  -2.81739868164063E+0003  -2.81625512695313E+0003  -2.81496655273438E+0003  -2.81362255859375E+0003  -2.81229223632813E+0003  -2.81102807617188E+0003  -2.80986669921875E+0003  -2.80883862304688E+0003  -2.80802026367188E+0003  -2.80750366210938E+0003  -2.80723950195313E+0003  -2.80710180664063E+0003  -2.80700610351563E+0003  -2.80689135742188E+0003  -2.80672534179688E+0003  -2.80649365234375E+0003  -2.80621411132813E+0003  -2.80591699218750E+0003  -2.80563232421875E+0003  -2.80539086914063E+0003  -2.80522070312500E+0003  -2.80515039062500E+0003  -2.80520825195313E+0003  -2.80540283203125E+0003  -2.80566723632813E+0003  -2.80591455078125E+0003  -2.80604418945313E+0003  -2.80597241210938E+0003  -2.80567285156250E+0003  -2.80514331054688E+0003  -2.80442041015625E+0003  -2.80355834960938E+0003  -2.80263891601563E+0003  -2.80175195312500E+0003  -2.80099365234375E+0003  -2.80041406250000E+0003  -2.79998022460938E+0003  -2.79965234375000E+0003  -2.79939575195313E+0003  -2.79918579101563E+0003  -2.79901171875000E+0003  -2.79886401367188E+0003  -2.79873315429688E+0003  -2.79860668945313E+0003  -2.79846899414063E+0003  -2.79830419921875E+0003  -2.79809692382813E+0003  -2.79784545898438E+0003  -2.79755981445313E+0003  -2.79725097656250E+0003  -2.79692895507813E+0003  -2.79659716796875E+0003  -2.79625439453125E+0003  -2.79589965820313E+0003  -2.79553173828125E+0003  -2.79515332031250E+0003  -2.79476831054688E+0003  -2.79438085937500E+0003  -2.79399536132813E+0003  -2.79361669921875E+0003  -2.79325000000000E+0003  -2.79290063476563E+0003  -2.79257226562500E+0003  -2.79226098632813E+0003  -2.79195996093750E+0003  -2.79166259765625E+0003  -2.79136376953125E+0003  -2.79106616210938E+0003  -2.79077441406250E+0003  -2.79049218750000E+0003  -2.79022998046875E+0003  -2.79001586914063E+0003  -2.78988110351563E+0003  -2.78985717773438E+0003  -2.78997338867188E+0003  -2.79025561523438E+0003  -2.79072827148438E+0003  -2.79141650390625E+0003  -2.79230566406250E+0003  -2.79330786132813E+0003  -2.79434326171875E+0003  -2.79536108398438E+0003  -2.79623388671875E+0003  -2.79670507812500E+0003  -2.79666772460938E+0003  -2.79625878906250E+0003  -2.79572216796875E+0003  -2.79544775390625E+0003  -2.79558471679688E+0003  -2.79594555664063E+0003  -2.79640063476563E+0003  -2.79689697265625E+0003  -2.79742504882813E+0003  -2.79792578125000E+0003  -2.79843725585938E+0003  -2.79897045898438E+0003  -2.79955175781250E+0003  -2.80024780273438E+0003  -2.80097973632813E+0003  -2.80157104492188E+0003  -2.80175537109375E+0003  -2.80127758789063E+0003  -2.80034082031250E+0003  -2.79929394531250E+0003  -2.79851855468750E+0003  -2.79835278320313E+0003  -2.79859570312500E+0003  -2.79887036132813E+0003  -2.79896411132813E+0003  -2.79870385742188E+0003  -2.79829711914063E+0003  -2.79795532226563E+0003  -2.79782885742188E+0003  -2.79802368164063E+0003  -2.79850830078125E+0003  -2.79921997070313E+0003  -2.80009497070313E+0003  -2.80107275390625E+0003  -2.80210107421875E+0003  -2.80312768554688E+0003  -2.80410058593750E+0003  -2.80497802734375E+0003  -2.80574121093750E+0003  -2.80637792968750E+0003  -2.80688378906250E+0003  -2.80727197265625E+0003  -2.80758618164063E+0003  -2.80787207031250E+0003  -2.80817358398438E+0003  -2.80851269531250E+0003  -2.80888183593750E+0003  -2.80927148437500E+0003  -2.80967187500000E+0003  -2.81007714843750E+0003  -2.81048388671875E+0003  -2.81089013671875E+0003  -2.81129321289063E+0003  -2.81169091796875E+0003  -2.81208227539063E+0003  -2.81246557617188E+0003  -2.81283984375000E+0003  -2.81320336914063E+0003  -2.81355444335938E+0003  -2.81389184570313E+0003  -2.81421362304688E+0003  -2.81451831054688E+0003  -2.81480444335938E+0003  -2.81507006835938E+0003  -2.81531420898438E+0003  -2.81553540039063E+0003  -2.81573291015625E+0003  -2.81590649414063E+0003  -2.81605468750000E+0003  -2.81617724609375E+0003  -2.81627319335938E+0003  -2.81634179687500E+0003
  -2.83152563476563E+0003  -2.83170678710938E+0003  -2.83186059570313E+0003  -2.83198803710938E+0003  -2.83209082031250E+0003  -2.83217016601563E+0003  -2.83222729492188E+0003  -2.83226342773438E+0003  -2.83228051757813E+0003  -2.83227978515625E+0003  -2.83226318359375E+0003  -2.83223168945313E+0003  -2.83218676757813E+0003  -2.83212963867188E+0003  -2.83206103515625E+0003  -2.83198217773438E+0003  -2.83189257812500E+0003  -2.83179199218750E+0003  -2.83168066406250E+0003  -2.83155737304688E+0003  -2.83142163085938E+0003  -2.83127294921875E+0003  -2.83111108398438E+0003  -2.83093603515625E+0003  -2.83074926757813E+0003  -2.83055297851563E+0003  -2.83034790039063E+0003  -2.83013476562500E+0003  -2.82991406250000E+0003  -2.82968627929688E+0003  -2.82945190429688E+0003  -2.82921191406250E+0003  -2.82896850585938E+0003  -2.82872387695313E+0003  -2.82848022460938E+0003  -2.82823974609375E+0003  -2.82800463867188E+0003  -2.82777709960938E+0003  -2.82755932617188E+0003  -2.82734985351563E+0003  -2.82714550781250E+0003  -2.82694213867188E+0003  -2.82673657226563E+0003  -2.82652563476563E+0003  -2.82630590820313E+0003  -2.82607495117188E+0003  -2.82582958984375E+0003  -2.82556982421875E+0003  -2.82529687500000E+0003  -2.82501171875000E+0003  -2.82471484375000E+0003  -2.82440502929688E+0003  -2.82408056640625E+0003  -2.82373925781250E+0003  -2.82337988281250E+0003  -2.82300317382813E+0003  -2.82261083984375E+0003  -2.82220385742188E+0003  -2.82178466796875E+0003  -2.82135888671875E+0003  -2.82092944335938E+0003  -2.82050415039063E+0003  -2.82009130859375E+0003  -2.81969677734375E+0003  -2.81932861328125E+0003  -2.81899658203125E+0003  -2.81871362304688E+0003  -2.81849707031250E+0003  -2.81836547851563E+0003  -2.81833618164063E+0003  -2.81841015625000E+0003  -2.81856079101563E+0003  -2.81876049804688E+0003  -2.81898022460938E+0003  -2.81915502929688E+0003  -2.81917382812500E+0003  -2.81892163085938E+0003  -2.81828686523438E+0003  -2.81726782226563E+0003  -2.81597314453125E+0003  -2.81451367187500E+0003  -2.81299658203125E+0003  -2.81150122070313E+0003  -2.81008325195313E+0003  -2.80876953125000E+0003  -2.80757690429688E+0003  -2.80663476562500E+0003  -2.80613964843750E+0003  -2.80601025390625E+0003  -2.80600903320313E+0003  -2.80600878906250E+0003  -2.80593920898438E+0003  -2.80578662109375E+0003  -2.80556567382813E+0003  -2.80530346679688E+0003  -2.80503247070313E+0003  -2.80478784179688E+0003  -2.80460229492188E+0003  -2.80449707031250E+0003  -2.80448876953125E+0003  -2.80459472656250E+0003  -2.80481518554688E+0003  -2.80508764648438E+0003  -2.80533154296875E+0003  -2.80545361328125E+0003  -2.80537744140625E+0003  -2.80508227539063E+0003  -2.80457128906250E+0003  -2.80388378906250E+0003  -2.80307202148438E+0003  -2.80220288085938E+0003  -2.80134765625000E+0003  -2.80058374023438E+0003  -2.79995556640625E+0003  -2.79944970703125E+0003  -2.79904711914063E+0003  -2.79872827148438E+0003  -2.79847631835938E+0003  -2.79827709960938E+0003  -2.79811669921875E+0003  -2.79798168945313E+0003  -2.79785595703125E+0003  -2.79772094726563E+0003  -2.79755883789063E+0003  -2.79735205078125E+0003  -2.79709643554688E+0003  -2.79680126953125E+0003  -2.79647509765625E+0003  -2.79612719726563E+0003  -2.79576464843750E+0003  -2.79539306640625E+0003  -2.79501831054688E+0003  -2.79464575195313E+0003  -2.79427539062500E+0003  -2.79390454101563E+0003  -2.79353027343750E+0003  -2.79315112304688E+0003  -2.79277148437500E+0003  -2.79239843750000E+0003  -2.79203906250000E+0003  -2.79169970703125E+0003  -2.79138256835938E+0003  -2.79108862304688E+0003  -2.79081909179688E+0003  -2.79057348632813E+0003  -2.79034521484375E+0003  -2.79012670898438E+0003  -2.78990966796875E+0003  -2.78969384765625E+0003  -2.78950390625000E+0003  -2.78936914062500E+0003  -2.78931884765625E+0003  -2.78938159179688E+0003  -2.78958544921875E+0003  -2.78995776367188E+0003  -2.79052563476563E+0003  -2.79127832031250E+0003  -2.79213037109375E+0003  -2.79299780273438E+0003  -2.79381372070313E+0003  -2.79448291015625E+0003  -2.79486621093750E+0003  -2.79491406250000E+0003  -2.79471093750000E+0003  -2.79442065429688E+0003  -2.79429394531250E+0003  -2.79442968750000E+0003  -2.79474487304688E+0003  -2.79516723632813E+0003  -2.79564526367188E+0003  -2.79615844726563E+0003  -2.79664990234375E+0003  -2.79710717773438E+0003  -2.79757104492188E+0003  -2.79806835937500E+0003  -2.79865795898438E+0003  -2.79927465820313E+0003  -2.79977270507813E+0003  -2.79995971679688E+0003  -2.79966357421875E+0003  -2.79903222656250E+0003  -2.79831933593750E+0003  -2.79780053710938E+0003  -2.79771166992188E+0003  -2.79791308593750E+0003  -2.79813549804688E+0003  -2.79820581054688E+0003  -2.79795141601563E+0003  -2.79758691406250E+0003  -2.79728100585938E+0003  -2.79716748046875E+0003  -2.79734375000000E+0003  -2.79778417968750E+0003  -2.79843652343750E+0003  -2.79924780273438E+0003  -2.80016601562500E+0003  -2.80114208984375E+0003  -2.80212695312500E+0003  -2.80307104492188E+0003  -2.80393505859375E+0003  -2.80470166015625E+0003  -2.80535791015625E+0003  -2.80589550781250E+0003  -2.80632397460938E+0003  -2.80668090820313E+0003  -2.80700756835938E+0003  -2.80734301757813E+0003  -2.80770727539063E+0003  -2.80809472656250E+0003  -2.80849755859375E+0003  -2.80890869140625E+0003  -2.80932250976563E+0003  -2.80973681640625E+0003  -2.81014916992188E+0003  -2.81055712890625E+0003  -2.81095874023438E+0003  -2.81135302734375E+0003  -2.81173852539063E+0003  -2.81211376953125E+0003  -2.81247753906250E+0003  -2.81282836914063E+0003  -2.81316503906250E+0003  -2.81348608398438E+0003  -2.81379028320313E+0003  -2.81407592773438E+0003  -2.81434204101563E+0003  -2.81458691406250E+0003  -2.81481005859375E+0003  -2.81501049804688E+0003  -2.81518725585938E+0003  -2.81533984375000E+0003  -2.81546752929688E+0003  -2.81556958007813E+0003  -2.81564501953125E+0003
  -2.83155053710938E+0003  -2.83172094726563E+0003  -2.83186206054688E+0003  -2.83197460937500E+0003  -2.83206054687500E+0003  -2.83212182617188E+0003  -2.83215991210938E+0003  -2.83217651367188E+0003  -2.83217382812500E+0003  -2.83215356445313E+0003  -2.83211791992188E+0003  -2.83206884765625E+0003  -2.83200683593750E+0003  -2.83193359375000E+0003  -2.83184960937500E+0003  -2.83175561523438E+0003  -2.83165112304688E+0003  -2.83153540039063E+0003  -2.83140747070313E+0003  -2.83126684570313E+0003  -2.83111254882813E+0003  -2.83094458007813E+0003  -2.83076318359375E+0003  -2.83056811523438E+0003  -2.83036181640625E+0003  -2.83014550781250E+0003  -2.82992041015625E+0003  -2.82968701171875E+0003  -2.82944604492188E+0003  -2.82919824218750E+0003  -2.82894433593750E+0003  -2.82868603515625E+0003  -2.82842553710938E+0003  -2.82816552734375E+0003  -2.82790820312500E+0003  -2.82765600585938E+0003  -2.82741186523438E+0003  -2.82717822265625E+0003  -2.82695776367188E+0003  -2.82674853515625E+0003  -2.82654614257813E+0003  -2.82634643554688E+0003  -2.82614428710938E+0003  -2.82593652343750E+0003  -2.82571948242188E+0003  -2.82548950195313E+0003  -2.82524365234375E+0003  -2.82498193359375E+0003  -2.82470532226563E+0003  -2.82441503906250E+0003  -2.82411206054688E+0003  -2.82379443359375E+0003  -2.82346020507813E+0003  -2.82310620117188E+0003  -2.82273120117188E+0003  -2.82233642578125E+0003  -2.82192553710938E+0003  -2.82150000000000E+0003  -2.82106420898438E+0003  -2.82062524414063E+0003  -2.82018701171875E+0003  -2.81975976562500E+0003  -2.81935131835938E+0003  -2.81896752929688E+0003  -2.81861621093750E+0003  -2.81830786132813E+0003  -2.81805517578125E+0003  -2.81787670898438E+0003  -2.81779174804688E+0003  -2.81781884765625E+0003  -2.81795751953125E+0003  -2.81817797851563E+0003  -2.81844848632813E+0003  -2.81873657226563E+0003  -2.81896972656250E+0003  -2.81902539062500E+0003  -2.81877587890625E+0003  -2.81809667968750E+0003  -2.81698828125000E+0003  -2.81557470703125E+0003  -2.81398266601563E+0003  -2.81233251953125E+0003  -2.81071386718750E+0003  -2.80918798828125E+0003  -2.80778173828125E+0003  -2.80650756835938E+0003  -2.80551391601563E+0003  -2.80506884765625E+0003  -2.80506103515625E+0003  -2.80515478515625E+0003  -2.80519458007813E+0003  -2.80511181640625E+0003  -2.80492236328125E+0003  -2.80467871093750E+0003  -2.80441357421875E+0003  -2.80415283203125E+0003  -2.80393261718750E+0003  -2.80378735351563E+0003  -2.80372998046875E+0003  -2.80376660156250E+0003  -2.80390332031250E+0003  -2.80413232421875E+0003  -2.80439550781250E+0003  -2.80461962890625E+0003  -2.80472387695313E+0003  -2.80464282226563E+0003  -2.80436279296875E+0003  -2.80388989257813E+0003  -2.80325488281250E+0003  -2.80250000000000E+0003  -2.80168261718750E+0003  -2.80086376953125E+0003  -2.80010937500000E+0003  -2.79945996093750E+0003  -2.79891455078125E+0003  -2.79846679687500E+0003  -2.79811083984375E+0003  -2.79783593750000E+0003  -2.79762500000000E+0003  -2.79746093750000E+0003  -2.79732641601563E+0003  -2.79720239257813E+0003  -2.79706933593750E+0003  -2.79690673828125E+0003  -2.79669531250000E+0003  -2.79643066406250E+0003  -2.79612060546875E+0003  -2.79577441406250E+0003  -2.79540063476563E+0003  -2.79500903320313E+0003  -2.79461132812500E+0003  -2.79421801757813E+0003  -2.79383935546875E+0003  -2.79347363281250E+0003  -2.79311279296875E+0003  -2.79274902343750E+0003  -2.79237573242188E+0003  -2.79199731445313E+0003  -2.79162304687500E+0003  -2.79126171875000E+0003  -2.79092065429688E+0003  -2.79060717773438E+0003  -2.79032666015625E+0003  -2.79008544921875E+0003  -2.78988598632813E+0003  -2.78971411132813E+0003  -2.78955224609375E+0003  -2.78938159179688E+0003  -2.78919409179688E+0003  -2.78901269531250E+0003  -2.78886718750000E+0003  -2.78878613281250E+0003  -2.78879711914063E+0003  -2.78892602539063E+0003  -2.78919848632813E+0003  -2.78963989257813E+0003  -2.79024096679688E+0003  -2.79092504882813E+0003  -2.79161181640625E+0003  -2.79222827148438E+0003  -2.79271264648438E+0003  -2.79301855468750E+0003  -2.79314062500000E+0003  -2.79312573242188E+0003  -2.79306298828125E+0003  -2.79308471679688E+0003  -2.79325537109375E+0003  -2.79356176757813E+0003  -2.79397143554688E+0003  -2.79443750000000E+0003  -2.79492700195313E+0003  -2.79539208984375E+0003  -2.79576342773438E+0003  -2.79612207031250E+0003  -2.79650341796875E+0003  -2.79696435546875E+0003  -2.79746044921875E+0003  -2.79788134765625E+0003  -2.79809936523438E+0003  -2.79800732421875E+0003  -2.79770605468750E+0003  -2.79735595703125E+0003  -2.79712695312500E+0003  -2.79716040039063E+0003  -2.79736547851563E+0003  -2.79756787109375E+0003  -2.79763452148438E+0003  -2.79739843750000E+0003  -2.79708911132813E+0003  -2.79682495117188E+0003  -2.79672143554688E+0003  -2.79686376953125E+0003  -2.79723510742188E+0003  -2.79779638671875E+0003  -2.79850781250000E+0003  -2.79932885742188E+0003  -2.80021655273438E+0003  -2.80112768554688E+0003  -2.80201855468750E+0003  -2.80285351562500E+0003  -2.80361499023438E+0003  -2.80428881835938E+0003  -2.80486181640625E+0003  -2.80533813476563E+0003  -2.80574829101563E+0003  -2.80612597656250E+0003  -2.80650341796875E+0003  -2.80689819335938E+0003  -2.80730688476563E+0003  -2.80772485351563E+0003  -2.80814721679688E+0003  -2.80857031250000E+0003  -2.80899243164063E+0003  -2.80941088867188E+0003  -2.80982397460938E+0003  -2.81022973632813E+0003  -2.81062719726563E+0003  -2.81101489257813E+0003  -2.81139160156250E+0003  -2.81175610351563E+0003  -2.81210742187500E+0003  -2.81244384765625E+0003  -2.81276489257813E+0003  -2.81306860351563E+0003  -2.81335449218750E+0003  -2.81362084960938E+0003  -2.81386669921875E+0003  -2.81409130859375E+0003  -2.81429394531250E+0003  -2.81447387695313E+0003  -2.81463037109375E+0003  -2.81476269531250E+0003  -2.81487011718750E+0003  -2.81495190429688E+0003
  -2.83156347656250E+0003  -2.83172314453125E+0003  -2.83185058593750E+0003  -2.83194702148438E+0003  -2.83201513671875E+0003  -2.83205664062500E+0003  -2.83207446289063E+0003  -2.83207055664063E+0003  -2.83204736328125E+0003  -2.83200756835938E+0003  -2.83195336914063E+0003  -2.83188671875000E+0003  -2.83180859375000E+0003  -2.83171972656250E+0003  -2.83162084960938E+0003  -2.83151147460938E+0003  -2.83139135742188E+0003  -2.83125878906250E+0003  -2.83111352539063E+0003  -2.83095434570313E+0003  -2.83078051757813E+0003  -2.83059228515625E+0003  -2.83038964843750E+0003  -2.83017333984375E+0003  -2.82994506835938E+0003  -2.82970605468750E+0003  -2.82945800781250E+0003  -2.82920190429688E+0003  -2.82893872070313E+0003  -2.82866894531250E+0003  -2.82839404296875E+0003  -2.82811547851563E+0003  -2.82783593750000E+0003  -2.82755859375000E+0003  -2.82728613281250E+0003  -2.82702148437500E+0003  -2.82676806640625E+0003  -2.82652954101563E+0003  -2.82630883789063E+0003  -2.82610327148438E+0003  -2.82590771484375E+0003  -2.82571582031250E+0003  -2.82552172851563E+0003  -2.82532080078125E+0003  -2.82510913085938E+0003  -2.82488256835938E+0003  -2.82463769531250E+0003  -2.82437402343750E+0003  -2.82409301757813E+0003  -2.82379565429688E+0003  -2.82348339843750E+0003  -2.82315454101563E+0003  -2.82280664062500E+0003  -2.82243676757813E+0003  -2.82204370117188E+0003  -2.82162841796875E+0003  -2.82119604492188E+0003  -2.82075000000000E+0003  -2.82029687500000E+0003  -2.81984472656250E+0003  -2.81939941406250E+0003  -2.81897094726563E+0003  -2.81856738281250E+0003  -2.81819580078125E+0003  -2.81786352539063E+0003  -2.81757861328125E+0003  -2.81735302734375E+0003  -2.81720507812500E+0003  -2.81715332031250E+0003  -2.81721655273438E+0003  -2.81739355468750E+0003  -2.81765185546875E+0003  -2.81795727539063E+0003  -2.81827490234375E+0003  -2.81852880859375E+0003  -2.81859252929688E+0003  -2.81833374023438E+0003  -2.81762353515625E+0003  -2.81646386718750E+0003  -2.81498632812500E+0003  -2.81332446289063E+0003  -2.81160595703125E+0003  -2.80992749023438E+0003  -2.80835913085938E+0003  -2.80694018554688E+0003  -2.80569775390625E+0003  -2.80477978515625E+0003  -2.80441796875000E+0003  -2.80446630859375E+0003  -2.80457006835938E+0003  -2.80456225585938E+0003  -2.80438256835938E+0003  -2.80409057617188E+0003  -2.80378808593750E+0003  -2.80350512695313E+0003  -2.80324755859375E+0003  -2.80304614257813E+0003  -2.80293432617188E+0003  -2.80291674804688E+0003  -2.80299023437500E+0003  -2.80315112304688E+0003  -2.80338500976563E+0003  -2.80363720703125E+0003  -2.80384301757813E+0003  -2.80393334960938E+0003  -2.80385473632813E+0003  -2.80360058593750E+0003  -2.80317675781250E+0003  -2.80259985351563E+0003  -2.80189941406250E+0003  -2.80112817382813E+0003  -2.80034326171875E+0003  -2.79960400390625E+0003  -2.79894946289063E+0003  -2.79838623046875E+0003  -2.79791674804688E+0003  -2.79754345703125E+0003  -2.79725952148438E+0003  -2.79704565429688E+0003  -2.79688232421875E+0003  -2.79674902343750E+0003  -2.79662573242188E+0003  -2.79649096679688E+0003  -2.79632299804688E+0003  -2.79610180664063E+0003  -2.79582202148438E+0003  -2.79549243164063E+0003  -2.79512231445313E+0003  -2.79472094726563E+0003  -2.79430102539063E+0003  -2.79387719726563E+0003  -2.79346435546875E+0003  -2.79307592773438E+0003  -2.79270898437500E+0003  -2.79235253906250E+0003  -2.79199438476563E+0003  -2.79162573242188E+0003  -2.79125073242188E+0003  -2.79088037109375E+0003  -2.79052343750000E+0003  -2.79018969726563E+0003  -2.78988720703125E+0003  -2.78962524414063E+0003  -2.78941259765625E+0003  -2.78925268554688E+0003  -2.78912573242188E+0003  -2.78900634765625E+0003  -2.78886767578125E+0003  -2.78869531250000E+0003  -2.78851269531250E+0003  -2.78835083007813E+0003  -2.78823828125000E+0003  -2.78820214843750E+0003  -2.78826416015625E+0003  -2.78844604492188E+0003  -2.78877099609375E+0003  -2.78923168945313E+0003  -2.78976245117188E+0003  -2.79029199218750E+0003  -2.79075292968750E+0003  -2.79110400390625E+0003  -2.79134643554688E+0003  -2.79149560546875E+0003  -2.79158300781250E+0003  -2.79165820312500E+0003  -2.79179052734375E+0003  -2.79202294921875E+0003  -2.79236718750000E+0003  -2.79280249023438E+0003  -2.79327807617188E+0003  -2.79374755859375E+0003  -2.79417236328125E+0003  -2.79445385742188E+0003  -2.79469165039063E+0003  -2.79494555664063E+0003  -2.79528295898438E+0003  -2.79568139648438E+0003  -2.79606127929688E+0003  -2.79633715820313E+0003  -2.79643969726563E+0003  -2.79643115234375E+0003  -2.79640454101563E+0003  -2.79645263671875E+0003  -2.79664868164063E+0003  -2.79692529296875E+0003  -2.79716186523438E+0003  -2.79722534179688E+0003  -2.79703735351563E+0003  -2.79676928710938E+0003  -2.79652441406250E+0003  -2.79640502929688E+0003  -2.79648950195313E+0003  -2.79677050781250E+0003  -2.79722143554688E+0003  -2.79781616210938E+0003  -2.79852514648438E+0003  -2.79931274414063E+0003  -2.80014111328125E+0003  -2.80097265625000E+0003  -2.80177587890625E+0003  -2.80253100585938E+0003  -2.80322119140625E+0003  -2.80382934570313E+0003  -2.80435400390625E+0003  -2.80481835937500E+0003  -2.80524829101563E+0003  -2.80566943359375E+0003  -2.80609570312500E+0003  -2.80652661132813E+0003  -2.80696020507813E+0003  -2.80739404296875E+0003  -2.80782690429688E+0003  -2.80825634765625E+0003  -2.80868115234375E+0003  -2.80909912109375E+0003  -2.80950903320313E+0003  -2.80990966796875E+0003  -2.81029956054688E+0003  -2.81067773437500E+0003  -2.81104296875000E+0003  -2.81139428710938E+0003  -2.81173095703125E+0003  -2.81205151367188E+0003  -2.81235522460938E+0003  -2.81264086914063E+0003  -2.81290747070313E+0003  -2.81315405273438E+0003  -2.81337988281250E+0003  -2.81358447265625E+0003  -2.81376684570313E+0003  -2.81392651367188E+0003  -2.81406274414063E+0003  -2.81417480468750E+0003  -2.81426220703125E+0003
  -2.83156372070313E+0003  -2.83171215820313E+0003  -2.83182519531250E+0003  -2.83190429687500E+0003  -2.83195263671875E+0003  -2.83197314453125E+0003  -2.83196923828125E+0003  -2.83194384765625E+0003  -2.83190014648438E+0003  -2.83184082031250E+0003  -2.83176855468750E+0003  -2.83168554687500E+0003  -2.83159228515625E+0003  -2.83148876953125E+0003  -2.83137500000000E+0003  -2.83125000000000E+0003  -2.83111279296875E+0003  -2.83096313476563E+0003  -2.83079907226563E+0003  -2.83062036132813E+0003  -2.83042626953125E+0003  -2.83021655273438E+0003  -2.82999145507813E+0003  -2.82975195312500E+0003  -2.82949951171875E+0003  -2.82923583984375E+0003  -2.82896289062500E+0003  -2.82868188476563E+0003  -2.82839404296875E+0003  -2.82810009765625E+0003  -2.82780126953125E+0003  -2.82749926757813E+0003  -2.82719775390625E+0003  -2.82690014648438E+0003  -2.82661010742188E+0003  -2.82633178710938E+0003  -2.82606909179688E+0003  -2.82582690429688E+0003  -2.82560888671875E+0003  -2.82541186523438E+0003  -2.82522827148438E+0003  -2.82504956054688E+0003  -2.82486840820313E+0003  -2.82467871093750E+0003  -2.82447583007813E+0003  -2.82425512695313E+0003  -2.82401171875000E+0003  -2.82374511718750E+0003  -2.82345678710938E+0003  -2.82314794921875E+0003  -2.82282104492188E+0003  -2.82247558593750E+0003  -2.82211059570313E+0003  -2.82172216796875E+0003  -2.82130834960938E+0003  -2.82086914062500E+0003  -2.82041088867188E+0003  -2.81994262695313E+0003  -2.81947143554688E+0003  -2.81900512695313E+0003  -2.81855273437500E+0003  -2.81812402343750E+0003  -2.81772827148438E+0003  -2.81737158203125E+0003  -2.81705932617188E+0003  -2.81679711914063E+0003  -2.81659423828125E+0003  -2.81646655273438E+0003  -2.81643115234375E+0003  -2.81650439453125E+0003  -2.81668383789063E+0003  -2.81693652343750E+0003  -2.81722753906250E+0003  -2.81752124023438E+0003  -2.81774462890625E+0003  -2.81777685546875E+0003  -2.81749243164063E+0003  -2.81676977539063E+0003  -2.81561108398438E+0003  -2.81414404296875E+0003  -2.81249731445313E+0003  -2.81079541015625E+0003  -2.80913793945313E+0003  -2.80760327148438E+0003  -2.80625097656250E+0003  -2.80513305664063E+0003  -2.80437402343750E+0003  -2.80411767578125E+0003  -2.80418457031250E+0003  -2.80423120117188E+0003  -2.80407836914063E+0003  -2.80370605468750E+0003  -2.80324365234375E+0003  -2.80284960937500E+0003  -2.80254101562500E+0003  -2.80228857421875E+0003  -2.80211010742188E+0003  -2.80203271484375E+0003  -2.80205493164063E+0003  -2.80216601562500E+0003  -2.80235473632813E+0003  -2.80260205078125E+0003  -2.80285766601563E+0003  -2.80306298828125E+0003  -2.80315917968750E+0003  -2.80310107421875E+0003  -2.80288305664063E+0003  -2.80250781250000E+0003  -2.80198046875000E+0003  -2.80132153320313E+0003  -2.80058325195313E+0003  -2.79982250976563E+0003  -2.79909667968750E+0003  -2.79844531250000E+0003  -2.79787866210938E+0003  -2.79740356445313E+0003  -2.79702612304688E+0003  -2.79674145507813E+0003  -2.79652880859375E+0003  -2.79636621093750E+0003  -2.79623266601563E+0003  -2.79610571289063E+0003  -2.79596362304688E+0003  -2.79578442382813E+0003  -2.79554687500000E+0003  -2.79524609375000E+0003  -2.79489184570313E+0003  -2.79449365234375E+0003  -2.79406250000000E+0003  -2.79361230468750E+0003  -2.79316064453125E+0003  -2.79272509765625E+0003  -2.79232104492188E+0003  -2.79194555664063E+0003  -2.79158569335938E+0003  -2.79122802734375E+0003  -2.79086206054688E+0003  -2.79049218750000E+0003  -2.79012939453125E+0003  -2.78978320312500E+0003  -2.78946337890625E+0003  -2.78917871093750E+0003  -2.78893896484375E+0003  -2.78875415039063E+0003  -2.78862768554688E+0003  -2.78853564453125E+0003  -2.78844750976563E+0003  -2.78833032226563E+0003  -2.78816552734375E+0003  -2.78797778320313E+0003  -2.78779956054688E+0003  -2.78765942382813E+0003  -2.78758325195313E+0003  -2.78758935546875E+0003  -2.78769702148438E+0003  -2.78793041992188E+0003  -2.78828491210938E+0003  -2.78870141601563E+0003  -2.78911499023438E+0003  -2.78946386718750E+0003  -2.78971850585938E+0003  -2.78990039062500E+0003  -2.79003540039063E+0003  -2.79015014648438E+0003  -2.79028198242188E+0003  -2.79048120117188E+0003  -2.79077929687500E+0003  -2.79118603515625E+0003  -2.79167309570313E+0003  -2.79217724609375E+0003  -2.79263720703125E+0003  -2.79299926757813E+0003  -2.79322583007813E+0003  -2.79334594726563E+0003  -2.79347924804688E+0003  -2.79371069335938E+0003  -2.79403857421875E+0003  -2.79440625000000E+0003  -2.79475512695313E+0003  -2.79503588867188E+0003  -2.79528076171875E+0003  -2.79553613281250E+0003  -2.79584204101563E+0003  -2.79622583007813E+0003  -2.79662353515625E+0003  -2.79693701171875E+0003  -2.79701049804688E+0003  -2.79685668945313E+0003  -2.79659179687500E+0003  -2.79631860351563E+0003  -2.79613964843750E+0003  -2.79613525390625E+0003  -2.79630761718750E+0003  -2.79664086914063E+0003  -2.79711914062500E+0003  -2.79772290039063E+0003  -2.79842041015625E+0003  -2.79917773437500E+0003  -2.79996093750000E+0003  -2.80074023437500E+0003  -2.80149365234375E+0003  -2.80220043945313E+0003  -2.80284057617188E+0003  -2.80340771484375E+0003  -2.80391894531250E+0003  -2.80439477539063E+0003  -2.80485449218750E+0003  -2.80530957031250E+0003  -2.80576147460938E+0003  -2.80621020507813E+0003  -2.80665600585938E+0003  -2.80709814453125E+0003  -2.80753515625000E+0003  -2.80796582031250E+0003  -2.80838842773438E+0003  -2.80880175781250E+0003  -2.80920458984375E+0003  -2.80959619140625E+0003  -2.80997534179688E+0003  -2.81034106445313E+0003  -2.81069213867188E+0003  -2.81102832031250E+0003  -2.81134838867188E+0003  -2.81165136718750E+0003  -2.81193652343750E+0003  -2.81220288085938E+0003  -2.81244970703125E+0003  -2.81267626953125E+0003  -2.81288183593750E+0003  -2.81306616210938E+0003  -2.81322827148438E+0003  -2.81336767578125E+0003  -2.81348388671875E+0003  -2.81357641601563E+0003
  -2.83154980468750E+0003  -2.83168701171875E+0003  -2.83178515625000E+0003  -2.83184594726563E+0003  -2.83187304687500E+0003  -2.83187084960938E+0003  -2.83184375000000E+0003  -2.83179589843750E+0003  -2.83173144531250E+0003  -2.83165356445313E+0003  -2.83156469726563E+0003  -2.83146655273438E+0003  -2.83135864257813E+0003  -2.83124121093750E+0003  -2.83111230468750E+0003  -2.83097143554688E+0003  -2.83081689453125E+0003  -2.83064868164063E+0003  -2.83046557617188E+0003  -2.83026635742188E+0003  -2.83005126953125E+0003  -2.82981933593750E+0003  -2.82957104492188E+0003  -2.82930688476563E+0003  -2.82902880859375E+0003  -2.82873876953125E+0003  -2.82843920898438E+0003  -2.82813183593750E+0003  -2.82781738281250E+0003  -2.82749682617188E+0003  -2.82717089843750E+0003  -2.82684252929688E+0003  -2.82651562500000E+0003  -2.82619531250000E+0003  -2.82588598632813E+0003  -2.82559252929688E+0003  -2.82532080078125E+0003  -2.82507617187500E+0003  -2.82486401367188E+0003  -2.82467968750000E+0003  -2.82451269531250E+0003  -2.82435253906250E+0003  -2.82418896484375E+0003  -2.82401391601563E+0003  -2.82382128906250E+0003  -2.82360546875000E+0003  -2.82336254882813E+0003  -2.82309130859375E+0003  -2.82279296875000E+0003  -2.82246972656250E+0003  -2.82212500000000E+0003  -2.82175976562500E+0003  -2.82137646484375E+0003  -2.82096630859375E+0003  -2.82052319335938E+0003  -2.82005712890625E+0003  -2.81957299804688E+0003  -2.81908081054688E+0003  -2.81858911132813E+0003  -2.81810791015625E+0003  -2.81764819335938E+0003  -2.81722094726563E+0003  -2.81683618164063E+0003  -2.81649658203125E+0003  -2.81620507812500E+0003  -2.81596411132813E+0003  -2.81577929687500E+0003  -2.81566284179688E+0003  -2.81562817382813E+0003  -2.81568750000000E+0003  -2.81583715820313E+0003  -2.81604565429688E+0003  -2.81627929687500E+0003  -2.81650463867188E+0003  -2.81665502929688E+0003  -2.81662451171875E+0003  -2.81630346679688E+0003  -2.81558569335938E+0003  -2.81447436523438E+0003  -2.81308178710938E+0003  -2.81152294921875E+0003  -2.80991088867188E+0003  -2.80834155273438E+0003  -2.80689721679688E+0003  -2.80565454101563E+0003  -2.80468676757813E+0003  -2.80407470703125E+0003  -2.80387939453125E+0003  -2.80390991210938E+0003  -2.80385009765625E+0003  -2.80350903320313E+0003  -2.80293139648438E+0003  -2.80231005859375E+0003  -2.80183544921875E+0003  -2.80150952148438E+0003  -2.80127221679688E+0003  -2.80112597656250E+0003  -2.80108911132813E+0003  -2.80115380859375E+0003  -2.80130468750000E+0003  -2.80152587890625E+0003  -2.80179565429688E+0003  -2.80206738281250E+0003  -2.80228930664063E+0003  -2.80240991210938E+0003  -2.80238745117188E+0003  -2.80221313476563E+0003  -2.80188281250000E+0003  -2.80139526367188E+0003  -2.80076586914063E+0003  -2.80004882812500E+0003  -2.79930371093750E+0003  -2.79858935546875E+0003  -2.79794750976563E+0003  -2.79738867187500E+0003  -2.79692041015625E+0003  -2.79654980468750E+0003  -2.79627172851563E+0003  -2.79606372070313E+0003  -2.79590258789063E+0003  -2.79576464843750E+0003  -2.79562817382813E+0003  -2.79547143554688E+0003  -2.79527294921875E+0003  -2.79501245117188E+0003  -2.79468554687500E+0003  -2.79430249023438E+0003  -2.79387402343750E+0003  -2.79341113281250E+0003  -2.79292944335938E+0003  -2.79244799804688E+0003  -2.79198632812500E+0003  -2.79156152343750E+0003  -2.79117114257813E+0003  -2.79080200195313E+0003  -2.79044067382813E+0003  -2.79007617187500E+0003  -2.78971264648438E+0003  -2.78936083984375E+0003  -2.78903002929688E+0003  -2.78872900390625E+0003  -2.78846655273438E+0003  -2.78825146484375E+0003  -2.78809277343750E+0003  -2.78799365234375E+0003  -2.78792773437500E+0003  -2.78786181640625E+0003  -2.78775976562500E+0003  -2.78760034179688E+0003  -2.78740942382813E+0003  -2.78721972656250E+0003  -2.78705957031250E+0003  -2.78695312500000E+0003  -2.78691625976563E+0003  -2.78696875000000E+0003  -2.78713769531250E+0003  -2.78742260742188E+0003  -2.78776562500000E+0003  -2.78810400390625E+0003  -2.78837768554688E+0003  -2.78856347656250E+0003  -2.78869042968750E+0003  -2.78879003906250E+0003  -2.78888842773438E+0003  -2.78902587890625E+0003  -2.78925805664063E+0003  -2.78961279296875E+0003  -2.79008447265625E+0003  -2.79062890625000E+0003  -2.79116699218750E+0003  -2.79162280273438E+0003  -2.79193066406250E+0003  -2.79210620117188E+0003  -2.79212792968750E+0003  -2.79215478515625E+0003  -2.79229907226563E+0003  -2.79257763671875E+0003  -2.79295043945313E+0003  -2.79337377929688E+0003  -2.79380957031250E+0003  -2.79426806640625E+0003  -2.79476245117188E+0003  -2.79530151367188E+0003  -2.79588061523438E+0003  -2.79642797851563E+0003  -2.79683325195313E+0003  -2.79693505859375E+0003  -2.79679736328125E+0003  -2.79649926757813E+0003  -2.79615673828125E+0003  -2.79588354492188E+0003  -2.79577001953125E+0003  -2.79582617187500E+0003  -2.79604418945313E+0003  -2.79641650390625E+0003  -2.79692944335938E+0003  -2.79755371093750E+0003  -2.79825659179688E+0003  -2.79900512695313E+0003  -2.79976928710938E+0003  -2.80052441406250E+0003  -2.80124707031250E+0003  -2.80191381835938E+0003  -2.80251489257813E+0003  -2.80306347656250E+0003  -2.80357543945313E+0003  -2.80406665039063E+0003  -2.80454638671875E+0003  -2.80501708984375E+0003  -2.80547998046875E+0003  -2.80593701171875E+0003  -2.80638793945313E+0003  -2.80683178710938E+0003  -2.80726782226563E+0003  -2.80769409179688E+0003  -2.80811010742188E+0003  -2.80851489257813E+0003  -2.80890747070313E+0003  -2.80928662109375E+0003  -2.80965185546875E+0003  -2.81000244140625E+0003  -2.81033740234375E+0003  -2.81065625000000E+0003  -2.81095800781250E+0003  -2.81124218750000E+0003  -2.81150756835938E+0003  -2.81175390625000E+0003  -2.81198046875000E+0003  -2.81218676757813E+0003  -2.81237207031250E+0003  -2.81253613281250E+0003  -2.81267822265625E+0003  -2.81279760742188E+0003  -2.81289428710938E+0003
  -2.83151977539063E+0003  -2.83164624023438E+0003  -2.83172949218750E+0003  -2.83177075195313E+0003  -2.83177490234375E+0003  -2.83174853515625E+0003  -2.83169750976563E+0003  -2.83162670898438E+0003  -2.83154174804688E+0003  -2.83144702148438E+0003  -2.83134350585938E+0003  -2.83123266601563E+0003  -2.83111010742188E+0003  -2.83097729492188E+0003  -2.83083300781250E+0003  -2.83067553710938E+0003  -2.83050366210938E+0003  -2.83031689453125E+0003  -2.83011425781250E+0003  -2.82989501953125E+0003  -2.82965844726563E+0003  -2.82940405273438E+0003  -2.82913183593750E+0003  -2.82884204101563E+0003  -2.82853735351563E+0003  -2.82822021484375E+0003  -2.82789306640625E+0003  -2.82755761718750E+0003  -2.82721508789063E+0003  -2.82686596679688E+0003  -2.82651098632813E+0003  -2.82615356445313E+0003  -2.82579931640625E+0003  -2.82545410156250E+0003  -2.82512353515625E+0003  -2.82481420898438E+0003  -2.82453369140625E+0003  -2.82428881835938E+0003  -2.82408520507813E+0003  -2.82391674804688E+0003  -2.82377001953125E+0003  -2.82363159179688E+0003  -2.82348901367188E+0003  -2.82333056640625E+0003  -2.82314697265625E+0003  -2.82293310546875E+0003  -2.82268676757813E+0003  -2.82240844726563E+0003  -2.82209936523438E+0003  -2.82176318359375E+0003  -2.82139965820313E+0003  -2.82101464843750E+0003  -2.82060937500000E+0003  -2.82017431640625E+0003  -2.81970288085938E+0003  -2.81920629882813E+0003  -2.81869335937500E+0003  -2.81817456054688E+0003  -2.81766040039063E+0003  -2.81716357421875E+0003  -2.81669653320313E+0003  -2.81627246093750E+0003  -2.81590014648438E+0003  -2.81557983398438E+0003  -2.81530981445313E+0003  -2.81508837890625E+0003  -2.81491748046875E+0003  -2.81480468750000E+0003  -2.81475830078125E+0003  -2.81478735351563E+0003  -2.81488549804688E+0003  -2.81502514648438E+0003  -2.81517651367188E+0003  -2.81530883789063E+0003  -2.81536621093750E+0003  -2.81526074218750E+0003  -2.81490185546875E+0003  -2.81420288085938E+0003  -2.81316699218750E+0003  -2.81188696289063E+0003  -2.81045971679688E+0003  -2.80898071289063E+0003  -2.80753540039063E+0003  -2.80620288085938E+0003  -2.80506201171875E+0003  -2.80418872070313E+0003  -2.80362255859375E+0003  -2.80336206054688E+0003  -2.80323608398438E+0003  -2.80299389648438E+0003  -2.80252124023438E+0003  -2.80187084960938E+0003  -2.80121508789063E+0003  -2.80072973632813E+0003  -2.80041406250000E+0003  -2.80020874023438E+0003  -2.80010742187500E+0003  -2.80011816406250E+0003  -2.80022851562500E+0003  -2.80042016601563E+0003  -2.80067431640625E+0003  -2.80096826171875E+0003  -2.80126000976563E+0003  -2.80150390625000E+0003  -2.80165502929688E+0003  -2.80167529296875E+0003  -2.80154760742188E+0003  -2.80126098632813E+0003  -2.80080786132813E+0003  -2.80020190429688E+0003  -2.79950122070313E+0003  -2.79876928710938E+0003  -2.79806884765625E+0003  -2.79744335937500E+0003  -2.79690283203125E+0003  -2.79645312500000E+0003  -2.79610058593750E+0003  -2.79583789062500E+0003  -2.79564038085938E+0003  -2.79548193359375E+0003  -2.79533666992188E+0003  -2.79518237304688E+0003  -2.79500073242188E+0003  -2.79477343750000E+0003  -2.79448315429688E+0003  -2.79412670898438E+0003  -2.79371411132813E+0003  -2.79325537109375E+0003  -2.79276049804688E+0003  -2.79224658203125E+0003  -2.79173437500000E+0003  -2.79124462890625E+0003  -2.79079614257813E+0003  -2.79038745117188E+0003  -2.79000610351563E+0003  -2.78963940429688E+0003  -2.78927636718750E+0003  -2.78892114257813E+0003  -2.78858251953125E+0003  -2.78826953125000E+0003  -2.78799023437500E+0003  -2.78775195312500E+0003  -2.78756152343750E+0003  -2.78742700195313E+0003  -2.78734912109375E+0003  -2.78730200195313E+0003  -2.78725122070313E+0003  -2.78716186523438E+0003  -2.78701171875000E+0003  -2.78682519531250E+0003  -2.78663354492188E+0003  -2.78646386718750E+0003  -2.78633911132813E+0003  -2.78627441406250E+0003  -2.78629003906250E+0003  -2.78641796875000E+0003  -2.78666088867188E+0003  -2.78696020507813E+0003  -2.78725268554688E+0003  -2.78747973632813E+0003  -2.78761987304688E+0003  -2.78770751953125E+0003  -2.78777685546875E+0003  -2.78785620117188E+0003  -2.78798974609375E+0003  -2.78823974609375E+0003  -2.78863183593750E+0003  -2.78914819335938E+0003  -2.78973217773438E+0003  -2.79029077148438E+0003  -2.79073632812500E+0003  -2.79099243164063E+0003  -2.79107763671875E+0003  -2.79106372070313E+0003  -2.79099877929688E+0003  -2.79106860351563E+0003  -2.79130566406250E+0003  -2.79168334960938E+0003  -2.79216870117188E+0003  -2.79273022460938E+0003  -2.79336157226563E+0003  -2.79405541992188E+0003  -2.79479785156250E+0003  -2.79556445312500E+0003  -2.79626806640625E+0003  -2.79672753906250E+0003  -2.79690869140625E+0003  -2.79677465820313E+0003  -2.79642260742188E+0003  -2.79599267578125E+0003  -2.79561474609375E+0003  -2.79539184570313E+0003  -2.79533959960938E+0003  -2.79545507812500E+0003  -2.79573608398438E+0003  -2.79617358398438E+0003  -2.79673925781250E+0003  -2.79740063476563E+0003  -2.79812377929688E+0003  -2.79887670898438E+0003  -2.79963305664063E+0003  -2.80036743164063E+0003  -2.80105371093750E+0003  -2.80167944335938E+0003  -2.80225585937500E+0003  -2.80279516601563E+0003  -2.80331079101563E+0003  -2.80381054687500E+0003  -2.80429711914063E+0003  -2.80477294921875E+0003  -2.80523999023438E+0003  -2.80569873046875E+0003  -2.80614868164063E+0003  -2.80658886718750E+0003  -2.80701831054688E+0003  -2.80743603515625E+0003  -2.80784155273438E+0003  -2.80823413085938E+0003  -2.80861279296875E+0003  -2.80897680664063E+0003  -2.80932592773438E+0003  -2.80965917968750E+0003  -2.80997607421875E+0003  -2.81027587890625E+0003  -2.81055810546875E+0003  -2.81082226562500E+0003  -2.81106738281250E+0003  -2.81129321289063E+0003  -2.81149926757813E+0003  -2.81168505859375E+0003  -2.81185009765625E+0003  -2.81199414062500E+0003  -2.81211645507813E+0003  -2.81221655273438E+0003
  -2.83147265625000E+0003  -2.83158886718750E+0003  -2.83165576171875E+0003  -2.83167480468750E+0003  -2.83165380859375E+0003  -2.83160229492188E+0003  -2.83152734375000E+0003  -2.83143603515625E+0003  -2.83133398437500E+0003  -2.83122558593750E+0003  -2.83110839843750E+0003  -2.83098461914063E+0003  -2.83084692382813E+0003  -2.83069824218750E+0003  -2.83053759765625E+0003  -2.83036328125000E+0003  -2.83017407226563E+0003  -2.82996923828125E+0003  -2.82974755859375E+0003  -2.82950805664063E+0003  -2.82925024414063E+0003  -2.82897338867188E+0003  -2.82867724609375E+0003  -2.82836181640625E+0003  -2.82803027343750E+0003  -2.82768530273438E+0003  -2.82732983398438E+0003  -2.82696582031250E+0003  -2.82659399414063E+0003  -2.82621508789063E+0003  -2.82582934570313E+0003  -2.82544091796875E+0003  -2.82505688476563E+0003  -2.82468383789063E+0003  -2.82432958984375E+0003  -2.82400244140625E+0003  -2.82371362304688E+0003  -2.82347094726563E+0003  -2.82328027343750E+0003  -2.82313256835938E+0003  -2.82300952148438E+0003  -2.82289526367188E+0003  -2.82277612304688E+0003  -2.82263598632813E+0003  -2.82245971679688E+0003  -2.82224316406250E+0003  -2.82198730468750E+0003  -2.82169970703125E+0003  -2.82138061523438E+0003  -2.82103320312500E+0003  -2.82065234375000E+0003  -2.82024780273438E+0003  -2.81981933593750E+0003  -2.81935766601563E+0003  -2.81885668945313E+0003  -2.81832714843750E+0003  -2.81778271484375E+0003  -2.81723535156250E+0003  -2.81669750976563E+0003  -2.81618383789063E+0003  -2.81570898437500E+0003  -2.81528759765625E+0003  -2.81492944335938E+0003  -2.81462939453125E+0003  -2.81438134765625E+0003  -2.81417846679688E+0003  -2.81401757812500E+0003  -2.81390209960938E+0003  -2.81383642578125E+0003  -2.81382495117188E+0003  -2.81386132812500E+0003  -2.81392211914063E+0003  -2.81398266601563E+0003  -2.81401806640625E+0003  -2.81398315429688E+0003  -2.81380737304688E+0003  -2.81341918945313E+0003  -2.81274926757813E+0003  -2.81180078125000E+0003  -2.81064721679688E+0003  -2.80936572265625E+0003  -2.80803271484375E+0003  -2.80671997070313E+0003  -2.80549560546875E+0003  -2.80442871093750E+0003  -2.80358398437500E+0003  -2.80297094726563E+0003  -2.80255468750000E+0003  -2.80220947265625E+0003  -2.80177441406250E+0003  -2.80121435546875E+0003  -2.80057617187500E+0003  -2.79997583007813E+0003  -2.79953710937500E+0003  -2.79926171875000E+0003  -2.79910864257813E+0003  -2.79906762695313E+0003  -2.79913476562500E+0003  -2.79929394531250E+0003  -2.79952563476563E+0003  -2.79980981445313E+0003  -2.80012280273438E+0003  -2.80042919921875E+0003  -2.80069018554688E+0003  -2.80086840820313E+0003  -2.80092919921875E+0003  -2.80084716796875E+0003  -2.80060180664063E+0003  -2.80018164062500E+0003  -2.79959936523438E+0003  -2.79891699218750E+0003  -2.79820214843750E+0003  -2.79752172851563E+0003  -2.79692089843750E+0003  -2.79640820312500E+0003  -2.79598779296875E+0003  -2.79566430664063E+0003  -2.79542773437500E+0003  -2.79524853515625E+0003  -2.79509594726563E+0003  -2.79493945312500E+0003  -2.79475781250000E+0003  -2.79453857421875E+0003  -2.79427099609375E+0003  -2.79394409179688E+0003  -2.79355664062500E+0003  -2.79311572265625E+0003  -2.79262890625000E+0003  -2.79210424804688E+0003  -2.79155883789063E+0003  -2.79101513671875E+0003  -2.79049633789063E+0003  -2.79002368164063E+0003  -2.78959619140625E+0003  -2.78920288085938E+0003  -2.78883105468750E+0003  -2.78847119140625E+0003  -2.78812524414063E+0003  -2.78780175781250E+0003  -2.78750781250000E+0003  -2.78725073242188E+0003  -2.78703613281250E+0003  -2.78686914062500E+0003  -2.78675561523438E+0003  -2.78669531250000E+0003  -2.78666235351563E+0003  -2.78662451171875E+0003  -2.78654907226563E+0003  -2.78641552734375E+0003  -2.78624438476563E+0003  -2.78606323242188E+0003  -2.78589746093750E+0003  -2.78576904296875E+0003  -2.78569335937500E+0003  -2.78569165039063E+0003  -2.78579809570313E+0003  -2.78601708984375E+0003  -2.78629125976563E+0003  -2.78655908203125E+0003  -2.78676342773438E+0003  -2.78688500976563E+0003  -2.78695922851563E+0003  -2.78702246093750E+0003  -2.78710449218750E+0003  -2.78724853515625E+0003  -2.78751318359375E+0003  -2.78792041015625E+0003  -2.78844995117188E+0003  -2.78904003906250E+0003  -2.78959130859375E+0003  -2.79000903320313E+0003  -2.79021093750000E+0003  -2.79021728515625E+0003  -2.79012817382813E+0003  -2.79004321289063E+0003  -2.79004809570313E+0003  -2.79023925781250E+0003  -2.79060424804688E+0003  -2.79112109375000E+0003  -2.79176684570313E+0003  -2.79252490234375E+0003  -2.79337133789063E+0003  -2.79427978515625E+0003  -2.79521362304688E+0003  -2.79601025390625E+0003  -2.79658764648438E+0003  -2.79684790039063E+0003  -2.79670922851563E+0003  -2.79629492187500E+0003  -2.79578051757813E+0003  -2.79531152343750E+0003  -2.79499877929688E+0003  -2.79486108398438E+0003  -2.79489721679688E+0003  -2.79510791015625E+0003  -2.79548681640625E+0003  -2.79600659179688E+0003  -2.79663476562500E+0003  -2.79733618164063E+0003  -2.79807666015625E+0003  -2.79882958984375E+0003  -2.79956787109375E+0003  -2.80026440429688E+0003  -2.80090576171875E+0003  -2.80150024414063E+0003  -2.80205859375000E+0003  -2.80259179687500E+0003  -2.80310668945313E+0003  -2.80360644531250E+0003  -2.80409277343750E+0003  -2.80456811523438E+0003  -2.80503344726563E+0003  -2.80548779296875E+0003  -2.80593115234375E+0003  -2.80636230468750E+0003  -2.80678076171875E+0003  -2.80718603515625E+0003  -2.80757739257813E+0003  -2.80795434570313E+0003  -2.80831665039063E+0003  -2.80866333007813E+0003  -2.80899389648438E+0003  -2.80930834960938E+0003  -2.80960546875000E+0003  -2.80988525390625E+0003  -2.81014721679688E+0003  -2.81039038085938E+0003  -2.81061474609375E+0003  -2.81081982421875E+0003  -2.81100537109375E+0003  -2.81117089843750E+0003  -2.81131591796875E+0003  -2.81144018554688E+0003  -2.81154345703125E+0003
  -2.83140747070313E+0003  -2.83151342773438E+0003  -2.83156127929688E+0003  -2.83155371093750E+0003  -2.83150366210938E+0003  -2.83142602539063E+0003  -2.83133056640625E+0003  -2.83122485351563E+0003  -2.83111108398438E+0003  -2.83099072265625E+0003  -2.83085961914063E+0003  -2.83071972656250E+0003  -2.83056835937500E+0003  -2.83040478515625E+0003  -2.83022802734375E+0003  -2.83003686523438E+0003  -2.82983032226563E+0003  -2.82960742187500E+0003  -2.82936694335938E+0003  -2.82910791015625E+0003  -2.82882910156250E+0003  -2.82853027343750E+0003  -2.82821020507813E+0003  -2.82786962890625E+0003  -2.82751147460938E+0003  -2.82713891601563E+0003  -2.82675537109375E+0003  -2.82636254882813E+0003  -2.82596118164063E+0003  -2.82555175781250E+0003  -2.82513452148438E+0003  -2.82471386718750E+0003  -2.82429760742188E+0003  -2.82389428710938E+0003  -2.82351196289063E+0003  -2.82316357421875E+0003  -2.82286547851563E+0003  -2.82262915039063E+0003  -2.82245825195313E+0003  -2.82233715820313E+0003  -2.82224169921875E+0003  -2.82215258789063E+0003  -2.82205859375000E+0003  -2.82193725585938E+0003  -2.82176611328125E+0003  -2.82154223632813E+0003  -2.82126953125000E+0003  -2.82097045898438E+0003  -2.82064257812500E+0003  -2.82028198242188E+0003  -2.81988793945313E+0003  -2.81946459960938E+0003  -2.81901049804688E+0003  -2.81851928710938E+0003  -2.81798754882813E+0003  -2.81742651367188E+0003  -2.81685156250000E+0003  -2.81627587890625E+0003  -2.81571313476563E+0003  -2.81518066406250E+0003  -2.81469580078125E+0003  -2.81427636718750E+0003  -2.81393237304688E+0003  -2.81365405273438E+0003  -2.81342871093750E+0003  -2.81324316406250E+0003  -2.81308886718750E+0003  -2.81296655273438E+0003  -2.81287744140625E+0003  -2.81282275390625E+0003  -2.81279663085938E+0003  -2.81278173828125E+0003  -2.81275976562500E+0003  -2.81271191406250E+0003  -2.81260302734375E+0003  -2.81237622070313E+0003  -2.81197387695313E+0003  -2.81134082031250E+0003  -2.81047802734375E+0003  -2.80944287109375E+0003  -2.80829541015625E+0003  -2.80709497070313E+0003  -2.80589868164063E+0003  -2.80476123046875E+0003  -2.80373779296875E+0003  -2.80287890625000E+0003  -2.80218041992188E+0003  -2.80160009765625E+0003  -2.80105883789063E+0003  -2.80046801757813E+0003  -2.79983081054688E+0003  -2.79919970703125E+0003  -2.79865502929688E+0003  -2.79827758789063E+0003  -2.79806518554688E+0003  -2.79798632812500E+0003  -2.79802148437500E+0003  -2.79815429687500E+0003  -2.79836572265625E+0003  -2.79863476562500E+0003  -2.79894091796875E+0003  -2.79926245117188E+0003  -2.79957031250000E+0003  -2.79983520507813E+0003  -2.80002832031250E+0003  -2.80012036132813E+0003  -2.80007714843750E+0003  -2.79986987304688E+0003  -2.79948364257813E+0003  -2.79893017578125E+0003  -2.79827416992188E+0003  -2.79758642578125E+0003  -2.79693579101563E+0003  -2.79636840820313E+0003  -2.79589233398438E+0003  -2.79551098632813E+0003  -2.79522778320313E+0003  -2.79502929687500E+0003  -2.79487866210938E+0003  -2.79473681640625E+0003  -2.79456591796875E+0003  -2.79434521484375E+0003  -2.79407446289063E+0003  -2.79375366210938E+0003  -2.79338305664063E+0003  -2.79296386718750E+0003  -2.79249804687500E+0003  -2.79198779296875E+0003  -2.79143652343750E+0003  -2.79086059570313E+0003  -2.79028637695313E+0003  -2.78973925781250E+0003  -2.78924340820313E+0003  -2.78879980468750E+0003  -2.78839672851563E+0003  -2.78802294921875E+0003  -2.78766796875000E+0003  -2.78733325195313E+0003  -2.78702539062500E+0003  -2.78675024414063E+0003  -2.78651391601563E+0003  -2.78632080078125E+0003  -2.78617480468750E+0003  -2.78608007812500E+0003  -2.78603540039063E+0003  -2.78601684570313E+0003  -2.78599487304688E+0003  -2.78593945312500E+0003  -2.78583178710938E+0003  -2.78568847656250E+0003  -2.78553271484375E+0003  -2.78538647460938E+0003  -2.78527026367188E+0003  -2.78520141601563E+0003  -2.78520141601563E+0003  -2.78530175781250E+0003  -2.78550659179688E+0003  -2.78576513671875E+0003  -2.78602246093750E+0003  -2.78622705078125E+0003  -2.78636083984375E+0003  -2.78645727539063E+0003  -2.78655053710938E+0003  -2.78666992187500E+0003  -2.78685058593750E+0003  -2.78713403320313E+0003  -2.78753637695313E+0003  -2.78804296875000E+0003  -2.78859790039063E+0003  -2.78910449218750E+0003  -2.78946948242188E+0003  -2.78961010742188E+0003  -2.78954785156250E+0003  -2.78938574218750E+0003  -2.78924243164063E+0003  -2.78923974609375E+0003  -2.78938256835938E+0003  -2.78969970703125E+0003  -2.79020092773438E+0003  -2.79087817382813E+0003  -2.79170825195313E+0003  -2.79265283203125E+0003  -2.79366577148438E+0003  -2.79467675781250E+0003  -2.79561328125000E+0003  -2.79633007812500E+0003  -2.79666870117188E+0003  -2.79652343750000E+0003  -2.79605346679688E+0003  -2.79547924804688E+0003  -2.79495434570313E+0003  -2.79459033203125E+0003  -2.79440454101563E+0003  -2.79439404296875E+0003  -2.79456054687500E+0003  -2.79489892578125E+0003  -2.79538305664063E+0003  -2.79598217773438E+0003  -2.79665991210938E+0003  -2.79738232421875E+0003  -2.79812280273438E+0003  -2.79885473632813E+0003  -2.79955102539063E+0003  -2.80019726562500E+0003  -2.80080078125000E+0003  -2.80137011718750E+0003  -2.80191430664063E+0003  -2.80243994140625E+0003  -2.80294873046875E+0003  -2.80344287109375E+0003  -2.80392431640625E+0003  -2.80439404296875E+0003  -2.80485131835938E+0003  -2.80529589843750E+0003  -2.80572753906250E+0003  -2.80614526367188E+0003  -2.80654907226563E+0003  -2.80693847656250E+0003  -2.80731298828125E+0003  -2.80767211914063E+0003  -2.80801538085938E+0003  -2.80834277343750E+0003  -2.80865356445313E+0003  -2.80894750976563E+0003  -2.80922387695313E+0003  -2.80948266601563E+0003  -2.80972338867188E+0003  -2.80994555664063E+0003  -2.81014892578125E+0003  -2.81033325195313E+0003  -2.81049829101563E+0003  -2.81064379882813E+0003  -2.81076953125000E+0003  -2.81087500000000E+0003
  -2.83132055664063E+0003  -2.83141967773438E+0003  -2.83144653320313E+0003  -2.83140649414063E+0003  -2.83132495117188E+0003  -2.83122119140625E+0003  -2.83110961914063E+0003  -2.83099365234375E+0003  -2.83087060546875E+0003  -2.83073730468750E+0003  -2.83059448242188E+0003  -2.83044067382813E+0003  -2.83027465820313E+0003  -2.83009545898438E+0003  -2.82990258789063E+0003  -2.82969482421875E+0003  -2.82947119140625E+0003  -2.82923071289063E+0003  -2.82897216796875E+0003  -2.82869409179688E+0003  -2.82839550781250E+0003  -2.82807568359375E+0003  -2.82773315429688E+0003  -2.82736865234375E+0003  -2.82698535156250E+0003  -2.82658642578125E+0003  -2.82617578125000E+0003  -2.82575561523438E+0003  -2.82532568359375E+0003  -2.82488720703125E+0003  -2.82443994140625E+0003  -2.82398852539063E+0003  -2.82354101562500E+0003  -2.82310668945313E+0003  -2.82269531250000E+0003  -2.82232397460938E+0003  -2.82201269531250E+0003  -2.82178637695313E+0003  -2.82164404296875E+0003  -2.82154833984375E+0003  -2.82147802734375E+0003  -2.82140722656250E+0003  -2.82133374023438E+0003  -2.82122802734375E+0003  -2.82105688476563E+0003  -2.82082763671875E+0003  -2.82054760742188E+0003  -2.82023461914063E+0003  -2.81989208984375E+0003  -2.81951684570313E+0003  -2.81910791015625E+0003  -2.81866430664063E+0003  -2.81818359375000E+0003  -2.81766259765625E+0003  -2.81710180664063E+0003  -2.81651293945313E+0003  -2.81590991210938E+0003  -2.81530639648438E+0003  -2.81471777343750E+0003  -2.81416406250000E+0003  -2.81366748046875E+0003  -2.81324902343750E+0003  -2.81291992187500E+0003  -2.81266430664063E+0003  -2.81246240234375E+0003  -2.81229443359375E+0003  -2.81214599609375E+0003  -2.81201538085938E+0003  -2.81190258789063E+0003  -2.81180664062500E+0003  -2.81172314453125E+0003  -2.81164160156250E+0003  -2.81155078125000E+0003  -2.81143847656250E+0003  -2.81127734375000E+0003  -2.81102050781250E+0003  -2.81061938476563E+0003  -2.81002807617188E+0003  -2.80924536132813E+0003  -2.80831494140625E+0003  -2.80728247070313E+0003  -2.80619360351563E+0003  -2.80509155273438E+0003  -2.80401708984375E+0003  -2.80301196289063E+0003  -2.80211352539063E+0003  -2.80131738281250E+0003  -2.80059130859375E+0003  -2.79989233398438E+0003  -2.79917846679688E+0003  -2.79847338867188E+0003  -2.79783398437500E+0003  -2.79732617187500E+0003  -2.79700903320313E+0003  -2.79687182617188E+0003  -2.79687792968750E+0003  -2.79699584960938E+0003  -2.79719628906250E+0003  -2.79745654296875E+0003  -2.79775561523438E+0003  -2.79807373046875E+0003  -2.79839062500000E+0003  -2.79868627929688E+0003  -2.79894042968750E+0003  -2.79913378906250E+0003  -2.79924169921875E+0003  -2.79922607421875E+0003  -2.79905224609375E+0003  -2.79870190429688E+0003  -2.79818457031250E+0003  -2.79756494140625E+0003  -2.79691503906250E+0003  -2.79630346679688E+0003  -2.79577734375000E+0003  -2.79534521484375E+0003  -2.79501171875000E+0003  -2.79478125000000E+0003  -2.79463598632813E+0003  -2.79452783203125E+0003  -2.79440576171875E+0003  -2.79421899414063E+0003  -2.79394897460938E+0003  -2.79361181640625E+0003  -2.79322485351563E+0003  -2.79280395507813E+0003  -2.79235278320313E+0003  -2.79186450195313E+0003  -2.79133374023438E+0003  -2.79075781250000E+0003  -2.79015332031250E+0003  -2.78954980468750E+0003  -2.78897656250000E+0003  -2.78846093750000E+0003  -2.78800488281250E+0003  -2.78759643554688E+0003  -2.78722363281250E+0003  -2.78687622070313E+0003  -2.78655419921875E+0003  -2.78626245117188E+0003  -2.78600585937500E+0003  -2.78578881835938E+0003  -2.78561523437500E+0003  -2.78548876953125E+0003  -2.78541308593750E+0003  -2.78538720703125E+0003  -2.78538867187500E+0003  -2.78539062500000E+0003  -2.78536547851563E+0003  -2.78529541015625E+0003  -2.78519238281250E+0003  -2.78507446289063E+0003  -2.78495898437500E+0003  -2.78486425781250E+0003  -2.78481103515625E+0003  -2.78482202148438E+0003  -2.78492529296875E+0003  -2.78512451171875E+0003  -2.78537817382813E+0003  -2.78563916015625E+0003  -2.78586352539063E+0003  -2.78603491210938E+0003  -2.78618017578125E+0003  -2.78632861328125E+0003  -2.78650659179688E+0003  -2.78673852539063E+0003  -2.78704394531250E+0003  -2.78743139648438E+0003  -2.78789575195313E+0003  -2.78838989257813E+0003  -2.78882690429688E+0003  -2.78911987304688E+0003  -2.78919018554688E+0003  -2.78906030273438E+0003  -2.78883032226563E+0003  -2.78860961914063E+0003  -2.78850683593750E+0003  -2.78857348632813E+0003  -2.78882568359375E+0003  -2.78927661132813E+0003  -2.78993383789063E+0003  -2.79076757812500E+0003  -2.79173339843750E+0003  -2.79280151367188E+0003  -2.79393359375000E+0003  -2.79500048828125E+0003  -2.79583618164063E+0003  -2.79625610351563E+0003  -2.79613574218750E+0003  -2.79565942382813E+0003  -2.79507788085938E+0003  -2.79454858398438E+0003  -2.79417968750000E+0003  -2.79398559570313E+0003  -2.79396240234375E+0003  -2.79411010742188E+0003  -2.79442407226563E+0003  -2.79488061523438E+0003  -2.79545068359375E+0003  -2.79609985351563E+0003  -2.79679663085938E+0003  -2.79751489257813E+0003  -2.79822973632813E+0003  -2.79891528320313E+0003  -2.79955737304688E+0003  -2.80016113281250E+0003  -2.80073413085938E+0003  -2.80128344726563E+0003  -2.80181445312500E+0003  -2.80232836914063E+0003  -2.80282690429688E+0003  -2.80331176757813E+0003  -2.80378320312500E+0003  -2.80424121093750E+0003  -2.80468554687500E+0003  -2.80511572265625E+0003  -2.80553149414063E+0003  -2.80593237304688E+0003  -2.80631860351563E+0003  -2.80668920898438E+0003  -2.80704418945313E+0003  -2.80738354492188E+0003  -2.80770629882813E+0003  -2.80801269531250E+0003  -2.80830224609375E+0003  -2.80857446289063E+0003  -2.80882934570313E+0003  -2.80906640625000E+0003  -2.80928564453125E+0003  -2.80948632812500E+0003  -2.80966894531250E+0003  -2.80983300781250E+0003  -2.80997802734375E+0003  -2.81010424804688E+0003  -2.81021142578125E+0003
  -2.83120361328125E+0003  -2.83130615234375E+0003  -2.83130981445313E+0003  -2.83121899414063E+0003  -2.83111425781250E+0003  -2.83099414062500E+0003  -2.83087036132813E+0003  -2.83074584960938E+0003  -2.83061425781250E+0003  -2.83046972656250E+0003  -2.83031323242188E+0003  -2.83014428710938E+0003  -2.82996240234375E+0003  -2.82976757812500E+0003  -2.82955859375000E+0003  -2.82933471679688E+0003  -2.82909497070313E+0003  -2.82883764648438E+0003  -2.82856176757813E+0003  -2.82826611328125E+0003  -2.82794921875000E+0003  -2.82761010742188E+0003  -2.82724731445313E+0003  -2.82686157226563E+0003  -2.82645556640625E+0003  -2.82603344726563E+0003  -2.82559863281250E+0003  -2.82515332031250E+0003  -2.82469799804688E+0003  -2.82423364257813E+0003  -2.82376098632813E+0003  -2.82328417968750E+0003  -2.82281054687500E+0003  -2.82235034179688E+0003  -2.82190966796875E+0003  -2.82151684570313E+0003  -2.82119262695313E+0003  -2.82097412109375E+0003  -2.82085498046875E+0003  -2.82077416992188E+0003  -2.82071459960938E+0003  -2.82065185546875E+0003  -2.82058105468750E+0003  -2.82047875976563E+0003  -2.82031225585938E+0003  -2.82008691406250E+0003  -2.81980908203125E+0003  -2.81948706054688E+0003  -2.81912939453125E+0003  -2.81873730468750E+0003  -2.81831030273438E+0003  -2.81784570312500E+0003  -2.81734106445313E+0003  -2.81679541015625E+0003  -2.81620947265625E+0003  -2.81559497070313E+0003  -2.81496582031250E+0003  -2.81433544921875E+0003  -2.81371997070313E+0003  -2.81314428710938E+0003  -2.81263403320313E+0003  -2.81221582031250E+0003  -2.81190234375000E+0003  -2.81167114257813E+0003  -2.81149487304688E+0003  -2.81134570312500E+0003  -2.81120458984375E+0003  -2.81106811523438E+0003  -2.81093505859375E+0003  -2.81080371093750E+0003  -2.81067187500000E+0003  -2.81053564453125E+0003  -2.81039086914063E+0003  -2.81023193359375E+0003  -2.81003808593750E+0003  -2.80976806640625E+0003  -2.80937963867188E+0003  -2.80883325195313E+0003  -2.80812475585938E+0003  -2.80728613281250E+0003  -2.80635131835938E+0003  -2.80535375976563E+0003  -2.80432495117188E+0003  -2.80329418945313E+0003  -2.80229077148438E+0003  -2.80134204101563E+0003  -2.80044995117188E+0003  -2.79960009765625E+0003  -2.79877612304688E+0003  -2.79796557617188E+0003  -2.79720434570313E+0003  -2.79655151367188E+0003  -2.79606835937500E+0003  -2.79580590820313E+0003  -2.79574267578125E+0003  -2.79582983398438E+0003  -2.79602294921875E+0003  -2.79628173828125E+0003  -2.79657958984375E+0003  -2.79689575195313E+0003  -2.79721191406250E+0003  -2.79751171875000E+0003  -2.79778344726563E+0003  -2.79801513671875E+0003  -2.79819360351563E+0003  -2.79829907226563E+0003  -2.79829565429688E+0003  -2.79814868164063E+0003  -2.79783544921875E+0003  -2.79736083984375E+0003  -2.79678735351563E+0003  -2.79618408203125E+0003  -2.79561914062500E+0003  -2.79513989257813E+0003  -2.79475756835938E+0003  -2.79448071289063E+0003  -2.79431665039063E+0003  -2.79424365234375E+0003  -2.79419824218750E+0003  -2.79411132812500E+0003  -2.79391113281250E+0003  -2.79357836914063E+0003  -2.79315112304688E+0003  -2.79267456054688E+0003  -2.79219726562500E+0003  -2.79172338867188E+0003  -2.79122070312500E+0003  -2.79067089843750E+0003  -2.79007128906250E+0003  -2.78943994140625E+0003  -2.78881005859375E+0003  -2.78821484375000E+0003  -2.78768383789063E+0003  -2.78721997070313E+0003  -2.78681054687500E+0003  -2.78644287109375E+0003  -2.78610546875000E+0003  -2.78579736328125E+0003  -2.78552221679688E+0003  -2.78528320312500E+0003  -2.78508422851563E+0003  -2.78492944335938E+0003  -2.78482421875000E+0003  -2.78477246093750E+0003  -2.78477392578125E+0003  -2.78480761718750E+0003  -2.78484716796875E+0003  -2.78486645507813E+0003  -2.78484716796875E+0003  -2.78479589843750E+0003  -2.78472436523438E+0003  -2.78464379882813E+0003  -2.78457006835938E+0003  -2.78452880859375E+0003  -2.78454760742188E+0003  -2.78465551757813E+0003  -2.78485937500000E+0003  -2.78512304687500E+0003  -2.78540527343750E+0003  -2.78566577148438E+0003  -2.78588793945313E+0003  -2.78609228515625E+0003  -2.78630151367188E+0003  -2.78653735351563E+0003  -2.78681494140625E+0003  -2.78714038085938E+0003  -2.78751660156250E+0003  -2.78794165039063E+0003  -2.78837500000000E+0003  -2.78873803710938E+0003  -2.78895117187500E+0003  -2.78894189453125E+0003  -2.78873168945313E+0003  -2.78841455078125E+0003  -2.78808935546875E+0003  -2.78785278320313E+0003  -2.78776635742188E+0003  -2.78786962890625E+0003  -2.78822998046875E+0003  -2.78884521484375E+0003  -2.78966259765625E+0003  -2.79062915039063E+0003  -2.79172558593750E+0003  -2.79292578125000E+0003  -2.79407055664063E+0003  -2.79498974609375E+0003  -2.79549926757813E+0003  -2.79547338867188E+0003  -2.79508666992188E+0003  -2.79457983398438E+0003  -2.79410961914063E+0003  -2.79378515625000E+0003  -2.79362182617188E+0003  -2.79361596679688E+0003  -2.79376684570313E+0003  -2.79406933593750E+0003  -2.79450268554688E+0003  -2.79504101562500E+0003  -2.79565527343750E+0003  -2.79631787109375E+0003  -2.79700488281250E+0003  -2.79769287109375E+0003  -2.79835839843750E+0003  -2.79898779296875E+0003  -2.79958471679688E+0003  -2.80015502929688E+0003  -2.80070385742188E+0003  -2.80123486328125E+0003  -2.80174951171875E+0003  -2.80224853515625E+0003  -2.80273315429688E+0003  -2.80320361328125E+0003  -2.80365966796875E+0003  -2.80410156250000E+0003  -2.80452832031250E+0003  -2.80494042968750E+0003  -2.80533715820313E+0003  -2.80571850585938E+0003  -2.80608422851563E+0003  -2.80643408203125E+0003  -2.80676782226563E+0003  -2.80708520507813E+0003  -2.80738623046875E+0003  -2.80767041015625E+0003  -2.80793774414063E+0003  -2.80818774414063E+0003  -2.80842041015625E+0003  -2.80863549804688E+0003  -2.80883300781250E+0003  -2.80901269531250E+0003  -2.80917480468750E+0003  -2.80931884765625E+0003  -2.80944506835938E+0003  -2.80955297851563E+0003
  -2.83102343750000E+0003  -2.83115087890625E+0003  -2.83114160156250E+0003  -2.83099853515625E+0003  -2.83086840820313E+0003  -2.83074438476563E+0003  -2.83061010742188E+0003  -2.83047558593750E+0003  -2.83033447265625E+0003  -2.83017822265625E+0003  -2.83000683593750E+0003  -2.82982299804688E+0003  -2.82962646484375E+0003  -2.82941674804688E+0003  -2.82919287109375E+0003  -2.82895410156250E+0003  -2.82869921875000E+0003  -2.82842651367188E+0003  -2.82813525390625E+0003  -2.82782348632813E+0003  -2.82749047851563E+0003  -2.82713452148438E+0003  -2.82675463867188E+0003  -2.82635083007813E+0003  -2.82592651367188E+0003  -2.82548510742188E+0003  -2.82503051757813E+0003  -2.82456469726563E+0003  -2.82408886718750E+0003  -2.82360424804688E+0003  -2.82311254882813E+0003  -2.82261743164063E+0003  -2.82213012695313E+0003  -2.82165698242188E+0003  -2.82120043945313E+0003  -2.82079101562500E+0003  -2.82046997070313E+0003  -2.82024951171875E+0003  -2.82011499023438E+0003  -2.82003051757813E+0003  -2.81996728515625E+0003  -2.81990332031250E+0003  -2.81982543945313E+0003  -2.81971606445313E+0003  -2.81955419921875E+0003  -2.81933496093750E+0003  -2.81905883789063E+0003  -2.81873144531250E+0003  -2.81836083984375E+0003  -2.81795117187500E+0003  -2.81750439453125E+0003  -2.81701953125000E+0003  -2.81649438476563E+0003  -2.81592749023438E+0003  -2.81531958007813E+0003  -2.81468188476563E+0003  -2.81402783203125E+0003  -2.81337109375000E+0003  -2.81272875976563E+0003  -2.81212988281250E+0003  -2.81160571289063E+0003  -2.81118774414063E+0003  -2.81089038085938E+0003  -2.81068554687500E+0003  -2.81053735351563E+0003  -2.81041064453125E+0003  -2.81028100585938E+0003  -2.81014428710938E+0003  -2.80999877929688E+0003  -2.80984228515625E+0003  -2.80967480468750E+0003  -2.80949877929688E+0003  -2.80931616210938E+0003  -2.80912768554688E+0003  -2.80891674804688E+0003  -2.80864672851563E+0003  -2.80827905273438E+0003  -2.80777856445313E+0003  -2.80713818359375E+0003  -2.80637963867188E+0003  -2.80552612304688E+0003  -2.80460083007813E+0003  -2.80362573242188E+0003  -2.80262280273438E+0003  -2.80161328125000E+0003  -2.80061791992188E+0003  -2.79964697265625E+0003  -2.79870312500000E+0003  -2.79778857421875E+0003  -2.79690820312500E+0003  -2.79610400390625E+0003  -2.79543627929688E+0003  -2.79496704101563E+0003  -2.79474584960938E+0003  -2.79474072265625E+0003  -2.79488867187500E+0003  -2.79513500976563E+0003  -2.79543115234375E+0003  -2.79574780273438E+0003  -2.79606250000000E+0003  -2.79636059570313E+0003  -2.79663085937500E+0003  -2.79686914062500E+0003  -2.79707055664063E+0003  -2.79722338867188E+0003  -2.79731005859375E+0003  -2.79730249023438E+0003  -2.79717138671875E+0003  -2.79689086914063E+0003  -2.79646142578125E+0003  -2.79593920898438E+0003  -2.79538842773438E+0003  -2.79487475585938E+0003  -2.79444580078125E+0003  -2.79411889648438E+0003  -2.79390795898438E+0003  -2.79382617187500E+0003  -2.79384985351563E+0003  -2.79390405273438E+0003  -2.79388842773438E+0003  -2.79368164062500E+0003  -2.79324267578125E+0003  -2.79262646484375E+0003  -2.79195874023438E+0003  -2.79141992187500E+0003  -2.79100537109375E+0003  -2.79055175781250E+0003  -2.79000024414063E+0003  -2.78937915039063E+0003  -2.78872338867188E+0003  -2.78807177734375E+0003  -2.78746020507813E+0003  -2.78692041015625E+0003  -2.78645458984375E+0003  -2.78604931640625E+0003  -2.78569018554688E+0003  -2.78536523437500E+0003  -2.78507226562500E+0003  -2.78481347656250E+0003  -2.78459106445313E+0003  -2.78440795898438E+0003  -2.78427124023438E+0003  -2.78419018554688E+0003  -2.78417187500000E+0003  -2.78421728515625E+0003  -2.78430297851563E+0003  -2.78440039062500E+0003  -2.78448217773438E+0003  -2.78452832031250E+0003  -2.78453906250000E+0003  -2.78451831054688E+0003  -2.78447070312500E+0003  -2.78440893554688E+0003  -2.78436694335938E+0003  -2.78438256835938E+0003  -2.78449316406250E+0003  -2.78471142578125E+0003  -2.78500073242188E+0003  -2.78531958007813E+0003  -2.78562597656250E+0003  -2.78590087890625E+0003  -2.78616015625000E+0003  -2.78642138671875E+0003  -2.78670239257813E+0003  -2.78701367187500E+0003  -2.78735571289063E+0003  -2.78772827148438E+0003  -2.78812866210938E+0003  -2.78851708984375E+0003  -2.78881835937500E+0003  -2.78895507812500E+0003  -2.78885668945313E+0003  -2.78854248046875E+0003  -2.78810107421875E+0003  -2.78762377929688E+0003  -2.78720068359375E+0003  -2.78693847656250E+0003  -2.78692529296875E+0003  -2.78716113281250E+0003  -2.78768554687500E+0003  -2.78845483398438E+0003  -2.78940527343750E+0003  -2.79048925781250E+0003  -2.79165161132813E+0003  -2.79280297851563E+0003  -2.79378515625000E+0003  -2.79439770507813E+0003  -2.79453344726563E+0003  -2.79433178710938E+0003  -2.79398974609375E+0003  -2.79365209960938E+0003  -2.79342529296875E+0003  -2.79332983398438E+0003  -2.79336694335938E+0003  -2.79353735351563E+0003  -2.79383691406250E+0003  -2.79424853515625E+0003  -2.79475146484375E+0003  -2.79532397460938E+0003  -2.79594409179688E+0003  -2.79659130859375E+0003  -2.79724389648438E+0003  -2.79788159179688E+0003  -2.79849145507813E+0003  -2.79907543945313E+0003  -2.79963720703125E+0003  -2.80017993164063E+0003  -2.80070605468750E+0003  -2.80121630859375E+0003  -2.80171142578125E+0003  -2.80219165039063E+0003  -2.80265771484375E+0003  -2.80310888671875E+0003  -2.80354541015625E+0003  -2.80396704101563E+0003  -2.80437353515625E+0003  -2.80476440429688E+0003  -2.80513964843750E+0003  -2.80549926757813E+0003  -2.80584252929688E+0003  -2.80616967773438E+0003  -2.80648046875000E+0003  -2.80677490234375E+0003  -2.80705273437500E+0003  -2.80731372070313E+0003  -2.80755786132813E+0003  -2.80778515625000E+0003  -2.80799560546875E+0003  -2.80818872070313E+0003  -2.80836499023438E+0003  -2.80852441406250E+0003  -2.80866674804688E+0003  -2.80879199218750E+0003  -2.80890014648438E+0003
  -2.83073364257813E+0003  -2.83087304687500E+0003  -2.83087451171875E+0003  -2.83074755859375E+0003  -2.83060083007813E+0003  -2.83045800781250E+0003  -2.83031323242188E+0003  -2.83016772460938E+0003  -2.83001513671875E+0003  -2.82984790039063E+0003  -2.82966552734375E+0003  -2.82947021484375E+0003  -2.82926171875000E+0003  -2.82903930664063E+0003  -2.82880249023438E+0003  -2.82855053710938E+0003  -2.82828222656250E+0003  -2.82799609375000E+0003  -2.82769116210938E+0003  -2.82736572265625E+0003  -2.82701879882813E+0003  -2.82664916992188E+0003  -2.82625561523438E+0003  -2.82583862304688E+0003  -2.82540087890625E+0003  -2.82494580078125E+0003  -2.82447656250000E+0003  -2.82399609375000E+0003  -2.82350659179688E+0003  -2.82300927734375E+0003  -2.82250512695313E+0003  -2.82199877929688E+0003  -2.82151220703125E+0003  -2.82104003906250E+0003  -2.82057739257813E+0003  -2.82016772460938E+0003  -2.81984521484375E+0003  -2.81960986328125E+0003  -2.81945043945313E+0003  -2.81934619140625E+0003  -2.81926660156250E+0003  -2.81919018554688E+0003  -2.81909960937500E+0003  -2.81897900390625E+0003  -2.81881347656250E+0003  -2.81859375000000E+0003  -2.81831445312500E+0003  -2.81797924804688E+0003  -2.81759545898438E+0003  -2.81716894531250E+0003  -2.81670385742188E+0003  -2.81619970703125E+0003  -2.81565527343750E+0003  -2.81506860351563E+0003  -2.81443994140625E+0003  -2.81378051757813E+0003  -2.81310351562500E+0003  -2.81242163085938E+0003  -2.81175341796875E+0003  -2.81113183593750E+0003  -2.81059375000000E+0003  -2.81017626953125E+0003  -2.80989648437500E+0003  -2.80971923828125E+0003  -2.80960205078125E+0003  -2.80950195312500E+0003  -2.80938989257813E+0003  -2.80926098632813E+0003  -2.80911376953125E+0003  -2.80894580078125E+0003  -2.80875854492188E+0003  -2.80855957031250E+0003  -2.80835644531250E+0003  -2.80815356445313E+0003  -2.80793896484375E+0003  -2.80767773437500E+0003  -2.80733618164063E+0003  -2.80688159179688E+0003  -2.80630419921875E+0003  -2.80561572265625E+0003  -2.80482910156250E+0003  -2.80395751953125E+0003  -2.80301757812500E+0003  -2.80202880859375E+0003  -2.80101147460938E+0003  -2.79998437500000E+0003  -2.79896411132813E+0003  -2.79796411132813E+0003  -2.79699584960938E+0003  -2.79607348632813E+0003  -2.79524169921875E+0003  -2.79456127929688E+0003  -2.79409570312500E+0003  -2.79389477539063E+0003  -2.79391821289063E+0003  -2.79409277343750E+0003  -2.79435815429688E+0003  -2.79466235351563E+0003  -2.79497216796875E+0003  -2.79526391601563E+0003  -2.79552685546875E+0003  -2.79575634765625E+0003  -2.79595434570313E+0003  -2.79612060546875E+0003  -2.79624047851563E+0003  -2.79629711914063E+0003  -2.79627026367188E+0003  -2.79613964843750E+0003  -2.79588134765625E+0003  -2.79549316406250E+0003  -2.79502270507813E+0003  -2.79452612304688E+0003  -2.79406542968750E+0003  -2.79368872070313E+0003  -2.79342089843750E+0003  -2.79328417968750E+0003  -2.79330004882813E+0003  -2.79344873046875E+0003  -2.79365258789063E+0003  -2.79376733398438E+0003  -2.79357739257813E+0003  -2.79297460937500E+0003  -2.79197631835938E+0003  -2.79092626953125E+0003  -2.79033959960938E+0003  -2.79013623046875E+0003  -2.78984448242188E+0003  -2.78932226562500E+0003  -2.78868432617188E+0003  -2.78800781250000E+0003  -2.78734033203125E+0003  -2.78672045898438E+0003  -2.78617895507813E+0003  -2.78571752929688E+0003  -2.78532128906250E+0003  -2.78497485351563E+0003  -2.78466430664063E+0003  -2.78438696289063E+0003  -2.78414477539063E+0003  -2.78393725585938E+0003  -2.78376660156250E+0003  -2.78364697265625E+0003  -2.78359521484375E+0003  -2.78362329101563E+0003  -2.78373364257813E+0003  -2.78389624023438E+0003  -2.78407519531250E+0003  -2.78423974609375E+0003  -2.78436596679688E+0003  -2.78444677734375E+0003  -2.78447802734375E+0003  -2.78445581054688E+0003  -2.78439062500000E+0003  -2.78433056640625E+0003  -2.78432861328125E+0003  -2.78443774414063E+0003  -2.78467822265625E+0003  -2.78500732421875E+0003  -2.78537451171875E+0003  -2.78572998046875E+0003  -2.78604956054688E+0003  -2.78634741210938E+0003  -2.78664184570313E+0003  -2.78695068359375E+0003  -2.78728295898438E+0003  -2.78763818359375E+0003  -2.78801489257813E+0003  -2.78840991210938E+0003  -2.78877954101563E+0003  -2.78904223632813E+0003  -2.78911450195313E+0003  -2.78891870117188E+0003  -2.78847070312500E+0003  -2.78785839843750E+0003  -2.78717065429688E+0003  -2.78653613281250E+0003  -2.78610156250000E+0003  -2.78587866210938E+0003  -2.78594311523438E+0003  -2.78635083007813E+0003  -2.78704882812500E+0003  -2.78796069335938E+0003  -2.78902807617188E+0003  -2.79018408203125E+0003  -2.79130664062500E+0003  -2.79227832031250E+0003  -2.79300952148438E+0003  -2.79335546875000E+0003  -2.79341357421875E+0003  -2.79332299804688E+0003  -2.79319580078125E+0003  -2.79312011718750E+0003  -2.79312524414063E+0003  -2.79322509765625E+0003  -2.79342480468750E+0003  -2.79372436523438E+0003  -2.79411254882813E+0003  -2.79457568359375E+0003  -2.79510034179688E+0003  -2.79567089843750E+0003  -2.79627050781250E+0003  -2.79688085937500E+0003  -2.79748388671875E+0003  -2.79806884765625E+0003  -2.79863500976563E+0003  -2.79918359375000E+0003  -2.79971557617188E+0003  -2.80023168945313E+0003  -2.80073242187500E+0003  -2.80121826171875E+0003  -2.80168994140625E+0003  -2.80214746093750E+0003  -2.80259057617188E+0003  -2.80301928710938E+0003  -2.80343310546875E+0003  -2.80383178710938E+0003  -2.80421533203125E+0003  -2.80458300781250E+0003  -2.80493457031250E+0003  -2.80527001953125E+0003  -2.80558911132813E+0003  -2.80589208984375E+0003  -2.80617895507813E+0003  -2.80644921875000E+0003  -2.80670312500000E+0003  -2.80694042968750E+0003  -2.80716137695313E+0003  -2.80736596679688E+0003  -2.80755395507813E+0003  -2.80772583007813E+0003  -2.80788159179688E+0003  -2.80802148437500E+0003  -2.80814501953125E+0003  -2.80825292968750E+0003
  -2.83033886718750E+0003  -2.83045434570313E+0003  -2.83047192382813E+0003  -2.83039038085938E+0003  -2.83025805664063E+0003  -2.83011425781250E+0003  -2.82996655273438E+0003  -2.82981323242188E+0003  -2.82965087890625E+0003  -2.82947583007813E+0003  -2.82928686523438E+0003  -2.82908374023438E+0003  -2.82886572265625E+0003  -2.82863305664063E+0003  -2.82838549804688E+0003  -2.82812231445313E+0003  -2.82784252929688E+0003  -2.82754492187500E+0003  -2.82722827148438E+0003  -2.82689135742188E+0003  -2.82653295898438E+0003  -2.82615258789063E+0003  -2.82574926757813E+0003  -2.82532275390625E+0003  -2.82487573242188E+0003  -2.82441137695313E+0003  -2.82393286132813E+0003  -2.82344311523438E+0003  -2.82294482421875E+0003  -2.82243896484375E+0003  -2.82192504882813E+0003  -2.82140869140625E+0003  -2.82091113281250E+0003  -2.82043725585938E+0003  -2.81998681640625E+0003  -2.81958911132813E+0003  -2.81926538085938E+0003  -2.81901611328125E+0003  -2.81883447265625E+0003  -2.81870507812500E+0003  -2.81860351562500E+0003  -2.81850903320313E+0003  -2.81840258789063E+0003  -2.81826904296875E+0003  -2.81809497070313E+0003  -2.81786889648438E+0003  -2.81758154296875E+0003  -2.81723510742188E+0003  -2.81683666992188E+0003  -2.81639306640625E+0003  -2.81590991210938E+0003  -2.81538769531250E+0003  -2.81482446289063E+0003  -2.81421948242188E+0003  -2.81357275390625E+0003  -2.81289477539063E+0003  -2.81219848632813E+0003  -2.81149633789063E+0003  -2.81080664062500E+0003  -2.81016650390625E+0003  -2.80961767578125E+0003  -2.80920239257813E+0003  -2.80893994140625E+0003  -2.80878979492188E+0003  -2.80870263671875E+0003  -2.80863012695313E+0003  -2.80853881835938E+0003  -2.80842407226563E+0003  -2.80828369140625E+0003  -2.80811547851563E+0003  -2.80792211914063E+0003  -2.80771533203125E+0003  -2.80750512695313E+0003  -2.80730004882813E+0003  -2.80709082031250E+0003  -2.80684643554688E+0003  -2.80653637695313E+0003  -2.80613183593750E+0003  -2.80561889648438E+0003  -2.80499707031250E+0003  -2.80426782226563E+0003  -2.80343261718750E+0003  -2.80250610351563E+0003  -2.80151318359375E+0003  -2.80047924804688E+0003  -2.79942968750000E+0003  -2.79838427734375E+0003  -2.79736059570313E+0003  -2.79637280273438E+0003  -2.79543750000000E+0003  -2.79459887695313E+0003  -2.79391552734375E+0003  -2.79344921875000E+0003  -2.79324804687500E+0003  -2.79326904296875E+0003  -2.79343603515625E+0003  -2.79368798828125E+0003  -2.79397265625000E+0003  -2.79425537109375E+0003  -2.79451074218750E+0003  -2.79473046875000E+0003  -2.79491333007813E+0003  -2.79506494140625E+0003  -2.79518701171875E+0003  -2.79526464843750E+0003  -2.79528100585938E+0003  -2.79522436523438E+0003  -2.79508251953125E+0003  -2.79483666992188E+0003  -2.79448510742188E+0003  -2.79406469726563E+0003  -2.79362255859375E+0003  -2.79321386718750E+0003  -2.79288671875000E+0003  -2.79267480468750E+0003  -2.79260986328125E+0003  -2.79272265625000E+0003  -2.79300390625000E+0003  -2.79338598632813E+0003  -2.79369555664063E+0003  -2.79366992187500E+0003  -2.79310083007813E+0003  -2.79131347656250E+0003  -2.78951953125000E+0003  -2.78911083984375E+0003  -2.78924121093750E+0003  -2.78913159179688E+0003  -2.78864404296875E+0003  -2.78799194335938E+0003  -2.78730029296875E+0003  -2.78662402343750E+0003  -2.78600341796875E+0003  -2.78546752929688E+0003  -2.78501586914063E+0003  -2.78463305664063E+0003  -2.78430200195313E+0003  -2.78400805664063E+0003  -2.78374755859375E+0003  -2.78352172851563E+0003  -2.78332934570313E+0003  -2.78317114257813E+0003  -2.78306909179688E+0003  -2.78305004882813E+0003  -2.78313134765625E+0003  -2.78331713867188E+0003  -2.78356909179688E+0003  -2.78384082031250E+0003  -2.78409716796875E+0003  -2.78430981445313E+0003  -2.78446289062500E+0003  -2.78454394531250E+0003  -2.78454052734375E+0003  -2.78446240234375E+0003  -2.78437353515625E+0003  -2.78434619140625E+0003  -2.78445239257813E+0003  -2.78472094726563E+0003  -2.78509765625000E+0003  -2.78551953125000E+0003  -2.78592382812500E+0003  -2.78627905273438E+0003  -2.78660253906250E+0003  -2.78691528320313E+0003  -2.78723828125000E+0003  -2.78758300781250E+0003  -2.78794848632813E+0003  -2.78833422851563E+0003  -2.78873681640625E+0003  -2.78910668945313E+0003  -2.78934887695313E+0003  -2.78936694335938E+0003  -2.78907055664063E+0003  -2.78847167968750E+0003  -2.78766088867188E+0003  -2.78673193359375E+0003  -2.78592895507813E+0003  -2.78525415039063E+0003  -2.78481176757813E+0003  -2.78469995117188E+0003  -2.78498559570313E+0003  -2.78559863281250E+0003  -2.78645532226563E+0003  -2.78749023437500E+0003  -2.78862622070313E+0003  -2.78974145507813E+0003  -2.79070825195313E+0003  -2.79148510742188E+0003  -2.79206665039063E+0003  -2.79243090820313E+0003  -2.79265234375000E+0003  -2.79279052734375E+0003  -2.79289892578125E+0003  -2.79302001953125E+0003  -2.79318823242188E+0003  -2.79341748046875E+0003  -2.79371386718750E+0003  -2.79407373046875E+0003  -2.79449218750000E+0003  -2.79496362304688E+0003  -2.79547973632813E+0003  -2.79602685546875E+0003  -2.79659008789063E+0003  -2.79715527343750E+0003  -2.79771215820313E+0003  -2.79825781250000E+0003  -2.79879052734375E+0003  -2.79930834960938E+0003  -2.79981030273438E+0003  -2.80029711914063E+0003  -2.80076953125000E+0003  -2.80122851562500E+0003  -2.80167382812500E+0003  -2.80210546875000E+0003  -2.80252319335938E+0003  -2.80292651367188E+0003  -2.80331518554688E+0003  -2.80368896484375E+0003  -2.80404687500000E+0003  -2.80438916015625E+0003  -2.80471508789063E+0003  -2.80502514648438E+0003  -2.80531884765625E+0003  -2.80559667968750E+0003  -2.80585839843750E+0003  -2.80610424804688E+0003  -2.80633398437500E+0003  -2.80654760742188E+0003  -2.80674560546875E+0003  -2.80692773437500E+0003  -2.80709472656250E+0003  -2.80724609375000E+0003  -2.80738256835938E+0003  -2.80750415039063E+0003  -2.80761108398438E+0003
  -2.82987500000000E+0003  -2.82997192382813E+0003  -2.82999584960938E+0003  -2.82994213867188E+0003  -2.82983471679688E+0003  -2.82970410156250E+0003  -2.82956079101563E+0003  -2.82940673828125E+0003  -2.82924169921875E+0003  -2.82906347656250E+0003  -2.82887084960938E+0003  -2.82866235351563E+0003  -2.82843750000000E+0003  -2.82819702148438E+0003  -2.82794042968750E+0003  -2.82766821289063E+0003  -2.82737890625000E+0003  -2.82707153320313E+0003  -2.82674536132813E+0003  -2.82639916992188E+0003  -2.82603222656250E+0003  -2.82564355468750E+0003  -2.82523266601563E+0003  -2.82479931640625E+0003  -2.82434570312500E+0003  -2.82387500000000E+0003  -2.82339062500000E+0003  -2.82289575195313E+0003  -2.82239062500000E+0003  -2.82187622070313E+0003  -2.82135229492188E+0003  -2.82082861328125E+0003  -2.82032226562500E+0003  -2.81984252929688E+0003  -2.81940185546875E+0003  -2.81901416015625E+0003  -2.81868969726563E+0003  -2.81842944335938E+0003  -2.81823071289063E+0003  -2.81808056640625E+0003  -2.81795922851563E+0003  -2.81784765625000E+0003  -2.81772656250000E+0003  -2.81758105468750E+0003  -2.81739697265625E+0003  -2.81716088867188E+0003  -2.81686132812500E+0003  -2.81650000000000E+0003  -2.81608447265625E+0003  -2.81562255859375E+0003  -2.81512060546875E+0003  -2.81457983398438E+0003  -2.81399926757813E+0003  -2.81337817382813E+0003  -2.81271752929688E+0003  -2.81202685546875E+0003  -2.81131860351563E+0003  -2.81060449218750E+0003  -2.80990258789063E+0003  -2.80925292968750E+0003  -2.80870019531250E+0003  -2.80828979492188E+0003  -2.80804296875000E+0003  -2.80791552734375E+0003  -2.80785327148438E+0003  -2.80780468750000E+0003  -2.80773339843750E+0003  -2.80763427734375E+0003  -2.80750537109375E+0003  -2.80734448242188E+0003  -2.80715527343750E+0003  -2.80695068359375E+0003  -2.80674316406250E+0003  -2.80654370117188E+0003  -2.80634619140625E+0003  -2.80612548828125E+0003  -2.80585522460938E+0003  -2.80551147460938E+0003  -2.80507348632813E+0003  -2.80452514648438E+0003  -2.80385009765625E+0003  -2.80303393554688E+0003  -2.80209301757813E+0003  -2.80106787109375E+0003  -2.79999853515625E+0003  -2.79892358398438E+0003  -2.79786645507813E+0003  -2.79684228515625E+0003  -2.79586352539063E+0003  -2.79494433593750E+0003  -2.79412426757813E+0003  -2.79345507812500E+0003  -2.79299121093750E+0003  -2.79277465820313E+0003  -2.79276611328125E+0003  -2.79289697265625E+0003  -2.79310937500000E+0003  -2.79335351562500E+0003  -2.79359545898438E+0003  -2.79381079101563E+0003  -2.79398876953125E+0003  -2.79412475585938E+0003  -2.79422436523438E+0003  -2.79429077148438E+0003  -2.79431396484375E+0003  -2.79428271484375E+0003  -2.79419091796875E+0003  -2.79403125000000E+0003  -2.79379199218750E+0003  -2.79347241210938E+0003  -2.79309960937500E+0003  -2.79270996093750E+0003  -2.79235009765625E+0003  -2.79206542968750E+0003  -2.79189770507813E+0003  -2.79188793945313E+0003  -2.79207617187500E+0003  -2.79246728515625E+0003  -2.79301391601563E+0003  -2.79356054687500E+0003  -2.79401196289063E+0003  -2.79427368164063E+0003  -2.79118530273438E+0003  -2.78788281250000E+0003  -2.78799267578125E+0003  -2.78848706054688E+0003  -2.78845605468750E+0003  -2.78797363281250E+0003  -2.78730883789063E+0003  -2.78660888671875E+0003  -2.78593212890625E+0003  -2.78531835937500E+0003  -2.78479370117188E+0003  -2.78435644531250E+0003  -2.78399023437500E+0003  -2.78367675781250E+0003  -2.78340039062500E+0003  -2.78315771484375E+0003  -2.78295019531250E+0003  -2.78277465820313E+0003  -2.78263256835938E+0003  -2.78255151367188E+0003  -2.78256640625000E+0003  -2.78269873046875E+0003  -2.78295483398438E+0003  -2.78328930664063E+0003  -2.78364770507813E+0003  -2.78399023437500E+0003  -2.78428320312500E+0003  -2.78450317382813E+0003  -2.78462939453125E+0003  -2.78464160156250E+0003  -2.78454907226563E+0003  -2.78443261718750E+0003  -2.78438305664063E+0003  -2.78448901367188E+0003  -2.78478735351563E+0003  -2.78521289062500E+0003  -2.78568872070313E+0003  -2.78613867187500E+0003  -2.78652490234375E+0003  -2.78686767578125E+0003  -2.78719238281250E+0003  -2.78752416992188E+0003  -2.78787719726563E+0003  -2.78825146484375E+0003  -2.78864672851563E+0003  -2.78906054687500E+0003  -2.78943603515625E+0003  -2.78966455078125E+0003  -2.78963427734375E+0003  -2.78924072265625E+0003  -2.78849243164063E+0003  -2.78748608398438E+0003  -2.78639233398438E+0003  -2.78536914062500E+0003  -2.78447387695313E+0003  -2.78383374023438E+0003  -2.78356469726563E+0003  -2.78373608398438E+0003  -2.78426220703125E+0003  -2.78505688476563E+0003  -2.78605249023438E+0003  -2.78716308593750E+0003  -2.78826391601563E+0003  -2.78923754882813E+0003  -2.79007202148438E+0003  -2.79084521484375E+0003  -2.79152709960938E+0003  -2.79208007812500E+0003  -2.79250024414063E+0003  -2.79279589843750E+0003  -2.79302612304688E+0003  -2.79325146484375E+0003  -2.79349804687500E+0003  -2.79378125000000E+0003  -2.79410595703125E+0003  -2.79447387695313E+0003  -2.79488818359375E+0003  -2.79534692382813E+0003  -2.79583984375000E+0003  -2.79635546875000E+0003  -2.79688232421875E+0003  -2.79741088867188E+0003  -2.79793579101563E+0003  -2.79845190429688E+0003  -2.79895385742188E+0003  -2.79943920898438E+0003  -2.79990917968750E+0003  -2.80036450195313E+0003  -2.80080688476563E+0003  -2.80123681640625E+0003  -2.80165356445313E+0003  -2.80205688476563E+0003  -2.80244677734375E+0003  -2.80282275390625E+0003  -2.80318408203125E+0003  -2.80353027343750E+0003  -2.80386083984375E+0003  -2.80417578125000E+0003  -2.80447485351563E+0003  -2.80475830078125E+0003  -2.80502636718750E+0003  -2.80527856445313E+0003  -2.80551538085938E+0003  -2.80573681640625E+0003  -2.80594262695313E+0003  -2.80613330078125E+0003  -2.80630908203125E+0003  -2.80647021484375E+0003  -2.80661718750000E+0003  -2.80675000000000E+0003  -2.80686889648438E+0003  -2.80697436523438E+0003
  -2.82936523437500E+0003  -2.82944873046875E+0003  -2.82947290039063E+0003  -2.82943627929688E+0003  -2.82935180664063E+0003  -2.82923657226563E+0003  -2.82910083007813E+0003  -2.82895141601563E+0003  -2.82878833007813E+0003  -2.82861059570313E+0003  -2.82841650390625E+0003  -2.82820483398438E+0003  -2.82797558593750E+0003  -2.82772924804688E+0003  -2.82746630859375E+0003  -2.82718652343750E+0003  -2.82688964843750E+0003  -2.82657495117188E+0003  -2.82624121093750E+0003  -2.82588818359375E+0003  -2.82551464843750E+0003  -2.82512011718750E+0003  -2.82470312500000E+0003  -2.82426416015625E+0003  -2.82380517578125E+0003  -2.82332934570313E+0003  -2.82283959960938E+0003  -2.82233886718750E+0003  -2.82182666015625E+0003  -2.82130175781250E+0003  -2.82076977539063E+0003  -2.82024169921875E+0003  -2.81972851562500E+0003  -2.81924584960938E+0003  -2.81880834960938E+0003  -2.81842504882813E+0003  -2.81809863281250E+0003  -2.81782983398438E+0003  -2.81761865234375E+0003  -2.81745385742188E+0003  -2.81731811523438E+0003  -2.81719335937500E+0003  -2.81706176757813E+0003  -2.81690747070313E+0003  -2.81671435546875E+0003  -2.81646752929688E+0003  -2.81615307617188E+0003  -2.81577319335938E+0003  -2.81533740234375E+0003  -2.81485424804688E+0003  -2.81433203125000E+0003  -2.81377294921875E+0003  -2.81317651367188E+0003  -2.81254296875000E+0003  -2.81187402343750E+0003  -2.81117895507813E+0003  -2.81046899414063E+0003  -2.80975537109375E+0003  -2.80905566406250E+0003  -2.80841040039063E+0003  -2.80786401367188E+0003  -2.80746313476563E+0003  -2.80722851562500E+0003  -2.80711523437500E+0003  -2.80706860351563E+0003  -2.80703540039063E+0003  -2.80697875976563E+0003  -2.80689282226563E+0003  -2.80677587890625E+0003  -2.80662500000000E+0003  -2.80644433593750E+0003  -2.80624731445313E+0003  -2.80604760742188E+0003  -2.80585815429688E+0003  -2.80567749023438E+0003  -2.80548706054688E+0003  -2.80526879882813E+0003  -2.80500659179688E+0003  -2.80467016601563E+0003  -2.80421606445313E+0003  -2.80360034179688E+0003  -2.80278271484375E+0003  -2.80178735351563E+0003  -2.80068774414063E+0003  -2.79955102539063E+0003  -2.79843603515625E+0003  -2.79736962890625E+0003  -2.79635864257813E+0003  -2.79540966796875E+0003  -2.79453100585938E+0003  -2.79375268554688E+0003  -2.79311596679688E+0003  -2.79266333007813E+0003  -2.79242700195313E+0003  -2.79237524414063E+0003  -2.79245190429688E+0003  -2.79260668945313E+0003  -2.79279370117188E+0003  -2.79298388671875E+0003  -2.79315356445313E+0003  -2.79328808593750E+0003  -2.79337695312500E+0003  -2.79342358398438E+0003  -2.79343261718750E+0003  -2.79340039062500E+0003  -2.79332299804688E+0003  -2.79319750976563E+0003  -2.79302001953125E+0003  -2.79278417968750E+0003  -2.79249121093750E+0003  -2.79215991210938E+0003  -2.79181689453125E+0003  -2.79149829101563E+0003  -2.79124462890625E+0003  -2.79110253906250E+0003  -2.79111938476563E+0003  -2.79134179687500E+0003  -2.79178149414063E+0003  -2.79239990234375E+0003  -2.79307299804688E+0003  -2.79382983398438E+0003  -2.79470263671875E+0003  -2.79219750976563E+0003  -2.78851049804688E+0003  -2.78779589843750E+0003  -2.78795776367188E+0003  -2.78783569335938E+0003  -2.78731640625000E+0003  -2.78664038085938E+0003  -2.78594213867188E+0003  -2.78527514648438E+0003  -2.78467578125000E+0003  -2.78416748046875E+0003  -2.78374755859375E+0003  -2.78339892578125E+0003  -2.78310375976563E+0003  -2.78284594726563E+0003  -2.78262231445313E+0003  -2.78243457031250E+0003  -2.78228027343750E+0003  -2.78216088867188E+0003  -2.78210620117188E+0003  -2.78215307617188E+0003  -2.78232592773438E+0003  -2.78263208007813E+0003  -2.78302465820313E+0003  -2.78344604492188E+0003  -2.78385278320313E+0003  -2.78420800781250E+0003  -2.78448144531250E+0003  -2.78464477539063E+0003  -2.78467309570313E+0003  -2.78457519531250E+0003  -2.78444433593750E+0003  -2.78438500976563E+0003  -2.78449804687500E+0003  -2.78482568359375E+0003  -2.78529394531250E+0003  -2.78581616210938E+0003  -2.78630664062500E+0003  -2.78672216796875E+0003  -2.78708520507813E+0003  -2.78742407226563E+0003  -2.78776684570313E+0003  -2.78812915039063E+0003  -2.78851123046875E+0003  -2.78891259765625E+0003  -2.78933105468750E+0003  -2.78970458984375E+0003  -2.78991381835938E+0003  -2.78983593750000E+0003  -2.78935522460938E+0003  -2.78847924804688E+0003  -2.78730981445313E+0003  -2.78608666992188E+0003  -2.78489233398438E+0003  -2.78382958984375E+0003  -2.78304248046875E+0003  -2.78265771484375E+0003  -2.78274096679688E+0003  -2.78319018554688E+0003  -2.78392578125000E+0003  -2.78488281250000E+0003  -2.78597167968750E+0003  -2.78707690429688E+0003  -2.78809619140625E+0003  -2.78904467773438E+0003  -2.78997680664063E+0003  -2.79093261718750E+0003  -2.79176245117188E+0003  -2.79241284179688E+0003  -2.79285449218750E+0003  -2.79315966796875E+0003  -2.79341113281250E+0003  -2.79364965820313E+0003  -2.79390258789063E+0003  -2.79418115234375E+0003  -2.79449316406250E+0003  -2.79484790039063E+0003  -2.79524902343750E+0003  -2.79568920898438E+0003  -2.79615966796875E+0003  -2.79665112304688E+0003  -2.79715429687500E+0003  -2.79766040039063E+0003  -2.79816113281250E+0003  -2.79864746093750E+0003  -2.79911547851563E+0003  -2.79956640625000E+0003  -2.80000244140625E+0003  -2.80042553710938E+0003  -2.80083642578125E+0003  -2.80123486328125E+0003  -2.80162060546875E+0003  -2.80199365234375E+0003  -2.80235351562500E+0003  -2.80269946289063E+0003  -2.80303100585938E+0003  -2.80334790039063E+0003  -2.80364965820313E+0003  -2.80393652343750E+0003  -2.80420849609375E+0003  -2.80446557617188E+0003  -2.80470751953125E+0003  -2.80493481445313E+0003  -2.80514721679688E+0003  -2.80534472656250E+0003  -2.80552783203125E+0003  -2.80569677734375E+0003  -2.80585180664063E+0003  -2.80599365234375E+0003  -2.80612255859375E+0003  -2.80623852539063E+0003  -2.80634228515625E+0003
  -2.82882763671875E+0003  -2.82890087890625E+0003  -2.82892358398438E+0003  -2.82889599609375E+0003  -2.82882568359375E+0003  -2.82872241210938E+0003  -2.82859545898438E+0003  -2.82845190429688E+0003  -2.82829296875000E+0003  -2.82811694335938E+0003  -2.82792309570313E+0003  -2.82771020507813E+0003  -2.82747875976563E+0003  -2.82722900390625E+0003  -2.82696142578125E+0003  -2.82667651367188E+0003  -2.82637402343750E+0003  -2.82605346679688E+0003  -2.82571459960938E+0003  -2.82535668945313E+0003  -2.82497851562500E+0003  -2.82457910156250E+0003  -2.82415673828125E+0003  -2.82371142578125E+0003  -2.82324707031250E+0003  -2.82276611328125E+0003  -2.82226977539063E+0003  -2.82175903320313E+0003  -2.82123706054688E+0003  -2.82070312500000E+0003  -2.82016186523438E+0003  -2.81962695312500E+0003  -2.81911083984375E+0003  -2.81862890625000E+0003  -2.81819287109375E+0003  -2.81780908203125E+0003  -2.81747875976563E+0003  -2.81720336914063E+0003  -2.81698339843750E+0003  -2.81680957031250E+0003  -2.81666528320313E+0003  -2.81653369140625E+0003  -2.81639770507813E+0003  -2.81623950195313E+0003  -2.81604101562500E+0003  -2.81578442382813E+0003  -2.81545385742188E+0003  -2.81505273437500E+0003  -2.81459252929688E+0003  -2.81408520507813E+0003  -2.81354101562500E+0003  -2.81296362304688E+0003  -2.81235375976563E+0003  -2.81171264648438E+0003  -2.81104248046875E+0003  -2.81035253906250E+0003  -2.80965307617188E+0003  -2.80895483398438E+0003  -2.80827465820313E+0003  -2.80764990234375E+0003  -2.80712280273438E+0003  -2.80673657226563E+0003  -2.80651000976563E+0003  -2.80640039062500E+0003  -2.80635644531250E+0003  -2.80632714843750E+0003  -2.80627661132813E+0003  -2.80619873046875E+0003  -2.80608984375000E+0003  -2.80594726562500E+0003  -2.80577392578125E+0003  -2.80558422851563E+0003  -2.80539306640625E+0003  -2.80521411132813E+0003  -2.80505151367188E+0003  -2.80489575195313E+0003  -2.80474243164063E+0003  -2.80459155273438E+0003  -2.80439916992188E+0003  -2.80407666015625E+0003  -2.80353442382813E+0003  -2.80268994140625E+0003  -2.80158471679688E+0003  -2.80035620117188E+0003  -2.79911254882813E+0003  -2.79793530273438E+0003  -2.79685351562500E+0003  -2.79586230468750E+0003  -2.79495776367188E+0003  -2.79413793945313E+0003  -2.79342089843750E+0003  -2.79283398437500E+0003  -2.79240551757813E+0003  -2.79215600585938E+0003  -2.79206079101563E+0003  -2.79207690429688E+0003  -2.79216357421875E+0003  -2.79228344726563E+0003  -2.79241113281250E+0003  -2.79252587890625E+0003  -2.79261010742188E+0003  -2.79265087890625E+0003  -2.79264916992188E+0003  -2.79260961914063E+0003  -2.79253295898438E+0003  -2.79241918945313E+0003  -2.79226757812500E+0003  -2.79207641601563E+0003  -2.79184301757813E+0003  -2.79156958007813E+0003  -2.79127075195313E+0003  -2.79096459960938E+0003  -2.79067578125000E+0003  -2.79043798828125E+0003  -2.79029833984375E+0003  -2.79030566406250E+0003  -2.79050781250000E+0003  -2.79090795898438E+0003  -2.79144604492188E+0003  -2.79200781250000E+0003  -2.79248388671875E+0003  -2.79265429687500E+0003  -2.79131665039063E+0003  -2.78912597656250E+0003  -2.78797290039063E+0003  -2.78762207031250E+0003  -2.78726342773438E+0003  -2.78667041015625E+0003  -2.78598779296875E+0003  -2.78530395507813E+0003  -2.78465917968750E+0003  -2.78408276367188E+0003  -2.78359594726563E+0003  -2.78319531250000E+0003  -2.78286450195313E+0003  -2.78258715820313E+0003  -2.78234814453125E+0003  -2.78214501953125E+0003  -2.78197900390625E+0003  -2.78185009765625E+0003  -2.78176074218750E+0003  -2.78173681640625E+0003  -2.78181030273438E+0003  -2.78200512695313E+0003  -2.78233081054688E+0003  -2.78274389648438E+0003  -2.78319067382813E+0003  -2.78362841796875E+0003  -2.78401733398438E+0003  -2.78432299804688E+0003  -2.78451391601563E+0003  -2.78456176757813E+0003  -2.78447534179688E+0003  -2.78435278320313E+0003  -2.78430419921875E+0003  -2.78443530273438E+0003  -2.78478930664063E+0003  -2.78528979492188E+0003  -2.78584692382813E+0003  -2.78637133789063E+0003  -2.78681787109375E+0003  -2.78720849609375E+0003  -2.78757104492188E+0003  -2.78793334960938E+0003  -2.78831005859375E+0003  -2.78869970703125E+0003  -2.78910131835938E+0003  -2.78951025390625E+0003  -2.78986328125000E+0003  -2.79003833007813E+0003  -2.78990966796875E+0003  -2.78935864257813E+0003  -2.78839306640625E+0003  -2.78711767578125E+0003  -2.78581958007813E+0003  -2.78452709960938E+0003  -2.78337280273438E+0003  -2.78250708007813E+0003  -2.78205981445313E+0003  -2.78208886718750E+0003  -2.78248242187500E+0003  -2.78317089843750E+0003  -2.78409765625000E+0003  -2.78517968750000E+0003  -2.78632861328125E+0003  -2.78746948242188E+0003  -2.78859033203125E+0003  -2.78968920898438E+0003  -2.79081542968750E+0003  -2.79180761718750E+0003  -2.79258081054688E+0003  -2.79309228515625E+0003  -2.79341845703125E+0003  -2.79365161132813E+0003  -2.79384863281250E+0003  -2.79405053710938E+0003  -2.79427172851563E+0003  -2.79452368164063E+0003  -2.79481933593750E+0003  -2.79516577148438E+0003  -2.79555810546875E+0003  -2.79598901367188E+0003  -2.79645068359375E+0003  -2.79693334960938E+0003  -2.79742504882813E+0003  -2.79791308593750E+0003  -2.79838549804688E+0003  -2.79883618164063E+0003  -2.79926782226563E+0003  -2.79968261718750E+0003  -2.80008398437500E+0003  -2.80047290039063E+0003  -2.80084960937500E+0003  -2.80121411132813E+0003  -2.80156665039063E+0003  -2.80190649414063E+0003  -2.80223364257813E+0003  -2.80254785156250E+0003  -2.80284814453125E+0003  -2.80313500976563E+0003  -2.80340795898438E+0003  -2.80366699218750E+0003  -2.80391210937500E+0003  -2.80414331054688E+0003  -2.80436059570313E+0003  -2.80456372070313E+0003  -2.80475268554688E+0003  -2.80492773437500E+0003  -2.80508959960938E+0003  -2.80523852539063E+0003  -2.80537500000000E+0003  -2.80549975585938E+0003  -2.80561254882813E+0003  -2.80571459960938E+0003
  -2.82826318359375E+0003  -2.82832861328125E+0003  -2.82834863281250E+0003  -2.82832446289063E+0003  -2.82826171875000E+0003  -2.82816748046875E+0003  -2.82804858398438E+0003  -2.82791162109375E+0003  -2.82775683593750E+0003  -2.82758374023438E+0003  -2.82739135742188E+0003  -2.82717895507813E+0003  -2.82694677734375E+0003  -2.82669555664063E+0003  -2.82642553710938E+0003  -2.82613720703125E+0003  -2.82583056640625E+0003  -2.82550585937500E+0003  -2.82516259765625E+0003  -2.82480078125000E+0003  -2.82441821289063E+0003  -2.82401318359375E+0003  -2.82358398437500E+0003  -2.82313159179688E+0003  -2.82266137695313E+0003  -2.82217602539063E+0003  -2.82167358398438E+0003  -2.82115234375000E+0003  -2.82061547851563E+0003  -2.82007031250000E+0003  -2.81952221679688E+0003  -2.81898242187500E+0003  -2.81846557617188E+0003  -2.81798437500000E+0003  -2.81754760742188E+0003  -2.81716015625000E+0003  -2.81682446289063E+0003  -2.81654296875000E+0003  -2.81631713867188E+0003  -2.81613867187500E+0003  -2.81599145507813E+0003  -2.81585888671875E+0003  -2.81572436523438E+0003  -2.81556835937500E+0003  -2.81536889648438E+0003  -2.81510473632813E+0003  -2.81475756835938E+0003  -2.81433251953125E+0003  -2.81384497070313E+0003  -2.81331152343750E+0003  -2.81274560546875E+0003  -2.81215234375000E+0003  -2.81153344726563E+0003  -2.81089013671875E+0003  -2.81022509765625E+0003  -2.80954760742188E+0003  -2.80886718750000E+0003  -2.80819458007813E+0003  -2.80754492187500E+0003  -2.80695166015625E+0003  -2.80645190429688E+0003  -2.80608349609375E+0003  -2.80586206054688E+0003  -2.80574975585938E+0003  -2.80569995117188E+0003  -2.80566601562500E+0003  -2.80561499023438E+0003  -2.80553906250000E+0003  -2.80543408203125E+0003  -2.80529516601563E+0003  -2.80512524414063E+0003  -2.80493798828125E+0003  -2.80474804687500E+0003  -2.80456982421875E+0003  -2.80441308593750E+0003  -2.80428125000000E+0003  -2.80419458007813E+0003  -2.80418652343750E+0003  -2.80419433593750E+0003  -2.80405786132813E+0003  -2.80361206054688E+0003  -2.80270703125000E+0003  -2.80142187500000E+0003  -2.80000830078125E+0003  -2.79863061523438E+0003  -2.79738159179688E+0003  -2.79628442382813E+0003  -2.79532055664063E+0003  -2.79447290039063E+0003  -2.79372802734375E+0003  -2.79308935546875E+0003  -2.79256909179688E+0003  -2.79217895507813E+0003  -2.79192675781250E+0003  -2.79179345703125E+0003  -2.79174951171875E+0003  -2.79176538085938E+0003  -2.79181420898438E+0003  -2.79187475585938E+0003  -2.79192895507813E+0003  -2.79195898437500E+0003  -2.79195141601563E+0003  -2.79190625000000E+0003  -2.79182690429688E+0003  -2.79171557617188E+0003  -2.79157373046875E+0003  -2.79140209960938E+0003  -2.79120019531250E+0003  -2.79096752929688E+0003  -2.79070751953125E+0003  -2.79042993164063E+0003  -2.79014770507813E+0003  -2.78987548828125E+0003  -2.78963891601563E+0003  -2.78948242187500E+0003  -2.78945190429688E+0003  -2.78959228515625E+0003  -2.78989477539063E+0003  -2.79027514648438E+0003  -2.79062597656250E+0003  -2.79082153320313E+0003  -2.79068090820313E+0003  -2.78993725585938E+0003  -2.78878417968750E+0003  -2.78784765625000E+0003  -2.78724072265625E+0003  -2.78666235351563E+0003  -2.78600830078125E+0003  -2.78533398437500E+0003  -2.78467895507813E+0003  -2.78406958007813E+0003  -2.78352758789063E+0003  -2.78307006835938E+0003  -2.78269409179688E+0003  -2.78238500976563E+0003  -2.78212768554688E+0003  -2.78190893554688E+0003  -2.78172631835938E+0003  -2.78158178710938E+0003  -2.78147631835938E+0003  -2.78141308593750E+0003  -2.78141284179688E+0003  -2.78150073242188E+0003  -2.78169848632813E+0003  -2.78201611328125E+0003  -2.78241796875000E+0003  -2.78285766601563E+0003  -2.78329418945313E+0003  -2.78368872070313E+0003  -2.78400634765625E+0003  -2.78421459960938E+0003  -2.78428515625000E+0003  -2.78422583007813E+0003  -2.78413354492188E+0003  -2.78411621093750E+0003  -2.78427685546875E+0003  -2.78465771484375E+0003  -2.78518457031250E+0003  -2.78576977539063E+0003  -2.78632666015625E+0003  -2.78680957031250E+0003  -2.78723754882813E+0003  -2.78763525390625E+0003  -2.78802709960938E+0003  -2.78842456054688E+0003  -2.78882421875000E+0003  -2.78922119140625E+0003  -2.78960937500000E+0003  -2.78992626953125E+0003  -2.79005517578125E+0003  -2.78987548828125E+0003  -2.78927392578125E+0003  -2.78826025390625E+0003  -2.78693798828125E+0003  -2.78560595703125E+0003  -2.78427709960938E+0003  -2.78308911132813E+0003  -2.78219140625000E+0003  -2.78171313476563E+0003  -2.78170727539063E+0003  -2.78206372070313E+0003  -2.78271997070313E+0003  -2.78362744140625E+0003  -2.78471508789063E+0003  -2.78592382812500E+0003  -2.78720288085938E+0003  -2.78849414062500E+0003  -2.78973828125000E+0003  -2.79097265625000E+0003  -2.79205468750000E+0003  -2.79288476562500E+0003  -2.79341357421875E+0003  -2.79372070312500E+0003  -2.79390551757813E+0003  -2.79404248046875E+0003  -2.79418579101563E+0003  -2.79435107421875E+0003  -2.79454809570313E+0003  -2.79479199218750E+0003  -2.79509179687500E+0003  -2.79544458007813E+0003  -2.79584375000000E+0003  -2.79628247070313E+0003  -2.79674975585938E+0003  -2.79722998046875E+0003  -2.79770727539063E+0003  -2.79816674804688E+0003  -2.79860083007813E+0003  -2.79901220703125E+0003  -2.79940502929688E+0003  -2.79978222656250E+0003  -2.80014648437500E+0003  -2.80049804687500E+0003  -2.80083740234375E+0003  -2.80116503906250E+0003  -2.80148120117188E+0003  -2.80178588867188E+0003  -2.80207861328125E+0003  -2.80235986328125E+0003  -2.80262939453125E+0003  -2.80288671875000E+0003  -2.80313159179688E+0003  -2.80336425781250E+0003  -2.80358398437500E+0003  -2.80379077148438E+0003  -2.80398437500000E+0003  -2.80416455078125E+0003  -2.80433178710938E+0003  -2.80448657226563E+0003  -2.80462939453125E+0003  -2.80476049804688E+0003  -2.80488085937500E+0003  -2.80499072265625E+0003  -2.80509082031250E+0003
  -2.82767041015625E+0003  -2.82772753906250E+0003  -2.82774389648438E+0003  -2.82772094726563E+0003  -2.82766308593750E+0003  -2.82757543945313E+0003  -2.82746386718750E+0003  -2.82733251953125E+0003  -2.82718212890625E+0003  -2.82701220703125E+0003  -2.82682202148438E+0003  -2.82661132812500E+0003  -2.82638037109375E+0003  -2.82612890625000E+0003  -2.82585815429688E+0003  -2.82556762695313E+0003  -2.82525830078125E+0003  -2.82493017578125E+0003  -2.82458300781250E+0003  -2.82421582031250E+0003  -2.82382641601563E+0003  -2.82341308593750E+0003  -2.82297583007813E+0003  -2.82251684570313E+0003  -2.82204199218750E+0003  -2.82155322265625E+0003  -2.82104589843750E+0003  -2.82051684570313E+0003  -2.81996777343750E+0003  -2.81940893554688E+0003  -2.81885205078125E+0003  -2.81830859375000E+0003  -2.81779052734375E+0003  -2.81730761718750E+0003  -2.81686694335938E+0003  -2.81647363281250E+0003  -2.81613134765625E+0003  -2.81584375000000E+0003  -2.81561401367188E+0003  -2.81543408203125E+0003  -2.81528784179688E+0003  -2.81515966796875E+0003  -2.81503271484375E+0003  -2.81488452148438E+0003  -2.81468896484375E+0003  -2.81442041015625E+0003  -2.81405639648438E+0003  -2.81360546875000E+0003  -2.81308911132813E+0003  -2.81252880859375E+0003  -2.81194409179688E+0003  -2.81134033203125E+0003  -2.81071850585938E+0003  -2.81007910156250E+0003  -2.80942456054688E+0003  -2.80876342773438E+0003  -2.80810595703125E+0003  -2.80746191406250E+0003  -2.80684619140625E+0003  -2.80628735351563E+0003  -2.80581689453125E+0003  -2.80546704101563E+0003  -2.80525073242188E+0003  -2.80513403320313E+0003  -2.80507519531250E+0003  -2.80503320312500E+0003  -2.80497729492188E+0003  -2.80489892578125E+0003  -2.80479248046875E+0003  -2.80465185546875E+0003  -2.80447827148438E+0003  -2.80428344726563E+0003  -2.80407983398438E+0003  -2.80387939453125E+0003  -2.80369750976563E+0003  -2.80355444335938E+0003  -2.80350952148438E+0003  -2.80365649414063E+0003  -2.80391235351563E+0003  -2.80401684570313E+0003  -2.80369482421875E+0003  -2.80270288085938E+0003  -2.80118505859375E+0003  -2.79955664062500E+0003  -2.79804370117188E+0003  -2.79673120117188E+0003  -2.79562915039063E+0003  -2.79470336914063E+0003  -2.79392480468750E+0003  -2.79326928710938E+0003  -2.79272485351563E+0003  -2.79228662109375E+0003  -2.79194921875000E+0003  -2.79170678710938E+0003  -2.79154516601563E+0003  -2.79144750976563E+0003  -2.79139746093750E+0003  -2.79137792968750E+0003  -2.79137329101563E+0003  -2.79136694335938E+0003  -2.79134326171875E+0003  -2.79128930664063E+0003  -2.79120483398438E+0003  -2.79109130859375E+0003  -2.79095117187500E+0003  -2.79078588867188E+0003  -2.79059667968750E+0003  -2.79038427734375E+0003  -2.79014990234375E+0003  -2.78989624023438E+0003  -2.78962963867188E+0003  -2.78935742187500E+0003  -2.78908740234375E+0003  -2.78883862304688E+0003  -2.78865087890625E+0003  -2.78856494140625E+0003  -2.78862158203125E+0003  -2.78880859375000E+0003  -2.78904272460938E+0003  -2.78923217773438E+0003  -2.78928247070313E+0003  -2.78910839843750E+0003  -2.78864111328125E+0003  -2.78795434570313E+0003  -2.78725341796875E+0003  -2.78660644531250E+0003  -2.78595947265625E+0003  -2.78530126953125E+0003  -2.78465698242188E+0003  -2.78404663085938E+0003  -2.78348681640625E+0003  -2.78299267578125E+0003  -2.78257714843750E+0003  -2.78223632812500E+0003  -2.78195678710938E+0003  -2.78172509765625E+0003  -2.78152954101563E+0003  -2.78136743164063E+0003  -2.78123999023438E+0003  -2.78114843750000E+0003  -2.78109643554688E+0003  -2.78110083007813E+0003  -2.78118286132813E+0003  -2.78136303710938E+0003  -2.78165185546875E+0003  -2.78202001953125E+0003  -2.78242773437500E+0003  -2.78283740234375E+0003  -2.78321362304688E+0003  -2.78352441406250E+0003  -2.78374072265625E+0003  -2.78383569335938E+0003  -2.78381640625000E+0003  -2.78377172851563E+0003  -2.78380200195313E+0003  -2.78400366210938E+0003  -2.78441650390625E+0003  -2.78497119140625E+0003  -2.78558593750000E+0003  -2.78617919921875E+0003  -2.78670727539063E+0003  -2.78718432617188E+0003  -2.78762939453125E+0003  -2.78806152343750E+0003  -2.78848730468750E+0003  -2.78890014648438E+0003  -2.78929174804688E+0003  -2.78965234375000E+0003  -2.78992407226563E+0003  -2.79000146484375E+0003  -2.78977563476563E+0003  -2.78914599609375E+0003  -2.78812426757813E+0003  -2.78680981445313E+0003  -2.78546948242188E+0003  -2.78414819335938E+0003  -2.78296313476563E+0003  -2.78205664062500E+0003  -2.78155444335938E+0003  -2.78151831054688E+0003  -2.78185058593750E+0003  -2.78248608398438E+0003  -2.78338159179688E+0003  -2.78447753906250E+0003  -2.78572900390625E+0003  -2.78709057617188E+0003  -2.78848193359375E+0003  -2.78981616210938E+0003  -2.79114013671875E+0003  -2.79228710937500E+0003  -2.79315673828125E+0003  -2.79368432617188E+0003  -2.79395703125000E+0003  -2.79408959960938E+0003  -2.79417089843750E+0003  -2.79426708984375E+0003  -2.79439135742188E+0003  -2.79455053710938E+0003  -2.79475878906250E+0003  -2.79502661132813E+0003  -2.79535156250000E+0003  -2.79572875976563E+0003  -2.79615087890625E+0003  -2.79660620117188E+0003  -2.79707666015625E+0003  -2.79754394531250E+0003  -2.79799072265625E+0003  -2.79840795898438E+0003  -2.79879956054688E+0003  -2.79916894531250E+0003  -2.79952075195313E+0003  -2.79985766601563E+0003  -2.80018041992188E+0003  -2.80049047851563E+0003  -2.80078906250000E+0003  -2.80107666015625E+0003  -2.80135424804688E+0003  -2.80162207031250E+0003  -2.80188085937500E+0003  -2.80213061523438E+0003  -2.80237060546875E+0003  -2.80260034179688E+0003  -2.80281933593750E+0003  -2.80302734375000E+0003  -2.80322363281250E+0003  -2.80340795898438E+0003  -2.80357958984375E+0003  -2.80373876953125E+0003  -2.80388647460938E+0003  -2.80402319335938E+0003  -2.80414941406250E+0003  -2.80426562500000E+0003  -2.80437255859375E+0003  -2.80447070312500E+0003
  -2.82705371093750E+0003  -2.82710205078125E+0003  -2.82711328125000E+0003  -2.82708935546875E+0003  -2.82703369140625E+0003  -2.82695043945313E+0003  -2.82684350585938E+0003  -2.82671679687500E+0003  -2.82657031250000E+0003  -2.82640380859375E+0003  -2.82621655273438E+0003  -2.82600830078125E+0003  -2.82577929687500E+0003  -2.82552929687500E+0003  -2.82525854492188E+0003  -2.82496752929688E+0003  -2.82465625000000E+0003  -2.82432446289063E+0003  -2.82397094726563E+0003  -2.82359375000000E+0003  -2.82319360351563E+0003  -2.82277148437500E+0003  -2.82232934570313E+0003  -2.82187060546875E+0003  -2.82139868164063E+0003  -2.82091186523438E+0003  -2.82040039062500E+0003  -2.81986010742188E+0003  -2.81929663085938E+0003  -2.81872192382813E+0003  -2.81815307617188E+0003  -2.81760351562500E+0003  -2.81708129882813E+0003  -2.81659301757813E+0003  -2.81614550781250E+0003  -2.81574438476563E+0003  -2.81539428710938E+0003  -2.81510083007813E+0003  -2.81486767578125E+0003  -2.81468823242188E+0003  -2.81454663085938E+0003  -2.81442724609375E+0003  -2.81431347656250E+0003  -2.81417919921875E+0003  -2.81399291992188E+0003  -2.81372314453125E+0003  -2.81334301757813E+0003  -2.81286523437500E+0003  -2.81231884765625E+0003  -2.81173339843750E+0003  -2.81113500976563E+0003  -2.81052856445313E+0003  -2.80991210937500E+0003  -2.80928369140625E+0003  -2.80864355468750E+0003  -2.80799975585938E+0003  -2.80736328125000E+0003  -2.80674487304688E+0003  -2.80615869140625E+0003  -2.80562963867188E+0003  -2.80518530273438E+0003  -2.80485253906250E+0003  -2.80464282226563E+0003  -2.80452441406250E+0003  -2.80445922851563E+0003  -2.80440966796875E+0003  -2.80434741210938E+0003  -2.80426293945313E+0003  -2.80414941406250E+0003  -2.80400000000000E+0003  -2.80381323242188E+0003  -2.80359594726563E+0003  -2.80335424804688E+0003  -2.80309228515625E+0003  -2.80282543945313E+0003  -2.80258691406250E+0003  -2.80248803710938E+0003  -2.80271557617188E+0003  -2.80317700195313E+0003  -2.80350659179688E+0003  -2.80331640625000E+0003  -2.80229077148438E+0003  -2.80063305664063E+0003  -2.79887329101563E+0003  -2.79727978515625E+0003  -2.79593676757813E+0003  -2.79484960937500E+0003  -2.79397729492188E+0003  -2.79328173828125E+0003  -2.79272875976563E+0003  -2.79229223632813E+0003  -2.79195019531250E+0003  -2.79168066406250E+0003  -2.79146264648438E+0003  -2.79128710937500E+0003  -2.79114941406250E+0003  -2.79104467773438E+0003  -2.79096728515625E+0003  -2.79090502929688E+0003  -2.79084423828125E+0003  -2.79077124023438E+0003  -2.79067504882813E+0003  -2.79055419921875E+0003  -2.79040966796875E+0003  -2.79024267578125E+0003  -2.79005444335938E+0003  -2.78984667968750E+0003  -2.78962207031250E+0003  -2.78938232421875E+0003  -2.78912939453125E+0003  -2.78886523437500E+0003  -2.78859155273438E+0003  -2.78831079101563E+0003  -2.78803662109375E+0003  -2.78780541992188E+0003  -2.78765454101563E+0003  -2.78762133789063E+0003  -2.78769848632813E+0003  -2.78781762695313E+0003  -2.78790551757813E+0003  -2.78788940429688E+0003  -2.78772412109375E+0003  -2.78739575195313E+0003  -2.78692846679688E+0003  -2.78637939453125E+0003  -2.78578540039063E+0003  -2.78516259765625E+0003  -2.78453613281250E+0003  -2.78393774414063E+0003  -2.78338623046875E+0003  -2.78289062500000E+0003  -2.78246020507813E+0003  -2.78210253906250E+0003  -2.78181201171875E+0003  -2.78157543945313E+0003  -2.78137890625000E+0003  -2.78121118164063E+0003  -2.78106835937500E+0003  -2.78095092773438E+0003  -2.78085986328125E+0003  -2.78079809570313E+0003  -2.78078198242188E+0003  -2.78083300781250E+0003  -2.78097216796875E+0003  -2.78121191406250E+0003  -2.78152685546875E+0003  -2.78188330078125E+0003  -2.78224780273438E+0003  -2.78258837890625E+0003  -2.78287915039063E+0003  -2.78309521484375E+0003  -2.78321337890625E+0003  -2.78323974609375E+0003  -2.78325317382813E+0003  -2.78334326171875E+0003  -2.78359741210938E+0003  -2.78405175781250E+0003  -2.78464282226563E+0003  -2.78529589843750E+0003  -2.78593627929688E+0003  -2.78652221679688E+0003  -2.78706152343750E+0003  -2.78756665039063E+0003  -2.78804980468750E+0003  -2.78851220703125E+0003  -2.78894335937500E+0003  -2.78933203125000E+0003  -2.78966479492188E+0003  -2.78988989257813E+0003  -2.78991772460938E+0003  -2.78965722656250E+0003  -2.78902294921875E+0003  -2.78803051757813E+0003  -2.78677270507813E+0003  -2.78545141601563E+0003  -2.78417968750000E+0003  -2.78303369140625E+0003  -2.78214355468750E+0003  -2.78162915039063E+0003  -2.78156542968750E+0003  -2.78187524414063E+0003  -2.78248925781250E+0003  -2.78336352539063E+0003  -2.78444750976563E+0003  -2.78569677734375E+0003  -2.78706372070313E+0003  -2.78846582031250E+0003  -2.78984252929688E+0003  -2.79117895507813E+0003  -2.79233715820313E+0003  -2.79321484375000E+0003  -2.79373779296875E+0003  -2.79399536132813E+0003  -2.79410766601563E+0003  -2.79416992187500E+0003  -2.79425244140625E+0003  -2.79436596679688E+0003  -2.79451538085938E+0003  -2.79471337890625E+0003  -2.79496997070313E+0003  -2.79528320312500E+0003  -2.79564916992188E+0003  -2.79606103515625E+0003  -2.79650708007813E+0003  -2.79696777343750E+0003  -2.79742382812500E+0003  -2.79785668945313E+0003  -2.79825732421875E+0003  -2.79862866210938E+0003  -2.79897485351563E+0003  -2.79929956054688E+0003  -2.79960620117188E+0003  -2.79989672851563E+0003  -2.80017309570313E+0003  -2.80043774414063E+0003  -2.80069213867188E+0003  -2.80093774414063E+0003  -2.80117651367188E+0003  -2.80140942382813E+0003  -2.80163671875000E+0003  -2.80185742187500E+0003  -2.80207080078125E+0003  -2.80227587890625E+0003  -2.80247167968750E+0003  -2.80265747070313E+0003  -2.80283227539063E+0003  -2.80299560546875E+0003  -2.80314746093750E+0003  -2.80328833007813E+0003  -2.80341918945313E+0003  -2.80354052734375E+0003  -2.80365307617188E+0003  -2.80375732421875E+0003  -2.80385400390625E+0003
  -2.82641748046875E+0003  -2.82645678710938E+0003  -2.82646166992188E+0003  -2.82643432617188E+0003  -2.82637768554688E+0003  -2.82629541015625E+0003  -2.82619067382813E+0003  -2.82606640625000E+0003  -2.82592309570313E+0003  -2.82575952148438E+0003  -2.82557568359375E+0003  -2.82537036132813E+0003  -2.82514404296875E+0003  -2.82489599609375E+0003  -2.82462670898438E+0003  -2.82433569335938E+0003  -2.82402270507813E+0003  -2.82368652343750E+0003  -2.82332250976563E+0003  -2.82292993164063E+0003  -2.82251538085938E+0003  -2.82208691406250E+0003  -2.82164794921875E+0003  -2.82119897460938E+0003  -2.82074096679688E+0003  -2.82026367187500E+0003  -2.81974780273438E+0003  -2.81918872070313E+0003  -2.81860253906250E+0003  -2.81800781250000E+0003  -2.81742407226563E+0003  -2.81686401367188E+0003  -2.81633349609375E+0003  -2.81583691406250E+0003  -2.81538012695313E+0003  -2.81496899414063E+0003  -2.81460961914063E+0003  -2.81430908203125E+0003  -2.81407250976563E+0003  -2.81389428710938E+0003  -2.81375878906250E+0003  -2.81365087890625E+0003  -2.81355444335938E+0003  -2.81343920898438E+0003  -2.81326660156250E+0003  -2.81299877929688E+0003  -2.81260400390625E+0003  -2.81209912109375E+0003  -2.81152392578125E+0003  -2.81091674804688E+0003  -2.81031176757813E+0003  -2.80971240234375E+0003  -2.80911108398438E+0003  -2.80850122070313E+0003  -2.80787817382813E+0003  -2.80725073242188E+0003  -2.80663085937500E+0003  -2.80603051757813E+0003  -2.80546459960938E+0003  -2.80495629882813E+0003  -2.80453027343750E+0003  -2.80421191406250E+0003  -2.80401049804688E+0003  -2.80389550781250E+0003  -2.80382958984375E+0003  -2.80377612304688E+0003  -2.80370727539063E+0003  -2.80361376953125E+0003  -2.80348828125000E+0003  -2.80332324218750E+0003  -2.80311376953125E+0003  -2.80285937500000E+0003  -2.80255468750000E+0003  -2.80218798828125E+0003  -2.80176562500000E+0003  -2.80132177734375E+0003  -2.80102978515625E+0003  -2.80119995117188E+0003  -2.80174902343750E+0003  -2.80220141601563E+0003  -2.80212402343750E+0003  -2.80120263671875E+0003  -2.79962182617188E+0003  -2.79789746093750E+0003  -2.79631396484375E+0003  -2.79498779296875E+0003  -2.79394091796875E+0003  -2.79313793945313E+0003  -2.79253759765625E+0003  -2.79209716796875E+0003  -2.79177758789063E+0003  -2.79154174804688E+0003  -2.79135107421875E+0003  -2.79117236328125E+0003  -2.79099975585938E+0003  -2.79083959960938E+0003  -2.79069750976563E+0003  -2.79057739257813E+0003  -2.79047070312500E+0003  -2.79036596679688E+0003  -2.79025170898438E+0003  -2.79011816406250E+0003  -2.78996411132813E+0003  -2.78978979492188E+0003  -2.78959545898438E+0003  -2.78938232421875E+0003  -2.78915332031250E+0003  -2.78891235351563E+0003  -2.78866259765625E+0003  -2.78840551757813E+0003  -2.78813745117188E+0003  -2.78785424804688E+0003  -2.78755151367188E+0003  -2.78724023437500E+0003  -2.78695556640625E+0003  -2.78673632812500E+0003  -2.78662011718750E+0003  -2.78660668945313E+0003  -2.78664257812500E+0003  -2.78666967773438E+0003  -2.78663134765625E+0003  -2.78649340820313E+0003  -2.78624853515625E+0003  -2.78589477539063E+0003  -2.78543432617188E+0003  -2.78489013671875E+0003  -2.78430346679688E+0003  -2.78371704101563E+0003  -2.78317285156250E+0003  -2.78268969726563E+0003  -2.78227099609375E+0003  -2.78191918945313E+0003  -2.78163647460938E+0003  -2.78141308593750E+0003  -2.78123413085938E+0003  -2.78108422851563E+0003  -2.78094897460938E+0003  -2.78082373046875E+0003  -2.78070800781250E+0003  -2.78060156250000E+0003  -2.78050708007813E+0003  -2.78044433593750E+0003  -2.78043750000000E+0003  -2.78051123046875E+0003  -2.78068188476563E+0003  -2.78092822265625E+0003  -2.78122045898438E+0003  -2.78152832031250E+0003  -2.78182397460938E+0003  -2.78208642578125E+0003  -2.78229589843750E+0003  -2.78243286132813E+0003  -2.78250390625000E+0003  -2.78257836914063E+0003  -2.78273486328125E+0003  -2.78305126953125E+0003  -2.78355932617188E+0003  -2.78420092773438E+0003  -2.78490698242188E+0003  -2.78560961914063E+0003  -2.78626782226563E+0003  -2.78688305664063E+0003  -2.78746044921875E+0003  -2.78800463867188E+0003  -2.78851171875000E+0003  -2.78896801757813E+0003  -2.78935864257813E+0003  -2.78966796875000E+0003  -2.78985180664063E+0003  -2.78983984375000E+0003  -2.78955957031250E+0003  -2.78894482421875E+0003  -2.78801489257813E+0003  -2.78685473632813E+0003  -2.78558349609375E+0003  -2.78440161132813E+0003  -2.78333276367188E+0003  -2.78249169921875E+0003  -2.78198876953125E+0003  -2.78190502929688E+0003  -2.78218579101563E+0003  -2.78276269531250E+0003  -2.78358984375000E+0003  -2.78461816406250E+0003  -2.78580200195313E+0003  -2.78709301757813E+0003  -2.78841601562500E+0003  -2.78976733398438E+0003  -2.79102050781250E+0003  -2.79210913085938E+0003  -2.79294506835938E+0003  -2.79346704101563E+0003  -2.79375122070313E+0003  -2.79389990234375E+0003  -2.79399975585938E+0003  -2.79411474609375E+0003  -2.79425659179688E+0003  -2.79443066406250E+0003  -2.79464843750000E+0003  -2.79491796875000E+0003  -2.79523779296875E+0003  -2.79560424804688E+0003  -2.79601220703125E+0003  -2.79645043945313E+0003  -2.79690087890625E+0003  -2.79734423828125E+0003  -2.79776245117188E+0003  -2.79814599609375E+0003  -2.79849731445313E+0003  -2.79881933593750E+0003  -2.79911572265625E+0003  -2.79938940429688E+0003  -2.79964404296875E+0003  -2.79988232421875E+0003  -2.80010815429688E+0003  -2.80032421875000E+0003  -2.80053369140625E+0003  -2.80073876953125E+0003  -2.80094238281250E+0003  -2.80114477539063E+0003  -2.80134472656250E+0003  -2.80154052734375E+0003  -2.80173095703125E+0003  -2.80191455078125E+0003  -2.80209008789063E+0003  -2.80225610351563E+0003  -2.80241137695313E+0003  -2.80255615234375E+0003  -2.80269091796875E+0003  -2.80281665039063E+0003  -2.80293359375000E+0003  -2.80304272460938E+0003  -2.80314453125000E+0003  -2.80323999023438E+0003
  -2.82576318359375E+0003  -2.82579272460938E+0003  -2.82578979492188E+0003  -2.82575659179688E+0003  -2.82569628906250E+0003  -2.82561181640625E+0003  -2.82550659179688E+0003  -2.82538354492188E+0003  -2.82524218750000E+0003  -2.82508154296875E+0003  -2.82490063476563E+0003  -2.82469824218750E+0003  -2.82447460937500E+0003  -2.82422900390625E+0003  -2.82396118164063E+0003  -2.82367065429688E+0003  -2.82335546875000E+0003  -2.82301293945313E+0003  -2.82263842773438E+0003  -2.82223168945313E+0003  -2.82180541992188E+0003  -2.82137500000000E+0003  -2.82094531250000E+0003  -2.82051049804688E+0003  -2.82006982421875E+0003  -2.81960034179688E+0003  -2.81907348632813E+0003  -2.81848852539063E+0003  -2.81787548828125E+0003  -2.81726000976563E+0003  -2.81666015625000E+0003  -2.81608764648438E+0003  -2.81554614257813E+0003  -2.81503955078125E+0003  -2.81457153320313E+0003  -2.81414843750000E+0003  -2.81377783203125E+0003  -2.81346826171875E+0003  -2.81322607421875E+0003  -2.81304663085938E+0003  -2.81291479492188E+0003  -2.81281665039063E+0003  -2.81273559570313E+0003  -2.81263769531250E+0003  -2.81247851562500E+0003  -2.81221362304688E+0003  -2.81180590820313E+0003  -2.81127807617188E+0003  -2.81067871093750E+0003  -2.81005688476563E+0003  -2.80945361328125E+0003  -2.80886987304688E+0003  -2.80829199218750E+0003  -2.80770678710938E+0003  -2.80710449218750E+0003  -2.80649414062500E+0003  -2.80588916015625E+0003  -2.80530322265625E+0003  -2.80475170898438E+0003  -2.80425781250000E+0003  -2.80384497070313E+0003  -2.80353735351563E+0003  -2.80334350585938E+0003  -2.80323242187500E+0003  -2.80316699218750E+0003  -2.80310986328125E+0003  -2.80303344726563E+0003  -2.80292919921875E+0003  -2.80279028320313E+0003  -2.80260913085938E+0003  -2.80237768554688E+0003  -2.80208789062500E+0003  -2.80172143554688E+0003  -2.80124682617188E+0003  -2.80065283203125E+0003  -2.79996093750000E+0003  -2.79940283203125E+0003  -2.79943603515625E+0003  -2.80000585937500E+0003  -2.80052856445313E+0003  -2.80055541992188E+0003  -2.79980419921875E+0003  -2.79840698242188E+0003  -2.79680493164063E+0003  -2.79528222656250E+0003  -2.79399926757813E+0003  -2.79300488281250E+0003  -2.79227709960938E+0003  -2.79177392578125E+0003  -2.79144311523438E+0003  -2.79123461914063E+0003  -2.79109960937500E+0003  -2.79098730468750E+0003  -2.79085278320313E+0003  -2.79069433593750E+0003  -2.79052612304688E+0003  -2.79036230468750E+0003  -2.79021386718750E+0003  -2.79007617187500E+0003  -2.78993896484375E+0003  -2.78979272460938E+0003  -2.78962915039063E+0003  -2.78944677734375E+0003  -2.78924536132813E+0003  -2.78902490234375E+0003  -2.78878662109375E+0003  -2.78853442382813E+0003  -2.78827368164063E+0003  -2.78800927734375E+0003  -2.78774194335938E+0003  -2.78746289062500E+0003  -2.78716186523438E+0003  -2.78682910156250E+0003  -2.78647192382813E+0003  -2.78612890625000E+0003  -2.78584155273438E+0003  -2.78565161132813E+0003  -2.78556542968750E+0003  -2.78554174804688E+0003  -2.78553393554688E+0003  -2.78549316406250E+0003  -2.78538598632813E+0003  -2.78519482421875E+0003  -2.78490209960938E+0003  -2.78449267578125E+0003  -2.78398608398438E+0003  -2.78343432617188E+0003  -2.78288964843750E+0003  -2.78240258789063E+0003  -2.78199169921875E+0003  -2.78165405273438E+0003  -2.78138647460938E+0003  -2.78118457031250E+0003  -2.78103515625000E+0003  -2.78092016601563E+0003  -2.78082055664063E+0003  -2.78071948242188E+0003  -2.78060937500000E+0003  -2.78048730468750E+0003  -2.78035253906250E+0003  -2.78020947265625E+0003  -2.78008154296875E+0003  -2.77999926757813E+0003  -2.77999291992188E+0003  -2.78008349609375E+0003  -2.78025390625000E+0003  -2.78047656250000E+0003  -2.78072460937500E+0003  -2.78097290039063E+0003  -2.78120410156250E+0003  -2.78140283203125E+0003  -2.78155371093750E+0003  -2.78166308593750E+0003  -2.78179370117188E+0003  -2.78201513671875E+0003  -2.78239794921875E+0003  -2.78296923828125E+0003  -2.78367382812500E+0003  -2.78444750976563E+0003  -2.78522558593750E+0003  -2.78596752929688E+0003  -2.78666821289063E+0003  -2.78732543945313E+0003  -2.78793701171875E+0003  -2.78849462890625E+0003  -2.78898120117188E+0003  -2.78937988281250E+0003  -2.78967211914063E+0003  -2.78982324218750E+0003  -2.78978247070313E+0003  -2.78949829101563E+0003  -2.78892285156250E+0003  -2.78807934570313E+0003  -2.78704418945313E+0003  -2.78589575195313E+0003  -2.78478881835938E+0003  -2.78382788085938E+0003  -2.78306567382813E+0003  -2.78260034179688E+0003  -2.78250927734375E+0003  -2.78275561523438E+0003  -2.78327734375000E+0003  -2.78402734375000E+0003  -2.78495751953125E+0003  -2.78602343750000E+0003  -2.78717797851563E+0003  -2.78841357421875E+0003  -2.78962304687500E+0003  -2.79073266601563E+0003  -2.79170043945313E+0003  -2.79246362304688E+0003  -2.79298168945313E+0003  -2.79331103515625E+0003  -2.79352709960938E+0003  -2.79367578125000E+0003  -2.79384570312500E+0003  -2.79405346679688E+0003  -2.79429541015625E+0003  -2.79455322265625E+0003  -2.79485278320313E+0003  -2.79519287109375E+0003  -2.79557055664063E+0003  -2.79598193359375E+0003  -2.79641796875000E+0003  -2.79686157226563E+0003  -2.79729443359375E+0003  -2.79769848632813E+0003  -2.79806445312500E+0003  -2.79839428710938E+0003  -2.79869067382813E+0003  -2.79895581054688E+0003  -2.79919384765625E+0003  -2.79940893554688E+0003  -2.79960571289063E+0003  -2.79978930664063E+0003  -2.79996362304688E+0003  -2.80013305664063E+0003  -2.80030200195313E+0003  -2.80047436523438E+0003  -2.80065039062500E+0003  -2.80082836914063E+0003  -2.80100634765625E+0003  -2.80118212890625E+0003  -2.80135375976563E+0003  -2.80151953125000E+0003  -2.80167749023438E+0003  -2.80182543945313E+0003  -2.80196386718750E+0003  -2.80209301757813E+0003  -2.80221411132813E+0003  -2.80232739257813E+0003  -2.80243383789063E+0003  -2.80253393554688E+0003  -2.80262866210938E+0003
  -2.82509155273438E+0003  -2.82511035156250E+0003  -2.82509814453125E+0003  -2.82505688476563E+0003  -2.82498974609375E+0003  -2.82490039062500E+0003  -2.82479272460938E+0003  -2.82466918945313E+0003  -2.82452929687500E+0003  -2.82437109375000E+0003  -2.82419287109375E+0003  -2.82399267578125E+0003  -2.82377099609375E+0003  -2.82352734375000E+0003  -2.82326098632813E+0003  -2.82297045898438E+0003  -2.82265209960938E+0003  -2.82230200195313E+0003  -2.82191796875000E+0003  -2.82150585937500E+0003  -2.82107519531250E+0003  -2.82064160156250E+0003  -2.82021899414063E+0003  -2.81980126953125E+0003  -2.81937426757813E+0003  -2.81890405273438E+0003  -2.81835522460938E+0003  -2.81774145507813E+0003  -2.81710449218750E+0003  -2.81647070312500E+0003  -2.81585668945313E+0003  -2.81527197265625E+0003  -2.81471923828125E+0003  -2.81420141601563E+0003  -2.81372094726563E+0003  -2.81328417968750E+0003  -2.81290014648438E+0003  -2.81257812500000E+0003  -2.81232641601563E+0003  -2.81214013671875E+0003  -2.81200561523438E+0003  -2.81190917968750E+0003  -2.81183496093750E+0003  -2.81174584960938E+0003  -2.81159375000000E+0003  -2.81132934570313E+0003  -2.81091186523438E+0003  -2.81036816406250E+0003  -2.80975512695313E+0003  -2.80912890625000E+0003  -2.80853613281250E+0003  -2.80797534179688E+0003  -2.80742700195313E+0003  -2.80687158203125E+0003  -2.80629467773438E+0003  -2.80570507812500E+0003  -2.80511718750000E+0003  -2.80454638671875E+0003  -2.80400927734375E+0003  -2.80352783203125E+0003  -2.80312524414063E+0003  -2.80282470703125E+0003  -2.80263427734375E+0003  -2.80252246093750E+0003  -2.80245288085938E+0003  -2.80238793945313E+0003  -2.80230126953125E+0003  -2.80218579101563E+0003  -2.80203613281250E+0003  -2.80184570312500E+0003  -2.80160546875000E+0003  -2.80130175781250E+0003  -2.80090673828125E+0003  -2.80037231445313E+0003  -2.79966748046875E+0003  -2.79878955078125E+0003  -2.79800292968750E+0003  -2.79790112304688E+0003  -2.79847216796875E+0003  -2.79904565429688E+0003  -2.79915454101563E+0003  -2.79854077148438E+0003  -2.79730200195313E+0003  -2.79581347656250E+0003  -2.79435351562500E+0003  -2.79311547851563E+0003  -2.79217065429688E+0003  -2.79151098632813E+0003  -2.79109252929688E+0003  -2.79085180664063E+0003  -2.79073095703125E+0003  -2.79067456054688E+0003  -2.79062426757813E+0003  -2.79052880859375E+0003  -2.79038769531250E+0003  -2.79022094726563E+0003  -2.79004809570313E+0003  -2.78988500976563E+0003  -2.78972875976563E+0003  -2.78957104492188E+0003  -2.78940332031250E+0003  -2.78921826171875E+0003  -2.78901440429688E+0003  -2.78879125976563E+0003  -2.78854833984375E+0003  -2.78828637695313E+0003  -2.78801123046875E+0003  -2.78772851562500E+0003  -2.78744458007813E+0003  -2.78715966796875E+0003  -2.78686083984375E+0003  -2.78653393554688E+0003  -2.78616455078125E+0003  -2.78575854492188E+0003  -2.78535717773438E+0003  -2.78500610351563E+0003  -2.78475195312500E+0003  -2.78460766601563E+0003  -2.78454028320313E+0003  -2.78450903320313E+0003  -2.78446875000000E+0003  -2.78438354492188E+0003  -2.78422753906250E+0003  -2.78397558593750E+0003  -2.78360302734375E+0003  -2.78312939453125E+0003  -2.78261157226563E+0003  -2.78210888671875E+0003  -2.78167749023438E+0003  -2.78133544921875E+0003  -2.78107373046875E+0003  -2.78088378906250E+0003  -2.78075634765625E+0003  -2.78067480468750E+0003  -2.78061816406250E+0003  -2.78056469726563E+0003  -2.78049389648438E+0003  -2.78039477539063E+0003  -2.78026000976563E+0003  -2.78008984375000E+0003  -2.77988989257813E+0003  -2.77968920898438E+0003  -2.77952490234375E+0003  -2.77943432617188E+0003  -2.77944458007813E+0003  -2.77954125976563E+0003  -2.77969873046875E+0003  -2.77989135742188E+0003  -2.78009643554688E+0003  -2.78029882812500E+0003  -2.78048559570313E+0003  -2.78064379882813E+0003  -2.78078051757813E+0003  -2.78095434570313E+0003  -2.78123120117188E+0003  -2.78167724609375E+0003  -2.78231713867188E+0003  -2.78309594726563E+0003  -2.78394946289063E+0003  -2.78481396484375E+0003  -2.78564648437500E+0003  -2.78643627929688E+0003  -2.78717480468750E+0003  -2.78785424804688E+0003  -2.78846362304688E+0003  -2.78898828125000E+0003  -2.78940698242188E+0003  -2.78969262695313E+0003  -2.78981860351563E+0003  -2.78975952148438E+0003  -2.78948461914063E+0003  -2.78896289062500E+0003  -2.78821948242188E+0003  -2.78732202148438E+0003  -2.78634008789063E+0003  -2.78534375000000E+0003  -2.78446777343750E+0003  -2.78380371093750E+0003  -2.78339257812500E+0003  -2.78330346679688E+0003  -2.78351171875000E+0003  -2.78396362304688E+0003  -2.78461401367188E+0003  -2.78541845703125E+0003  -2.78633422851563E+0003  -2.78738549804688E+0003  -2.78844482421875E+0003  -2.78946166992188E+0003  -2.79040136718750E+0003  -2.79123071289063E+0003  -2.79191015625000E+0003  -2.79239672851563E+0003  -2.79267309570313E+0003  -2.79288037109375E+0003  -2.79308105468750E+0003  -2.79332104492188E+0003  -2.79360498046875E+0003  -2.79393139648438E+0003  -2.79429980468750E+0003  -2.79470849609375E+0003  -2.79512353515625E+0003  -2.79552050781250E+0003  -2.79594458007813E+0003  -2.79638818359375E+0003  -2.79683325195313E+0003  -2.79726171875000E+0003  -2.79765454101563E+0003  -2.79800268554688E+0003  -2.79830810546875E+0003  -2.79857446289063E+0003  -2.79880444335938E+0003  -2.79900317382813E+0003  -2.79917602539063E+0003  -2.79932885742188E+0003  -2.79946777343750E+0003  -2.79959863281250E+0003  -2.79972680664063E+0003  -2.79985839843750E+0003  -2.79999853515625E+0003  -2.80014819335938E+0003  -2.80030419921875E+0003  -2.80046459960938E+0003  -2.80062646484375E+0003  -2.80078686523438E+0003  -2.80094384765625E+0003  -2.80109423828125E+0003  -2.80123608398438E+0003  -2.80136889648438E+0003  -2.80149365234375E+0003  -2.80161083984375E+0003  -2.80172143554688E+0003  -2.80182592773438E+0003  -2.80192504882813E+0003  -2.80201928710938E+0003
  -2.82440332031250E+0003  -2.82441015625000E+0003  -2.82438696289063E+0003  -2.82433520507813E+0003  -2.82425878906250E+0003  -2.82416186523438E+0003  -2.82404956054688E+0003  -2.82392553710938E+0003  -2.82378735351563E+0003  -2.82363134765625E+0003  -2.82345410156250E+0003  -2.82325463867188E+0003  -2.82303295898438E+0003  -2.82278979492188E+0003  -2.82252392578125E+0003  -2.82223193359375E+0003  -2.82191162109375E+0003  -2.82155639648438E+0003  -2.82116137695313E+0003  -2.82074609375000E+0003  -2.82031420898438E+0003  -2.81987622070313E+0003  -2.81944946289063E+0003  -2.81903344726563E+0003  -2.81860253906250E+0003  -2.81812084960938E+0003  -2.81755517578125E+0003  -2.81692651367188E+0003  -2.81627734375000E+0003  -2.81563354492188E+0003  -2.81501000976563E+0003  -2.81441601562500E+0003  -2.81385327148438E+0003  -2.81332373046875E+0003  -2.81282983398438E+0003  -2.81237792968750E+0003  -2.81197802734375E+0003  -2.81163940429688E+0003  -2.81137133789063E+0003  -2.81116967773438E+0003  -2.81102124023438E+0003  -2.81091308593750E+0003  -2.81082983398438E+0003  -2.81073437500000E+0003  -2.81057690429688E+0003  -2.81030712890625E+0003  -2.80988403320313E+0003  -2.80933642578125E+0003  -2.80872436523438E+0003  -2.80810742187500E+0003  -2.80753491210938E+0003  -2.80700292968750E+0003  -2.80648803710938E+0003  -2.80596655273438E+0003  -2.80542041015625E+0003  -2.80485766601563E+0003  -2.80429370117188E+0003  -2.80374414062500E+0003  -2.80322607421875E+0003  -2.80276025390625E+0003  -2.80236791992188E+0003  -2.80207031250000E+0003  -2.80187500000000E+0003  -2.80175292968750E+0003  -2.80166870117188E+0003  -2.80158837890625E+0003  -2.80148706054688E+0003  -2.80136083984375E+0003  -2.80120678710938E+0003  -2.80102148437500E+0003  -2.80079736328125E+0003  -2.80052099609375E+0003  -2.80016455078125E+0003  -2.79967944335938E+0003  -2.79902661132813E+0003  -2.79818798828125E+0003  -2.79740966796875E+0003  -2.79726489257813E+0003  -2.79775292968750E+0003  -2.79824804687500E+0003  -2.79831835937500E+0003  -2.79772924804688E+0003  -2.79655737304688E+0003  -2.79512524414063E+0003  -2.79370019531250E+0003  -2.79249389648438E+0003  -2.79158691406250E+0003  -2.79097265625000E+0003  -2.79060375976563E+0003  -2.79041137695313E+0003  -2.79033496093750E+0003  -2.79031738281250E+0003  -2.79029809570313E+0003  -2.79022436523438E+0003  -2.79009667968750E+0003  -2.78993627929688E+0003  -2.78976464843750E+0003  -2.78959838867188E+0003  -2.78943603515625E+0003  -2.78926977539063E+0003  -2.78909204101563E+0003  -2.78889575195313E+0003  -2.78867944335938E+0003  -2.78844213867188E+0003  -2.78818261718750E+0003  -2.78790161132813E+0003  -2.78760522460938E+0003  -2.78729956054688E+0003  -2.78699072265625E+0003  -2.78667944335938E+0003  -2.78635107421875E+0003  -2.78598974609375E+0003  -2.78557958984375E+0003  -2.78512646484375E+0003  -2.78467333984375E+0003  -2.78426879882813E+0003  -2.78396313476563E+0003  -2.78377368164063E+0003  -2.78367285156250E+0003  -2.78362377929688E+0003  -2.78358154296875E+0003  -2.78350927734375E+0003  -2.78337719726563E+0003  -2.78315502929688E+0003  -2.78281420898438E+0003  -2.78237304687500E+0003  -2.78189086914063E+0003  -2.78142968750000E+0003  -2.78104882812500E+0003  -2.78076464843750E+0003  -2.78056347656250E+0003  -2.78043310546875E+0003  -2.78036083984375E+0003  -2.78032812500000E+0003  -2.78031225585938E+0003  -2.78029028320313E+0003  -2.78023925781250E+0003  -2.78014404296875E+0003  -2.77999365234375E+0003  -2.77978686523438E+0003  -2.77953125000000E+0003  -2.77926123046875E+0003  -2.77902026367188E+0003  -2.77885302734375E+0003  -2.77879248046875E+0003  -2.77882690429688E+0003  -2.77893188476563E+0003  -2.77908276367188E+0003  -2.77925634765625E+0003  -2.77943823242188E+0003  -2.77961474609375E+0003  -2.77977270507813E+0003  -2.77991967773438E+0003  -2.78011596679688E+0003  -2.78042993164063E+0003  -2.78092944335938E+0003  -2.78163940429688E+0003  -2.78250073242188E+0003  -2.78344506835938E+0003  -2.78440380859375E+0003  -2.78532983398438E+0003  -2.78620556640625E+0003  -2.78701757812500E+0003  -2.78775415039063E+0003  -2.78841088867188E+0003  -2.78899194335938E+0003  -2.78946630859375E+0003  -2.78976538085938E+0003  -2.78986621093750E+0003  -2.78978955078125E+0003  -2.78953173828125E+0003  -2.78907153320313E+0003  -2.78843139648438E+0003  -2.78766943359375E+0003  -2.78684545898438E+0003  -2.78602099609375E+0003  -2.78526538085938E+0003  -2.78465380859375E+0003  -2.78427441406250E+0003  -2.78418994140625E+0003  -2.78435668945313E+0003  -2.78473120117188E+0003  -2.78528588867188E+0003  -2.78599389648438E+0003  -2.78679272460938E+0003  -2.78764038085938E+0003  -2.78849536132813E+0003  -2.78931884765625E+0003  -2.79008642578125E+0003  -2.79077832031250E+0003  -2.79132031250000E+0003  -2.79165771484375E+0003  -2.79191113281250E+0003  -2.79213403320313E+0003  -2.79237768554688E+0003  -2.79267968750000E+0003  -2.79303833007813E+0003  -2.79344628906250E+0003  -2.79389648437500E+0003  -2.79438012695313E+0003  -2.79488916015625E+0003  -2.79541723632813E+0003  -2.79587573242188E+0003  -2.79633935546875E+0003  -2.79679907226563E+0003  -2.79723315429688E+0003  -2.79761987304688E+0003  -2.79794946289063E+0003  -2.79822631835938E+0003  -2.79845678710938E+0003  -2.79864648437500E+0003  -2.79880175781250E+0003  -2.79892968750000E+0003  -2.79903710937500E+0003  -2.79913085937500E+0003  -2.79921777343750E+0003  -2.79930517578125E+0003  -2.79940014648438E+0003  -2.79950903320313E+0003  -2.79963281250000E+0003  -2.79976831054688E+0003  -2.79991210937500E+0003  -2.80006103515625E+0003  -2.80021142578125E+0003  -2.80036059570313E+0003  -2.80050488281250E+0003  -2.80064160156250E+0003  -2.80077026367188E+0003  -2.80089160156250E+0003  -2.80100610351563E+0003  -2.80111474609375E+0003  -2.80121826171875E+0003  -2.80131713867188E+0003  -2.80141210937500E+0003
  -2.82370019531250E+0003  -2.82369384765625E+0003  -2.82365771484375E+0003  -2.82359375000000E+0003  -2.82350561523438E+0003  -2.82339819335938E+0003  -2.82327929687500E+0003  -2.82315502929688E+0003  -2.82301977539063E+0003  -2.82286499023438E+0003  -2.82268750000000E+0003  -2.82248559570313E+0003  -2.82225976562500E+0003  -2.82201391601563E+0003  -2.82174951171875E+0003  -2.82145288085938E+0003  -2.82112817382813E+0003  -2.82076977539063E+0003  -2.82036645507813E+0003  -2.81994506835938E+0003  -2.81950756835938E+0003  -2.81906103515625E+0003  -2.81861865234375E+0003  -2.81818041992188E+0003  -2.81772241210938E+0003  -2.81721997070313E+0003  -2.81665429687500E+0003  -2.81603320312500E+0003  -2.81538867187500E+0003  -2.81474560546875E+0003  -2.81411987304688E+0003  -2.81352001953125E+0003  -2.81294873046875E+0003  -2.81240771484375E+0003  -2.81189990234375E+0003  -2.81143164062500E+0003  -2.81101245117188E+0003  -2.81065234375000E+0003  -2.81036010742188E+0003  -2.81013281250000E+0003  -2.80995727539063E+0003  -2.80982104492188E+0003  -2.80970947265625E+0003  -2.80958740234375E+0003  -2.80940820312500E+0003  -2.80912475585938E+0003  -2.80869873046875E+0003  -2.80815820312500E+0003  -2.80756225585938E+0003  -2.80696801757813E+0003  -2.80642431640625E+0003  -2.80592553710938E+0003  -2.80544726562500E+0003  -2.80496362304688E+0003  -2.80445556640625E+0003  -2.80392944335938E+0003  -2.80340014648438E+0003  -2.80288305664063E+0003  -2.80239428710938E+0003  -2.80195141601563E+0003  -2.80157202148438E+0003  -2.80127490234375E+0003  -2.80106591796875E+0003  -2.80092041015625E+0003  -2.80080834960938E+0003  -2.80069970703125E+0003  -2.80057519531250E+0003  -2.80043701171875E+0003  -2.80028784179688E+0003  -2.80012597656250E+0003  -2.79994824218750E+0003  -2.79974877929688E+0003  -2.79951269531250E+0003  -2.79921118164063E+0003  -2.79881713867188E+0003  -2.79831225585938E+0003  -2.79785620117188E+0003  -2.79780224609375E+0003  -2.79811694335938E+0003  -2.79836962890625E+0003  -2.79823828125000E+0003  -2.79752636718750E+0003  -2.79630419921875E+0003  -2.79484912109375E+0003  -2.79341406250000E+0003  -2.79221630859375E+0003  -2.79132812500000E+0003  -2.79072680664063E+0003  -2.79036083984375E+0003  -2.79016406250000E+0003  -2.79007910156250E+0003  -2.79005151367188E+0003  -2.79002563476563E+0003  -2.78995263671875E+0003  -2.78983178710938E+0003  -2.78968164062500E+0003  -2.78952050781250E+0003  -2.78936303710938E+0003  -2.78920703125000E+0003  -2.78904492187500E+0003  -2.78886914062500E+0003  -2.78867333984375E+0003  -2.78845483398438E+0003  -2.78821215820313E+0003  -2.78794360351563E+0003  -2.78764965820313E+0003  -2.78733496093750E+0003  -2.78700537109375E+0003  -2.78666650390625E+0003  -2.78631860351563E+0003  -2.78594921875000E+0003  -2.78554418945313E+0003  -2.78508959960938E+0003  -2.78459277343750E+0003  -2.78409741210938E+0003  -2.78365258789063E+0003  -2.78330932617188E+0003  -2.78308642578125E+0003  -2.78295947265625E+0003  -2.78289379882813E+0003  -2.78284716796875E+0003  -2.78278173828125E+0003  -2.78266699218750E+0003  -2.78247045898438E+0003  -2.78216113281250E+0003  -2.78175585937500E+0003  -2.78131274414063E+0003  -2.78089282226563E+0003  -2.78055395507813E+0003  -2.78031079101563E+0003  -2.78014794921875E+0003  -2.78005102539063E+0003  -2.78000634765625E+0003  -2.77999487304688E+0003  -2.77999438476563E+0003  -2.77998193359375E+0003  -2.77993505859375E+0003  -2.77983544921875E+0003  -2.77966870117188E+0003  -2.77943115234375E+0003  -2.77912963867188E+0003  -2.77880297851563E+0003  -2.77850097656250E+0003  -2.77827392578125E+0003  -2.77816064453125E+0003  -2.77815136718750E+0003  -2.77822314453125E+0003  -2.77835058593750E+0003  -2.77850927734375E+0003  -2.77868212890625E+0003  -2.77885229492188E+0003  -2.77900317382813E+0003  -2.77914282226563E+0003  -2.77933837890625E+0003  -2.77966723632813E+0003  -2.78020605468750E+0003  -2.78098266601563E+0003  -2.78193017578125E+0003  -2.78297021484375E+0003  -2.78402563476563E+0003  -2.78504028320313E+0003  -2.78599194335938E+0003  -2.78686230468750E+0003  -2.78763525390625E+0003  -2.78832421875000E+0003  -2.78898876953125E+0003  -2.78957153320313E+0003  -2.78990283203125E+0003  -2.78997045898438E+0003  -2.78987329101563E+0003  -2.78963793945313E+0003  -2.78924145507813E+0003  -2.78869946289063E+0003  -2.78805981445313E+0003  -2.78737280273438E+0003  -2.78669116210938E+0003  -2.78607104492188E+0003  -2.78557006835938E+0003  -2.78524633789063E+0003  -2.78515063476563E+0003  -2.78527416992188E+0003  -2.78557983398438E+0003  -2.78603002929688E+0003  -2.78658813476563E+0003  -2.78721875000000E+0003  -2.78788867187500E+0003  -2.78856347656250E+0003  -2.78921289062500E+0003  -2.78982421875000E+0003  -2.79036914062500E+0003  -2.79070166015625E+0003  -2.79094921875000E+0003  -2.79115429687500E+0003  -2.79136352539063E+0003  -2.79162304687500E+0003  -2.79196508789063E+0003  -2.79238378906250E+0003  -2.79286572265625E+0003  -2.79339648437500E+0003  -2.79395825195313E+0003  -2.79453881835938E+0003  -2.79513525390625E+0003  -2.79574658203125E+0003  -2.79624682617188E+0003  -2.79673535156250E+0003  -2.79718750000000E+0003  -2.79757470703125E+0003  -2.79788574218750E+0003  -2.79812963867188E+0003  -2.79831835937500E+0003  -2.79846240234375E+0003  -2.79857177734375E+0003  -2.79865356445313E+0003  -2.79871557617188E+0003  -2.79876513671875E+0003  -2.79881005859375E+0003  -2.79885888671875E+0003  -2.79891943359375E+0003  -2.79899951171875E+0003  -2.79909960937500E+0003  -2.79921630859375E+0003  -2.79934521484375E+0003  -2.79948291015625E+0003  -2.79962500000000E+0003  -2.79976806640625E+0003  -2.79990771484375E+0003  -2.80004052734375E+0003  -2.80016625976563E+0003  -2.80028540039063E+0003  -2.80039868164063E+0003  -2.80050659179688E+0003  -2.80061010742188E+0003  -2.80070971679688E+0003  -2.80080615234375E+0003
  -2.82298583984375E+0003  -2.82296557617188E+0003  -2.82291601562500E+0003  -2.82283813476563E+0003  -2.82273583984375E+0003  -2.82261499023438E+0003  -2.82248706054688E+0003  -2.82236279296875E+0003  -2.82223193359375E+0003  -2.82207812500000E+0003  -2.82189721679688E+0003  -2.82169116210938E+0003  -2.82145629882813E+0003  -2.82120092773438E+0003  -2.82093652343750E+0003  -2.82063183593750E+0003  -2.82029418945313E+0003  -2.81992602539063E+0003  -2.81952319335938E+0003  -2.81909545898438E+0003  -2.81864868164063E+0003  -2.81818994140625E+0003  -2.81772705078125E+0003  -2.81726000976563E+0003  -2.81677465820313E+0003  -2.81625537109375E+0003  -2.81569018554688E+0003  -2.81508105468750E+0003  -2.81444897460938E+0003  -2.81381396484375E+0003  -2.81319042968750E+0003  -2.81258764648438E+0003  -2.81200854492188E+0003  -2.81145581054688E+0003  -2.81093310546875E+0003  -2.81044604492188E+0003  -2.81000463867188E+0003  -2.80961840820313E+0003  -2.80929589843750E+0003  -2.80903393554688E+0003  -2.80882055664063E+0003  -2.80864331054688E+0003  -2.80848828125000E+0003  -2.80832421875000E+0003  -2.80810913085938E+0003  -2.80780126953125E+0003  -2.80736645507813E+0003  -2.80683251953125E+0003  -2.80625439453125E+0003  -2.80568676757813E+0003  -2.80517504882813E+0003  -2.80471313476563E+0003  -2.80427636718750E+0003  -2.80383886718750E+0003  -2.80338012695313E+0003  -2.80290576171875E+0003  -2.80242749023438E+0003  -2.80195874023438E+0003  -2.80151318359375E+0003  -2.80110400390625E+0003  -2.80074511718750E+0003  -2.80044995117188E+0003  -2.80022363281250E+0003  -2.80004614257813E+0003  -2.79989355468750E+0003  -2.79973901367188E+0003  -2.79957153320313E+0003  -2.79941210937500E+0003  -2.79927441406250E+0003  -2.79915136718750E+0003  -2.79903979492188E+0003  -2.79894653320313E+0003  -2.79887548828125E+0003  -2.79882788085938E+0003  -2.79878930664063E+0003  -2.79873022460938E+0003  -2.79869433593750E+0003  -2.79880273437500E+0003  -2.79898950195313E+0003  -2.79900073242188E+0003  -2.79863134765625E+0003  -2.79773950195313E+0003  -2.79640283203125E+0003  -2.79487109375000E+0003  -2.79338647460938E+0003  -2.79216870117188E+0003  -2.79127563476563E+0003  -2.79066259765625E+0003  -2.79027075195313E+0003  -2.79003515625000E+0003  -2.78990454101563E+0003  -2.78983447265625E+0003  -2.78977880859375E+0003  -2.78969775390625E+0003  -2.78958740234375E+0003  -2.78945922851563E+0003  -2.78932421875000E+0003  -2.78919091796875E+0003  -2.78905566406250E+0003  -2.78891113281250E+0003  -2.78874975585938E+0003  -2.78856542968750E+0003  -2.78835473632813E+0003  -2.78811523437500E+0003  -2.78784497070313E+0003  -2.78754296875000E+0003  -2.78721215820313E+0003  -2.78685717773438E+0003  -2.78648144531250E+0003  -2.78608593750000E+0003  -2.78566235351563E+0003  -2.78520166015625E+0003  -2.78469506835938E+0003  -2.78415307617188E+0003  -2.78361914062500E+0003  -2.78314160156250E+0003  -2.78277001953125E+0003  -2.78252319335938E+0003  -2.78237670898438E+0003  -2.78229760742188E+0003  -2.78224682617188E+0003  -2.78218823242188E+0003  -2.78209008789063E+0003  -2.78191943359375E+0003  -2.78164501953125E+0003  -2.78128076171875E+0003  -2.78088037109375E+0003  -2.78050048828125E+0003  -2.78019458007813E+0003  -2.77997607421875E+0003  -2.77982983398438E+0003  -2.77974194335938E+0003  -2.77969897460938E+0003  -2.77968310546875E+0003  -2.77967431640625E+0003  -2.77965136718750E+0003  -2.77959375000000E+0003  -2.77948242187500E+0003  -2.77930126953125E+0003  -2.77904296875000E+0003  -2.77871191406250E+0003  -2.77834887695313E+0003  -2.77800781250000E+0003  -2.77774291992188E+0003  -2.77759741210938E+0003  -2.77756396484375E+0003  -2.77762060546875E+0003  -2.77774072265625E+0003  -2.77789794921875E+0003  -2.77807128906250E+0003  -2.77824023437500E+0003  -2.77838330078125E+0003  -2.77850805664063E+0003  -2.77869189453125E+0003  -2.77902246093750E+0003  -2.77958789062500E+0003  -2.78042089843750E+0003  -2.78144458007813E+0003  -2.78257031250000E+0003  -2.78370971679688E+0003  -2.78479833984375E+0003  -2.78580859375000E+0003  -2.78671655273438E+0003  -2.78749462890625E+0003  -2.78813891601563E+0003  -2.78892480468750E+0003  -2.78974072265625E+0003  -2.79007885742188E+0003  -2.79007373046875E+0003  -2.78996582031250E+0003  -2.78976123046875E+0003  -2.78942968750000E+0003  -2.78897949218750E+0003  -2.78844848632813E+0003  -2.78787841796875E+0003  -2.78731445312500E+0003  -2.78680151367188E+0003  -2.78638525390625E+0003  -2.78611132812500E+0003  -2.78601953125000E+0003  -2.78610253906250E+0003  -2.78633129882813E+0003  -2.78667602539063E+0003  -2.78710717773438E+0003  -2.78759619140625E+0003  -2.78811450195313E+0003  -2.78863378906250E+0003  -2.78913012695313E+0003  -2.78960009765625E+0003  -2.78993383789063E+0003  -2.79013305664063E+0003  -2.79028027343750E+0003  -2.79041625976563E+0003  -2.79058496093750E+0003  -2.79083276367188E+0003  -2.79119165039063E+0003  -2.79165258789063E+0003  -2.79219946289063E+0003  -2.79280786132813E+0003  -2.79344775390625E+0003  -2.79410009765625E+0003  -2.79476586914063E+0003  -2.79544799804688E+0003  -2.79607690429688E+0003  -2.79660375976563E+0003  -2.79708227539063E+0003  -2.79747558593750E+0003  -2.79776953125000E+0003  -2.79798046875000E+0003  -2.79812622070313E+0003  -2.79822460937500E+0003  -2.79828881835938E+0003  -2.79832714843750E+0003  -2.79834692382813E+0003  -2.79835644531250E+0003  -2.79836376953125E+0003  -2.79837817382813E+0003  -2.79840869140625E+0003  -2.79846337890625E+0003  -2.79854321289063E+0003  -2.79864404296875E+0003  -2.79876074218750E+0003  -2.79888940429688E+0003  -2.79902514648438E+0003  -2.79916381835938E+0003  -2.79930053710938E+0003  -2.79943139648438E+0003  -2.79955566406250E+0003  -2.79967407226563E+0003  -2.79978735351563E+0003  -2.79989599609375E+0003  -2.80000097656250E+0003  -2.80010253906250E+0003  -2.80020141601563E+0003
  -2.82226464843750E+0003  -2.82223022460938E+0003  -2.82216674804688E+0003  -2.82207470703125E+0003  -2.82195776367188E+0003  -2.82182104492188E+0003  -2.82167993164063E+0003  -2.82155517578125E+0003  -2.82142944335938E+0003  -2.82127465820313E+0003  -2.82108593750000E+0003  -2.82087402343750E+0003  -2.82063256835938E+0003  -2.82036621093750E+0003  -2.82008569335938E+0003  -2.81976953125000E+0003  -2.81942065429688E+0003  -2.81904077148438E+0003  -2.81863085937500E+0003  -2.81819360351563E+0003  -2.81773559570313E+0003  -2.81726293945313E+0003  -2.81678125000000E+0003  -2.81629125976563E+0003  -2.81578515625000E+0003  -2.81525341796875E+0003  -2.81468774414063E+0003  -2.81408886718750E+0003  -2.81347045898438E+0003  -2.81284619140625E+0003  -2.81222753906250E+0003  -2.81162255859375E+0003  -2.81103564453125E+0003  -2.81047021484375E+0003  -2.80993041992188E+0003  -2.80942285156250E+0003  -2.80895629882813E+0003  -2.80853979492188E+0003  -2.80818188476563E+0003  -2.80787890625000E+0003  -2.80761987304688E+0003  -2.80739306640625E+0003  -2.80718554687500E+0003  -2.80696899414063E+0003  -2.80670654296875E+0003  -2.80636108398438E+0003  -2.80590332031250E+0003  -2.80536132812500E+0003  -2.80478857421875E+0003  -2.80423901367188E+0003  -2.80375708007813E+0003  -2.80333520507813E+0003  -2.80294799804688E+0003  -2.80256884765625E+0003  -2.80217675781250E+0003  -2.80177319335938E+0003  -2.80136718750000E+0003  -2.80096728515625E+0003  -2.80058300781250E+0003  -2.80022290039063E+0003  -2.79989550781250E+0003  -2.79960986328125E+0003  -2.79936816406250E+0003  -2.79915747070313E+0003  -2.79895800781250E+0003  -2.79874267578125E+0003  -2.79850732421875E+0003  -2.79830737304688E+0003  -2.79818164062500E+0003  -2.79810156250000E+0003  -2.79805688476563E+0003  -2.79807006835938E+0003  -2.79816650390625E+0003  -2.79837426757813E+0003  -2.79868237304688E+0003  -2.79902978515625E+0003  -2.79937597656250E+0003  -2.79970068359375E+0003  -2.79989965820313E+0003  -2.79978637695313E+0003  -2.79922924804688E+0003  -2.79816137695313E+0003  -2.79668750000000E+0003  -2.79504809570313E+0003  -2.79348339843750E+0003  -2.79221679687500E+0003  -2.79129541015625E+0003  -2.79065454101563E+0003  -2.79022387695313E+0003  -2.78993383789063E+0003  -2.78974072265625E+0003  -2.78961376953125E+0003  -2.78952246093750E+0003  -2.78943896484375E+0003  -2.78935498046875E+0003  -2.78927001953125E+0003  -2.78918359375000E+0003  -2.78909423828125E+0003  -2.78899633789063E+0003  -2.78888354492188E+0003  -2.78874926757813E+0003  -2.78858715820313E+0003  -2.78839355468750E+0003  -2.78816552734375E+0003  -2.78789941406250E+0003  -2.78759301757813E+0003  -2.78724755859375E+0003  -2.78686425781250E+0003  -2.78644458007813E+0003  -2.78598901367188E+0003  -2.78549633789063E+0003  -2.78496533203125E+0003  -2.78439453125000E+0003  -2.78379907226563E+0003  -2.78322265625000E+0003  -2.78271264648438E+0003  -2.78231713867188E+0003  -2.78205249023438E+0003  -2.78189282226563E+0003  -2.78180615234375E+0003  -2.78175683593750E+0003  -2.78171044921875E+0003  -2.78163427734375E+0003  -2.78149511718750E+0003  -2.78126171875000E+0003  -2.78094409179688E+0003  -2.78058984375000E+0003  -2.78024853515625E+0003  -2.77996704101563E+0003  -2.77975756835938E+0003  -2.77960815429688E+0003  -2.77950732421875E+0003  -2.77944360351563E+0003  -2.77940209960938E+0003  -2.77936523437500E+0003  -2.77931542968750E+0003  -2.77923510742188E+0003  -2.77910693359375E+0003  -2.77891503906250E+0003  -2.77864990234375E+0003  -2.77831030273438E+0003  -2.77793725585938E+0003  -2.77758520507813E+0003  -2.77731005859375E+0003  -2.77715600585938E+0003  -2.77711718750000E+0003  -2.77717382812500E+0003  -2.77729833984375E+0003  -2.77746313476563E+0003  -2.77764404296875E+0003  -2.77781713867188E+0003  -2.77795800781250E+0003  -2.77807348632813E+0003  -2.77824780273438E+0003  -2.77857788085938E+0003  -2.77916064453125E+0003  -2.78003198242188E+0003  -2.78110815429688E+0003  -2.78229223632813E+0003  -2.78348730468750E+0003  -2.78462304687500E+0003  -2.78566821289063E+0003  -2.78659301757813E+0003  -2.78734960937500E+0003  -2.78787182617188E+0003  -2.78872949218750E+0003  -2.78981689453125E+0003  -2.79017651367188E+0003  -2.79011035156250E+0003  -2.79001684570313E+0003  -2.78985400390625E+0003  -2.78958789062500E+0003  -2.78922265625000E+0003  -2.78878784179688E+0003  -2.78831835937500E+0003  -2.78785180664063E+0003  -2.78742553710938E+0003  -2.78707568359375E+0003  -2.78683935546875E+0003  -2.78674780273438E+0003  -2.78679589843750E+0003  -2.78696044921875E+0003  -2.78721752929688E+0003  -2.78754345703125E+0003  -2.78791406250000E+0003  -2.78830419921875E+0003  -2.78868969726563E+0003  -2.78905078125000E+0003  -2.78939282226563E+0003  -2.78953588867188E+0003  -2.78960717773438E+0003  -2.78965014648438E+0003  -2.78970361328125E+0003  -2.78981152343750E+0003  -2.79002539062500E+0003  -2.79037963867188E+0003  -2.79086474609375E+0003  -2.79146337890625E+0003  -2.79214233398438E+0003  -2.79285522460938E+0003  -2.79357324218750E+0003  -2.79430175781250E+0003  -2.79504858398438E+0003  -2.79579394531250E+0003  -2.79636279296875E+0003  -2.79687158203125E+0003  -2.79727490234375E+0003  -2.79755639648438E+0003  -2.79773803710938E+0003  -2.79784570312500E+0003  -2.79790356445313E+0003  -2.79792895507813E+0003  -2.79792968750000E+0003  -2.79791430664063E+0003  -2.79789038085938E+0003  -2.79786694335938E+0003  -2.79785351562500E+0003  -2.79785961914063E+0003  -2.79789453125000E+0003  -2.79795874023438E+0003  -2.79804711914063E+0003  -2.79815527343750E+0003  -2.79827758789063E+0003  -2.79840942382813E+0003  -2.79854565429688E+0003  -2.79868139648438E+0003  -2.79881225585938E+0003  -2.79893701171875E+0003  -2.79905664062500E+0003  -2.79917163085938E+0003  -2.79928271484375E+0003  -2.79939013671875E+0003  -2.79949487304688E+0003  -2.79959765625000E+0003
  -2.82154052734375E+0003  -2.82149267578125E+0003  -2.82141577148438E+0003  -2.82131103515625E+0003  -2.82118139648438E+0003  -2.82103149414063E+0003  -2.82087744140625E+0003  -2.82074462890625E+0003  -2.82061254882813E+0003  -2.82044995117188E+0003  -2.82025244140625E+0003  -2.82003125000000E+0003  -2.81978295898438E+0003  -2.81950781250000E+0003  -2.81920605468750E+0003  -2.81887426757813E+0003  -2.81851147460938E+0003  -2.81811816406250E+0003  -2.81769555664063E+0003  -2.81724658203125E+0003  -2.81677587890625E+0003  -2.81628906250000E+0003  -2.81579101562500E+0003  -2.81528320312500E+0003  -2.81476147460938E+0003  -2.81422070312500E+0003  -2.81365576171875E+0003  -2.81306689453125E+0003  -2.81246215820313E+0003  -2.81184936523438E+0003  -2.81123632812500E+0003  -2.81062915039063E+0003  -2.81003320312500E+0003  -2.80945312500000E+0003  -2.80889404296875E+0003  -2.80836303710938E+0003  -2.80786816406250E+0003  -2.80741821289063E+0003  -2.80702075195313E+0003  -2.80667309570313E+0003  -2.80636425781250E+0003  -2.80608398437500E+0003  -2.80581982421875E+0003  -2.80554565429688E+0003  -2.80522656250000E+0003  -2.80482861328125E+0003  -2.80432446289063E+0003  -2.80374658203125E+0003  -2.80315283203125E+0003  -2.80260156250000E+0003  -2.80214086914063E+0003  -2.80176196289063E+0003  -2.80143579101563E+0003  -2.80113305664063E+0003  -2.80082934570313E+0003  -2.80052172851563E+0003  -2.80021289062500E+0003  -2.79990625000000E+0003  -2.79960498046875E+0003  -2.79931225585938E+0003  -2.79903198242188E+0003  -2.79876782226563E+0003  -2.79852099609375E+0003  -2.79828686523438E+0003  -2.79805200195313E+0003  -2.79778295898438E+0003  -2.79746533203125E+0003  -2.79719360351563E+0003  -2.79706494140625E+0003  -2.79700415039063E+0003  -2.79699267578125E+0003  -2.79707812500000E+0003  -2.79730371093750E+0003  -2.79772070312500E+0003  -2.79832202148438E+0003  -2.79902709960938E+0003  -2.79975244140625E+0003  -2.80041455078125E+0003  -2.80082470703125E+0003  -2.80070092773438E+0003  -2.79995288085938E+0003  -2.79867016601563E+0003  -2.79702490234375E+0003  -2.79525073242188E+0003  -2.79358471679688E+0003  -2.79224926757813E+0003  -2.79128125000000E+0003  -2.79060083007813E+0003  -2.79012500000000E+0003  -2.78977539062500E+0003  -2.78951733398438E+0003  -2.78933715820313E+0003  -2.78922143554688E+0003  -2.78915649414063E+0003  -2.78912670898438E+0003  -2.78911547851563E+0003  -2.78910668945313E+0003  -2.78908520507813E+0003  -2.78904394531250E+0003  -2.78897802734375E+0003  -2.78888305664063E+0003  -2.78875390625000E+0003  -2.78858618164063E+0003  -2.78837622070313E+0003  -2.78811938476563E+0003  -2.78781201171875E+0003  -2.78745166015625E+0003  -2.78703637695313E+0003  -2.78656396484375E+0003  -2.78603515625000E+0003  -2.78545703125000E+0003  -2.78483789062500E+0003  -2.78418554687500E+0003  -2.78352197265625E+0003  -2.78289160156250E+0003  -2.78234179687500E+0003  -2.78191918945313E+0003  -2.78163940429688E+0003  -2.78147338867188E+0003  -2.78138916015625E+0003  -2.78135278320313E+0003  -2.78133007812500E+0003  -2.78128735351563E+0003  -2.78119018554688E+0003  -2.78100634765625E+0003  -2.78074145507813E+0003  -2.78043603515625E+0003  -2.78013061523438E+0003  -2.77986523437500E+0003  -2.77965112304688E+0003  -2.77948144531250E+0003  -2.77934887695313E+0003  -2.77924584960938E+0003  -2.77916137695313E+0003  -2.77908178710938E+0003  -2.77899340820313E+0003  -2.77888256835938E+0003  -2.77873559570313E+0003  -2.77853881835938E+0003  -2.77828076171875E+0003  -2.77795751953125E+0003  -2.77760668945313E+0003  -2.77727880859375E+0003  -2.77702612304688E+0003  -2.77688989257813E+0003  -2.77686523437500E+0003  -2.77693334960938E+0003  -2.77706884765625E+0003  -2.77724536132813E+0003  -2.77743798828125E+0003  -2.77762207031250E+0003  -2.77777246093750E+0003  -2.77789599609375E+0003  -2.77807788085938E+0003  -2.77841625976563E+0003  -2.77900976562500E+0003  -2.77989404296875E+0003  -2.78098461914063E+0003  -2.78218237304688E+0003  -2.78338940429688E+0003  -2.78453442382813E+0003  -2.78558618164063E+0003  -2.78651367187500E+0003  -2.78727124023438E+0003  -2.78782397460938E+0003  -2.78857617187500E+0003  -2.78952148437500E+0003  -2.78997265625000E+0003  -2.79002026367188E+0003  -2.78997949218750E+0003  -2.78986938476563E+0003  -2.78966796875000E+0003  -2.78938012695313E+0003  -2.78903076171875E+0003  -2.78864843750000E+0003  -2.78826538085938E+0003  -2.78791186523438E+0003  -2.78761816406250E+0003  -2.78741357421875E+0003  -2.78732446289063E+0003  -2.78734643554688E+0003  -2.78746069335938E+0003  -2.78764794921875E+0003  -2.78788867187500E+0003  -2.78816113281250E+0003  -2.78844360351563E+0003  -2.78871386718750E+0003  -2.78895629882813E+0003  -2.78915112304688E+0003  -2.78916528320313E+0003  -2.78911962890625E+0003  -2.78906030273438E+0003  -2.78902514648438E+0003  -2.78906054687500E+0003  -2.78922436523438E+0003  -2.78955615234375E+0003  -2.79004687500000E+0003  -2.79068041992188E+0003  -2.79141455078125E+0003  -2.79218725585938E+0003  -2.79295751953125E+0003  -2.79373437500000E+0003  -2.79453173828125E+0003  -2.79533032226563E+0003  -2.79597119140625E+0003  -2.79651025390625E+0003  -2.79692651367188E+0003  -2.79720117187500E+0003  -2.79736254882813E+0003  -2.79744189453125E+0003  -2.79746997070313E+0003  -2.79746679687500E+0003  -2.79744091796875E+0003  -2.79740039062500E+0003  -2.79735302734375E+0003  -2.79730810546875E+0003  -2.79727539062500E+0003  -2.79726513671875E+0003  -2.79728662109375E+0003  -2.79734057617188E+0003  -2.79742187500000E+0003  -2.79752490234375E+0003  -2.79764453125000E+0003  -2.79777539062500E+0003  -2.79791186523438E+0003  -2.79804882812500E+0003  -2.79818164062500E+0003  -2.79830908203125E+0003  -2.79843188476563E+0003  -2.79855029296875E+0003  -2.79866528320313E+0003  -2.79877709960938E+0003  -2.79888647460938E+0003  -2.79899414062500E+0003
  -2.82081616210938E+0003  -2.82075512695313E+0003  -2.82066650390625E+0003  -2.82055102539063E+0003  -2.82041210937500E+0003  -2.82025512695313E+0003  -2.82009326171875E+0003  -2.81994140625000E+0003  -2.81978540039063E+0003  -2.81960620117188E+0003  -2.81939965820313E+0003  -2.81916650390625E+0003  -2.81890576171875E+0003  -2.81861645507813E+0003  -2.81829760742188E+0003  -2.81794824218750E+0003  -2.81756835937500E+0003  -2.81715893554688E+0003  -2.81672167968750E+0003  -2.81625903320313E+0003  -2.81577539062500E+0003  -2.81527514648438E+0003  -2.81476293945313E+0003  -2.81424096679688E+0003  -2.81370776367188E+0003  -2.81316088867188E+0003  -2.81259838867188E+0003  -2.81202001953125E+0003  -2.81142895507813E+0003  -2.81082788085938E+0003  -2.81022021484375E+0003  -2.80961010742188E+0003  -2.80900390625000E+0003  -2.80840771484375E+0003  -2.80782788085938E+0003  -2.80727124023438E+0003  -2.80674633789063E+0003  -2.80626074218750E+0003  -2.80582202148438E+0003  -2.80542749023438E+0003  -2.80506811523438E+0003  -2.80473364257813E+0003  -2.80441308593750E+0003  -2.80407983398438E+0003  -2.80369824218750E+0003  -2.80323266601563E+0003  -2.80265625000000E+0003  -2.80200952148438E+0003  -2.80136206054688E+0003  -2.80078442382813E+0003  -2.80033471679688E+0003  -2.80000122070313E+0003  -2.79974902343750E+0003  -2.79954223632813E+0003  -2.79934985351563E+0003  -2.79916259765625E+0003  -2.79897607421875E+0003  -2.79878637695313E+0003  -2.79859008789063E+0003  -2.79838476562500E+0003  -2.79816894531250E+0003  -2.79794067382813E+0003  -2.79770141601563E+0003  -2.79745751953125E+0003  -2.79720532226563E+0003  -2.79691308593750E+0003  -2.79654199218750E+0003  -2.79617749023438E+0003  -2.79598388671875E+0003  -2.79587695312500E+0003  -2.79584350585938E+0003  -2.79594555664063E+0003  -2.79623803710938E+0003  -2.79678784179688E+0003  -2.79760034179688E+0003  -2.79860278320313E+0003  -2.79971093750000E+0003  -2.80082470703125E+0003  -2.80162304687500E+0003  -2.80158227539063E+0003  -2.80063110351563E+0003  -2.79910302734375E+0003  -2.79727246093750E+0003  -2.79536059570313E+0003  -2.79359326171875E+0003  -2.79218579101563E+0003  -2.79116503906250E+0003  -2.79043994140625E+0003  -2.78991748046875E+0003  -2.78951171875000E+0003  -2.78919726562500E+0003  -2.78897949218750E+0003  -2.78886328125000E+0003  -2.78884912109375E+0003  -2.78891040039063E+0003  -2.78900976562500E+0003  -2.78911010742188E+0003  -2.78918041992188E+0003  -2.78921240234375E+0003  -2.78920532226563E+0003  -2.78915795898438E+0003  -2.78906884765625E+0003  -2.78893334960938E+0003  -2.78874633789063E+0003  -2.78850244140625E+0003  -2.78819604492188E+0003  -2.78782080078125E+0003  -2.78736987304688E+0003  -2.78683666992188E+0003  -2.78622143554688E+0003  -2.78554125976563E+0003  -2.78481494140625E+0003  -2.78406176757813E+0003  -2.78331079101563E+0003  -2.78260888671875E+0003  -2.78200537109375E+0003  -2.78154833984375E+0003  -2.78125292968750E+0003  -2.78108813476563E+0003  -2.78101928710938E+0003  -2.78101171875000E+0003  -2.78102978515625E+0003  -2.78103686523438E+0003  -2.78099609375000E+0003  -2.78087255859375E+0003  -2.78066748046875E+0003  -2.78041210937500E+0003  -2.78013989257813E+0003  -2.77988208007813E+0003  -2.77965136718750E+0003  -2.77944628906250E+0003  -2.77926586914063E+0003  -2.77910815429688E+0003  -2.77896704101563E+0003  -2.77883374023438E+0003  -2.77869897460938E+0003  -2.77855371093750E+0003  -2.77838818359375E+0003  -2.77819189453125E+0003  -2.77795434570313E+0003  -2.77767211914063E+0003  -2.77737573242188E+0003  -2.77710742187500E+0003  -2.77691040039063E+0003  -2.77681811523438E+0003  -2.77682495117188E+0003  -2.77691430664063E+0003  -2.77706494140625E+0003  -2.77725463867188E+0003  -2.77746142578125E+0003  -2.77766333007813E+0003  -2.77783837890625E+0003  -2.77799267578125E+0003  -2.77820556640625E+0003  -2.77856616210938E+0003  -2.77916479492188E+0003  -2.78003369140625E+0003  -2.78109423828125E+0003  -2.78225463867188E+0003  -2.78342358398438E+0003  -2.78453540039063E+0003  -2.78556298828125E+0003  -2.78647998046875E+0003  -2.78725659179688E+0003  -2.78791333007813E+0003  -2.78857763671875E+0003  -2.78922753906250E+0003  -2.78964331054688E+0003  -2.78980371093750E+0003  -2.78983520507813E+0003  -2.78978320312500E+0003  -2.78964331054688E+0003  -2.78942504882813E+0003  -2.78915063476563E+0003  -2.78884497070313E+0003  -2.78853515625000E+0003  -2.78824584960938E+0003  -2.78800244140625E+0003  -2.78782910156250E+0003  -2.78774780273438E+0003  -2.78775439453125E+0003  -2.78783325195313E+0003  -2.78796752929688E+0003  -2.78814086914063E+0003  -2.78833374023438E+0003  -2.78852612304688E+0003  -2.78869824218750E+0003  -2.78883691406250E+0003  -2.78891162109375E+0003  -2.78881616210938E+0003  -2.78866625976563E+0003  -2.78851123046875E+0003  -2.78838720703125E+0003  -2.78834472656250E+0003  -2.78844824218750E+0003  -2.78874267578125E+0003  -2.78922070312500E+0003  -2.78986743164063E+0003  -2.79063525390625E+0003  -2.79144750976563E+0003  -2.79225122070313E+0003  -2.79305834960938E+0003  -2.79388745117188E+0003  -2.79472045898438E+0003  -2.79540356445313E+0003  -2.79596875000000E+0003  -2.79639941406250E+0003  -2.79667504882813E+0003  -2.79682788085938E+0003  -2.79689331054688E+0003  -2.79690600585938E+0003  -2.79688867187500E+0003  -2.79684936523438E+0003  -2.79679589843750E+0003  -2.79673681640625E+0003  -2.79668115234375E+0003  -2.79663916015625E+0003  -2.79662133789063E+0003  -2.79663720703125E+0003  -2.79668725585938E+0003  -2.79676660156250E+0003  -2.79686914062500E+0003  -2.79698950195313E+0003  -2.79712231445313E+0003  -2.79726171875000E+0003  -2.79740234375000E+0003  -2.79753955078125E+0003  -2.79767163085938E+0003  -2.79779931640625E+0003  -2.79792333984375E+0003  -2.79804394531250E+0003  -2.79816186523438E+0003  -2.79827734375000E+0003  -2.79839111328125E+0003
  -2.82009082031250E+0003  -2.82001708984375E+0003  -2.81991699218750E+0003  -2.81979150390625E+0003  -2.81964404296875E+0003  -2.81947998046875E+0003  -2.81930786132813E+0003  -2.81913525390625E+0003  -2.81895483398438E+0003  -2.81875585937500E+0003  -2.81853320312500E+0003  -2.81828369140625E+0003  -2.81800585937500E+0003  -2.81769921875000E+0003  -2.81736157226563E+0003  -2.81699243164063E+0003  -2.81659326171875E+0003  -2.81616552734375E+0003  -2.81571118164063E+0003  -2.81523315429688E+0003  -2.81473559570313E+0003  -2.81422216796875E+0003  -2.81369726562500E+0003  -2.81316381835938E+0003  -2.81262207031250E+0003  -2.81207202148438E+0003  -2.81151342773438E+0003  -2.81094628906250E+0003  -2.81036889648438E+0003  -2.80977978515625E+0003  -2.80917773437500E+0003  -2.80856567382813E+0003  -2.80795043945313E+0003  -2.80733911132813E+0003  -2.80673925781250E+0003  -2.80615844726563E+0003  -2.80560400390625E+0003  -2.80508349609375E+0003  -2.80460449218750E+0003  -2.80416455078125E+0003  -2.80375537109375E+0003  -2.80336840820313E+0003  -2.80299340820313E+0003  -2.80260156250000E+0003  -2.80215429687500E+0003  -2.80161206054688E+0003  -2.80094628906250E+0003  -2.80020849609375E+0003  -2.79948559570313E+0003  -2.79886523437500E+0003  -2.79841967773438E+0003  -2.79813427734375E+0003  -2.79796484375000E+0003  -2.79786694335938E+0003  -2.79780102539063E+0003  -2.79775000000000E+0003  -2.79770214843750E+0003  -2.79764599609375E+0003  -2.79757104492188E+0003  -2.79746899414063E+0003  -2.79733154296875E+0003  -2.79715136718750E+0003  -2.79692749023438E+0003  -2.79667480468750E+0003  -2.79640112304688E+0003  -2.79609765625000E+0003  -2.79571533203125E+0003  -2.79526538085938E+0003  -2.79493041992188E+0003  -2.79470825195313E+0003  -2.79460742187500E+0003  -2.79467993164063E+0003  -2.79498413085938E+0003  -2.79558886718750E+0003  -2.79651220703125E+0003  -2.79770629882813E+0003  -2.79910546875000E+0003  -2.80061791992188E+0003  -2.80181201171875E+0003  -2.80191748046875E+0003  -2.80086425781250E+0003  -2.79919677734375E+0003  -2.79726513671875E+0003  -2.79527807617188E+0003  -2.79345410156250E+0003  -2.79200195312500E+0003  -2.79094335937500E+0003  -2.79018188476563E+0003  -2.78961914062500E+0003  -2.78916430664063E+0003  -2.78880566406250E+0003  -2.78856933593750E+0003  -2.78848022460938E+0003  -2.78855371093750E+0003  -2.78874584960938E+0003  -2.78899145507813E+0003  -2.78922827148438E+0003  -2.78940551757813E+0003  -2.78951611328125E+0003  -2.78956689453125E+0003  -2.78956469726563E+0003  -2.78951342773438E+0003  -2.78940917968750E+0003  -2.78924536132813E+0003  -2.78901562500000E+0003  -2.78871215820313E+0003  -2.78832299804688E+0003  -2.78783520507813E+0003  -2.78723608398438E+0003  -2.78652514648438E+0003  -2.78572949218750E+0003  -2.78487939453125E+0003  -2.78400561523438E+0003  -2.78314697265625E+0003  -2.78235473632813E+0003  -2.78168261718750E+0003  -2.78118286132813E+0003  -2.78087158203125E+0003  -2.78071484375000E+0003  -2.78067480468750E+0003  -2.78071362304688E+0003  -2.78079174804688E+0003  -2.78086816406250E+0003  -2.78090112304688E+0003  -2.78085156250000E+0003  -2.78071362304688E+0003  -2.78051098632813E+0003  -2.78026879882813E+0003  -2.78001074218750E+0003  -2.77975073242188E+0003  -2.77949584960938E+0003  -2.77925244140625E+0003  -2.77902661132813E+0003  -2.77881787109375E+0003  -2.77862207031250E+0003  -2.77843481445313E+0003  -2.77825219726563E+0003  -2.77806811523438E+0003  -2.77787548828125E+0003  -2.77766796875000E+0003  -2.77744335937500E+0003  -2.77722363281250E+0003  -2.77703881835938E+0003  -2.77691967773438E+0003  -2.77688940429688E+0003  -2.77694189453125E+0003  -2.77706225585938E+0003  -2.77723437500000E+0003  -2.77744140625000E+0003  -2.77766625976563E+0003  -2.77789233398438E+0003  -2.77810205078125E+0003  -2.77830224609375E+0003  -2.77855932617188E+0003  -2.77894897460938E+0003  -2.77954589843750E+0003  -2.78037695312500E+0003  -2.78137426757813E+0003  -2.78245849609375E+0003  -2.78355175781250E+0003  -2.78459692382813E+0003  -2.78557104492188E+0003  -2.78645263671875E+0003  -2.78721899414063E+0003  -2.78787597656250E+0003  -2.78846191406250E+0003  -2.78896704101563E+0003  -2.78932592773438E+0003  -2.78952832031250E+0003  -2.78961743164063E+0003  -2.78961621093750E+0003  -2.78952978515625E+0003  -2.78937133789063E+0003  -2.78916186523438E+0003  -2.78892260742188E+0003  -2.78867602539063E+0003  -2.78844335937500E+0003  -2.78824536132813E+0003  -2.78810302734375E+0003  -2.78803393554688E+0003  -2.78803466796875E+0003  -2.78809106445313E+0003  -2.78818847656250E+0003  -2.78831152343750E+0003  -2.78844238281250E+0003  -2.78856176757813E+0003  -2.78865136718750E+0003  -2.78869946289063E+0003  -2.78868041992188E+0003  -2.78848925781250E+0003  -2.78824560546875E+0003  -2.78799951171875E+0003  -2.78778906250000E+0003  -2.78766772460938E+0003  -2.78770507812500E+0003  -2.78795092773438E+0003  -2.78839868164063E+0003  -2.78903417968750E+0003  -2.78980712890625E+0003  -2.79063256835938E+0003  -2.79145117187500E+0003  -2.79227368164063E+0003  -2.79311865234375E+0003  -2.79396826171875E+0003  -2.79466503906250E+0003  -2.79525024414063E+0003  -2.79569555664063E+0003  -2.79597998046875E+0003  -2.79613720703125E+0003  -2.79620434570313E+0003  -2.79621777343750E+0003  -2.79620043945313E+0003  -2.79616088867188E+0003  -2.79610742187500E+0003  -2.79604809570313E+0003  -2.79599218750000E+0003  -2.79595043945313E+0003  -2.79593334960938E+0003  -2.79595043945313E+0003  -2.79600292968750E+0003  -2.79608496093750E+0003  -2.79619091796875E+0003  -2.79631567382813E+0003  -2.79645312500000E+0003  -2.79659790039063E+0003  -2.79674462890625E+0003  -2.79688769531250E+0003  -2.79702661132813E+0003  -2.79716137695313E+0003  -2.79729248046875E+0003  -2.79742041015625E+0003  -2.79754565429688E+0003  -2.79766870117188E+0003  -2.79778979492188E+0003
  -2.81936328125000E+0003  -2.81927661132813E+0003  -2.81916479492188E+0003  -2.81902856445313E+0003  -2.81887158203125E+0003  -2.81869775390625E+0003  -2.81851269531250E+0003  -2.81832104492188E+0003  -2.81811791992188E+0003  -2.81789721679688E+0003  -2.81765405273438E+0003  -2.81738427734375E+0003  -2.81708618164063E+0003  -2.81675854492188E+0003  -2.81639965820313E+0003  -2.81600854492188E+0003  -2.81558764648438E+0003  -2.81513891601563E+0003  -2.81466577148438E+0003  -2.81417041015625E+0003  -2.81365747070313E+0003  -2.81313061523438E+0003  -2.81259399414063E+0003  -2.81205078125000E+0003  -2.81150292968750E+0003  -2.81095166015625E+0003  -2.81039868164063E+0003  -2.80984252929688E+0003  -2.80927880859375E+0003  -2.80870214843750E+0003  -2.80810742187500E+0003  -2.80749584960938E+0003  -2.80687500000000E+0003  -2.80625268554688E+0003  -2.80563720703125E+0003  -2.80503588867188E+0003  -2.80445605468750E+0003  -2.80390478515625E+0003  -2.80338891601563E+0003  -2.80290722656250E+0003  -2.80245214843750E+0003  -2.80201635742188E+0003  -2.80158935546875E+0003  -2.80114086914063E+0003  -2.80062792968750E+0003  -2.80000659179688E+0003  -2.79924462890625E+0003  -2.79840625000000E+0003  -2.79759838867188E+0003  -2.79692846679688E+0003  -2.79648510742188E+0003  -2.79625000000000E+0003  -2.79616870117188E+0003  -2.79618579101563E+0003  -2.79625195312500E+0003  -2.79634277343750E+0003  -2.79644018554688E+0003  -2.79652612304688E+0003  -2.79658300781250E+0003  -2.79659521484375E+0003  -2.79654711914063E+0003  -2.79642358398438E+0003  -2.79621826171875E+0003  -2.79594799804688E+0003  -2.79562573242188E+0003  -2.79525244140625E+0003  -2.79480078125000E+0003  -2.79427563476563E+0003  -2.79381738281250E+0003  -2.79347363281250E+0003  -2.79328051757813E+0003  -2.79329150390625E+0003  -2.79355981445313E+0003  -2.79413452148438E+0003  -2.79503808593750E+0003  -2.79625903320313E+0003  -2.79776391601563E+0003  -2.79948535156250E+0003  -2.80094628906250E+0003  -2.80125219726563E+0003  -2.80030761718750E+0003  -2.79871655273438E+0003  -2.79684765625000E+0003  -2.79490869140625E+0003  -2.79311669921875E+0003  -2.79167919921875E+0003  -2.79061962890625E+0003  -2.78984423828125E+0003  -2.78925439453125E+0003  -2.78876123046875E+0003  -2.78837109375000E+0003  -2.78813671875000E+0003  -2.78810595703125E+0003  -2.78830859375000E+0003  -2.78867553710938E+0003  -2.78910229492188E+0003  -2.78949682617188E+0003  -2.78978613281250E+0003  -2.78996850585938E+0003  -2.79006372070313E+0003  -2.79009155273438E+0003  -2.79006665039063E+0003  -2.78998535156250E+0003  -2.78984008789063E+0003  -2.78962304687500E+0003  -2.78932397460938E+0003  -2.78892333984375E+0003  -2.78840014648438E+0003  -2.78773364257813E+0003  -2.78692114257813E+0003  -2.78599975585938E+0003  -2.78501147460938E+0003  -2.78399926757813E+0003  -2.78301196289063E+0003  -2.78210913085938E+0003  -2.78135180664063E+0003  -2.78080004882813E+0003  -2.78047290039063E+0003  -2.78033178710938E+0003  -2.78033471679688E+0003  -2.78043896484375E+0003  -2.78059936523438E+0003  -2.78076733398438E+0003  -2.78089428710938E+0003  -2.78093359375000E+0003  -2.78087182617188E+0003  -2.78072509765625E+0003  -2.78050976562500E+0003  -2.78024291992188E+0003  -2.77994165039063E+0003  -2.77962255859375E+0003  -2.77930224609375E+0003  -2.77899682617188E+0003  -2.77871166992188E+0003  -2.77844702148438E+0003  -2.77820361328125E+0003  -2.77798071289063E+0003  -2.77777709960938E+0003  -2.77759008789063E+0003  -2.77741699218750E+0003  -2.77725805664063E+0003  -2.77712548828125E+0003  -2.77703564453125E+0003  -2.77700585937500E+0003  -2.77704785156250E+0003  -2.77715527343750E+0003  -2.77731616210938E+0003  -2.77751831054688E+0003  -2.77774951171875E+0003  -2.77799829101563E+0003  -2.77825317382813E+0003  -2.77850292968750E+0003  -2.77875390625000E+0003  -2.77905810546875E+0003  -2.77947460937500E+0003  -2.78006152343750E+0003  -2.78083886718750E+0003  -2.78175195312500E+0003  -2.78273681640625E+0003  -2.78373046875000E+0003  -2.78468627929688E+0003  -2.78558325195313E+0003  -2.78640209960938E+0003  -2.78712304687500E+0003  -2.78774096679688E+0003  -2.78826684570313E+0003  -2.78869946289063E+0003  -2.78902294921875E+0003  -2.78923706054688E+0003  -2.78935620117188E+0003  -2.78939038085938E+0003  -2.78934667968750E+0003  -2.78923828125000E+0003  -2.78908349609375E+0003  -2.78890039062500E+0003  -2.78870800781250E+0003  -2.78852441406250E+0003  -2.78836718750000E+0003  -2.78825463867188E+0003  -2.78820166015625E+0003  -2.78820434570313E+0003  -2.78824975585938E+0003  -2.78832373046875E+0003  -2.78841235351563E+0003  -2.78849755859375E+0003  -2.78856054687500E+0003  -2.78858276367188E+0003  -2.78855273437500E+0003  -2.78846240234375E+0003  -2.78818652343750E+0003  -2.78785522460938E+0003  -2.78752099609375E+0003  -2.78722680664063E+0003  -2.78702978515625E+0003  -2.78700097656250E+0003  -2.78719042968750E+0003  -2.78759106445313E+0003  -2.78818676757813E+0003  -2.78892871093750E+0003  -2.78973706054688E+0003  -2.79055297851563E+0003  -2.79138012695313E+0003  -2.79222998046875E+0003  -2.79308081054688E+0003  -2.79376489257813E+0003  -2.79436181640625E+0003  -2.79482055664063E+0003  -2.79512133789063E+0003  -2.79529687500000E+0003  -2.79538232421875E+0003  -2.79541259765625E+0003  -2.79541040039063E+0003  -2.79538452148438E+0003  -2.79534326171875E+0003  -2.79529467773438E+0003  -2.79524853515625E+0003  -2.79521582031250E+0003  -2.79520678710938E+0003  -2.79523193359375E+0003  -2.79529199218750E+0003  -2.79538134765625E+0003  -2.79549487304688E+0003  -2.79562670898438E+0003  -2.79577148437500E+0003  -2.79592358398438E+0003  -2.79607788085938E+0003  -2.79622924804688E+0003  -2.79637622070313E+0003  -2.79651953125000E+0003  -2.79665942382813E+0003  -2.79679614257813E+0003  -2.79692993164063E+0003  -2.79706152343750E+0003  -2.79719116210938E+0003
  -2.81863232421875E+0003  -2.81853222656250E+0003  -2.81840747070313E+0003  -2.81825952148438E+0003  -2.81809082031250E+0003  -2.81790502929688E+0003  -2.81770532226563E+0003  -2.81749462890625E+0003  -2.81727001953125E+0003  -2.81702685546875E+0003  -2.81676098632813E+0003  -2.81646875000000E+0003  -2.81614819335938E+0003  -2.81579736328125E+0003  -2.81541455078125E+0003  -2.81499902343750E+0003  -2.81455371093750E+0003  -2.81408178710938E+0003  -2.81358666992188E+0003  -2.81307177734375E+0003  -2.81254174804688E+0003  -2.81200048828125E+0003  -2.81145239257813E+0003  -2.81090112304688E+0003  -2.81034912109375E+0003  -2.80979882812500E+0003  -2.80925195312500E+0003  -2.80870727539063E+0003  -2.80815673828125E+0003  -2.80759277343750E+0003  -2.80700756835938E+0003  -2.80640087890625E+0003  -2.80578027343750E+0003  -2.80515405273438E+0003  -2.80453002929688E+0003  -2.80391552734375E+0003  -2.80331713867188E+0003  -2.80274194335938E+0003  -2.80219653320313E+0003  -2.80167968750000E+0003  -2.80118530273438E+0003  -2.80070532226563E+0003  -2.80023071289063E+0003  -2.79972851562500E+0003  -2.79915307617188E+0003  -2.79845581054688E+0003  -2.79760107421875E+0003  -2.79666552734375E+0003  -2.79577563476563E+0003  -2.79505859375000E+0003  -2.79461987304688E+0003  -2.79443750000000E+0003  -2.79444531250000E+0003  -2.79457641601563E+0003  -2.79477172851563E+0003  -2.79500024414063E+0003  -2.79523999023438E+0003  -2.79546801757813E+0003  -2.79566088867188E+0003  -2.79579394531250E+0003  -2.79584228515625E+0003  -2.79578100585938E+0003  -2.79559545898438E+0003  -2.79529833984375E+0003  -2.79490136718750E+0003  -2.79440380859375E+0003  -2.79381762695313E+0003  -2.79319604492188E+0003  -2.79261645507813E+0003  -2.79214965820313E+0003  -2.79185742187500E+0003  -2.79179101562500E+0003  -2.79197851562500E+0003  -2.79241479492188E+0003  -2.79311572265625E+0003  -2.79412524414063E+0003  -2.79548071289063E+0003  -2.79718701171875E+0003  -2.79878076171875E+0003  -2.79936328125000E+0003  -2.79877172851563E+0003  -2.79750048828125E+0003  -2.79589208984375E+0003  -2.79416308593750E+0003  -2.79253051757813E+0003  -2.79119848632813E+0003  -2.79019604492188E+0003  -2.78944238281250E+0003  -2.78884667968750E+0003  -2.78832739257813E+0003  -2.78791772460938E+0003  -2.78770629882813E+0003  -2.78776806640625E+0003  -2.78814794921875E+0003  -2.78873950195313E+0003  -2.78938330078125E+0003  -2.78995117187500E+0003  -2.79034814453125E+0003  -2.79058300781250E+0003  -2.79069604492188E+0003  -2.79072680664063E+0003  -2.79070629882813E+0003  -2.79063256835938E+0003  -2.79049633789063E+0003  -2.79028857421875E+0003  -2.78999487304688E+0003  -2.78958642578125E+0003  -2.78903198242188E+0003  -2.78830029296875E+0003  -2.78738403320313E+0003  -2.78633007812500E+0003  -2.78519213867188E+0003  -2.78402441406250E+0003  -2.78288720703125E+0003  -2.78185229492188E+0003  -2.78099194335938E+0003  -2.78037792968750E+0003  -2.78003369140625E+0003  -2.77991625976563E+0003  -2.77997705078125E+0003  -2.78016772460938E+0003  -2.78043505859375E+0003  -2.78071997070313E+0003  -2.78096362304688E+0003  -2.78110888671875E+0003  -2.78113330078125E+0003  -2.78104541015625E+0003  -2.78085449218750E+0003  -2.78057080078125E+0003  -2.78021582031250E+0003  -2.77981860351563E+0003  -2.77940869140625E+0003  -2.77901367187500E+0003  -2.77864624023438E+0003  -2.77830957031250E+0003  -2.77800756835938E+0003  -2.77774340820313E+0003  -2.77751953125000E+0003  -2.77733691406250E+0003  -2.77719750976563E+0003  -2.77710302734375E+0003  -2.77705664062500E+0003  -2.77706201171875E+0003  -2.77712304687500E+0003  -2.77724096679688E+0003  -2.77740942382813E+0003  -2.77761865234375E+0003  -2.77785961914063E+0003  -2.77812353515625E+0003  -2.77840307617188E+0003  -2.77869116210938E+0003  -2.77898046875000E+0003  -2.77927734375000E+0003  -2.77962060546875E+0003  -2.78005395507813E+0003  -2.78062084960938E+0003  -2.78133544921875E+0003  -2.78215576171875E+0003  -2.78303271484375E+0003  -2.78391748046875E+0003  -2.78477343750000E+0003  -2.78558129882813E+0003  -2.78632299804688E+0003  -2.78698095703125E+0003  -2.78754687500000E+0003  -2.78802441406250E+0003  -2.78841479492188E+0003  -2.78871606445313E+0003  -2.78893041992188E+0003  -2.78906445312500E+0003  -2.78912377929688E+0003  -2.78911352539063E+0003  -2.78904516601563E+0003  -2.78893457031250E+0003  -2.78879760742188E+0003  -2.78865039062500E+0003  -2.78850854492188E+0003  -2.78838769531250E+0003  -2.78830346679688E+0003  -2.78826928710938E+0003  -2.78828051757813E+0003  -2.78832421875000E+0003  -2.78838671875000E+0003  -2.78845410156250E+0003  -2.78850854492188E+0003  -2.78852978515625E+0003  -2.78849902343750E+0003  -2.78840307617188E+0003  -2.78826049804688E+0003  -2.78791015625000E+0003  -2.78749340820313E+0003  -2.78706616210938E+0003  -2.78668115234375E+0003  -2.78640039062500E+0003  -2.78629516601563E+0003  -2.78641503906250E+0003  -2.78675048828125E+0003  -2.78728198242188E+0003  -2.78796728515625E+0003  -2.78874121093750E+0003  -2.78954809570313E+0003  -2.79037768554688E+0003  -2.79122583007813E+0003  -2.79203662109375E+0003  -2.79271264648438E+0003  -2.79331079101563E+0003  -2.79378076171875E+0003  -2.79410595703125E+0003  -2.79431347656250E+0003  -2.79443481445313E+0003  -2.79449926757813E+0003  -2.79452758789063E+0003  -2.79452856445313E+0003  -2.79451098632813E+0003  -2.79448388671875E+0003  -2.79445703125000E+0003  -2.79444140625000E+0003  -2.79444799804688E+0003  -2.79448706054688E+0003  -2.79455957031250E+0003  -2.79466040039063E+0003  -2.79478442382813E+0003  -2.79492602539063E+0003  -2.79508032226563E+0003  -2.79524194335938E+0003  -2.79540551757813E+0003  -2.79556640625000E+0003  -2.79572314453125E+0003  -2.79587646484375E+0003  -2.79602612304688E+0003  -2.79617285156250E+0003  -2.79631665039063E+0003  -2.79645776367188E+0003  -2.79659643554688E+0003
  -2.81789746093750E+0003  -2.81778271484375E+0003  -2.81764404296875E+0003  -2.81748266601563E+0003  -2.81730053710938E+0003  -2.81710009765625E+0003  -2.81688427734375E+0003  -2.81665478515625E+0003  -2.81640869140625E+0003  -2.81614306640625E+0003  -2.81585400390625E+0003  -2.81553808593750E+0003  -2.81519311523438E+0003  -2.81481713867188E+0003  -2.81440844726563E+0003  -2.81396582031250E+0003  -2.81349316406250E+0003  -2.81299487304688E+0003  -2.81247485351563E+0003  -2.81193750000000E+0003  -2.81138793945313E+0003  -2.81083081054688E+0003  -2.81027124023438E+0003  -2.80971313476563E+0003  -2.80915893554688E+0003  -2.80861132812500E+0003  -2.80807202148438E+0003  -2.80753857421875E+0003  -2.80700219726563E+0003  -2.80645263671875E+0003  -2.80588110351563E+0003  -2.80528588867188E+0003  -2.80467382812500E+0003  -2.80405273437500E+0003  -2.80342968750000E+0003  -2.80281176757813E+0003  -2.80220410156250E+0003  -2.80161376953125E+0003  -2.80104736328125E+0003  -2.80050390625000E+0003  -2.79997729492188E+0003  -2.79946069335938E+0003  -2.79894409179688E+0003  -2.79839428710938E+0003  -2.79776416015625E+0003  -2.79700170898438E+0003  -2.79606835937500E+0003  -2.79505102539063E+0003  -2.79409301757813E+0003  -2.79333959960938E+0003  -2.79291088867188E+0003  -2.79278051757813E+0003  -2.79287182617188E+0003  -2.79310742187500E+0003  -2.79341845703125E+0003  -2.79377075195313E+0003  -2.79413940429688E+0003  -2.79449926757813E+0003  -2.79482275390625E+0003  -2.79507568359375E+0003  -2.79522119140625E+0003  -2.79522338867188E+0003  -2.79505712890625E+0003  -2.79472778320313E+0003  -2.79424487304688E+0003  -2.79361523437500E+0003  -2.79287109375000E+0003  -2.79209350585938E+0003  -2.79136987304688E+0003  -2.79078466796875E+0003  -2.79040209960938E+0003  -2.79025463867188E+0003  -2.79032934570313E+0003  -2.79055444335938E+0003  -2.79092895507813E+0003  -2.79153344726563E+0003  -2.79252294921875E+0003  -2.79404760742188E+0003  -2.79567407226563E+0003  -2.79653955078125E+0003  -2.79641577148438E+0003  -2.79562133789063E+0003  -2.79442749023438E+0003  -2.79305151367188E+0003  -2.79170166015625E+0003  -2.79056591796875E+0003  -2.78968164062500E+0003  -2.78898974609375E+0003  -2.78841552734375E+0003  -2.78789208984375E+0003  -2.78748461914063E+0003  -2.78732031250000E+0003  -2.78750317382813E+0003  -2.78809277343750E+0003  -2.78893920898438E+0003  -2.78982031250000E+0003  -2.79056713867188E+0003  -2.79105908203125E+0003  -2.79132104492188E+0003  -2.79142065429688E+0003  -2.79142456054688E+0003  -2.79138452148438E+0003  -2.79130126953125E+0003  -2.79116308593750E+0003  -2.79095898437500E+0003  -2.79067089843750E+0003  -2.79025854492188E+0003  -2.78967871093750E+0003  -2.78888745117188E+0003  -2.78787182617188E+0003  -2.78668750000000E+0003  -2.78539819335938E+0003  -2.78406835937500E+0003  -2.78277026367188E+0003  -2.78159008789063E+0003  -2.78061523437500E+0003  -2.77993212890625E+0003  -2.77957080078125E+0003  -2.77948266601563E+0003  -2.77961230468750E+0003  -2.77990454101563E+0003  -2.78029614257813E+0003  -2.78071557617188E+0003  -2.78109130859375E+0003  -2.78135327148438E+0003  -2.78146972656250E+0003  -2.78144213867188E+0003  -2.78127246093750E+0003  -2.78096557617188E+0003  -2.78054833984375E+0003  -2.78006445312500E+0003  -2.77955786132813E+0003  -2.77906982421875E+0003  -2.77861889648438E+0003  -2.77821093750000E+0003  -2.77785180664063E+0003  -2.77754711914063E+0003  -2.77730249023438E+0003  -2.77712231445313E+0003  -2.77701196289063E+0003  -2.77697436523438E+0003  -2.77700537109375E+0003  -2.77709716796875E+0003  -2.77724291992188E+0003  -2.77743481445313E+0003  -2.77766601562500E+0003  -2.77792871093750E+0003  -2.77821557617188E+0003  -2.77852001953125E+0003  -2.77883642578125E+0003  -2.77916015625000E+0003  -2.77948608398438E+0003  -2.77981933593750E+0003  -2.78018823242188E+0003  -2.78062524414063E+0003  -2.78116284179688E+0003  -2.78181103515625E+0003  -2.78253857421875E+0003  -2.78330908203125E+0003  -2.78408593750000E+0003  -2.78484057617188E+0003  -2.78555639648438E+0003  -2.78621728515625E+0003  -2.78680737304688E+0003  -2.78731909179688E+0003  -2.78775341796875E+0003  -2.78811181640625E+0003  -2.78839648437500E+0003  -2.78860913085938E+0003  -2.78875292968750E+0003  -2.78883081054688E+0003  -2.78884594726563E+0003  -2.78880810546875E+0003  -2.78873120117188E+0003  -2.78863012695313E+0003  -2.78851879882813E+0003  -2.78841113281250E+0003  -2.78832177734375E+0003  -2.78826440429688E+0003  -2.78825122070313E+0003  -2.78827685546875E+0003  -2.78832763671875E+0003  -2.78838989257813E+0003  -2.78844921875000E+0003  -2.78848632812500E+0003  -2.78847998046875E+0003  -2.78840966796875E+0003  -2.78826049804688E+0003  -2.78804663085938E+0003  -2.78766796875000E+0003  -2.78716601562500E+0003  -2.78663476562500E+0003  -2.78613940429688E+0003  -2.78575097656250E+0003  -2.78554321289063E+0003  -2.78556909179688E+0003  -2.78581884765625E+0003  -2.78627099609375E+0003  -2.78689379882813E+0003  -2.78763647460938E+0003  -2.78844091796875E+0003  -2.78927905273438E+0003  -2.79012377929688E+0003  -2.79087011718750E+0003  -2.79153417968750E+0003  -2.79212329101563E+0003  -2.79260107421875E+0003  -2.79295556640625E+0003  -2.79320727539063E+0003  -2.79337866210938E+0003  -2.79349218750000E+0003  -2.79356396484375E+0003  -2.79360375976563E+0003  -2.79362084960938E+0003  -2.79362451171875E+0003  -2.79362524414063E+0003  -2.79363427734375E+0003  -2.79366259765625E+0003  -2.79372094726563E+0003  -2.79381054687500E+0003  -2.79392626953125E+0003  -2.79406372070313E+0003  -2.79421777343750E+0003  -2.79438330078125E+0003  -2.79455566406250E+0003  -2.79472998046875E+0003  -2.79490161132813E+0003  -2.79506958007813E+0003  -2.79523388671875E+0003  -2.79539453125000E+0003  -2.79555224609375E+0003  -2.79570654296875E+0003  -2.79585815429688E+0003  -2.79600683593750E+0003
  -2.81715820312500E+0003  -2.81702807617188E+0003  -2.81687451171875E+0003  -2.81669824218750E+0003  -2.81650097656250E+0003  -2.81628466796875E+0003  -2.81605151367188E+0003  -2.81580224609375E+0003  -2.81553515625000E+0003  -2.81524658203125E+0003  -2.81493359375000E+0003  -2.81459301757813E+0003  -2.81422241210938E+0003  -2.81381958007813E+0003  -2.81338232421875E+0003  -2.81290991210938E+0003  -2.81240698242188E+0003  -2.81187866210938E+0003  -2.81133007812500E+0003  -2.81076660156250E+0003  -2.81019433593750E+0003  -2.80961914062500E+0003  -2.80904711914063E+0003  -2.80848266601563E+0003  -2.80792797851563E+0003  -2.80738525390625E+0003  -2.80685595703125E+0003  -2.80633715820313E+0003  -2.80581835937500E+0003  -2.80528881835938E+0003  -2.80473803710938E+0003  -2.80416333007813E+0003  -2.80357031250000E+0003  -2.80296533203125E+0003  -2.80235449218750E+0003  -2.80174316406250E+0003  -2.80113671875000E+0003  -2.80054052734375E+0003  -2.79996118164063E+0003  -2.79939843750000E+0003  -2.79884692382813E+0003  -2.79830126953125E+0003  -2.79775268554688E+0003  -2.79716772460938E+0003  -2.79649780273438E+0003  -2.79568872070313E+0003  -2.79470141601563E+0003  -2.79363037109375E+0003  -2.79262963867188E+0003  -2.79185693359375E+0003  -2.79144189453125E+0003  -2.79135546875000E+0003  -2.79151367187500E+0003  -2.79183178710938E+0003  -2.79223437500000E+0003  -2.79268554687500E+0003  -2.79315893554688E+0003  -2.79362817382813E+0003  -2.79406298828125E+0003  -2.79441967773438E+0003  -2.79465185546875E+0003  -2.79471142578125E+0003  -2.79456372070313E+0003  -2.79420556640625E+0003  -2.79364306640625E+0003  -2.79288940429688E+0003  -2.79199218750000E+0003  -2.79106298828125E+0003  -2.79021264648438E+0003  -2.78953735351563E+0003  -2.78909643554688E+0003  -2.78887158203125E+0003  -2.78882592773438E+0003  -2.78889257812500E+0003  -2.78904785156250E+0003  -2.78934448242188E+0003  -2.78999047851563E+0003  -2.79124340820313E+0003  -2.79272460937500E+0003  -2.79368212890625E+0003  -2.79388110351563E+0003  -2.79349682617188E+0003  -2.79271899414063E+0003  -2.79173583984375E+0003  -2.79072119140625E+0003  -2.78982812500000E+0003  -2.78909741210938E+0003  -2.78849584960938E+0003  -2.78797460937500E+0003  -2.78749096679688E+0003  -2.78713281250000E+0003  -2.78704882812500E+0003  -2.78736181640625E+0003  -2.78814379882813E+0003  -2.78921728515625E+0003  -2.79031787109375E+0003  -2.79123046875000E+0003  -2.79179907226563E+0003  -2.79206518554688E+0003  -2.79212939453125E+0003  -2.79208715820313E+0003  -2.79201367187500E+0003  -2.79191015625000E+0003  -2.79176171875000E+0003  -2.79155639648438E+0003  -2.79127172851563E+0003  -2.79085742187500E+0003  -2.79025781250000E+0003  -2.78941796875000E+0003  -2.78831884765625E+0003  -2.78702197265625E+0003  -2.78560058593750E+0003  -2.78412646484375E+0003  -2.78268237304688E+0003  -2.78136840820313E+0003  -2.78028662109375E+0003  -2.77953906250000E+0003  -2.77916210937500E+0003  -2.77910278320313E+0003  -2.77930004882813E+0003  -2.77969067382813E+0003  -2.78020166015625E+0003  -2.78074975585938E+0003  -2.78125073242188E+0003  -2.78162255859375E+0003  -2.78182421875000E+0003  -2.78185083007813E+0003  -2.78169873046875E+0003  -2.78136718750000E+0003  -2.78088964843750E+0003  -2.78032348632813E+0003  -2.77972631835938E+0003  -2.77915234375000E+0003  -2.77862548828125E+0003  -2.77815332031250E+0003  -2.77774316406250E+0003  -2.77740234375000E+0003  -2.77713842773438E+0003  -2.77695922851563E+0003  -2.77687231445313E+0003  -2.77688232421875E+0003  -2.77697827148438E+0003  -2.77714404296875E+0003  -2.77736376953125E+0003  -2.77762304687500E+0003  -2.77791357421875E+0003  -2.77822949218750E+0003  -2.77856469726563E+0003  -2.77891308593750E+0003  -2.77926977539063E+0003  -2.77963037109375E+0003  -2.77998974609375E+0003  -2.78035107421875E+0003  -2.78073559570313E+0003  -2.78116748046875E+0003  -2.78167065429688E+0003  -2.78225268554688E+0003  -2.78289160156250E+0003  -2.78356079101563E+0003  -2.78423388671875E+0003  -2.78488964843750E+0003  -2.78551440429688E+0003  -2.78609448242188E+0003  -2.78661694335938E+0003  -2.78707495117188E+0003  -2.78746899414063E+0003  -2.78780078125000E+0003  -2.78807104492188E+0003  -2.78828125000000E+0003  -2.78843164062500E+0003  -2.78852294921875E+0003  -2.78855566406250E+0003  -2.78853857421875E+0003  -2.78848535156250E+0003  -2.78840942382813E+0003  -2.78832421875000E+0003  -2.78824243164063E+0003  -2.78817846679688E+0003  -2.78814575195313E+0003  -2.78815576171875E+0003  -2.78820239257813E+0003  -2.78827050781250E+0003  -2.78834497070313E+0003  -2.78841015625000E+0003  -2.78844482421875E+0003  -2.78842602539063E+0003  -2.78833056640625E+0003  -2.78814111328125E+0003  -2.78786621093750E+0003  -2.78747583007813E+0003  -2.78688940429688E+0003  -2.78624511718750E+0003  -2.78561889648438E+0003  -2.78509375000000E+0003  -2.78475292968750E+0003  -2.78465625000000E+0003  -2.78479833984375E+0003  -2.78516308593750E+0003  -2.78572778320313E+0003  -2.78645068359375E+0003  -2.78726489257813E+0003  -2.78811791992188E+0003  -2.78893945312500E+0003  -2.78963623046875E+0003  -2.79028027343750E+0003  -2.79085229492188E+0003  -2.79133349609375E+0003  -2.79171801757813E+0003  -2.79201782226563E+0003  -2.79224609375000E+0003  -2.79241577148438E+0003  -2.79253881835938E+0003  -2.79262475585938E+0003  -2.79268359375000E+0003  -2.79272534179688E+0003  -2.79276074218750E+0003  -2.79280078125000E+0003  -2.79285668945313E+0003  -2.79293896484375E+0003  -2.79304931640625E+0003  -2.79318359375000E+0003  -2.79333691406250E+0003  -2.79350512695313E+0003  -2.79368359375000E+0003  -2.79386816406250E+0003  -2.79405419921875E+0003  -2.79423779296875E+0003  -2.79441772460938E+0003  -2.79459399414063E+0003  -2.79476660156250E+0003  -2.79493579101563E+0003  -2.79510180664063E+0003  -2.79526440429688E+0003  -2.79542358398438E+0003
  -2.81641430664063E+0003  -2.81626831054688E+0003  -2.81609863281250E+0003  -2.81590649414063E+0003  -2.81569287109375E+0003  -2.81545971679688E+0003  -2.81520800781250E+0003  -2.81493896484375E+0003  -2.81465014648438E+0003  -2.81433862304688E+0003  -2.81400146484375E+0003  -2.81363525390625E+0003  -2.81323754882813E+0003  -2.81280590820313E+0003  -2.81233764648438E+0003  -2.81183251953125E+0003  -2.81129565429688E+0003  -2.81073315429688E+0003  -2.81015185546875E+0003  -2.80955834960938E+0003  -2.80895947265625E+0003  -2.80836328125000E+0003  -2.80777685546875E+0003  -2.80720556640625E+0003  -2.80665185546875E+0003  -2.80611645507813E+0003  -2.80560156250000E+0003  -2.80510278320313E+0003  -2.80460888671875E+0003  -2.80410815429688E+0003  -2.80358862304688E+0003  -2.80304638671875E+0003  -2.80248510742188E+0003  -2.80190893554688E+0003  -2.80132250976563E+0003  -2.80072949218750E+0003  -2.80013476562500E+0003  -2.79954296875000E+0003  -2.79895947265625E+0003  -2.79838476562500E+0003  -2.79781665039063E+0003  -2.79725170898438E+0003  -2.79668408203125E+0003  -2.79608007812500E+0003  -2.79539062500000E+0003  -2.79456201171875E+0003  -2.79355639648438E+0003  -2.79247094726563E+0003  -2.79146337890625E+0003  -2.79069384765625E+0003  -2.79029492187500E+0003  -2.79023730468750E+0003  -2.79043457031250E+0003  -2.79080151367188E+0003  -2.79126074218750E+0003  -2.79177514648438E+0003  -2.79231787109375E+0003  -2.79286132812500E+0003  -2.79337329101563E+0003  -2.79380346679688E+0003  -2.79409741210938E+0003  -2.79419970703125E+0003  -2.79406713867188E+0003  -2.79369091796875E+0003  -2.79307348632813E+0003  -2.79223193359375E+0003  -2.79122460937500E+0003  -2.79018798828125E+0003  -2.78925146484375E+0003  -2.78856640625000E+0003  -2.78823461914063E+0003  -2.78793530273438E+0003  -2.78764160156250E+0003  -2.78765747070313E+0003  -2.78779614257813E+0003  -2.78804809570313E+0003  -2.78852246093750E+0003  -2.78944189453125E+0003  -2.79057519531250E+0003  -2.79137402343750E+0003  -2.79164453125000E+0003  -2.79148754882813E+0003  -2.79102465820313E+0003  -2.79038549804688E+0003  -2.78968798828125E+0003  -2.78903564453125E+0003  -2.78846484375000E+0003  -2.78796923828125E+0003  -2.78752954101563E+0003  -2.78713330078125E+0003  -2.78687500000000E+0003  -2.78689990234375E+0003  -2.78733447265625E+0003  -2.78825732421875E+0003  -2.78949047851563E+0003  -2.79075903320313E+0003  -2.79180468750000E+0003  -2.79242675781250E+0003  -2.79268237304688E+0003  -2.79270288085938E+0003  -2.79261108398438E+0003  -2.79250146484375E+0003  -2.79237475585938E+0003  -2.79221215820313E+0003  -2.79200000000000E+0003  -2.79171459960938E+0003  -2.79129736328125E+0003  -2.79068457031250E+0003  -2.78981176757813E+0003  -2.78865576171875E+0003  -2.78728247070313E+0003  -2.78577001953125E+0003  -2.78419506835938E+0003  -2.78264746093750E+0003  -2.78123681640625E+0003  -2.78007714843750E+0003  -2.77928149414063E+0003  -2.77889282226563E+0003  -2.77885595703125E+0003  -2.77910498046875E+0003  -2.77957080078125E+0003  -2.78017236328125E+0003  -2.78081811523438E+0003  -2.78141430664063E+0003  -2.78186962890625E+0003  -2.78213623046875E+0003  -2.78220434570313E+0003  -2.78206494140625E+0003  -2.78171337890625E+0003  -2.78118798828125E+0003  -2.78055688476563E+0003  -2.77988867187500E+0003  -2.77924731445313E+0003  -2.77866162109375E+0003  -2.77813964843750E+0003  -2.77768945312500E+0003  -2.77731982421875E+0003  -2.77704028320313E+0003  -2.77686132812500E+0003  -2.77679223632813E+0003  -2.77683813476563E+0003  -2.77698388671875E+0003  -2.77720727539063E+0003  -2.77748608398438E+0003  -2.77780053710938E+0003  -2.77814257812500E+0003  -2.77850659179688E+0003  -2.77888720703125E+0003  -2.77927880859375E+0003  -2.77967578125000E+0003  -2.78007226562500E+0003  -2.78046264648438E+0003  -2.78084692382813E+0003  -2.78124096679688E+0003  -2.78166333007813E+0003  -2.78213134765625E+0003  -2.78265161132813E+0003  -2.78320874023438E+0003  -2.78378466796875E+0003  -2.78436157226563E+0003  -2.78492407226563E+0003  -2.78546166992188E+0003  -2.78596386718750E+0003  -2.78642138671875E+0003  -2.78682836914063E+0003  -2.78718505859375E+0003  -2.78749145507813E+0003  -2.78774877929688E+0003  -2.78795581054688E+0003  -2.78811059570313E+0003  -2.78821044921875E+0003  -2.78825366210938E+0003  -2.78824780273438E+0003  -2.78820776367188E+0003  -2.78814697265625E+0003  -2.78807690429688E+0003  -2.78801147460938E+0003  -2.78796557617188E+0003  -2.78795434570313E+0003  -2.78799047851563E+0003  -2.78806591796875E+0003  -2.78816308593750E+0003  -2.78826416015625E+0003  -2.78835058593750E+0003  -2.78839868164063E+0003  -2.78838281250000E+0003  -2.78827758789063E+0003  -2.78806201171875E+0003  -2.78773754882813E+0003  -2.78731152343750E+0003  -2.78668090820313E+0003  -2.78591821289063E+0003  -2.78514672851563E+0003  -2.78446191406250E+0003  -2.78395776367188E+0003  -2.78370581054688E+0003  -2.78371801757813E+0003  -2.78399072265625E+0003  -2.78450732421875E+0003  -2.78522436523438E+0003  -2.78605908203125E+0003  -2.78693432617188E+0003  -2.78769262695313E+0003  -2.78838281250000E+0003  -2.78900341796875E+0003  -2.78955346679688E+0003  -2.79003271484375E+0003  -2.79044262695313E+0003  -2.79078686523438E+0003  -2.79106958007813E+0003  -2.79129516601563E+0003  -2.79147070312500E+0003  -2.79160595703125E+0003  -2.79171118164063E+0003  -2.79179589843750E+0003  -2.79187109375000E+0003  -2.79194750976563E+0003  -2.79203588867188E+0003  -2.79214648437500E+0003  -2.79228125000000E+0003  -2.79243627929688E+0003  -2.79260791015625E+0003  -2.79279199218750E+0003  -2.79298486328125E+0003  -2.79318237304688E+0003  -2.79338110351563E+0003  -2.79357714843750E+0003  -2.79376977539063E+0003  -2.79395874023438E+0003  -2.79414404296875E+0003  -2.79432568359375E+0003  -2.79450341796875E+0003  -2.79467749023438E+0003  -2.79484790039063E+0003
  -2.81566601562500E+0003  -2.81550317382813E+0003  -2.81531665039063E+0003  -2.81510766601563E+0003  -2.81487695312500E+0003  -2.81462573242188E+0003  -2.81435522460938E+0003  -2.81406591796875E+0003  -2.81375537109375E+0003  -2.81342065429688E+0003  -2.81305859375000E+0003  -2.81266577148438E+0003  -2.81223974609375E+0003  -2.81177734375000E+0003  -2.81127587890625E+0003  -2.81073461914063E+0003  -2.81015991210938E+0003  -2.80955932617188E+0003  -2.80894042968750E+0003  -2.80831152343750E+0003  -2.80768188476563E+0003  -2.80706054687500E+0003  -2.80645727539063E+0003  -2.80587817382813E+0003  -2.80532592773438E+0003  -2.80480151367188E+0003  -2.80430615234375E+0003  -2.80383569335938E+0003  -2.80337744140625E+0003  -2.80291772460938E+0003  -2.80244335937500E+0003  -2.80194799804688E+0003  -2.80143310546875E+0003  -2.80090039062500E+0003  -2.80035180664063E+0003  -2.79978979492188E+0003  -2.79921826171875E+0003  -2.79864184570313E+0003  -2.79806469726563E+0003  -2.79748901367188E+0003  -2.79691503906250E+0003  -2.79634301757813E+0003  -2.79577001953125E+0003  -2.79516503906250E+0003  -2.79448022460938E+0003  -2.79366577148438E+0003  -2.79268725585938E+0003  -2.79163793945313E+0003  -2.79066821289063E+0003  -2.78992968750000E+0003  -2.78954785156250E+0003  -2.78949658203125E+0003  -2.78969604492188E+0003  -2.79006665039063E+0003  -2.79053686523438E+0003  -2.79106884765625E+0003  -2.79163452148438E+0003  -2.79220483398438E+0003  -2.79274536132813E+0003  -2.79320336914063E+0003  -2.79352099609375E+0003  -2.79363989257813E+0003  -2.79351391601563E+0003  -2.79313378906250E+0003  -2.79250170898438E+0003  -2.79163476562500E+0003  -2.79059277343750E+0003  -2.78951733398438E+0003  -2.78854052734375E+0003  -2.78784204101563E+0003  -2.78743334960938E+0003  -2.78697631835938E+0003  -2.78672363281250E+0003  -2.78687182617188E+0003  -2.78709594726563E+0003  -2.78740063476563E+0003  -2.78780004882813E+0003  -2.78842114257813E+0003  -2.78916015625000E+0003  -2.78969458007813E+0003  -2.78989916992188E+0003  -2.78983081054688E+0003  -2.78955981445313E+0003  -2.78916015625000E+0003  -2.78869897460938E+0003  -2.78823706054688E+0003  -2.78780517578125E+0003  -2.78741528320313E+0003  -2.78707299804688E+0003  -2.78678930664063E+0003  -2.78665405273438E+0003  -2.78679394531250E+0003  -2.78732788085938E+0003  -2.78833325195313E+0003  -2.78964770507813E+0003  -2.79101123046875E+0003  -2.79213574218750E+0003  -2.79278613281250E+0003  -2.79302905273438E+0003  -2.79301831054688E+0003  -2.79289282226563E+0003  -2.79275805664063E+0003  -2.79261303710938E+0003  -2.79243505859375E+0003  -2.79221118164063E+0003  -2.79191796875000E+0003  -2.79149462890625E+0003  -2.79087377929688E+0003  -2.78998901367188E+0003  -2.78881469726563E+0003  -2.78741772460938E+0003  -2.78587719726563E+0003  -2.78427050781250E+0003  -2.78268823242188E+0003  -2.78124462890625E+0003  -2.78005712890625E+0003  -2.77924389648438E+0003  -2.77885083007813E+0003  -2.77882250976563E+0003  -2.77909301757813E+0003  -2.77958959960938E+0003  -2.78022924804688E+0003  -2.78091650390625E+0003  -2.78155468750000E+0003  -2.78204882812500E+0003  -2.78234716796875E+0003  -2.78243627929688E+0003  -2.78230395507813E+0003  -2.78194238281250E+0003  -2.78139208984375E+0003  -2.78072680664063E+0003  -2.78002026367188E+0003  -2.77934228515625E+0003  -2.77872290039063E+0003  -2.77817187500000E+0003  -2.77769799804688E+0003  -2.77731079101563E+0003  -2.77702148437500E+0003  -2.77684228515625E+0003  -2.77678417968750E+0003  -2.77685278320313E+0003  -2.77703051757813E+0003  -2.77729150390625E+0003  -2.77760986328125E+0003  -2.77796337890625E+0003  -2.77834350585938E+0003  -2.77874536132813E+0003  -2.77916381835938E+0003  -2.77959399414063E+0003  -2.78002783203125E+0003  -2.78045800781250E+0003  -2.78087622070313E+0003  -2.78128051757813E+0003  -2.78168237304688E+0003  -2.78209545898438E+0003  -2.78253222656250E+0003  -2.78299829101563E+0003  -2.78348413085938E+0003  -2.78397827148438E+0003  -2.78446899414063E+0003  -2.78494702148438E+0003  -2.78540429687500E+0003  -2.78583422851563E+0003  -2.78623071289063E+0003  -2.78659008789063E+0003  -2.78691088867188E+0003  -2.78719335937500E+0003  -2.78743798828125E+0003  -2.78764208984375E+0003  -2.78779956054688E+0003  -2.78790429687500E+0003  -2.78795068359375E+0003  -2.78794702148438E+0003  -2.78791015625000E+0003  -2.78785351562500E+0003  -2.78778735351563E+0003  -2.78772729492188E+0003  -2.78769140625000E+0003  -2.78769824218750E+0003  -2.78776318359375E+0003  -2.78787622070313E+0003  -2.78801562500000E+0003  -2.78815869140625E+0003  -2.78828295898438E+0003  -2.78836132812500E+0003  -2.78836572265625E+0003  -2.78826684570313E+0003  -2.78804003906250E+0003  -2.78767822265625E+0003  -2.78717968750000E+0003  -2.78654321289063E+0003  -2.78567480468750E+0003  -2.78474926757813E+0003  -2.78388525390625E+0003  -2.78318212890625E+0003  -2.78272802734375E+0003  -2.78257983398438E+0003  -2.78276611328125E+0003  -2.78325732421875E+0003  -2.78399169921875E+0003  -2.78485644531250E+0003  -2.78568798828125E+0003  -2.78647290039063E+0003  -2.78715844726563E+0003  -2.78775585937500E+0003  -2.78828173828125E+0003  -2.78875268554688E+0003  -2.78917797851563E+0003  -2.78955517578125E+0003  -2.78988183593750E+0003  -2.79015551757813E+0003  -2.79037939453125E+0003  -2.79056274414063E+0003  -2.79071484375000E+0003  -2.79084545898438E+0003  -2.79096435546875E+0003  -2.79108129882813E+0003  -2.79120654296875E+0003  -2.79134887695313E+0003  -2.79151098632813E+0003  -2.79168920898438E+0003  -2.79188061523438E+0003  -2.79208178710938E+0003  -2.79228979492188E+0003  -2.79250146484375E+0003  -2.79271337890625E+0003  -2.79292260742188E+0003  -2.79312841796875E+0003  -2.79333056640625E+0003  -2.79352880859375E+0003  -2.79372314453125E+0003  -2.79391333007813E+0003  -2.79409912109375E+0003  -2.79428076171875E+0003
  -2.81491333007813E+0003  -2.81473339843750E+0003  -2.81452954101563E+0003  -2.81430297851563E+0003  -2.81405444335938E+0003  -2.81378466796875E+0003  -2.81349487304688E+0003  -2.81318505859375E+0003  -2.81285302734375E+0003  -2.81249511718750E+0003  -2.81210815429688E+0003  -2.81168847656250E+0003  -2.81123315429688E+0003  -2.81073852539063E+0003  -2.81020166015625E+0003  -2.80962158203125E+0003  -2.80900585937500E+0003  -2.80836352539063E+0003  -2.80770312500000E+0003  -2.80703417968750E+0003  -2.80636865234375E+0003  -2.80571826171875E+0003  -2.80509423828125E+0003  -2.80450561523438E+0003  -2.80395483398438E+0003  -2.80344409179688E+0003  -2.80297485351563E+0003  -2.80254272460938E+0003  -2.80213232421875E+0003  -2.80172802734375E+0003  -2.80131445312500E+0003  -2.80088232421875E+0003  -2.80042968750000E+0003  -2.79995483398438E+0003  -2.79945629882813E+0003  -2.79893554687500E+0003  -2.79839672851563E+0003  -2.79784448242188E+0003  -2.79728295898438E+0003  -2.79671630859375E+0003  -2.79614794921875E+0003  -2.79558105468750E+0003  -2.79501660156250E+0003  -2.79442749023438E+0003  -2.79377075195313E+0003  -2.79300292968750E+0003  -2.79209423828125E+0003  -2.79112768554688E+0003  -2.79023583984375E+0003  -2.78955249023438E+0003  -2.78918823242188E+0003  -2.78912280273438E+0003  -2.78929028320313E+0003  -2.78962377929688E+0003  -2.79006250000000E+0003  -2.79056909179688E+0003  -2.79111279296875E+0003  -2.79166235351563E+0003  -2.79218212890625E+0003  -2.79262036132813E+0003  -2.79292138671875E+0003  -2.79302929687500E+0003  -2.79290136718750E+0003  -2.79253271484375E+0003  -2.79192797851563E+0003  -2.79110205078125E+0003  -2.79010791015625E+0003  -2.78907128906250E+0003  -2.78810961914063E+0003  -2.78732861328125E+0003  -2.78663769531250E+0003  -2.78615698242188E+0003  -2.78625976562500E+0003  -2.78654833984375E+0003  -2.78684106445313E+0003  -2.78716992187500E+0003  -2.78751562500000E+0003  -2.78791479492188E+0003  -2.78831713867188E+0003  -2.78858691406250E+0003  -2.78867211914063E+0003  -2.78859887695313E+0003  -2.78840234375000E+0003  -2.78812182617188E+0003  -2.78779418945313E+0003  -2.78745336914063E+0003  -2.78712597656250E+0003  -2.78683276367188E+0003  -2.78659179687500E+0003  -2.78642724609375E+0003  -2.78641552734375E+0003  -2.78666064453125E+0003  -2.78726464843750E+0003  -2.78829638671875E+0003  -2.78961572265625E+0003  -2.79099096679688E+0003  -2.79213085937500E+0003  -2.79278881835938E+0003  -2.79303344726563E+0003  -2.79302294921875E+0003  -2.79289599609375E+0003  -2.79275708007813E+0003  -2.79260400390625E+0003  -2.79241284179688E+0003  -2.79217358398438E+0003  -2.79186499023438E+0003  -2.79143017578125E+0003  -2.79080566406250E+0003  -2.78992822265625E+0003  -2.78877465820313E+0003  -2.78740869140625E+0003  -2.78590649414063E+0003  -2.78434204101563E+0003  -2.78280273437500E+0003  -2.78139819335938E+0003  -2.78024194335938E+0003  -2.77944750976563E+0003  -2.77905981445313E+0003  -2.77902636718750E+0003  -2.77928320312500E+0003  -2.77976098632813E+0003  -2.78037866210938E+0003  -2.78104418945313E+0003  -2.78166357421875E+0003  -2.78214526367188E+0003  -2.78243750000000E+0003  -2.78252490234375E+0003  -2.78239355468750E+0003  -2.78203369140625E+0003  -2.78148486328125E+0003  -2.78082006835938E+0003  -2.78011279296875E+0003  -2.77943139648438E+0003  -2.77880688476563E+0003  -2.77824951171875E+0003  -2.77776928710938E+0003  -2.77737646484375E+0003  -2.77708349609375E+0003  -2.77690454101563E+0003  -2.77685058593750E+0003  -2.77692846679688E+0003  -2.77711962890625E+0003  -2.77739721679688E+0003  -2.77773486328125E+0003  -2.77810937500000E+0003  -2.77851245117188E+0003  -2.77893969726563E+0003  -2.77938647460938E+0003  -2.77984741210938E+0003  -2.78031323242188E+0003  -2.78077368164063E+0003  -2.78121850585938E+0003  -2.78164208984375E+0003  -2.78205273437500E+0003  -2.78245971679688E+0003  -2.78287182617188E+0003  -2.78329321289063E+0003  -2.78371875000000E+0003  -2.78414257812500E+0003  -2.78455834960938E+0003  -2.78496069335938E+0003  -2.78534545898438E+0003  -2.78570874023438E+0003  -2.78604833984375E+0003  -2.78636181640625E+0003  -2.78664794921875E+0003  -2.78690625000000E+0003  -2.78713793945313E+0003  -2.78733789062500E+0003  -2.78749658203125E+0003  -2.78760327148438E+0003  -2.78764941406250E+0003  -2.78764233398438E+0003  -2.78760205078125E+0003  -2.78754150390625E+0003  -2.78747021484375E+0003  -2.78740600585938E+0003  -2.78737255859375E+0003  -2.78739379882813E+0003  -2.78748950195313E+0003  -2.78764746093750E+0003  -2.78783911132813E+0003  -2.78803686523438E+0003  -2.78821166992188E+0003  -2.78833374023438E+0003  -2.78837133789063E+0003  -2.78829248046875E+0003  -2.78806811523438E+0003  -2.78768383789063E+0003  -2.78712963867188E+0003  -2.78639575195313E+0003  -2.78549365234375E+0003  -2.78446948242188E+0003  -2.78343090820313E+0003  -2.78251489257813E+0003  -2.78182543945313E+0003  -2.78149291992188E+0003  -2.78159570312500E+0003  -2.78207446289063E+0003  -2.78278613281250E+0003  -2.78363403320313E+0003  -2.78451074218750E+0003  -2.78531445312500E+0003  -2.78599072265625E+0003  -2.78656323242188E+0003  -2.78706250000000E+0003  -2.78751928710938E+0003  -2.78794873046875E+0003  -2.78834521484375E+0003  -2.78870239257813E+0003  -2.78901342773438E+0003  -2.78927905273438E+0003  -2.78950708007813E+0003  -2.78970581054688E+0003  -2.78988354492188E+0003  -2.79004858398438E+0003  -2.79020947265625E+0003  -2.79037451171875E+0003  -2.79055200195313E+0003  -2.79074340820313E+0003  -2.79094653320313E+0003  -2.79115917968750E+0003  -2.79137866210938E+0003  -2.79160229492188E+0003  -2.79182836914063E+0003  -2.79205371093750E+0003  -2.79227636718750E+0003  -2.79249560546875E+0003  -2.79271118164063E+0003  -2.79292260742188E+0003  -2.79312988281250E+0003  -2.79333251953125E+0003  -2.79353051757813E+0003  -2.79372338867188E+0003
  -2.81415820312500E+0003  -2.81396069335938E+0003  -2.81373925781250E+0003  -2.81349487304688E+0003  -2.81322802734375E+0003  -2.81293969726563E+0003  -2.81263037109375E+0003  -2.81230053710938E+0003  -2.81194726562500E+0003  -2.81156640625000E+0003  -2.81115478515625E+0003  -2.81070849609375E+0003  -2.81022387695313E+0003  -2.80969677734375E+0003  -2.80912402343750E+0003  -2.80850463867188E+0003  -2.80784692382813E+0003  -2.80716064453125E+0003  -2.80645581054688E+0003  -2.80574365234375E+0003  -2.80503808593750E+0003  -2.80435400390625E+0003  -2.80370581054688E+0003  -2.80310424804688E+0003  -2.80255395507813E+0003  -2.80205834960938E+0003  -2.80162109375000E+0003  -2.80123681640625E+0003  -2.80088745117188E+0003  -2.80055395507813E+0003  -2.80021728515625E+0003  -2.79986450195313E+0003  -2.79948852539063E+0003  -2.79908398437500E+0003  -2.79864428710938E+0003  -2.79816992187500E+0003  -2.79766699218750E+0003  -2.79714135742188E+0003  -2.79659960937500E+0003  -2.79604760742188E+0003  -2.79549267578125E+0003  -2.79494091796875E+0003  -2.79439697265625E+0003  -2.79383813476563E+0003  -2.79322753906250E+0003  -2.79252758789063E+0003  -2.79171289062500E+0003  -2.79085253906250E+0003  -2.79005761718750E+0003  -2.78944042968750E+0003  -2.78909423828125E+0003  -2.78900659179688E+0003  -2.78912719726563E+0003  -2.78940454101563E+0003  -2.78978906250000E+0003  -2.79024438476563E+0003  -2.79073730468750E+0003  -2.79123437500000E+0003  -2.79169897460938E+0003  -2.79208447265625E+0003  -2.79234204101563E+0003  -2.79242236328125E+0003  -2.79229003906250E+0003  -2.79194531250000E+0003  -2.79139624023438E+0003  -2.79065551757813E+0003  -2.78976733398438E+0003  -2.78883691406250E+0003  -2.78796459960938E+0003  -2.78721972656250E+0003  -2.78662744140625E+0003  -2.78633642578125E+0003  -2.78642895507813E+0003  -2.78665185546875E+0003  -2.78692309570313E+0003  -2.78721166992188E+0003  -2.78747558593750E+0003  -2.78768920898438E+0003  -2.78782885742188E+0003  -2.78787158203125E+0003  -2.78781469726563E+0003  -2.78767333984375E+0003  -2.78746606445313E+0003  -2.78721557617188E+0003  -2.78694311523438E+0003  -2.78666992187500E+0003  -2.78641821289063E+0003  -2.78620971679688E+0003  -2.78606640625000E+0003  -2.78601416015625E+0003  -2.78611425781250E+0003  -2.78644702148438E+0003  -2.78709350585938E+0003  -2.78810815429688E+0003  -2.78937011718750E+0003  -2.79067895507813E+0003  -2.79177465820313E+0003  -2.79243383789063E+0003  -2.79271362304688E+0003  -2.79275146484375E+0003  -2.79266699218750E+0003  -2.79255053710938E+0003  -2.79240185546875E+0003  -2.79220263671875E+0003  -2.79194604492188E+0003  -2.79161645507813E+0003  -2.79116528320313E+0003  -2.79053759765625E+0003  -2.78967919921875E+0003  -2.78857153320313E+0003  -2.78727441406250E+0003  -2.78585815429688E+0003  -2.78439257812500E+0003  -2.78295751953125E+0003  -2.78165209960938E+0003  -2.78057739257813E+0003  -2.77983593750000E+0003  -2.77946679687500E+0003  -2.77942089843750E+0003  -2.77963989257813E+0003  -2.78006054687500E+0003  -2.78060961914063E+0003  -2.78120288085938E+0003  -2.78175512695313E+0003  -2.78218212890625E+0003  -2.78243652343750E+0003  -2.78250244140625E+0003  -2.78236621093750E+0003  -2.78201684570313E+0003  -2.78149047851563E+0003  -2.78085449218750E+0003  -2.78017602539063E+0003  -2.77951855468750E+0003  -2.77891186523438E+0003  -2.77836694335938E+0003  -2.77789477539063E+0003  -2.77750659179688E+0003  -2.77721582031250E+0003  -2.77703637695313E+0003  -2.77698071289063E+0003  -2.77705590820313E+0003  -2.77724462890625E+0003  -2.77752148437500E+0003  -2.77786083984375E+0003  -2.77824047851563E+0003  -2.77865307617188E+0003  -2.77909423828125E+0003  -2.77956030273438E+0003  -2.78004541015625E+0003  -2.78053808593750E+0003  -2.78102563476563E+0003  -2.78149560546875E+0003  -2.78193994140625E+0003  -2.78236206054688E+0003  -2.78276782226563E+0003  -2.78316186523438E+0003  -2.78354663085938E+0003  -2.78392114257813E+0003  -2.78428369140625E+0003  -2.78463281250000E+0003  -2.78496704101563E+0003  -2.78528466796875E+0003  -2.78558544921875E+0003  -2.78586962890625E+0003  -2.78613696289063E+0003  -2.78638623046875E+0003  -2.78661791992188E+0003  -2.78683349609375E+0003  -2.78702709960938E+0003  -2.78718481445313E+0003  -2.78729394531250E+0003  -2.78734179687500E+0003  -2.78733447265625E+0003  -2.78729150390625E+0003  -2.78722509765625E+0003  -2.78714453125000E+0003  -2.78707128906250E+0003  -2.78703564453125E+0003  -2.78706835937500E+0003  -2.78719482421875E+0003  -2.78739941406250E+0003  -2.78764648437500E+0003  -2.78790161132813E+0003  -2.78813012695313E+0003  -2.78829882812500E+0003  -2.78837500000000E+0003  -2.78832348632813E+0003  -2.78811230468750E+0003  -2.78772314453125E+0003  -2.78714184570313E+0003  -2.78635498046875E+0003  -2.78537084960938E+0003  -2.78427319335938E+0003  -2.78315673828125E+0003  -2.78209423828125E+0003  -2.78119238281250E+0003  -2.78066259765625E+0003  -2.78064208984375E+0003  -2.78104541015625E+0003  -2.78174511718750E+0003  -2.78259448242188E+0003  -2.78346020507813E+0003  -2.78424023437500E+0003  -2.78488305664063E+0003  -2.78541918945313E+0003  -2.78588720703125E+0003  -2.78632470703125E+0003  -2.78675024414063E+0003  -2.78715649414063E+0003  -2.78753491210938E+0003  -2.78787622070313E+0003  -2.78817895507813E+0003  -2.78844970703125E+0003  -2.78869433593750E+0003  -2.78891992187500E+0003  -2.78913281250000E+0003  -2.78933984375000E+0003  -2.78954711914063E+0003  -2.78976147460938E+0003  -2.78998388671875E+0003  -2.79021313476563E+0003  -2.79044775390625E+0003  -2.79068554687500E+0003  -2.79092553710938E+0003  -2.79116601562500E+0003  -2.79140502929688E+0003  -2.79164111328125E+0003  -2.79187402343750E+0003  -2.79210278320313E+0003  -2.79232763671875E+0003  -2.79254785156250E+0003  -2.79276293945313E+0003  -2.79297265625000E+0003  -2.79317700195313E+0003
  -2.81340136718750E+0003  -2.81318652343750E+0003  -2.81294775390625E+0003  -2.81268554687500E+0003  -2.81240063476563E+0003  -2.81209375000000E+0003  -2.81176538085938E+0003  -2.81141577148438E+0003  -2.81104174804688E+0003  -2.81063916015625E+0003  -2.81020385742188E+0003  -2.80973193359375E+0003  -2.80921875000000E+0003  -2.80866040039063E+0003  -2.80805273437500E+0003  -2.80739501953125E+0003  -2.80669580078125E+0003  -2.80596582031250E+0003  -2.80521557617188E+0003  -2.80445751953125E+0003  -2.80370874023438E+0003  -2.80298706054688E+0003  -2.80230981445313E+0003  -2.80169091796875E+0003  -2.80113818359375E+0003  -2.80065844726563E+0003  -2.80025830078125E+0003  -2.79993237304688E+0003  -2.79965771484375E+0003  -2.79941088867188E+0003  -2.79916772460938E+0003  -2.79890991210938E+0003  -2.79862475585938E+0003  -2.79830004882813E+0003  -2.79792382812500E+0003  -2.79749536132813E+0003  -2.79702490234375E+0003  -2.79652246093750E+0003  -2.79599804687500E+0003  -2.79546191406250E+0003  -2.79492431640625E+0003  -2.79439501953125E+0003  -2.79388183593750E+0003  -2.79336596679688E+0003  -2.79281347656250E+0003  -2.79219067382813E+0003  -2.79147412109375E+0003  -2.79071997070313E+0003  -2.79001977539063E+0003  -2.78946728515625E+0003  -2.78914086914063E+0003  -2.78903515625000E+0003  -2.78911401367188E+0003  -2.78933715820313E+0003  -2.78966503906250E+0003  -2.79006152343750E+0003  -2.79049194335938E+0003  -2.79092089843750E+0003  -2.79131201171875E+0003  -2.79162719726563E+0003  -2.79182714843750E+0003  -2.79187304687500E+0003  -2.79173779296875E+0003  -2.79142626953125E+0003  -2.79094848632813E+0003  -2.79031567382813E+0003  -2.78956542968750E+0003  -2.78878515625000E+0003  -2.78806274414063E+0003  -2.78747583007813E+0003  -2.78707934570313E+0003  -2.78690039062500E+0003  -2.78692163085938E+0003  -2.78705737304688E+0003  -2.78723901367188E+0003  -2.78741748046875E+0003  -2.78754736328125E+0003  -2.78758691406250E+0003  -2.78752539062500E+0003  -2.78738085937500E+0003  -2.78717407226563E+0003  -2.78692602539063E+0003  -2.78665576171875E+0003  -2.78637890625000E+0003  -2.78611157226563E+0003  -2.78587011718750E+0003  -2.78567163085938E+0003  -2.78553466796875E+0003  -2.78547729492188E+0003  -2.78552075195313E+0003  -2.78571142578125E+0003  -2.78610839843750E+0003  -2.78677221679688E+0003  -2.78774072265625E+0003  -2.78890722656250E+0003  -2.79010180664063E+0003  -2.79111914062500E+0003  -2.79178515625000E+0003  -2.79213525390625E+0003  -2.79226611328125E+0003  -2.79226391601563E+0003  -2.79219555664063E+0003  -2.79206518554688E+0003  -2.79186499023438E+0003  -2.79159277343750E+0003  -2.79123901367188E+0003  -2.79076611328125E+0003  -2.79013232421875E+0003  -2.78929589843750E+0003  -2.78824462890625E+0003  -2.78703564453125E+0003  -2.78573364257813E+0003  -2.78440405273438E+0003  -2.78311743164063E+0003  -2.78195654296875E+0003  -2.78100488281250E+0003  -2.78034643554688E+0003  -2.78001074218750E+0003  -2.77995312500000E+0003  -2.78012133789063E+0003  -2.78046142578125E+0003  -2.78091040039063E+0003  -2.78139575195313E+0003  -2.78184448242188E+0003  -2.78218554687500E+0003  -2.78237719726563E+0003  -2.78240600585938E+0003  -2.78225878906250E+0003  -2.78192553710938E+0003  -2.78143652343750E+0003  -2.78084912109375E+0003  -2.78022167968750E+0003  -2.77960839843750E+0003  -2.77903662109375E+0003  -2.77851855468750E+0003  -2.77806567382813E+0003  -2.77768994140625E+0003  -2.77740502929688E+0003  -2.77722485351563E+0003  -2.77716210937500E+0003  -2.77722485351563E+0003  -2.77739843750000E+0003  -2.77765991210938E+0003  -2.77798657226563E+0003  -2.77835864257813E+0003  -2.77876904296875E+0003  -2.77921459960938E+0003  -2.77969140625000E+0003  -2.78019384765625E+0003  -2.78070898437500E+0003  -2.78122143554688E+0003  -2.78171679687500E+0003  -2.78218383789063E+0003  -2.78262231445313E+0003  -2.78303247070313E+0003  -2.78341479492188E+0003  -2.78376977539063E+0003  -2.78410034179688E+0003  -2.78440869140625E+0003  -2.78469726562500E+0003  -2.78496826171875E+0003  -2.78522290039063E+0003  -2.78546289062500E+0003  -2.78569042968750E+0003  -2.78590747070313E+0003  -2.78611547851563E+0003  -2.78631616210938E+0003  -2.78651269531250E+0003  -2.78669775390625E+0003  -2.78685571289063E+0003  -2.78697045898438E+0003  -2.78702685546875E+0003  -2.78702734375000E+0003  -2.78698754882813E+0003  -2.78691845703125E+0003  -2.78682885742188E+0003  -2.78674560546875E+0003  -2.78670556640625E+0003  -2.78674731445313E+0003  -2.78690234375000E+0003  -2.78715136718750E+0003  -2.78744970703125E+0003  -2.78775610351563E+0003  -2.78803076171875E+0003  -2.78823950195313E+0003  -2.78834936523438E+0003  -2.78832543945313E+0003  -2.78813476562500E+0003  -2.78776147460938E+0003  -2.78719482421875E+0003  -2.78642480468750E+0003  -2.78545898437500E+0003  -2.78436791992188E+0003  -2.78322705078125E+0003  -2.78208691406250E+0003  -2.78104882812500E+0003  -2.78037109375000E+0003  -2.78022705078125E+0003  -2.78051879882813E+0003  -2.78110473632813E+0003  -2.78183837890625E+0003  -2.78259130859375E+0003  -2.78327246093750E+0003  -2.78383740234375E+0003  -2.78431591796875E+0003  -2.78474462890625E+0003  -2.78515917968750E+0003  -2.78557617187500E+0003  -2.78598754882813E+0003  -2.78638232421875E+0003  -2.78675024414063E+0003  -2.78708813476563E+0003  -2.78740014648438E+0003  -2.78769091796875E+0003  -2.78796484375000E+0003  -2.78822656250000E+0003  -2.78848071289063E+0003  -2.78873168945313E+0003  -2.78898339843750E+0003  -2.78923779296875E+0003  -2.78949340820313E+0003  -2.78975000000000E+0003  -2.79000683593750E+0003  -2.79026293945313E+0003  -2.79051757812500E+0003  -2.79077001953125E+0003  -2.79101953125000E+0003  -2.79126562500000E+0003  -2.79150781250000E+0003  -2.79174560546875E+0003  -2.79197827148438E+0003  -2.79220581054688E+0003  -2.79242749023438E+0003  -2.79264257812500E+0003
  -2.81264477539063E+0003  -2.81241284179688E+0003  -2.81215698242188E+0003  -2.81187719726563E+0003  -2.81157470703125E+0003  -2.81124975585938E+0003  -2.81090307617188E+0003  -2.81053466796875E+0003  -2.81014111328125E+0003  -2.80971777343750E+0003  -2.80926025390625E+0003  -2.80876391601563E+0003  -2.80822436523438E+0003  -2.80763696289063E+0003  -2.80699731445313E+0003  -2.80630419921875E+0003  -2.80556640625000E+0003  -2.80479443359375E+0003  -2.80399951171875E+0003  -2.80319458007813E+0003  -2.80239990234375E+0003  -2.80163647460938E+0003  -2.80092504882813E+0003  -2.80028344726563E+0003  -2.79972436523438E+0003  -2.79925976562500E+0003  -2.79890112304688E+0003  -2.79864355468750E+0003  -2.79845776367188E+0003  -2.79831347656250E+0003  -2.79818066406250E+0003  -2.79803344726563E+0003  -2.79785131835938E+0003  -2.79761376953125E+0003  -2.79730126953125E+0003  -2.79691308593750E+0003  -2.79646557617188E+0003  -2.79597607421875E+0003  -2.79546142578125E+0003  -2.79493701171875E+0003  -2.79441674804688E+0003  -2.79391430664063E+0003  -2.79344091796875E+0003  -2.79297802734375E+0003  -2.79249072265625E+0003  -2.79194335937500E+0003  -2.79131030273438E+0003  -2.79063964843750E+0003  -2.79001245117188E+0003  -2.78951171875000E+0003  -2.78920898437500E+0003  -2.78910180664063E+0003  -2.78916113281250E+0003  -2.78935278320313E+0003  -2.78964013671875E+0003  -2.78998779296875E+0003  -2.79036059570313E+0003  -2.79072192382813E+0003  -2.79103686523438E+0003  -2.79127758789063E+0003  -2.79141699218750E+0003  -2.79142871093750E+0003  -2.79129492187500E+0003  -2.79102221679688E+0003  -2.79062060546875E+0003  -2.79010009765625E+0003  -2.78949194335938E+0003  -2.78886987304688E+0003  -2.78831152343750E+0003  -2.78789160156250E+0003  -2.78764721679688E+0003  -2.78755468750000E+0003  -2.78757250976563E+0003  -2.78763989257813E+0003  -2.78770678710938E+0003  -2.78773608398438E+0003  -2.78769384765625E+0003  -2.78754687500000E+0003  -2.78729516601563E+0003  -2.78697045898438E+0003  -2.78660620117188E+0003  -2.78623486328125E+0003  -2.78587890625000E+0003  -2.78555175781250E+0003  -2.78526708984375E+0003  -2.78503857421875E+0003  -2.78487792968750E+0003  -2.78479711914063E+0003  -2.78480737304688E+0003  -2.78492236328125E+0003  -2.78517578125000E+0003  -2.78561035156250E+0003  -2.78626953125000E+0003  -2.78717871093750E+0003  -2.78824584960938E+0003  -2.78933129882813E+0003  -2.79028222656250E+0003  -2.79097045898438E+0003  -2.79140893554688E+0003  -2.79165258789063E+0003  -2.79175292968750E+0003  -2.79175048828125E+0003  -2.79165307617188E+0003  -2.79146118164063E+0003  -2.79117749023438E+0003  -2.79079833984375E+0003  -2.79029980468750E+0003  -2.78965356445313E+0003  -2.78883251953125E+0003  -2.78783447265625E+0003  -2.78671459960938E+0003  -2.78553515625000E+0003  -2.78435888671875E+0003  -2.78324780273438E+0003  -2.78226293945313E+0003  -2.78146484375000E+0003  -2.78091406250000E+0003  -2.78062866210938E+0003  -2.78056787109375E+0003  -2.78068603515625E+0003  -2.78093676757813E+0003  -2.78126855468750E+0003  -2.78162475585938E+0003  -2.78194750976563E+0003  -2.78218139648438E+0003  -2.78229370117188E+0003  -2.78227319335938E+0003  -2.78210913085938E+0003  -2.78179345703125E+0003  -2.78135009765625E+0003  -2.78082397460938E+0003  -2.78026098632813E+0003  -2.77970532226563E+0003  -2.77917993164063E+0003  -2.77869799804688E+0003  -2.77827172851563E+0003  -2.77791357421875E+0003  -2.77763696289063E+0003  -2.77745532226563E+0003  -2.77738159179688E+0003  -2.77742504882813E+0003  -2.77757397460938E+0003  -2.77780883789063E+0003  -2.77811157226563E+0003  -2.77846508789063E+0003  -2.77886425781250E+0003  -2.77930566406250E+0003  -2.77978637695313E+0003  -2.78030078125000E+0003  -2.78083398437500E+0003  -2.78136962890625E+0003  -2.78189111328125E+0003  -2.78238500976563E+0003  -2.78284521484375E+0003  -2.78326611328125E+0003  -2.78364306640625E+0003  -2.78397436523438E+0003  -2.78426562500000E+0003  -2.78452416992188E+0003  -2.78475634765625E+0003  -2.78496752929688E+0003  -2.78516113281250E+0003  -2.78533959960938E+0003  -2.78550683593750E+0003  -2.78566699218750E+0003  -2.78582617187500E+0003  -2.78599047851563E+0003  -2.78616601562500E+0003  -2.78634570312500E+0003  -2.78651000976563E+0003  -2.78663842773438E+0003  -2.78671191406250E+0003  -2.78672875976563E+0003  -2.78670068359375E+0003  -2.78663574218750E+0003  -2.78654199218750E+0003  -2.78645043945313E+0003  -2.78640527343750E+0003  -2.78645361328125E+0003  -2.78663476562500E+0003  -2.78692309570313E+0003  -2.78726245117188E+0003  -2.78760498046875E+0003  -2.78790820312500E+0003  -2.78813940429688E+0003  -2.78826879882813E+0003  -2.78826464843750E+0003  -2.78809814453125E+0003  -2.78776464843750E+0003  -2.78726684570313E+0003  -2.78660742187500E+0003  -2.78579785156250E+0003  -2.78487817382813E+0003  -2.78388793945313E+0003  -2.78284375000000E+0003  -2.78181762695313E+0003  -2.78104711914063E+0003  -2.78070410156250E+0003  -2.78072827148438E+0003  -2.78101879882813E+0003  -2.78146069335938E+0003  -2.78195410156250E+0003  -2.78243017578125E+0003  -2.78285449218750E+0003  -2.78324462890625E+0003  -2.78362329101563E+0003  -2.78401269531250E+0003  -2.78442065429688E+0003  -2.78483642578125E+0003  -2.78524755859375E+0003  -2.78564208984375E+0003  -2.78601513671875E+0003  -2.78636865234375E+0003  -2.78670556640625E+0003  -2.78702807617188E+0003  -2.78733886718750E+0003  -2.78764038085938E+0003  -2.78793481445313E+0003  -2.78822436523438E+0003  -2.78851000976563E+0003  -2.78879199218750E+0003  -2.78907055664063E+0003  -2.78934570312500E+0003  -2.78961743164063E+0003  -2.78988598632813E+0003  -2.79015136718750E+0003  -2.79041381835938E+0003  -2.79067285156250E+0003  -2.79092773437500E+0003  -2.79117822265625E+0003  -2.79142333984375E+0003  -2.79166259765625E+0003  -2.79189575195313E+0003  -2.79212158203125E+0003
  -2.81188964843750E+0003  -2.81164135742188E+0003  -2.81136865234375E+0003  -2.81107226562500E+0003  -2.81075292968750E+0003  -2.81041088867188E+0003  -2.81004687500000E+0003  -2.80966088867188E+0003  -2.80924877929688E+0003  -2.80880639648438E+0003  -2.80832836914063E+0003  -2.80781030273438E+0003  -2.80724731445313E+0003  -2.80663452148438E+0003  -2.80596704101563E+0003  -2.80524340820313E+0003  -2.80447216796875E+0003  -2.80366357421875E+0003  -2.80282763671875E+0003  -2.80197875976563E+0003  -2.80114013671875E+0003  -2.80033544921875E+0003  -2.79958911132813E+0003  -2.79892285156250E+0003  -2.79835546875000E+0003  -2.79790551757813E+0003  -2.79759008789063E+0003  -2.79740527343750E+0003  -2.79731420898438E+0003  -2.79727880859375E+0003  -2.79726171875000E+0003  -2.79722949218750E+0003  -2.79715258789063E+0003  -2.79700097656250E+0003  -2.79674658203125E+0003  -2.79638842773438E+0003  -2.79595190429688E+0003  -2.79546386718750E+0003  -2.79495019531250E+0003  -2.79443261718750E+0003  -2.79392871093750E+0003  -2.79345605468750E+0003  -2.79302954101563E+0003  -2.79262792968750E+0003  -2.79220971679688E+0003  -2.79173217773438E+0003  -2.79116259765625E+0003  -2.79054760742188E+0003  -2.78996899414063E+0003  -2.78950952148438E+0003  -2.78923828125000E+0003  -2.78915234375000E+0003  -2.78922216796875E+0003  -2.78941113281250E+0003  -2.78968115234375E+0003  -2.78999707031250E+0003  -2.79032397460938E+0003  -2.79062524414063E+0003  -2.79086938476563E+0003  -2.79103955078125E+0003  -2.79112182617188E+0003  -2.79110278320313E+0003  -2.79097412109375E+0003  -2.79074267578125E+0003  -2.79041625976563E+0003  -2.79000122070313E+0003  -2.78952343750000E+0003  -2.78904589843750E+0003  -2.78863745117188E+0003  -2.78836547851563E+0003  -2.78825195312500E+0003  -2.78824414062500E+0003  -2.78828002929688E+0003  -2.78829418945313E+0003  -2.78824194335938E+0003  -2.78810595703125E+0003  -2.78787036132813E+0003  -2.78752075195313E+0003  -2.78707104492188E+0003  -2.78656298828125E+0003  -2.78603955078125E+0003  -2.78554296875000E+0003  -2.78509790039063E+0003  -2.78471582031250E+0003  -2.78440771484375E+0003  -2.78418383789063E+0003  -2.78405053710938E+0003  -2.78401147460938E+0003  -2.78407031250000E+0003  -2.78423242187500E+0003  -2.78452124023438E+0003  -2.78496899414063E+0003  -2.78560791015625E+0003  -2.78645605468750E+0003  -2.78743872070313E+0003  -2.78844555664063E+0003  -2.78936206054688E+0003  -2.79009155273438E+0003  -2.79062744140625E+0003  -2.79099096679688E+0003  -2.79120214843750E+0003  -2.79127807617188E+0003  -2.79122607421875E+0003  -2.79105175781250E+0003  -2.79076123046875E+0003  -2.79035620117188E+0003  -2.78982641601563E+0003  -2.78915917968750E+0003  -2.78834228515625E+0003  -2.78738427734375E+0003  -2.78634204101563E+0003  -2.78527929687500E+0003  -2.78425927734375E+0003  -2.78333520507813E+0003  -2.78254321289063E+0003  -2.78191772460938E+0003  -2.78149267578125E+0003  -2.78127246093750E+0003  -2.78122045898438E+0003  -2.78129711914063E+0003  -2.78146166992188E+0003  -2.78167333984375E+0003  -2.78189135742188E+0003  -2.78207666015625E+0003  -2.78219189453125E+0003  -2.78221533203125E+0003  -2.78213842773438E+0003  -2.78195336914063E+0003  -2.78165454101563E+0003  -2.78125854492188E+0003  -2.78079809570313E+0003  -2.78030590820313E+0003  -2.77981323242188E+0003  -2.77933959960938E+0003  -2.77889819335938E+0003  -2.77850170898438E+0003  -2.77816308593750E+0003  -2.77789550781250E+0003  -2.77771142578125E+0003  -2.77762451171875E+0003  -2.77764379882813E+0003  -2.77776123046875E+0003  -2.77796240234375E+0003  -2.77823291015625E+0003  -2.77856079101563E+0003  -2.77894140625000E+0003  -2.77937231445313E+0003  -2.77985156250000E+0003  -2.78037377929688E+0003  -2.78092285156250E+0003  -2.78148120117188E+0003  -2.78203076171875E+0003  -2.78255566406250E+0003  -2.78304296875000E+0003  -2.78348095703125E+0003  -2.78385791015625E+0003  -2.78416943359375E+0003  -2.78442504882813E+0003  -2.78463647460938E+0003  -2.78481518554688E+0003  -2.78496948242188E+0003  -2.78510351562500E+0003  -2.78522045898438E+0003  -2.78532470703125E+0003  -2.78542309570313E+0003  -2.78552783203125E+0003  -2.78565136718750E+0003  -2.78580590820313E+0003  -2.78598461914063E+0003  -2.78616210937500E+0003  -2.78631274414063E+0003  -2.78641186523438E+0003  -2.78645410156250E+0003  -2.78644750976563E+0003  -2.78639770507813E+0003  -2.78631030273438E+0003  -2.78621948242188E+0003  -2.78617602539063E+0003  -2.78623486328125E+0003  -2.78644238281250E+0003  -2.78676513671875E+0003  -2.78713452148438E+0003  -2.78749584960938E+0003  -2.78780493164063E+0003  -2.78803295898438E+0003  -2.78815795898438E+0003  -2.78815527343750E+0003  -2.78800659179688E+0003  -2.78772631835938E+0003  -2.78733740234375E+0003  -2.78686474609375E+0003  -2.78632666015625E+0003  -2.78572143554688E+0003  -2.78503710937500E+0003  -2.78424340820313E+0003  -2.78335791015625E+0003  -2.78254028320313E+0003  -2.78192822265625E+0003  -2.78154785156250E+0003  -2.78138647460938E+0003  -2.78138623046875E+0003  -2.78149340820313E+0003  -2.78167358398438E+0003  -2.78190502929688E+0003  -2.78218408203125E+0003  -2.78250830078125E+0003  -2.78287573242188E+0003  -2.78327905273438E+0003  -2.78370385742188E+0003  -2.78413574218750E+0003  -2.78456030273438E+0003  -2.78497045898438E+0003  -2.78536645507813E+0003  -2.78574926757813E+0003  -2.78611987304688E+0003  -2.78647900390625E+0003  -2.78682666015625E+0003  -2.78716357421875E+0003  -2.78748974609375E+0003  -2.78780615234375E+0003  -2.78811352539063E+0003  -2.78841308593750E+0003  -2.78870581054688E+0003  -2.78899243164063E+0003  -2.78927416992188E+0003  -2.78955200195313E+0003  -2.78982666015625E+0003  -2.79009790039063E+0003  -2.79036523437500E+0003  -2.79062744140625E+0003  -2.79088427734375E+0003  -2.79113500976563E+0003  -2.79137890625000E+0003  -2.79161499023438E+0003
  -2.81113696289063E+0003  -2.81087304687500E+0003  -2.81058471679688E+0003  -2.81027270507813E+0003  -2.80993750000000E+0003  -2.80957958984375E+0003  -2.80919946289063E+0003  -2.80879711914063E+0003  -2.80836865234375E+0003  -2.80790893554688E+0003  -2.80741333007813E+0003  -2.80687695312500E+0003  -2.80629418945313E+0003  -2.80566088867188E+0003  -2.80497143554688E+0003  -2.80422436523438E+0003  -2.80342749023438E+0003  -2.80259057617188E+0003  -2.80172363281250E+0003  -2.80084106445313E+0003  -2.79996801757813E+0003  -2.79913159179688E+0003  -2.79835791015625E+0003  -2.79767260742188E+0003  -2.79710034179688E+0003  -2.79666528320313E+0003  -2.79639038085938E+0003  -2.79627148437500E+0003  -2.79626464843750E+0003  -2.79632470703125E+0003  -2.79640771484375E+0003  -2.79647338867188E+0003  -2.79648486328125E+0003  -2.79640380859375E+0003  -2.79619311523438E+0003  -2.79585253906250E+0003  -2.79541674804688E+0003  -2.79492163085938E+0003  -2.79440429687500E+0003  -2.79389160156250E+0003  -2.79340429687500E+0003  -2.79296386718750E+0003  -2.79258886718750E+0003  -2.79225415039063E+0003  -2.79190869140625E+0003  -2.79149853515625E+0003  -2.79098046875000E+0003  -2.79040551757813E+0003  -2.78986621093750E+0003  -2.78944946289063E+0003  -2.78922534179688E+0003  -2.78918481445313E+0003  -2.78929101562500E+0003  -2.78950097656250E+0003  -2.78977246093750E+0003  -2.79007006835938E+0003  -2.79036010742188E+0003  -2.79060839843750E+0003  -2.79078759765625E+0003  -2.79089184570313E+0003  -2.79092089843750E+0003  -2.79087426757813E+0003  -2.79075292968750E+0003  -2.79056225585938E+0003  -2.79030664062500E+0003  -2.78998681640625E+0003  -2.78962207031250E+0003  -2.78926806640625E+0003  -2.78898681640625E+0003  -2.78884008789063E+0003  -2.78883813476563E+0003  -2.78890698242188E+0003  -2.78896484375000E+0003  -2.78892993164063E+0003  -2.78875781250000E+0003  -2.78845239257813E+0003  -2.78802026367188E+0003  -2.78746923828125E+0003  -2.78682763671875E+0003  -2.78614501953125E+0003  -2.78547167968750E+0003  -2.78485693359375E+0003  -2.78432763671875E+0003  -2.78389331054688E+0003  -2.78356127929688E+0003  -2.78333862304688E+0003  -2.78322558593750E+0003  -2.78321728515625E+0003  -2.78330957031250E+0003  -2.78350000000000E+0003  -2.78380493164063E+0003  -2.78425024414063E+0003  -2.78486206054688E+0003  -2.78565429687500E+0003  -2.78657080078125E+0003  -2.78752612304688E+0003  -2.78843505859375E+0003  -2.78922216796875E+0003  -2.78986450195313E+0003  -2.79035400390625E+0003  -2.79068261718750E+0003  -2.79084521484375E+0003  -2.79084741210938E+0003  -2.79069677734375E+0003  -2.79040161132813E+0003  -2.78996875000000E+0003  -2.78940161132813E+0003  -2.78870288085938E+0003  -2.78787548828125E+0003  -2.78694018554688E+0003  -2.78595849609375E+0003  -2.78499780273438E+0003  -2.78412475585938E+0003  -2.78338549804688E+0003  -2.78278979492188E+0003  -2.78234375000000E+0003  -2.78205273437500E+0003  -2.78190747070313E+0003  -2.78187646484375E+0003  -2.78192456054688E+0003  -2.78201464843750E+0003  -2.78211401367188E+0003  -2.78219628906250E+0003  -2.78224145507813E+0003  -2.78223583984375E+0003  -2.78216918945313E+0003  -2.78203442382813E+0003  -2.78182617187500E+0003  -2.78154125976563E+0003  -2.78118969726563E+0003  -2.78079150390625E+0003  -2.78036669921875E+0003  -2.77993505859375E+0003  -2.77951196289063E+0003  -2.77911035156250E+0003  -2.77874291992188E+0003  -2.77842309570313E+0003  -2.77816308593750E+0003  -2.77797558593750E+0003  -2.77787329101563E+0003  -2.77786572265625E+0003  -2.77794848632813E+0003  -2.77811181640625E+0003  -2.77834643554688E+0003  -2.77864404296875E+0003  -2.77900219726563E+0003  -2.77941918945313E+0003  -2.77989428710938E+0003  -2.78042236328125E+0003  -2.78098681640625E+0003  -2.78156884765625E+0003  -2.78214916992188E+0003  -2.78270874023438E+0003  -2.78322827148438E+0003  -2.78368823242188E+0003  -2.78406909179688E+0003  -2.78436303710938E+0003  -2.78458447265625E+0003  -2.78475048828125E+0003  -2.78487792968750E+0003  -2.78497851562500E+0003  -2.78505688476563E+0003  -2.78511572265625E+0003  -2.78515917968750E+0003  -2.78519726562500E+0003  -2.78524829101563E+0003  -2.78533129882813E+0003  -2.78546557617188E+0003  -2.78564526367188E+0003  -2.78583959960938E+0003  -2.78601733398438E+0003  -2.78614868164063E+0003  -2.78622460937500E+0003  -2.78625097656250E+0003  -2.78623095703125E+0003  -2.78616845703125E+0003  -2.78609863281250E+0003  -2.78607666015625E+0003  -2.78616113281250E+0003  -2.78640161132813E+0003  -2.78675805664063E+0003  -2.78715112304688E+0003  -2.78751782226563E+0003  -2.78780883789063E+0003  -2.78800317382813E+0003  -2.78809033203125E+0003  -2.78805932617188E+0003  -2.78790625000000E+0003  -2.78766699218750E+0003  -2.78738940429688E+0003  -2.78712084960938E+0003  -2.78688891601563E+0003  -2.78664965820313E+0003  -2.78633349609375E+0003  -2.78584301757813E+0003  -2.78512329101563E+0003  -2.78425439453125E+0003  -2.78334497070313E+0003  -2.78251953125000E+0003  -2.78186352539063E+0003  -2.78137597656250E+0003  -2.78105273437500E+0003  -2.78090551757813E+0003  -2.78093115234375E+0003  -2.78110034179688E+0003  -2.78138012695313E+0003  -2.78173852539063E+0003  -2.78214916992188E+0003  -2.78259375000000E+0003  -2.78305493164063E+0003  -2.78351513671875E+0003  -2.78396533203125E+0003  -2.78440478515625E+0003  -2.78483349609375E+0003  -2.78525073242188E+0003  -2.78565625000000E+0003  -2.78604809570313E+0003  -2.78642529296875E+0003  -2.78678613281250E+0003  -2.78713134765625E+0003  -2.78746264648438E+0003  -2.78778198242188E+0003  -2.78809106445313E+0003  -2.78839160156250E+0003  -2.78868554687500E+0003  -2.78897485351563E+0003  -2.78926074218750E+0003  -2.78954345703125E+0003  -2.78982177734375E+0003  -2.79009545898438E+0003  -2.79036328125000E+0003  -2.79062451171875E+0003  -2.79087841796875E+0003  -2.79112426757813E+0003
  -2.81038842773438E+0003  -2.81010961914063E+0003  -2.80980664062500E+0003  -2.80948022460938E+0003  -2.80913037109375E+0003  -2.80875805664063E+0003  -2.80836352539063E+0003  -2.80794677734375E+0003  -2.80750366210938E+0003  -2.80702978515625E+0003  -2.80651977539063E+0003  -2.80596875000000E+0003  -2.80537182617188E+0003  -2.80472387695313E+0003  -2.80402001953125E+0003  -2.80325830078125E+0003  -2.80244677734375E+0003  -2.80159448242188E+0003  -2.80071118164063E+0003  -2.79981152343750E+0003  -2.79892236328125E+0003  -2.79807226562500E+0003  -2.79728857421875E+0003  -2.79659887695313E+0003  -2.79603125000000E+0003  -2.79561279296875E+0003  -2.79537011718750E+0003  -2.79529809570313E+0003  -2.79534790039063E+0003  -2.79546948242188E+0003  -2.79561474609375E+0003  -2.79573974609375E+0003  -2.79580273437500E+0003  -2.79576074218750E+0003  -2.79557031250000E+0003  -2.79523242187500E+0003  -2.79478857421875E+0003  -2.79428320312500E+0003  -2.79376196289063E+0003  -2.79325610351563E+0003  -2.79278735351563E+0003  -2.79238037109375E+0003  -2.79205688476563E+0003  -2.79178784179688E+0003  -2.79151464843750E+0003  -2.79117089843750E+0003  -2.79070312500000E+0003  -2.79017016601563E+0003  -2.78967846679688E+0003  -2.78932006835938E+0003  -2.78916479492188E+0003  -2.78919482421875E+0003  -2.78936181640625E+0003  -2.78961450195313E+0003  -2.78990380859375E+0003  -2.79019360351563E+0003  -2.79045190429688E+0003  -2.79065014648438E+0003  -2.79076855468750E+0003  -2.79081274414063E+0003  -2.79079345703125E+0003  -2.79072216796875E+0003  -2.79060766601563E+0003  -2.79045336914063E+0003  -2.79025903320313E+0003  -2.79001855468750E+0003  -2.78974438476563E+0003  -2.78948706054688E+0003  -2.78930395507813E+0003  -2.78925390625000E+0003  -2.78933813476563E+0003  -2.78946606445313E+0003  -2.78953759765625E+0003  -2.78945263671875E+0003  -2.78916577148438E+0003  -2.78870068359375E+0003  -2.78808618164063E+0003  -2.78735205078125E+0003  -2.78654003906250E+0003  -2.78570483398438E+0003  -2.78490161132813E+0003  -2.78418505859375E+0003  -2.78358422851563E+0003  -2.78310644531250E+0003  -2.78275610351563E+0003  -2.78253588867188E+0003  -2.78243896484375E+0003  -2.78245410156250E+0003  -2.78256958007813E+0003  -2.78277612304688E+0003  -2.78308618164063E+0003  -2.78352246093750E+0003  -2.78410864257813E+0003  -2.78485864257813E+0003  -2.78573071289063E+0003  -2.78666088867188E+0003  -2.78758544921875E+0003  -2.78844482421875E+0003  -2.78919970703125E+0003  -2.78981762695313E+0003  -2.79026611328125E+0003  -2.79051928710938E+0003  -2.79057983398438E+0003  -2.79045605468750E+0003  -2.79015673828125E+0003  -2.78969262695313E+0003  -2.78908081054688E+0003  -2.78833837890625E+0003  -2.78748339843750E+0003  -2.78654907226563E+0003  -2.78560400390625E+0003  -2.78472143554688E+0003  -2.78397509765625E+0003  -2.78340527343750E+0003  -2.78299560546875E+0003  -2.78272314453125E+0003  -2.78256542968750E+0003  -2.78249926757813E+0003  -2.78250048828125E+0003  -2.78253808593750E+0003  -2.78257324218750E+0003  -2.78257739257813E+0003  -2.78253442382813E+0003  -2.78244604492188E+0003  -2.78232739257813E+0003  -2.78217968750000E+0003  -2.78199316406250E+0003  -2.78176269531250E+0003  -2.78148681640625E+0003  -2.78117065429688E+0003  -2.78082373046875E+0003  -2.78045507812500E+0003  -2.78007446289063E+0003  -2.77969360351563E+0003  -2.77932519531250E+0003  -2.77898193359375E+0003  -2.77867700195313E+0003  -2.77842211914063E+0003  -2.77822949218750E+0003  -2.77811083984375E+0003  -2.77807617187500E+0003  -2.77812377929688E+0003  -2.77824926757813E+0003  -2.77844726562500E+0003  -2.77871362304688E+0003  -2.77904809570313E+0003  -2.77945043945313E+0003  -2.77992114257813E+0003  -2.78045605468750E+0003  -2.78103759765625E+0003  -2.78164550781250E+0003  -2.78226000976563E+0003  -2.78285864257813E+0003  -2.78341430664063E+0003  -2.78389941406250E+0003  -2.78428613281250E+0003  -2.78456323242188E+0003  -2.78475024414063E+0003  -2.78487109375000E+0003  -2.78494921875000E+0003  -2.78500024414063E+0003  -2.78502807617188E+0003  -2.78503588867188E+0003  -2.78502661132813E+0003  -2.78501245117188E+0003  -2.78501635742188E+0003  -2.78506396484375E+0003  -2.78518041992188E+0003  -2.78536108398438E+0003  -2.78557153320313E+0003  -2.78577709960938E+0003  -2.78594458007813E+0003  -2.78606201171875E+0003  -2.78613378906250E+0003  -2.78616088867188E+0003  -2.78614648437500E+0003  -2.78612548828125E+0003  -2.78615332031250E+0003  -2.78628808593750E+0003  -2.78657812500000E+0003  -2.78697753906250E+0003  -2.78735937500000E+0003  -2.78769775390625E+0003  -2.78794189453125E+0003  -2.78808325195313E+0003  -2.78812426757813E+0003  -2.78803759765625E+0003  -2.78784155273438E+0003  -2.78760766601563E+0003  -2.78740356445313E+0003  -2.78729687500000E+0003  -2.78732299804688E+0003  -2.78740258789063E+0003  -2.78741381835938E+0003  -2.78718457031250E+0003  -2.78658764648438E+0003  -2.78564624023438E+0003  -2.78445605468750E+0003  -2.78322607421875E+0003  -2.78212329101563E+0003  -2.78119189453125E+0003  -2.78047192382813E+0003  -2.78002587890625E+0003  -2.77987353515625E+0003  -2.77995922851563E+0003  -2.78021948242188E+0003  -2.78059130859375E+0003  -2.78102880859375E+0003  -2.78150976562500E+0003  -2.78201245117188E+0003  -2.78251684570313E+0003  -2.78301171875000E+0003  -2.78349584960938E+0003  -2.78396899414063E+0003  -2.78443115234375E+0003  -2.78487988281250E+0003  -2.78531274414063E+0003  -2.78572680664063E+0003  -2.78611938476563E+0003  -2.78649096679688E+0003  -2.78684399414063E+0003  -2.78718090820313E+0003  -2.78750488281250E+0003  -2.78781787109375E+0003  -2.78812280273438E+0003  -2.78842236328125E+0003  -2.78871850585938E+0003  -2.78901123046875E+0003  -2.78930004882813E+0003  -2.78958374023438E+0003  -2.78986132812500E+0003  -2.79013232421875E+0003  -2.79039550781250E+0003  -2.79065014648438E+0003
  -2.80964477539063E+0003  -2.80935253906250E+0003  -2.80903637695313E+0003  -2.80869677734375E+0003  -2.80833398437500E+0003  -2.80794897460938E+0003  -2.80754199218750E+0003  -2.80711279296875E+0003  -2.80665795898438E+0003  -2.80617260742188E+0003  -2.80565185546875E+0003  -2.80509130859375E+0003  -2.80448583984375E+0003  -2.80383081054688E+0003  -2.80312158203125E+0003  -2.80235620117188E+0003  -2.80154321289063E+0003  -2.80069165039063E+0003  -2.79981201171875E+0003  -2.79891870117188E+0003  -2.79803930664063E+0003  -2.79720190429688E+0003  -2.79643432617188E+0003  -2.79576391601563E+0003  -2.79521679687500E+0003  -2.79481884765625E+0003  -2.79459472656250E+0003  -2.79453833007813E+0003  -2.79460034179688E+0003  -2.79473022460938E+0003  -2.79487939453125E+0003  -2.79500390625000E+0003  -2.79506250000000E+0003  -2.79501196289063E+0003  -2.79480908203125E+0003  -2.79445629882813E+0003  -2.79399902343750E+0003  -2.79348535156250E+0003  -2.79296508789063E+0003  -2.79247119140625E+0003  -2.79202465820313E+0003  -2.79165063476563E+0003  -2.79137207031250E+0003  -2.79115869140625E+0003  -2.79094824218750E+0003  -2.79067016601563E+0003  -2.79026464843750E+0003  -2.78979565429688E+0003  -2.78937841796875E+0003  -2.78910620117188E+0003  -2.78904638671875E+0003  -2.78917285156250E+0003  -2.78942553710938E+0003  -2.78974291992188E+0003  -2.79006713867188E+0003  -2.79035766601563E+0003  -2.79058325195313E+0003  -2.79072924804688E+0003  -2.79079003906250E+0003  -2.79078002929688E+0003  -2.79071826171875E+0003  -2.79062500000000E+0003  -2.79051538085938E+0003  -2.79038867187500E+0003  -2.79023901367188E+0003  -2.79005517578125E+0003  -2.78984423828125E+0003  -2.78965283203125E+0003  -2.78953417968750E+0003  -2.78954394531250E+0003  -2.78967724609375E+0003  -2.78983447265625E+0003  -2.78990332031250E+0003  -2.78976684570313E+0003  -2.78937841796875E+0003  -2.78877807617188E+0003  -2.78801293945313E+0003  -2.78713134765625E+0003  -2.78618554687500E+0003  -2.78523193359375E+0003  -2.78432910156250E+0003  -2.78353588867188E+0003  -2.78288256835938E+0003  -2.78237695312500E+0003  -2.78202001953125E+0003  -2.78180712890625E+0003  -2.78172656250000E+0003  -2.78176123046875E+0003  -2.78189404296875E+0003  -2.78211059570313E+0003  -2.78242163085938E+0003  -2.78285107421875E+0003  -2.78342187500000E+0003  -2.78415039062500E+0003  -2.78500585937500E+0003  -2.78593920898438E+0003  -2.78690136718750E+0003  -2.78784301757813E+0003  -2.78871191406250E+0003  -2.78945507812500E+0003  -2.79001904296875E+0003  -2.79036206054688E+0003  -2.79048144531250E+0003  -2.79038452148438E+0003  -2.79007934570313E+0003  -2.78958007812500E+0003  -2.78891552734375E+0003  -2.78811669921875E+0003  -2.78721557617188E+0003  -2.78625732421875E+0003  -2.78531884765625E+0003  -2.78448266601563E+0003  -2.78383154296875E+0003  -2.78340332031250E+0003  -2.78315576171875E+0003  -2.78303881835938E+0003  -2.78300366210938E+0003  -2.78301562500000E+0003  -2.78305981445313E+0003  -2.78310864257813E+0003  -2.78312255859375E+0003  -2.78306103515625E+0003  -2.78290234375000E+0003  -2.78268945312500E+0003  -2.78247705078125E+0003  -2.78226928710938E+0003  -2.78204492187500E+0003  -2.78179541015625E+0003  -2.78152221679688E+0003  -2.78122778320313E+0003  -2.78091333007813E+0003  -2.78058129882813E+0003  -2.78023437500000E+0003  -2.77988110351563E+0003  -2.77953442382813E+0003  -2.77920654296875E+0003  -2.77890991210938E+0003  -2.77865600585938E+0003  -2.77845605468750E+0003  -2.77832104492188E+0003  -2.77826049804688E+0003  -2.77827587890625E+0003  -2.77836645507813E+0003  -2.77853051757813E+0003  -2.77876806640625E+0003  -2.77908032226563E+0003  -2.77946997070313E+0003  -2.77993872070313E+0003  -2.78048315429688E+0003  -2.78108520507813E+0003  -2.78172314453125E+0003  -2.78237524414063E+0003  -2.78301660156250E+0003  -2.78361157226563E+0003  -2.78412377929688E+0003  -2.78451684570313E+0003  -2.78477587890625E+0003  -2.78492724609375E+0003  -2.78500244140625E+0003  -2.78503271484375E+0003  -2.78503833007813E+0003  -2.78502343750000E+0003  -2.78499023437500E+0003  -2.78494140625000E+0003  -2.78488989257813E+0003  -2.78486108398438E+0003  -2.78488330078125E+0003  -2.78498535156250E+0003  -2.78516430664063E+0003  -2.78538574218750E+0003  -2.78561499023438E+0003  -2.78581958007813E+0003  -2.78598632812500E+0003  -2.78611645507813E+0003  -2.78620971679688E+0003  -2.78626831054688E+0003  -2.78632543945313E+0003  -2.78643457031250E+0003  -2.78665209960938E+0003  -2.78696850585938E+0003  -2.78735766601563E+0003  -2.78775024414063E+0003  -2.78806518554688E+0003  -2.78823950195313E+0003  -2.78828076171875E+0003  -2.78821264648438E+0003  -2.78805664062500E+0003  -2.78784130859375E+0003  -2.78756347656250E+0003  -2.78735961914063E+0003  -2.78731713867188E+0003  -2.78747363281250E+0003  -2.78772705078125E+0003  -2.78792138671875E+0003  -2.78783178710938E+0003  -2.78728076171875E+0003  -2.78625708007813E+0003  -2.78484936523438E+0003  -2.78331762695313E+0003  -2.78188037109375E+0003  -2.78061645507813E+0003  -2.77960180664063E+0003  -2.77894287109375E+0003  -2.77867871093750E+0003  -2.77873120117188E+0003  -2.77901025390625E+0003  -2.77942651367188E+0003  -2.77991772460938E+0003  -2.78045605468750E+0003  -2.78101684570313E+0003  -2.78157592773438E+0003  -2.78212060546875E+0003  -2.78265087890625E+0003  -2.78316748046875E+0003  -2.78367065429688E+0003  -2.78415893554688E+0003  -2.78462841796875E+0003  -2.78507495117188E+0003  -2.78549536132813E+0003  -2.78588964843750E+0003  -2.78626171875000E+0003  -2.78661425781250E+0003  -2.78695092773438E+0003  -2.78727465820313E+0003  -2.78758911132813E+0003  -2.78789721679688E+0003  -2.78820214843750E+0003  -2.78850390625000E+0003  -2.78880151367188E+0003  -2.78909423828125E+0003  -2.78938061523438E+0003  -2.78966015625000E+0003  -2.78993164062500E+0003  -2.79019384765625E+0003
  -2.80890747070313E+0003  -2.80860278320313E+0003  -2.80827441406250E+0003  -2.80792309570313E+0003  -2.80754931640625E+0003  -2.80715307617188E+0003  -2.80673559570313E+0003  -2.80629638671875E+0003  -2.80583203125000E+0003  -2.80533813476563E+0003  -2.80481079101563E+0003  -2.80424536132813E+0003  -2.80363720703125E+0003  -2.80298242187500E+0003  -2.80227636718750E+0003  -2.80151806640625E+0003  -2.80071606445313E+0003  -2.79988110351563E+0003  -2.79902368164063E+0003  -2.79815917968750E+0003  -2.79731347656250E+0003  -2.79651391601563E+0003  -2.79578735351563E+0003  -2.79515820312500E+0003  -2.79464672851563E+0003  -2.79427270507813E+0003  -2.79405468750000E+0003  -2.79398510742188E+0003  -2.79401782226563E+0003  -2.79410522460938E+0003  -2.79420214843750E+0003  -2.79426708984375E+0003  -2.79426489257813E+0003  -2.79415820312500E+0003  -2.79390966796875E+0003  -2.79352465820313E+0003  -2.79304833984375E+0003  -2.79252880859375E+0003  -2.79201440429688E+0003  -2.79153637695313E+0003  -2.79111425781250E+0003  -2.79077099609375E+0003  -2.79052734375000E+0003  -2.79035449218750E+0003  -2.79019384765625E+0003  -2.78997753906250E+0003  -2.78964892578125E+0003  -2.78927050781250E+0003  -2.78895581054688E+0003  -2.78879418945313E+0003  -2.78884887695313E+0003  -2.78908666992188E+0003  -2.78943969726563E+0003  -2.78983544921875E+0003  -2.79020605468750E+0003  -2.79050537109375E+0003  -2.79070239257813E+0003  -2.79080078125000E+0003  -2.79081469726563E+0003  -2.79076391601563E+0003  -2.79067187500000E+0003  -2.79056469726563E+0003  -2.79046020507813E+0003  -2.79035327148438E+0003  -2.79023315429688E+0003  -2.79008447265625E+0003  -2.78991137695313E+0003  -2.78975683593750E+0003  -2.78966918945313E+0003  -2.78969897460938E+0003  -2.78983813476563E+0003  -2.78998535156250E+0003  -2.79002441406250E+0003  -2.78983056640625E+0003  -2.78935668945313E+0003  -2.78865380859375E+0003  -2.78778027343750E+0003  -2.78679663085938E+0003  -2.78576123046875E+0003  -2.78473071289063E+0003  -2.78376513671875E+0003  -2.78292504882813E+0003  -2.78224243164063E+0003  -2.78172583007813E+0003  -2.78137280273438E+0003  -2.78117211914063E+0003  -2.78110717773438E+0003  -2.78115844726563E+0003  -2.78130468750000E+0003  -2.78152856445313E+0003  -2.78184130859375E+0003  -2.78226831054688E+0003  -2.78283544921875E+0003  -2.78356127929688E+0003  -2.78442285156250E+0003  -2.78537963867188E+0003  -2.78639233398438E+0003  -2.78741723632813E+0003  -2.78839160156250E+0003  -2.78924731445313E+0003  -2.78991625976563E+0003  -2.79034326171875E+0003  -2.79052026367188E+0003  -2.79045190429688E+0003  -2.79014477539063E+0003  -2.78961474609375E+0003  -2.78890136718750E+0003  -2.78804760742188E+0003  -2.78709619140625E+0003  -2.78610327148438E+0003  -2.78515429687500E+0003  -2.78434033203125E+0003  -2.78375537109375E+0003  -2.78343579101563E+0003  -2.78331762695313E+0003  -2.78332714843750E+0003  -2.78339282226563E+0003  -2.78347045898438E+0003  -2.78355371093750E+0003  -2.78361865234375E+0003  -2.78364453125000E+0003  -2.78354760742188E+0003  -2.78327075195313E+0003  -2.78295336914063E+0003  -2.78268359375000E+0003  -2.78244018554688E+0003  -2.78219189453125E+0003  -2.78192700195313E+0003  -2.78165014648438E+0003  -2.78136230468750E+0003  -2.78106152343750E+0003  -2.78074584960938E+0003  -2.78041406250000E+0003  -2.78007348632813E+0003  -2.77973608398438E+0003  -2.77941381835938E+0003  -2.77911865234375E+0003  -2.77886132812500E+0003  -2.77865185546875E+0003  -2.77850048828125E+0003  -2.77841625976563E+0003  -2.77840307617188E+0003  -2.77846264648438E+0003  -2.77859692382813E+0003  -2.77880786132813E+0003  -2.77910009765625E+0003  -2.77947875976563E+0003  -2.77994726562500E+0003  -2.78050317382813E+0003  -2.78112670898438E+0003  -2.78179541015625E+0003  -2.78248559570313E+0003  -2.78316918945313E+0003  -2.78380297851563E+0003  -2.78434179687500E+0003  -2.78474121093750E+0003  -2.78498242187500E+0003  -2.78509960937500E+0003  -2.78513208007813E+0003  -2.78511962890625E+0003  -2.78508715820313E+0003  -2.78503881835938E+0003  -2.78497631835938E+0003  -2.78490234375000E+0003  -2.78482958984375E+0003  -2.78478295898438E+0003  -2.78479077148438E+0003  -2.78488208007813E+0003  -2.78505541992188E+0003  -2.78528100585938E+0003  -2.78552807617188E+0003  -2.78576831054688E+0003  -2.78598828125000E+0003  -2.78618627929688E+0003  -2.78636010742188E+0003  -2.78650952148438E+0003  -2.78666650390625E+0003  -2.78688159179688E+0003  -2.78713208007813E+0003  -2.78748876953125E+0003  -2.78792285156250E+0003  -2.78832836914063E+0003  -2.78860791015625E+0003  -2.78868457031250E+0003  -2.78858959960938E+0003  -2.78837207031250E+0003  -2.78807910156250E+0003  -2.78776269531250E+0003  -2.78748095703125E+0003  -2.78722363281250E+0003  -2.78714697265625E+0003  -2.78729956054688E+0003  -2.78756616210938E+0003  -2.78777490234375E+0003  -2.78768286132813E+0003  -2.78709594726563E+0003  -2.78599291992188E+0003  -2.78445825195313E+0003  -2.78275585937500E+0003  -2.78111718750000E+0003  -2.77964794921875E+0003  -2.77845581054688E+0003  -2.77768066406250E+0003  -2.77737719726563E+0003  -2.77744824218750E+0003  -2.77778295898438E+0003  -2.77827148437500E+0003  -2.77883789062500E+0003  -2.77945068359375E+0003  -2.78008178710938E+0003  -2.78070312500000E+0003  -2.78130102539063E+0003  -2.78187695312500E+0003  -2.78243408203125E+0003  -2.78297485351563E+0003  -2.78349755859375E+0003  -2.78399804687500E+0003  -2.78447241210938E+0003  -2.78491577148438E+0003  -2.78532958984375E+0003  -2.78571728515625E+0003  -2.78608276367188E+0003  -2.78642993164063E+0003  -2.78676245117188E+0003  -2.78708471679688E+0003  -2.78740039062500E+0003  -2.78771264648438E+0003  -2.78802197265625E+0003  -2.78832714843750E+0003  -2.78862744140625E+0003  -2.78892138671875E+0003  -2.78920825195313E+0003  -2.78948681640625E+0003  -2.78975585937500E+0003
  -2.80817602539063E+0003  -2.80786035156250E+0003  -2.80752124023438E+0003  -2.80715966796875E+0003  -2.80677587890625E+0003  -2.80637060546875E+0003  -2.80594409179688E+0003  -2.80549658203125E+0003  -2.80502514648438E+0003  -2.80452563476563E+0003  -2.80399462890625E+0003  -2.80342822265625E+0003  -2.80282250976563E+0003  -2.80217382812500E+0003  -2.80147802734375E+0003  -2.80073486328125E+0003  -2.79995410156250E+0003  -2.79914721679688E+0003  -2.79832568359375E+0003  -2.79750463867188E+0003  -2.79670874023438E+0003  -2.79596289062500E+0003  -2.79529199218750E+0003  -2.79471679687500E+0003  -2.79424951171875E+0003  -2.79390136718750E+0003  -2.79368359375000E+0003  -2.79358544921875E+0003  -2.79356494140625E+0003  -2.79357910156250E+0003  -2.79358569335938E+0003  -2.79355004882813E+0003  -2.79344628906250E+0003  -2.79324707031250E+0003  -2.79292626953125E+0003  -2.79249316406250E+0003  -2.79199047851563E+0003  -2.79146240234375E+0003  -2.79095385742188E+0003  -2.79049243164063E+0003  -2.79009399414063E+0003  -2.78977685546875E+0003  -2.78955737304688E+0003  -2.78940991210938E+0003  -2.78928466796875E+0003  -2.78912377929688E+0003  -2.78888037109375E+0003  -2.78861059570313E+0003  -2.78841333007813E+0003  -2.78837109375000E+0003  -2.78854199218750E+0003  -2.78888842773438E+0003  -2.78933740234375E+0003  -2.78980932617188E+0003  -2.79022851562500E+0003  -2.79054492187500E+0003  -2.79072875976563E+0003  -2.79080126953125E+0003  -2.79079345703125E+0003  -2.79072875976563E+0003  -2.79062963867188E+0003  -2.79052490234375E+0003  -2.79043237304688E+0003  -2.79034326171875E+0003  -2.79024340820313E+0003  -2.79011645507813E+0003  -2.78996362304688E+0003  -2.78982275390625E+0003  -2.78973657226563E+0003  -2.78974780273438E+0003  -2.78984692382813E+0003  -2.78993774414063E+0003  -2.78991015625000E+0003  -2.78964550781250E+0003  -2.78910083007813E+0003  -2.78833007812500E+0003  -2.78739501953125E+0003  -2.78635839843750E+0003  -2.78528027343750E+0003  -2.78421704101563E+0003  -2.78322827148438E+0003  -2.78237451171875E+0003  -2.78168701171875E+0003  -2.78117333984375E+0003  -2.78082910156250E+0003  -2.78064013671875E+0003  -2.78058837890625E+0003  -2.78065185546875E+0003  -2.78080786132813E+0003  -2.78103735351563E+0003  -2.78135253906250E+0003  -2.78178149414063E+0003  -2.78235156250000E+0003  -2.78308520507813E+0003  -2.78396240234375E+0003  -2.78494824218750E+0003  -2.78600805664063E+0003  -2.78710156250000E+0003  -2.78815991210938E+0003  -2.78910546875000E+0003  -2.78986059570313E+0003  -2.79036206054688E+0003  -2.79059594726563E+0003  -2.79056201171875E+0003  -2.79026684570313E+0003  -2.78972778320313E+0003  -2.78899121093750E+0003  -2.78810864257813E+0003  -2.78713037109375E+0003  -2.78612011718750E+0003  -2.78516870117188E+0003  -2.78437426757813E+0003  -2.78383789062500E+0003  -2.78359619140625E+0003  -2.78356884765625E+0003  -2.78366552734375E+0003  -2.78379858398438E+0003  -2.78391479492188E+0003  -2.78400854492188E+0003  -2.78405493164063E+0003  -2.78402441406250E+0003  -2.78381079101563E+0003  -2.78347192382813E+0003  -2.78319091796875E+0003  -2.78293652343750E+0003  -2.78267968750000E+0003  -2.78241601562500E+0003  -2.78213696289063E+0003  -2.78185058593750E+0003  -2.78155810546875E+0003  -2.78125610351563E+0003  -2.78094116210938E+0003  -2.78061059570313E+0003  -2.78027099609375E+0003  -2.77993334960938E+0003  -2.77960913085938E+0003  -2.77930981445313E+0003  -2.77904492187500E+0003  -2.77882373046875E+0003  -2.77865600585938E+0003  -2.77855004882813E+0003  -2.77851098632813E+0003  -2.77854296875000E+0003  -2.77864965820313E+0003  -2.77883569335938E+0003  -2.77910864257813E+0003  -2.77947583007813E+0003  -2.77994262695313E+0003  -2.78050732421875E+0003  -2.78114868164063E+0003  -2.78184228515625E+0003  -2.78256445312500E+0003  -2.78328295898438E+0003  -2.78394946289063E+0003  -2.78451123046875E+0003  -2.78491674804688E+0003  -2.78514477539063E+0003  -2.78523559570313E+0003  -2.78523608398438E+0003  -2.78519189453125E+0003  -2.78513256835938E+0003  -2.78506225585938E+0003  -2.78498291015625E+0003  -2.78489648437500E+0003  -2.78481469726563E+0003  -2.78476196289063E+0003  -2.78476367187500E+0003  -2.78484594726563E+0003  -2.78501049804688E+0003  -2.78523364257813E+0003  -2.78549243164063E+0003  -2.78576440429688E+0003  -2.78603686523438E+0003  -2.78630493164063E+0003  -2.78656347656250E+0003  -2.78681005859375E+0003  -2.78707348632813E+0003  -2.78735278320313E+0003  -2.78765136718750E+0003  -2.78807250976563E+0003  -2.78855053710938E+0003  -2.78896508789063E+0003  -2.78919482421875E+0003  -2.78914526367188E+0003  -2.78887768554688E+0003  -2.78847460937500E+0003  -2.78801586914063E+0003  -2.78758129882813E+0003  -2.78721801757813E+0003  -2.78695117187500E+0003  -2.78678442382813E+0003  -2.78684790039063E+0003  -2.78701489257813E+0003  -2.78710937500000E+0003  -2.78690161132813E+0003  -2.78621533203125E+0003  -2.78504882812500E+0003  -2.78348535156250E+0003  -2.78174169921875E+0003  -2.78002026367188E+0003  -2.77845092773438E+0003  -2.77717187500000E+0003  -2.77635400390625E+0003  -2.77606494140625E+0003  -2.77619189453125E+0003  -2.77660522460938E+0003  -2.77717968750000E+0003  -2.77782983398438E+0003  -2.77852221679688E+0003  -2.77922631835938E+0003  -2.77991015625000E+0003  -2.78055932617188E+0003  -2.78117797851563E+0003  -2.78177124023438E+0003  -2.78234375000000E+0003  -2.78289526367188E+0003  -2.78342163085938E+0003  -2.78391796875000E+0003  -2.78438012695313E+0003  -2.78480932617188E+0003  -2.78520947265625E+0003  -2.78558520507813E+0003  -2.78594067382813E+0003  -2.78628051757813E+0003  -2.78660888671875E+0003  -2.78693041992188E+0003  -2.78724877929688E+0003  -2.78756445312500E+0003  -2.78787597656250E+0003  -2.78818261718750E+0003  -2.78848291015625E+0003  -2.78877612304688E+0003  -2.78906079101563E+0003  -2.78933569335938E+0003
  -2.80745141601563E+0003  -2.80712524414063E+0003  -2.80677661132813E+0003  -2.80640600585938E+0003  -2.80601391601563E+0003  -2.80560083007813E+0003  -2.80516723632813E+0003  -2.80471313476563E+0003  -2.80423632812500E+0003  -2.80373364257813E+0003  -2.80320166015625E+0003  -2.80263745117188E+0003  -2.80203784179688E+0003  -2.80139965820313E+0003  -2.80071972656250E+0003  -2.79999829101563E+0003  -2.79924560546875E+0003  -2.79847387695313E+0003  -2.79769580078125E+0003  -2.79692626953125E+0003  -2.79618725585938E+0003  -2.79550170898438E+0003  -2.79489208984375E+0003  -2.79437475585938E+0003  -2.79395410156250E+0003  -2.79363330078125E+0003  -2.79341552734375E+0003  -2.79328613281250E+0003  -2.79320629882813E+0003  -2.79313549804688E+0003  -2.79303393554688E+0003  -2.79287426757813E+0003  -2.79264282226563E+0003  -2.79232690429688E+0003  -2.79191430664063E+0003  -2.79141918945313E+0003  -2.79088012695313E+0003  -2.79033740234375E+0003  -2.78983007812500E+0003  -2.78938110351563E+0003  -2.78900219726563E+0003  -2.78870556640625E+0003  -2.78850219726563E+0003  -2.78836987304688E+0003  -2.78826928710938E+0003  -2.78815649414063E+0003  -2.78799780273438E+0003  -2.78783764648438E+0003  -2.78775610351563E+0003  -2.78782421875000E+0003  -2.78809448242188E+0003  -2.78852734375000E+0003  -2.78904907226563E+0003  -2.78957861328125E+0003  -2.79003881835938E+0003  -2.79038110351563E+0003  -2.79057958984375E+0003  -2.79066552734375E+0003  -2.79067773437500E+0003  -2.79063818359375E+0003  -2.79056689453125E+0003  -2.79048901367188E+0003  -2.79042089843750E+0003  -2.79035278320313E+0003  -2.79027026367188E+0003  -2.79015795898438E+0003  -2.79001562500000E+0003  -2.78987280273438E+0003  -2.78976342773438E+0003  -2.78972045898438E+0003  -2.78973291015625E+0003  -2.78971899414063E+0003  -2.78958496093750E+0003  -2.78923242187500E+0003  -2.78862817382813E+0003  -2.78782226562500E+0003  -2.78687036132813E+0003  -2.78582958984375E+0003  -2.78475585937500E+0003  -2.78370483398438E+0003  -2.78273364257813E+0003  -2.78189892578125E+0003  -2.78122998046875E+0003  -2.78073095703125E+0003  -2.78039770507813E+0003  -2.78021875000000E+0003  -2.78017578125000E+0003  -2.78024682617188E+0003  -2.78040942382813E+0003  -2.78064404296875E+0003  -2.78096362304688E+0003  -2.78139697265625E+0003  -2.78197290039063E+0003  -2.78271411132813E+0003  -2.78360351562500E+0003  -2.78460815429688E+0003  -2.78569628906250E+0003  -2.78682958984375E+0003  -2.78793676757813E+0003  -2.78893725585938E+0003  -2.78975122070313E+0003  -2.79031152343750E+0003  -2.79060009765625E+0003  -2.79061328125000E+0003  -2.79035644531250E+0003  -2.78984765625000E+0003  -2.78913623046875E+0003  -2.78827685546875E+0003  -2.78732299804688E+0003  -2.78634033203125E+0003  -2.78542114257813E+0003  -2.78466381835938E+0003  -2.78417114257813E+0003  -2.78397778320313E+0003  -2.78399707031250E+0003  -2.78413183593750E+0003  -2.78428759765625E+0003  -2.78440502929688E+0003  -2.78447387695313E+0003  -2.78446850585938E+0003  -2.78434033203125E+0003  -2.78403295898438E+0003  -2.78370190429688E+0003  -2.78347607421875E+0003  -2.78324169921875E+0003  -2.78297705078125E+0003  -2.78269824218750E+0003  -2.78240380859375E+0003  -2.78210278320313E+0003  -2.78179760742188E+0003  -2.78148437500000E+0003  -2.78115966796875E+0003  -2.78082104492188E+0003  -2.78047387695313E+0003  -2.78012939453125E+0003  -2.77979760742188E+0003  -2.77948950195313E+0003  -2.77921411132813E+0003  -2.77897973632813E+0003  -2.77879516601563E+0003  -2.77866821289063E+0003  -2.77860546875000E+0003  -2.77861230468750E+0003  -2.77869360351563E+0003  -2.77885571289063E+0003  -2.77910864257813E+0003  -2.77946191406250E+0003  -2.77992211914063E+0003  -2.78048754882813E+0003  -2.78113671875000E+0003  -2.78184399414063E+0003  -2.78258422851563E+0003  -2.78332421875000E+0003  -2.78401098632813E+0003  -2.78458837890625E+0003  -2.78500024414063E+0003  -2.78522412109375E+0003  -2.78530346679688E+0003  -2.78528906250000E+0003  -2.78523071289063E+0003  -2.78516015625000E+0003  -2.78508154296875E+0003  -2.78499731445313E+0003  -2.78490917968750E+0003  -2.78482836914063E+0003  -2.78477661132813E+0003  -2.78477661132813E+0003  -2.78485131835938E+0003  -2.78500390625000E+0003  -2.78521972656250E+0003  -2.78548388671875E+0003  -2.78578125000000E+0003  -2.78610058593750E+0003  -2.78643383789063E+0003  -2.78677246093750E+0003  -2.78711059570313E+0003  -2.78747534179688E+0003  -2.78778344726563E+0003  -2.78814770507813E+0003  -2.78862597656250E+0003  -2.78914697265625E+0003  -2.78957836914063E+0003  -2.78975927734375E+0003  -2.78955664062500E+0003  -2.78907006835938E+0003  -2.78843212890625E+0003  -2.78777148437500E+0003  -2.78720922851563E+0003  -2.78677050781250E+0003  -2.78645410156250E+0003  -2.78622802734375E+0003  -2.78616967773438E+0003  -2.78618774414063E+0003  -2.78610961914063E+0003  -2.78573876953125E+0003  -2.78493457031250E+0003  -2.78372753906250E+0003  -2.78220288085938E+0003  -2.78050610351563E+0003  -2.77879003906250E+0003  -2.77720092773438E+0003  -2.77590283203125E+0003  -2.77509326171875E+0003  -2.77485205078125E+0003  -2.77505126953125E+0003  -2.77554809570313E+0003  -2.77620629882813E+0003  -2.77693432617188E+0003  -2.77769921875000E+0003  -2.77846875000000E+0003  -2.77920800781250E+0003  -2.77990209960938E+0003  -2.78055712890625E+0003  -2.78118017578125E+0003  -2.78177832031250E+0003  -2.78235253906250E+0003  -2.78289819335938E+0003  -2.78341088867188E+0003  -2.78388696289063E+0003  -2.78432739257813E+0003  -2.78473706054688E+0003  -2.78512036132813E+0003  -2.78548217773438E+0003  -2.78582739257813E+0003  -2.78616064453125E+0003  -2.78648681640625E+0003  -2.78681005859375E+0003  -2.78713061523438E+0003  -2.78744726562500E+0003  -2.78775903320313E+0003  -2.78806494140625E+0003  -2.78836328125000E+0003  -2.78865307617188E+0003  -2.78893310546875E+0003
  -2.80673339843750E+0003  -2.80639819335938E+0003  -2.80604101562500E+0003  -2.80566259765625E+0003  -2.80526318359375E+0003  -2.80484350585938E+0003  -2.80440429687500E+0003  -2.80394531250000E+0003  -2.80346484375000E+0003  -2.80296044921875E+0003  -2.80242993164063E+0003  -2.80187036132813E+0003  -2.80127978515625E+0003  -2.80065551757813E+0003  -2.79999487304688E+0003  -2.79929907226563E+0003  -2.79857861328125E+0003  -2.79784594726563E+0003  -2.79711328125000E+0003  -2.79639575195313E+0003  -2.79571313476563E+0003  -2.79508544921875E+0003  -2.79453393554688E+0003  -2.79407055664063E+0003  -2.79369384765625E+0003  -2.79340063476563E+0003  -2.79318750000000E+0003  -2.79303588867188E+0003  -2.79290625000000E+0003  -2.79275708007813E+0003  -2.79254785156250E+0003  -2.79225756835938E+0003  -2.79188842773438E+0003  -2.79144335937500E+0003  -2.79092626953125E+0003  -2.79035693359375E+0003  -2.78977075195313E+0003  -2.78920263671875E+0003  -2.78868750000000E+0003  -2.78824340820313E+0003  -2.78787719726563E+0003  -2.78759570312500E+0003  -2.78740380859375E+0003  -2.78728369140625E+0003  -2.78720410156250E+0003  -2.78713330078125E+0003  -2.78704663085938E+0003  -2.78697900390625E+0003  -2.78699169921875E+0003  -2.78714404296875E+0003  -2.78747949218750E+0003  -2.78795898437500E+0003  -2.78851391601563E+0003  -2.78906884765625E+0003  -2.78955371093750E+0003  -2.78993115234375E+0003  -2.79018334960938E+0003  -2.79033715820313E+0003  -2.79042431640625E+0003  -2.79046044921875E+0003  -2.79045947265625E+0003  -2.79043994140625E+0003  -2.79041381835938E+0003  -2.79037377929688E+0003  -2.79030957031250E+0003  -2.79021069335938E+0003  -2.79007592773438E+0003  -2.78992333984375E+0003  -2.78977246093750E+0003  -2.78964306640625E+0003  -2.78952514648438E+0003  -2.78936010742188E+0003  -2.78908300781250E+0003  -2.78862622070313E+0003  -2.78797021484375E+0003  -2.78715454101563E+0003  -2.78622436523438E+0003  -2.78522412109375E+0003  -2.78420190429688E+0003  -2.78320751953125E+0003  -2.78229223632813E+0003  -2.78150683593750E+0003  -2.78087573242188E+0003  -2.78040161132813E+0003  -2.78008227539063E+0003  -2.77991113281250E+0003  -2.77987304687500E+0003  -2.77994726562500E+0003  -2.78011352539063E+0003  -2.78035375976563E+0003  -2.78068041992188E+0003  -2.78111987304688E+0003  -2.78169970703125E+0003  -2.78244067382813E+0003  -2.78332617187500E+0003  -2.78432568359375E+0003  -2.78540869140625E+0003  -2.78653857421875E+0003  -2.78764770507813E+0003  -2.78865869140625E+0003  -2.78949511718750E+0003  -2.79009277343750E+0003  -2.79043286132813E+0003  -2.79051123046875E+0003  -2.79033129882813E+0003  -2.78990917968750E+0003  -2.78929150390625E+0003  -2.78853027343750E+0003  -2.78767626953125E+0003  -2.78679150390625E+0003  -2.78596191406250E+0003  -2.78527832031250E+0003  -2.78483520507813E+0003  -2.78466333007813E+0003  -2.78468139648438E+0003  -2.78479711914063E+0003  -2.78492138671875E+0003  -2.78499682617188E+0003  -2.78501171875000E+0003  -2.78494580078125E+0003  -2.78476367187500E+0003  -2.78446557617188E+0003  -2.78415332031250E+0003  -2.78388427734375E+0003  -2.78361157226563E+0003  -2.78332275390625E+0003  -2.78302099609375E+0003  -2.78270703125000E+0003  -2.78238793945313E+0003  -2.78206469726563E+0003  -2.78173461914063E+0003  -2.78139453125000E+0003  -2.78104223632813E+0003  -2.78068310546875E+0003  -2.78032714843750E+0003  -2.77998437500000E+0003  -2.77966430664063E+0003  -2.77937573242188E+0003  -2.77912646484375E+0003  -2.77892456054688E+0003  -2.77877758789063E+0003  -2.77869238281250E+0003  -2.77867529296875E+0003  -2.77873291015625E+0003  -2.77887182617188E+0003  -2.77910327148438E+0003  -2.77943725585938E+0003  -2.77988159179688E+0003  -2.78043554687500E+0003  -2.78107714843750E+0003  -2.78178027343750E+0003  -2.78251928710938E+0003  -2.78326025390625E+0003  -2.78395043945313E+0003  -2.78453320312500E+0003  -2.78495239257813E+0003  -2.78518505859375E+0003  -2.78527392578125E+0003  -2.78526904296875E+0003  -2.78521948242188E+0003  -2.78515698242188E+0003  -2.78508569335938E+0003  -2.78500854492188E+0003  -2.78492773437500E+0003  -2.78485375976563E+0003  -2.78480639648438E+0003  -2.78480566406250E+0003  -2.78487158203125E+0003  -2.78501025390625E+0003  -2.78521484375000E+0003  -2.78547827148438E+0003  -2.78579272460938E+0003  -2.78614868164063E+0003  -2.78653491210938E+0003  -2.78694018554688E+0003  -2.78735571289063E+0003  -2.78777416992188E+0003  -2.78813183593750E+0003  -2.78854516601563E+0003  -2.78906469726563E+0003  -2.78962573242188E+0003  -2.79009716796875E+0003  -2.79024804687500E+0003  -2.78986816406250E+0003  -2.78910644531250E+0003  -2.78816992187500E+0003  -2.78726318359375E+0003  -2.78657031250000E+0003  -2.78608032226563E+0003  -2.78573095703125E+0003  -2.78548022460938E+0003  -2.78531909179688E+0003  -2.78520678710938E+0003  -2.78498413085938E+0003  -2.78448535156250E+0003  -2.78360131835938E+0003  -2.78238183593750E+0003  -2.78091015625000E+0003  -2.77928540039063E+0003  -2.77762304687500E+0003  -2.77607128906250E+0003  -2.77480371093750E+0003  -2.77403491210938E+0003  -2.77385205078125E+0003  -2.77411865234375E+0003  -2.77468310546875E+0003  -2.77540502929688E+0003  -2.77619091796875E+0003  -2.77700903320313E+0003  -2.77782739257813E+0003  -2.77860839843750E+0003  -2.77933593750000E+0003  -2.78001806640625E+0003  -2.78066308593750E+0003  -2.78127929687500E+0003  -2.78186865234375E+0003  -2.78242724609375E+0003  -2.78295068359375E+0003  -2.78343554687500E+0003  -2.78388330078125E+0003  -2.78429882812500E+0003  -2.78468725585938E+0003  -2.78505322265625E+0003  -2.78540209960938E+0003  -2.78573901367188E+0003  -2.78606860351563E+0003  -2.78639526367188E+0003  -2.78671972656250E+0003  -2.78704052734375E+0003  -2.78735644531250E+0003  -2.78766650390625E+0003  -2.78796899414063E+0003  -2.78826318359375E+0003  -2.78854736328125E+0003
  -2.80602270507813E+0003  -2.80567919921875E+0003  -2.80531445312500E+0003  -2.80492919921875E+0003  -2.80452392578125E+0003  -2.80409887695313E+0003  -2.80365502929688E+0003  -2.80319238281250E+0003  -2.80270971679688E+0003  -2.80220532226563E+0003  -2.80167749023438E+0003  -2.80112451171875E+0003  -2.80054443359375E+0003  -2.79993603515625E+0003  -2.79929711914063E+0003  -2.79862890625000E+0003  -2.79794213867188E+0003  -2.79724877929688E+0003  -2.79656079101563E+0003  -2.79589184570313E+0003  -2.79526025390625E+0003  -2.79468457031250E+0003  -2.79418310546875E+0003  -2.79376611328125E+0003  -2.79342749023438E+0003  -2.79315991210938E+0003  -2.79295605468750E+0003  -2.79279272460938E+0003  -2.79262646484375E+0003  -2.79241186523438E+0003  -2.79210449218750E+0003  -2.79168896484375E+0003  -2.79118334960938E+0003  -2.79060791015625E+0003  -2.78998242187500E+0003  -2.78933325195313E+0003  -2.78869213867188E+0003  -2.78809082031250E+0003  -2.78755957031250E+0003  -2.78711254882813E+0003  -2.78675219726563E+0003  -2.78647998046875E+0003  -2.78629663085938E+0003  -2.78618701171875E+0003  -2.78612622070313E+0003  -2.78609033203125E+0003  -2.78606054687500E+0003  -2.78606347656250E+0003  -2.78614575195313E+0003  -2.78635375976563E+0003  -2.78672143554688E+0003  -2.78721362304688E+0003  -2.78777026367188E+0003  -2.78832861328125E+0003  -2.78883227539063E+0003  -2.78925756835938E+0003  -2.78959545898438E+0003  -2.78985815429688E+0003  -2.79005957031250E+0003  -2.79020410156250E+0003  -2.79029711914063E+0003  -2.79035107421875E+0003  -2.79037646484375E+0003  -2.79037084960938E+0003  -2.79032983398438E+0003  -2.79024804687500E+0003  -2.79012255859375E+0003  -2.78995581054688E+0003  -2.78975048828125E+0003  -2.78951098632813E+0003  -2.78923022460938E+0003  -2.78888281250000E+0003  -2.78843994140625E+0003  -2.78787109375000E+0003  -2.78717187500000E+0003  -2.78636840820313E+0003  -2.78549023437500E+0003  -2.78456640625000E+0003  -2.78363232421875E+0003  -2.78272998046875E+0003  -2.78190161132813E+0003  -2.78118823242188E+0003  -2.78060961914063E+0003  -2.78016845703125E+0003  -2.77986547851563E+0003  -2.77970068359375E+0003  -2.77966357421875E+0003  -2.77973730468750E+0003  -2.77990429687500E+0003  -2.78015039062500E+0003  -2.78048559570313E+0003  -2.78093212890625E+0003  -2.78151293945313E+0003  -2.78224536132813E+0003  -2.78311230468750E+0003  -2.78408447265625E+0003  -2.78513232421875E+0003  -2.78622094726563E+0003  -2.78729077148438E+0003  -2.78827343750000E+0003  -2.78910156250000E+0003  -2.78971850585938E+0003  -2.79010913085938E+0003  -2.79027001953125E+0003  -2.79020263671875E+0003  -2.78991918945313E+0003  -2.78945800781250E+0003  -2.78886206054688E+0003  -2.78817456054688E+0003  -2.78744750976563E+0003  -2.78675512695313E+0003  -2.78617578125000E+0003  -2.78578857421875E+0003  -2.78561914062500E+0003  -2.78559985351563E+0003  -2.78565307617188E+0003  -2.78570312500000E+0003  -2.78570214843750E+0003  -2.78564111328125E+0003  -2.78550927734375E+0003  -2.78529125976563E+0003  -2.78499951171875E+0003  -2.78467944335938E+0003  -2.78435644531250E+0003  -2.78403271484375E+0003  -2.78370678710938E+0003  -2.78337500000000E+0003  -2.78303735351563E+0003  -2.78269653320313E+0003  -2.78235180664063E+0003  -2.78200122070313E+0003  -2.78164208984375E+0003  -2.78127270507813E+0003  -2.78089819335938E+0003  -2.78052807617188E+0003  -2.78017114257813E+0003  -2.77983691406250E+0003  -2.77953295898438E+0003  -2.77926684570313E+0003  -2.77904614257813E+0003  -2.77887841796875E+0003  -2.77877050781250E+0003  -2.77872924804688E+0003  -2.77876171875000E+0003  -2.77887548828125E+0003  -2.77908081054688E+0003  -2.77938793945313E+0003  -2.77980566406250E+0003  -2.78033422851563E+0003  -2.78095288085938E+0003  -2.78163525390625E+0003  -2.78235595703125E+0003  -2.78308251953125E+0003  -2.78376367187500E+0003  -2.78434643554688E+0003  -2.78477709960938E+0003  -2.78503344726563E+0003  -2.78515356445313E+0003  -2.78518212890625E+0003  -2.78516333007813E+0003  -2.78512622070313E+0003  -2.78507568359375E+0003  -2.78501513671875E+0003  -2.78494750976563E+0003  -2.78488281250000E+0003  -2.78483959960938E+0003  -2.78483642578125E+0003  -2.78489160156250E+0003  -2.78501391601563E+0003  -2.78520336914063E+0003  -2.78545947265625E+0003  -2.78578125000000E+0003  -2.78616064453125E+0003  -2.78658374023438E+0003  -2.78703710937500E+0003  -2.78750927734375E+0003  -2.78795922851563E+0003  -2.78835595703125E+0003  -2.78879541015625E+0003  -2.78932885742188E+0003  -2.78990087890625E+0003  -2.79038403320313E+0003  -2.79048022460938E+0003  -2.78990698242188E+0003  -2.78886206054688E+0003  -2.78762622070313E+0003  -2.78648388671875E+0003  -2.78568310546875E+0003  -2.78517480468750E+0003  -2.78483032226563E+0003  -2.78457788085938E+0003  -2.78435693359375E+0003  -2.78415991210938E+0003  -2.78384765625000E+0003  -2.78328002929688E+0003  -2.78236767578125E+0003  -2.78116552734375E+0003  -2.77975244140625E+0003  -2.77820922851563E+0003  -2.77663500976563E+0003  -2.77516772460938E+0003  -2.77397509765625E+0003  -2.77327050781250E+0003  -2.77314160156250E+0003  -2.77345190429688E+0003  -2.77405224609375E+0003  -2.77480566406250E+0003  -2.77562182617188E+0003  -2.77646899414063E+0003  -2.77731469726563E+0003  -2.77811914062500E+0003  -2.77886645507813E+0003  -2.77956396484375E+0003  -2.78022119140625E+0003  -2.78084716796875E+0003  -2.78144384765625E+0003  -2.78200805664063E+0003  -2.78253588867188E+0003  -2.78302441406250E+0003  -2.78347534179688E+0003  -2.78389355468750E+0003  -2.78428417968750E+0003  -2.78465258789063E+0003  -2.78500366210938E+0003  -2.78534252929688E+0003  -2.78567456054688E+0003  -2.78600390625000E+0003  -2.78633105468750E+0003  -2.78665478515625E+0003  -2.78697412109375E+0003  -2.78728735351563E+0003  -2.78759326171875E+0003  -2.78789062500000E+0003  -2.78817822265625E+0003
  -2.80531909179688E+0003  -2.80496850585938E+0003  -2.80459716796875E+0003  -2.80420605468750E+0003  -2.80379565429688E+0003  -2.80336645507813E+0003  -2.80291918945313E+0003  -2.80245385742188E+0003  -2.80196997070313E+0003  -2.80146655273438E+0003  -2.80094262695313E+0003  -2.80039672851563E+0003  -2.79982836914063E+0003  -2.79923632812500E+0003  -2.79861914062500E+0003  -2.79797900390625E+0003  -2.79732543945313E+0003  -2.79666967773438E+0003  -2.79602270507813E+0003  -2.79539746093750E+0003  -2.79481054687500E+0003  -2.79427832031250E+0003  -2.79381835937500E+0003  -2.79343823242188E+0003  -2.79312988281250E+0003  -2.79288330078125E+0003  -2.79268872070313E+0003  -2.79251977539063E+0003  -2.79232690429688E+0003  -2.79205908203125E+0003  -2.79166650390625E+0003  -2.79113842773438E+0003  -2.79050805664063E+0003  -2.78981127929688E+0003  -2.78908374023438E+0003  -2.78835742187500E+0003  -2.78766113281250E+0003  -2.78702368164063E+0003  -2.78647216796875E+0003  -2.78601733398438E+0003  -2.78565722656250E+0003  -2.78538940429688E+0003  -2.78521093750000E+0003  -2.78510791015625E+0003  -2.78506152343750E+0003  -2.78505249023438E+0003  -2.78506616210938E+0003  -2.78512158203125E+0003  -2.78525390625000E+0003  -2.78549731445313E+0003  -2.78587719726563E+0003  -2.78636547851563E+0003  -2.78691577148438E+0003  -2.78747998046875E+0003  -2.78801635742188E+0003  -2.78850781250000E+0003  -2.78894628906250E+0003  -2.78932910156250E+0003  -2.78965234375000E+0003  -2.78990380859375E+0003  -2.79007739257813E+0003  -2.79019165039063E+0003  -2.79026318359375E+0003  -2.79029418945313E+0003  -2.79028320312500E+0003  -2.79022583007813E+0003  -2.79011328125000E+0003  -2.78992993164063E+0003  -2.78966162109375E+0003  -2.78929858398438E+0003  -2.78884106445313E+0003  -2.78830151367188E+0003  -2.78769091796875E+0003  -2.78701660156250E+0003  -2.78628735351563E+0003  -2.78551440429688E+0003  -2.78470971679688E+0003  -2.78388525390625E+0003  -2.78306274414063E+0003  -2.78227368164063E+0003  -2.78154980468750E+0003  -2.78092211914063E+0003  -2.78040576171875E+0003  -2.78000244140625E+0003  -2.77971728515625E+0003  -2.77955786132813E+0003  -2.77951904296875E+0003  -2.77958911132813E+0003  -2.77975463867188E+0003  -2.78000488281250E+0003  -2.78034790039063E+0003  -2.78080102539063E+0003  -2.78138159179688E+0003  -2.78210229492188E+0003  -2.78294506835938E+0003  -2.78387963867188E+0003  -2.78487646484375E+0003  -2.78590234375000E+0003  -2.78690795898438E+0003  -2.78783862304688E+0003  -2.78864111328125E+0003  -2.78926977539063E+0003  -2.78971362304688E+0003  -2.78997045898438E+0003  -2.79003979492188E+0003  -2.78992919921875E+0003  -2.78966430664063E+0003  -2.78927465820313E+0003  -2.78878979492188E+0003  -2.78824853515625E+0003  -2.78771264648438E+0003  -2.78724658203125E+0003  -2.78691503906250E+0003  -2.78674047851563E+0003  -2.78666967773438E+0003  -2.78664257812500E+0003  -2.78659985351563E+0003  -2.78650537109375E+0003  -2.78635522460938E+0003  -2.78614721679688E+0003  -2.78587792968750E+0003  -2.78555688476563E+0003  -2.78520678710938E+0003  -2.78484448242188E+0003  -2.78448071289063E+0003  -2.78411865234375E+0003  -2.78375634765625E+0003  -2.78339233398438E+0003  -2.78302612304688E+0003  -2.78265673828125E+0003  -2.78228222656250E+0003  -2.78190087890625E+0003  -2.78151147460938E+0003  -2.78111889648438E+0003  -2.78073193359375E+0003  -2.78035864257813E+0003  -2.78000732421875E+0003  -2.77968579101563E+0003  -2.77940063476563E+0003  -2.77915893554688E+0003  -2.77896826171875E+0003  -2.77883496093750E+0003  -2.77876635742188E+0003  -2.77876904296875E+0003  -2.77885034179688E+0003  -2.77902099609375E+0003  -2.77929125976563E+0003  -2.77967065429688E+0003  -2.78016186523438E+0003  -2.78074487304688E+0003  -2.78139526367188E+0003  -2.78208886718750E+0003  -2.78279516601563E+0003  -2.78346655273438E+0003  -2.78405322265625E+0003  -2.78450537109375E+0003  -2.78480078125000E+0003  -2.78497045898438E+0003  -2.78505151367188E+0003  -2.78508032226563E+0003  -2.78508129882813E+0003  -2.78506054687500E+0003  -2.78502148437500E+0003  -2.78496899414063E+0003  -2.78491308593750E+0003  -2.78487133789063E+0003  -2.78486206054688E+0003  -2.78490258789063E+0003  -2.78500488281250E+0003  -2.78517431640625E+0003  -2.78541577148438E+0003  -2.78573413085938E+0003  -2.78612182617188E+0003  -2.78656347656250E+0003  -2.78704296875000E+0003  -2.78754663085938E+0003  -2.78801684570313E+0003  -2.78842968750000E+0003  -2.78886816406250E+0003  -2.78937670898438E+0003  -2.78989208984375E+0003  -2.79027832031250E+0003  -2.79022827148438E+0003  -2.78945703125000E+0003  -2.78819531250000E+0003  -2.78675805664063E+0003  -2.78547143554688E+0003  -2.78461962890625E+0003  -2.78412817382813E+0003  -2.78382373046875E+0003  -2.78357885742188E+0003  -2.78334838867188E+0003  -2.78311425781250E+0003  -2.78276049804688E+0003  -2.78216967773438E+0003  -2.78126953125000E+0003  -2.78011474609375E+0003  -2.77878076171875E+0003  -2.77734228515625E+0003  -2.77589013671875E+0003  -2.77455200195313E+0003  -2.77347900390625E+0003  -2.77285888671875E+0003  -2.77276757812500E+0003  -2.77308520507813E+0003  -2.77367822265625E+0003  -2.77442431640625E+0003  -2.77523950195313E+0003  -2.77608959960938E+0003  -2.77693896484375E+0003  -2.77774755859375E+0003  -2.77849804687500E+0003  -2.77919799804688E+0003  -2.77985668945313E+0003  -2.78048266601563E+0003  -2.78107812500000E+0003  -2.78164038085938E+0003  -2.78216601562500E+0003  -2.78265283203125E+0003  -2.78310253906250E+0003  -2.78352001953125E+0003  -2.78391064453125E+0003  -2.78427905273438E+0003  -2.78463085937500E+0003  -2.78497070312500E+0003  -2.78530371093750E+0003  -2.78563476562500E+0003  -2.78596386718750E+0003  -2.78628979492188E+0003  -2.78661108398438E+0003  -2.78692675781250E+0003  -2.78723510742188E+0003  -2.78753515625000E+0003  -2.78782543945313E+0003
  -2.80462353515625E+0003  -2.80426611328125E+0003  -2.80388916015625E+0003  -2.80349316406250E+0003  -2.80307861328125E+0003  -2.80264599609375E+0003  -2.80219604492188E+0003  -2.80172900390625E+0003  -2.80124487304688E+0003  -2.80074316406250E+0003  -2.80022338867188E+0003  -2.79968505859375E+0003  -2.79912792968750E+0003  -2.79855126953125E+0003  -2.79795507812500E+0003  -2.79734082031250E+0003  -2.79671777343750E+0003  -2.79609545898438E+0003  -2.79548437500000E+0003  -2.79489575195313E+0003  -2.79434472656250E+0003  -2.79384692382813E+0003  -2.79341748046875E+0003  -2.79306323242188E+0003  -2.79277514648438E+0003  -2.79254223632813E+0003  -2.79235375976563E+0003  -2.79218017578125E+0003  -2.79196704101563E+0003  -2.79165747070313E+0003  -2.79119628906250E+0003  -2.79057617187500E+0003  -2.78984277343750E+0003  -2.78904516601563E+0003  -2.78823144531250E+0003  -2.78743920898438E+0003  -2.78669433593750E+0003  -2.78602368164063E+0003  -2.78545166015625E+0003  -2.78498632812500E+0003  -2.78462231445313E+0003  -2.78435473632813E+0003  -2.78417700195313E+0003  -2.78407739257813E+0003  -2.78404003906250E+0003  -2.78404956054688E+0003  -2.78409350585938E+0003  -2.78418603515625E+0003  -2.78435229492188E+0003  -2.78461840820313E+0003  -2.78500292968750E+0003  -2.78548706054688E+0003  -2.78603881835938E+0003  -2.78662573242188E+0003  -2.78721777343750E+0003  -2.78779516601563E+0003  -2.78834130859375E+0003  -2.78883911132813E+0003  -2.78926806640625E+0003  -2.78959594726563E+0003  -2.78980664062500E+0003  -2.78994140625000E+0003  -2.79003881835938E+0003  -2.79010205078125E+0003  -2.79012646484375E+0003  -2.79010034179688E+0003  -2.79000415039063E+0003  -2.78980297851563E+0003  -2.78946704101563E+0003  -2.78897900390625E+0003  -2.78834936523438E+0003  -2.78763037109375E+0003  -2.78687109375000E+0003  -2.78611059570313E+0003  -2.78536914062500E+0003  -2.78464208984375E+0003  -2.78392407226563E+0003  -2.78321020507813E+0003  -2.78250830078125E+0003  -2.78183935546875E+0003  -2.78122509765625E+0003  -2.78068725585938E+0003  -2.78023608398438E+0003  -2.77987255859375E+0003  -2.77960620117188E+0003  -2.77945166015625E+0003  -2.77941015625000E+0003  -2.77947460937500E+0003  -2.77963671875000E+0003  -2.77988867187500E+0003  -2.78023706054688E+0003  -2.78069458007813E+0003  -2.78127490234375E+0003  -2.78198632812500E+0003  -2.78280786132813E+0003  -2.78370703125000E+0003  -2.78465161132813E+0003  -2.78560839843750E+0003  -2.78654101562500E+0003  -2.78741186523438E+0003  -2.78818359375000E+0003  -2.78882470703125E+0003  -2.78932763671875E+0003  -2.78968994140625E+0003  -2.78991015625000E+0003  -2.78998974609375E+0003  -2.78993920898438E+0003  -2.78977001953125E+0003  -2.78949414062500E+0003  -2.78913549804688E+0003  -2.78874658203125E+0003  -2.78838378906250E+0003  -2.78810302734375E+0003  -2.78792529296875E+0003  -2.78780981445313E+0003  -2.78770996093750E+0003  -2.78757910156250E+0003  -2.78739160156250E+0003  -2.78715014648438E+0003  -2.78685913085938E+0003  -2.78652343750000E+0003  -2.78615161132813E+0003  -2.78575805664063E+0003  -2.78535473632813E+0003  -2.78495312500000E+0003  -2.78455639648438E+0003  -2.78416235351563E+0003  -2.78376904296875E+0003  -2.78337451171875E+0003  -2.78297705078125E+0003  -2.78257568359375E+0003  -2.78216943359375E+0003  -2.78175756835938E+0003  -2.78134472656250E+0003  -2.78093872070313E+0003  -2.78054663085938E+0003  -2.78017626953125E+0003  -2.77983422851563E+0003  -2.77952734375000E+0003  -2.77926196289063E+0003  -2.77904443359375E+0003  -2.77888134765625E+0003  -2.77877880859375E+0003  -2.77874340820313E+0003  -2.77878198242188E+0003  -2.77890551757813E+0003  -2.77912597656250E+0003  -2.77945483398438E+0003  -2.77989648437500E+0003  -2.78043408203125E+0003  -2.78104638671875E+0003  -2.78171215820313E+0003  -2.78240307617188E+0003  -2.78307446289063E+0003  -2.78367846679688E+0003  -2.78416748046875E+0003  -2.78451806640625E+0003  -2.78475317382813E+0003  -2.78490063476563E+0003  -2.78498828125000E+0003  -2.78503540039063E+0003  -2.78504858398438E+0003  -2.78503271484375E+0003  -2.78499340820313E+0003  -2.78494165039063E+0003  -2.78489575195313E+0003  -2.78487426757813E+0003  -2.78489550781250E+0003  -2.78497314453125E+0003  -2.78511669921875E+0003  -2.78533593750000E+0003  -2.78563842773438E+0003  -2.78601855468750E+0003  -2.78645776367188E+0003  -2.78693798828125E+0003  -2.78744360351563E+0003  -2.78792163085938E+0003  -2.78832421875000E+0003  -2.78873071289063E+0003  -2.78917333984375E+0003  -2.78956933593750E+0003  -2.78976977539063E+0003  -2.78950976562500E+0003  -2.78855883789063E+0003  -2.78714892578125E+0003  -2.78558935546875E+0003  -2.78423046875000E+0003  -2.78338476562500E+0003  -2.78295996093750E+0003  -2.78274975585938E+0003  -2.78253247070313E+0003  -2.78235791015625E+0003  -2.78214135742188E+0003  -2.78179589843750E+0003  -2.78122656250000E+0003  -2.78037573242188E+0003  -2.77929809570313E+0003  -2.77806689453125E+0003  -2.77675415039063E+0003  -2.77544677734375E+0003  -2.77426147460938E+0003  -2.77332861328125E+0003  -2.77279711914063E+0003  -2.77272583007813E+0003  -2.77301879882813E+0003  -2.77356835937500E+0003  -2.77427246093750E+0003  -2.77505615234375E+0003  -2.77588110351563E+0003  -2.77670922851563E+0003  -2.77749975585938E+0003  -2.77823559570313E+0003  -2.77892333984375E+0003  -2.77957104492188E+0003  -2.78018603515625E+0003  -2.78077099609375E+0003  -2.78132324218750E+0003  -2.78184008789063E+0003  -2.78231958007813E+0003  -2.78276367187500E+0003  -2.78317700195313E+0003  -2.78356469726563E+0003  -2.78393164062500E+0003  -2.78428222656250E+0003  -2.78462207031250E+0003  -2.78495556640625E+0003  -2.78528710937500E+0003  -2.78561718750000E+0003  -2.78594433593750E+0003  -2.78626708984375E+0003  -2.78658422851563E+0003  -2.78689453125000E+0003  -2.78719628906250E+0003  -2.78748828125000E+0003
  -2.80393579101563E+0003  -2.80357275390625E+0003  -2.80319067382813E+0003  -2.80279052734375E+0003  -2.80237255859375E+0003  -2.80193725585938E+0003  -2.80148559570313E+0003  -2.80101757812500E+0003  -2.80053344726563E+0003  -2.80003369140625E+0003  -2.79951782226563E+0003  -2.79898632812500E+0003  -2.79843920898438E+0003  -2.79787646484375E+0003  -2.79729833984375E+0003  -2.79670654296875E+0003  -2.79610888671875E+0003  -2.79551440429688E+0003  -2.79493164062500E+0003  -2.79437109375000E+0003  -2.79384619140625E+0003  -2.79337158203125E+0003  -2.79296093750000E+0003  -2.79262036132813E+0003  -2.79234057617188E+0003  -2.79211157226563E+0003  -2.79192163085938E+0003  -2.79174072265625E+0003  -2.79151000976563E+0003  -2.79116918945313E+0003  -2.79065917968750E+0003  -2.78997412109375E+0003  -2.78916870117188E+0003  -2.78830029296875E+0003  -2.78742651367188E+0003  -2.78658715820313E+0003  -2.78580712890625E+0003  -2.78511083984375E+0003  -2.78452148437500E+0003  -2.78404492187500E+0003  -2.78367480468750E+0003  -2.78340380859375E+0003  -2.78322436523438E+0003  -2.78312475585938E+0003  -2.78309130859375E+0003  -2.78311108398438E+0003  -2.78317309570313E+0003  -2.78328808593750E+0003  -2.78347607421875E+0003  -2.78375830078125E+0003  -2.78415112304688E+0003  -2.78464355468750E+0003  -2.78521606445313E+0003  -2.78584887695313E+0003  -2.78652050781250E+0003  -2.78720141601563E+0003  -2.78785937500000E+0003  -2.78845996093750E+0003  -2.78896337890625E+0003  -2.78931713867188E+0003  -2.78950073242188E+0003  -2.78959790039063E+0003  -2.78968627929688E+0003  -2.78976879882813E+0003  -2.78982617187500E+0003  -2.78983227539063E+0003  -2.78975097656250E+0003  -2.78952929687500E+0003  -2.78912622070313E+0003  -2.78852392578125E+0003  -2.78774682617188E+0003  -2.78688305664063E+0003  -2.78601318359375E+0003  -2.78519946289063E+0003  -2.78446777343750E+0003  -2.78379931640625E+0003  -2.78317358398438E+0003  -2.78257006835938E+0003  -2.78198437500000E+0003  -2.78142919921875E+0003  -2.78091796875000E+0003  -2.78046484375000E+0003  -2.78007568359375E+0003  -2.77975097656250E+0003  -2.77950341796875E+0003  -2.77935473632813E+0003  -2.77931103515625E+0003  -2.77936962890625E+0003  -2.77952587890625E+0003  -2.77977514648438E+0003  -2.78012353515625E+0003  -2.78058251953125E+0003  -2.78116308593750E+0003  -2.78187158203125E+0003  -2.78268310546875E+0003  -2.78356030273438E+0003  -2.78446508789063E+0003  -2.78536206054688E+0003  -2.78622778320313E+0003  -2.78704370117188E+0003  -2.78779028320313E+0003  -2.78845117187500E+0003  -2.78902050781250E+0003  -2.78949462890625E+0003  -2.78987011718750E+0003  -2.79014257812500E+0003  -2.79030395507813E+0003  -2.79034472656250E+0003  -2.79025659179688E+0003  -2.79004882812500E+0003  -2.78977368164063E+0003  -2.78948779296875E+0003  -2.78924877929688E+0003  -2.78907910156250E+0003  -2.78894360351563E+0003  -2.78879956054688E+0003  -2.78860620117188E+0003  -2.78834301757813E+0003  -2.78801977539063E+0003  -2.78764770507813E+0003  -2.78723828125000E+0003  -2.78680346679688E+0003  -2.78635400390625E+0003  -2.78590136718750E+0003  -2.78545556640625E+0003  -2.78501977539063E+0003  -2.78459082031250E+0003  -2.78416479492188E+0003  -2.78373852539063E+0003  -2.78331054687500E+0003  -2.78287988281250E+0003  -2.78244653320313E+0003  -2.78201025390625E+0003  -2.78157519531250E+0003  -2.78114819335938E+0003  -2.78073559570313E+0003  -2.78034399414063E+0003  -2.77997924804688E+0003  -2.77964721679688E+0003  -2.77935400390625E+0003  -2.77910498046875E+0003  -2.77890576171875E+0003  -2.77876147460938E+0003  -2.77867700195313E+0003  -2.77865917968750E+0003  -2.77872094726563E+0003  -2.77887695312500E+0003  -2.77914135742188E+0003  -2.77952246093750E+0003  -2.78000781250000E+0003  -2.78058081054688E+0003  -2.78122460937500E+0003  -2.78191430664063E+0003  -2.78260473632813E+0003  -2.78324682617188E+0003  -2.78379248046875E+0003  -2.78421459960938E+0003  -2.78452758789063E+0003  -2.78475073242188E+0003  -2.78490307617188E+0003  -2.78499951171875E+0003  -2.78504663085938E+0003  -2.78505126953125E+0003  -2.78502001953125E+0003  -2.78496533203125E+0003  -2.78490722656250E+0003  -2.78486572265625E+0003  -2.78486108398438E+0003  -2.78490893554688E+0003  -2.78502124023438E+0003  -2.78520947265625E+0003  -2.78548413085938E+0003  -2.78583837890625E+0003  -2.78625268554688E+0003  -2.78670654296875E+0003  -2.78718115234375E+0003  -2.78764624023438E+0003  -2.78800292968750E+0003  -2.78833496093750E+0003  -2.78865844726563E+0003  -2.78888110351563E+0003  -2.78885205078125E+0003  -2.78836914062500E+0003  -2.78726928710938E+0003  -2.78575463867188E+0003  -2.78409765625000E+0003  -2.78269384765625E+0003  -2.78190991210938E+0003  -2.78163012695313E+0003  -2.78149633789063E+0003  -2.78148925781250E+0003  -2.78144824218750E+0003  -2.78131030273438E+0003  -2.78102807617188E+0003  -2.78052685546875E+0003  -2.77976269531250E+0003  -2.77879028320313E+0003  -2.77768115234375E+0003  -2.77650683593750E+0003  -2.77534936523438E+0003  -2.77431225585938E+0003  -2.77350634765625E+0003  -2.77304711914063E+0003  -2.77298022460938E+0003  -2.77323193359375E+0003  -2.77371752929688E+0003  -2.77435449218750E+0003  -2.77507861328125E+0003  -2.77585009765625E+0003  -2.77663037109375E+0003  -2.77738037109375E+0003  -2.77808251953125E+0003  -2.77874169921875E+0003  -2.77936474609375E+0003  -2.77995751953125E+0003  -2.78052197265625E+0003  -2.78105590820313E+0003  -2.78155688476563E+0003  -2.78202343750000E+0003  -2.78245751953125E+0003  -2.78286328125000E+0003  -2.78324560546875E+0003  -2.78360864257813E+0003  -2.78395727539063E+0003  -2.78429589843750E+0003  -2.78462890625000E+0003  -2.78496044921875E+0003  -2.78529052734375E+0003  -2.78561791992188E+0003  -2.78594140625000E+0003  -2.78625927734375E+0003  -2.78657055664063E+0003  -2.78687329101563E+0003  -2.78716674804688E+0003
  -2.80325634765625E+0003  -2.80288818359375E+0003  -2.80250195312500E+0003  -2.80209814453125E+0003  -2.80167749023438E+0003  -2.80124023437500E+0003  -2.80078710937500E+0003  -2.80031860351563E+0003  -2.79983520507813E+0003  -2.79933740234375E+0003  -2.79882543945313E+0003  -2.79830004882813E+0003  -2.79776147460938E+0003  -2.79721020507813E+0003  -2.79664672851563E+0003  -2.79607324218750E+0003  -2.79549609375000E+0003  -2.79492309570313E+0003  -2.79436157226563E+0003  -2.79382080078125E+0003  -2.79331298828125E+0003  -2.79285107421875E+0003  -2.79244799804688E+0003  -2.79210913085938E+0003  -2.79182641601563E+0003  -2.79158984375000E+0003  -2.79138989257813E+0003  -2.79119555664063E+0003  -2.79094702148438E+0003  -2.79058227539063E+0003  -2.79004101562500E+0003  -2.78931835937500E+0003  -2.78847290039063E+0003  -2.78756640625000E+0003  -2.78666015625000E+0003  -2.78579565429688E+0003  -2.78499609375000E+0003  -2.78428491210938E+0003  -2.78368334960938E+0003  -2.78319702148438E+0003  -2.78281933593750E+0003  -2.78254223632813E+0003  -2.78235766601563E+0003  -2.78225463867188E+0003  -2.78222070312500E+0003  -2.78224389648438E+0003  -2.78231445312500E+0003  -2.78244140625000E+0003  -2.78264331054688E+0003  -2.78293896484375E+0003  -2.78334521484375E+0003  -2.78385791015625E+0003  -2.78446606445313E+0003  -2.78515966796875E+0003  -2.78592309570313E+0003  -2.78671386718750E+0003  -2.78748217773438E+0003  -2.78817431640625E+0003  -2.78873291015625E+0003  -2.78909057617188E+0003  -2.78922583007813E+0003  -2.78925878906250E+0003  -2.78930273437500E+0003  -2.78936401367188E+0003  -2.78941137695313E+0003  -2.78940917968750E+0003  -2.78931176757813E+0003  -2.78905566406250E+0003  -2.78859228515625E+0003  -2.78790551757813E+0003  -2.78703002929688E+0003  -2.78607690429688E+0003  -2.78514770507813E+0003  -2.78431909179688E+0003  -2.78362011718750E+0003  -2.78302099609375E+0003  -2.78248828125000E+0003  -2.78198925781250E+0003  -2.78151049804688E+0003  -2.78105761718750E+0003  -2.78063769531250E+0003  -2.78025903320313E+0003  -2.77992504882813E+0003  -2.77963696289063E+0003  -2.77941040039063E+0003  -2.77927026367188E+0003  -2.77922607421875E+0003  -2.77927734375000E+0003  -2.77942211914063E+0003  -2.77965844726563E+0003  -2.77999462890625E+0003  -2.78044335937500E+0003  -2.78101879882813E+0003  -2.78172851562500E+0003  -2.78254443359375E+0003  -2.78342285156250E+0003  -2.78431176757813E+0003  -2.78516406250000E+0003  -2.78597094726563E+0003  -2.78673608398438E+0003  -2.78746142578125E+0003  -2.78814770507813E+0003  -2.78878808593750E+0003  -2.78937475585938E+0003  -2.78990185546875E+0003  -2.79035839843750E+0003  -2.79071679687500E+0003  -2.79094653320313E+0003  -2.79101733398438E+0003  -2.79092675781250E+0003  -2.79073217773438E+0003  -2.79049975585938E+0003  -2.79029565429688E+0003  -2.79014721679688E+0003  -2.79001708984375E+0003  -2.78986010742188E+0003  -2.78963232421875E+0003  -2.78931469726563E+0003  -2.78892358398438E+0003  -2.78847778320313E+0003  -2.78799584960938E+0003  -2.78749316406250E+0003  -2.78698144531250E+0003  -2.78647265625000E+0003  -2.78597778320313E+0003  -2.78549926757813E+0003  -2.78503222656250E+0003  -2.78457128906250E+0003  -2.78411157226563E+0003  -2.78365087890625E+0003  -2.78318969726563E+0003  -2.78272778320313E+0003  -2.78226611328125E+0003  -2.78180786132813E+0003  -2.78135888671875E+0003  -2.78092456054688E+0003  -2.78051000976563E+0003  -2.78012084960938E+0003  -2.77976171875000E+0003  -2.77943750000000E+0003  -2.77915332031250E+0003  -2.77891308593750E+0003  -2.77872045898438E+0003  -2.77857910156250E+0003  -2.77849487304688E+0003  -2.77848388671875E+0003  -2.77856445312500E+0003  -2.77875537109375E+0003  -2.77906860351563E+0003  -2.77949780273438E+0003  -2.78003198242188E+0003  -2.78066040039063E+0003  -2.78136132812500E+0003  -2.78208642578125E+0003  -2.78278320312500E+0003  -2.78339916992188E+0003  -2.78390209960938E+0003  -2.78429907226563E+0003  -2.78460131835938E+0003  -2.78482031250000E+0003  -2.78496582031250E+0003  -2.78504614257813E+0003  -2.78506835937500E+0003  -2.78504077148438E+0003  -2.78497753906250E+0003  -2.78490112304688E+0003  -2.78483422851563E+0003  -2.78479907226563E+0003  -2.78481347656250E+0003  -2.78488989257813E+0003  -2.78504028320313E+0003  -2.78527612304688E+0003  -2.78558959960938E+0003  -2.78595947265625E+0003  -2.78636352539063E+0003  -2.78678051757813E+0003  -2.78719970703125E+0003  -2.78749438476563E+0003  -2.78771801757813E+0003  -2.78788452148438E+0003  -2.78790502929688E+0003  -2.78764526367188E+0003  -2.78696459960938E+0003  -2.78576171875000E+0003  -2.78419580078125E+0003  -2.78249023437500E+0003  -2.78108666992188E+0003  -2.78038183593750E+0003  -2.78014770507813E+0003  -2.78029345703125E+0003  -2.78054174804688E+0003  -2.78067114257813E+0003  -2.78064819335938E+0003  -2.78046484375000E+0003  -2.78006542968750E+0003  -2.77941601562500E+0003  -2.77857055664063E+0003  -2.77759863281250E+0003  -2.77656933593750E+0003  -2.77555859375000E+0003  -2.77465625000000E+0003  -2.77395458984375E+0003  -2.77354711914063E+0003  -2.77347167968750E+0003  -2.77367114257813E+0003  -2.77407983398438E+0003  -2.77463256835938E+0003  -2.77527563476563E+0003  -2.77597143554688E+0003  -2.77668286132813E+0003  -2.77737304687500E+0003  -2.77802514648438E+0003  -2.77864233398438E+0003  -2.77922900390625E+0003  -2.77978955078125E+0003  -2.78032495117188E+0003  -2.78083325195313E+0003  -2.78131250000000E+0003  -2.78176147460938E+0003  -2.78218164062500E+0003  -2.78257690429688E+0003  -2.78295141601563E+0003  -2.78330932617188E+0003  -2.78365429687500E+0003  -2.78399096679688E+0003  -2.78432275390625E+0003  -2.78465332031250E+0003  -2.78498291015625E+0003  -2.78531005859375E+0003  -2.78563330078125E+0003  -2.78595141601563E+0003  -2.78626269531250E+0003  -2.78656616210938E+0003  -2.78686010742188E+0003
  -2.80258496093750E+0003  -2.80221240234375E+0003  -2.80182250976563E+0003  -2.80141577148438E+0003  -2.80099291992188E+0003  -2.80055419921875E+0003  -2.80010034179688E+0003  -2.79963183593750E+0003  -2.79914941406250E+0003  -2.79865356445313E+0003  -2.79814526367188E+0003  -2.79762500000000E+0003  -2.79709375000000E+0003  -2.79655175781250E+0003  -2.79600048828125E+0003  -2.79544116210938E+0003  -2.79487988281250E+0003  -2.79432275390625E+0003  -2.79377636718750E+0003  -2.79324804687500E+0003  -2.79274951171875E+0003  -2.79229199218750E+0003  -2.79188720703125E+0003  -2.79153979492188E+0003  -2.79124316406250E+0003  -2.79098901367188E+0003  -2.79076831054688E+0003  -2.79055224609375E+0003  -2.79028198242188E+0003  -2.78989697265625E+0003  -2.78933813476563E+0003  -2.78860180664063E+0003  -2.78774560546875E+0003  -2.78683154296875E+0003  -2.78592041015625E+0003  -2.78505249023438E+0003  -2.78425048828125E+0003  -2.78353588867188E+0003  -2.78292919921875E+0003  -2.78243579101563E+0003  -2.78204980468750E+0003  -2.78176416015625E+0003  -2.78157080078125E+0003  -2.78146020507813E+0003  -2.78142138671875E+0003  -2.78144335937500E+0003  -2.78151733398438E+0003  -2.78165209960938E+0003  -2.78186425781250E+0003  -2.78217309570313E+0003  -2.78259521484375E+0003  -2.78313208007813E+0003  -2.78377905273438E+0003  -2.78453344726563E+0003  -2.78538305664063E+0003  -2.78627465820313E+0003  -2.78714257812500E+0003  -2.78791943359375E+0003  -2.78853637695313E+0003  -2.78892114257813E+0003  -2.78904956054688E+0003  -2.78904321289063E+0003  -2.78901611328125E+0003  -2.78898315429688E+0003  -2.78893041992188E+0003  -2.78883398437500E+0003  -2.78865649414063E+0003  -2.78833715820313E+0003  -2.78782714843750E+0003  -2.78710473632813E+0003  -2.78620190429688E+0003  -2.78523217773438E+0003  -2.78430297851563E+0003  -2.78350097656250E+0003  -2.78285766601563E+0003  -2.78233569335938E+0003  -2.78189379882813E+0003  -2.78149096679688E+0003  -2.78110766601563E+0003  -2.78074414062500E+0003  -2.78040283203125E+0003  -2.78008618164063E+0003  -2.77979858398438E+0003  -2.77954541015625E+0003  -2.77934375000000E+0003  -2.77921655273438E+0003  -2.77917309570313E+0003  -2.77921362304688E+0003  -2.77933691406250E+0003  -2.77954248046875E+0003  -2.77984375000000E+0003  -2.78026098632813E+0003  -2.78081616210938E+0003  -2.78152514648438E+0003  -2.78236010742188E+0003  -2.78327026367188E+0003  -2.78417529296875E+0003  -2.78500048828125E+0003  -2.78575366210938E+0003  -2.78646630859375E+0003  -2.78716796875000E+0003  -2.78787963867188E+0003  -2.78859008789063E+0003  -2.78928393554688E+0003  -2.78995092773438E+0003  -2.79057324218750E+0003  -2.79110620117188E+0003  -2.79149975585938E+0003  -2.79170385742188E+0003  -2.79170507812500E+0003  -2.79157080078125E+0003  -2.79137963867188E+0003  -2.79120947265625E+0003  -2.79109350585938E+0003  -2.79098803710938E+0003  -2.79084130859375E+0003  -2.79060180664063E+0003  -2.79024926757813E+0003  -2.78980590820313E+0003  -2.78929760742188E+0003  -2.78875000000000E+0003  -2.78818310546875E+0003  -2.78761035156250E+0003  -2.78704541015625E+0003  -2.78650097656250E+0003  -2.78597924804688E+0003  -2.78547387695313E+0003  -2.78497778320313E+0003  -2.78448437500000E+0003  -2.78399121093750E+0003  -2.78349902343750E+0003  -2.78300854492188E+0003  -2.78252099609375E+0003  -2.78203955078125E+0003  -2.78156811523438E+0003  -2.78111157226563E+0003  -2.78067407226563E+0003  -2.78025976562500E+0003  -2.77987255859375E+0003  -2.77951660156250E+0003  -2.77919555664063E+0003  -2.77891210937500E+0003  -2.77866821289063E+0003  -2.77846655273438E+0003  -2.77831225585938E+0003  -2.77822485351563E+0003  -2.77822680664063E+0003  -2.77834130859375E+0003  -2.77858520507813E+0003  -2.77895776367188E+0003  -2.77945458984375E+0003  -2.78007104492188E+0003  -2.78078881835938E+0003  -2.78155517578125E+0003  -2.78231176757813E+0003  -2.78300097656250E+0003  -2.78358496093750E+0003  -2.78406396484375E+0003  -2.78444262695313E+0003  -2.78472558593750E+0003  -2.78491870117188E+0003  -2.78503027343750E+0003  -2.78506909179688E+0003  -2.78504345703125E+0003  -2.78497021484375E+0003  -2.78487377929688E+0003  -2.78477978515625E+0003  -2.78471313476563E+0003  -2.78469262695313E+0003  -2.78473022460938E+0003  -2.78483837890625E+0003  -2.78502734375000E+0003  -2.78528930664063E+0003  -2.78560107421875E+0003  -2.78593945312500E+0003  -2.78628198242188E+0003  -2.78660864257813E+0003  -2.78686157226563E+0003  -2.78696533203125E+0003  -2.78696899414063E+0003  -2.78679907226563E+0003  -2.78635351562500E+0003  -2.78554028320313E+0003  -2.78430200195313E+0003  -2.78276367187500E+0003  -2.78110986328125E+0003  -2.77973413085938E+0003  -2.77901269531250E+0003  -2.77899633789063E+0003  -2.77936157226563E+0003  -2.77980102539063E+0003  -2.78007275390625E+0003  -2.78016162109375E+0003  -2.78008422851563E+0003  -2.77979833984375E+0003  -2.77927758789063E+0003  -2.77857275390625E+0003  -2.77774755859375E+0003  -2.77686572265625E+0003  -2.77599487304688E+0003  -2.77521215820313E+0003  -2.77459570312500E+0003  -2.77422314453125E+0003  -2.77412768554688E+0003  -2.77426660156250E+0003  -2.77459008789063E+0003  -2.77504833984375E+0003  -2.77559790039063E+0003  -2.77620434570313E+0003  -2.77683349609375E+0003  -2.77745190429688E+0003  -2.77804296875000E+0003  -2.77860815429688E+0003  -2.77915014648438E+0003  -2.77967089843750E+0003  -2.78017089843750E+0003  -2.78064843750000E+0003  -2.78110180664063E+0003  -2.78152929687500E+0003  -2.78193286132813E+0003  -2.78231542968750E+0003  -2.78268066406250E+0003  -2.78303198242188E+0003  -2.78337255859375E+0003  -2.78370629882813E+0003  -2.78403613281250E+0003  -2.78436523437500E+0003  -2.78469360351563E+0003  -2.78501977539063E+0003  -2.78534228515625E+0003  -2.78565991210938E+0003  -2.78597094726563E+0003  -2.78627416992188E+0003  -2.78656835937500E+0003
  -2.80192236328125E+0003  -2.80154565429688E+0003  -2.80115258789063E+0003  -2.80074340820313E+0003  -2.80031884765625E+0003  -2.79987939453125E+0003  -2.79942529296875E+0003  -2.79895703125000E+0003  -2.79847558593750E+0003  -2.79798193359375E+0003  -2.79747680664063E+0003  -2.79696093750000E+0003  -2.79643554687500E+0003  -2.79590112304688E+0003  -2.79535888671875E+0003  -2.79481030273438E+0003  -2.79426074218750E+0003  -2.79371459960938E+0003  -2.79317773437500E+0003  -2.79265673828125E+0003  -2.79216088867188E+0003  -2.79170068359375E+0003  -2.79128637695313E+0003  -2.79092211914063E+0003  -2.79060205078125E+0003  -2.79031958007813E+0003  -2.79006713867188E+0003  -2.78981811523438E+0003  -2.78951879882813E+0003  -2.78911328125000E+0003  -2.78854736328125E+0003  -2.78781713867188E+0003  -2.78697705078125E+0003  -2.78608374023438E+0003  -2.78519409179688E+0003  -2.78434521484375E+0003  -2.78355834960938E+0003  -2.78285375976563E+0003  -2.78225024414063E+0003  -2.78175390625000E+0003  -2.78135986328125E+0003  -2.78106298828125E+0003  -2.78085717773438E+0003  -2.78073486328125E+0003  -2.78068701171875E+0003  -2.78070507812500E+0003  -2.78078198242188E+0003  -2.78092578125000E+0003  -2.78115087890625E+0003  -2.78147436523438E+0003  -2.78191235351563E+0003  -2.78246948242188E+0003  -2.78314648437500E+0003  -2.78394604492188E+0003  -2.78485913085938E+0003  -2.78582495117188E+0003  -2.78676879882813E+0003  -2.78761645507813E+0003  -2.78829345703125E+0003  -2.78872314453125E+0003  -2.78887231445313E+0003  -2.78884277343750E+0003  -2.78873193359375E+0003  -2.78856884765625E+0003  -2.78836474609375E+0003  -2.78812036132813E+0003  -2.78781982421875E+0003  -2.78741723632813E+0003  -2.78687084960938E+0003  -2.78615405273438E+0003  -2.78528955078125E+0003  -2.78437524414063E+0003  -2.78350854492188E+0003  -2.78277685546875E+0003  -2.78221069335938E+0003  -2.78177148437500E+0003  -2.78141503906250E+0003  -2.78109790039063E+0003  -2.78079711914063E+0003  -2.78051000976563E+0003  -2.78023535156250E+0003  -2.77997167968750E+0003  -2.77972436523438E+0003  -2.77950463867188E+0003  -2.77932910156250E+0003  -2.77921630859375E+0003  -2.77917260742188E+0003  -2.77919531250000E+0003  -2.77928173828125E+0003  -2.77943115234375E+0003  -2.77966528320313E+0003  -2.78001855468750E+0003  -2.78052856445313E+0003  -2.78122656250000E+0003  -2.78208886718750E+0003  -2.78305908203125E+0003  -2.78401318359375E+0003  -2.78482788085938E+0003  -2.78553662109375E+0003  -2.78619970703125E+0003  -2.78687646484375E+0003  -2.78761181640625E+0003  -2.78838769531250E+0003  -2.78917578125000E+0003  -2.78996240234375E+0003  -2.79072363281250E+0003  -2.79140087890625E+0003  -2.79192895507813E+0003  -2.79224243164063E+0003  -2.79232006835938E+0003  -2.79223876953125E+0003  -2.79208789062500E+0003  -2.79195629882813E+0003  -2.79188183593750E+0003  -2.79181420898438E+0003  -2.79169335937500E+0003  -2.79145922851563E+0003  -2.79108886718750E+0003  -2.79060986328125E+0003  -2.79005468750000E+0003  -2.78945483398438E+0003  -2.78883447265625E+0003  -2.78820922851563E+0003  -2.78759472656250E+0003  -2.78700561523438E+0003  -2.78644458007813E+0003  -2.78590356445313E+0003  -2.78537402343750E+0003  -2.78484814453125E+0003  -2.78432373046875E+0003  -2.78380151367188E+0003  -2.78328344726563E+0003  -2.78277099609375E+0003  -2.78226660156250E+0003  -2.78177368164063E+0003  -2.78129565429688E+0003  -2.78083569335938E+0003  -2.78039697265625E+0003  -2.77998217773438E+0003  -2.77959472656250E+0003  -2.77923730468750E+0003  -2.77891113281250E+0003  -2.77861743164063E+0003  -2.77835717773438E+0003  -2.77813549804688E+0003  -2.77797460937500E+0003  -2.77790185546875E+0003  -2.77794360351563E+0003  -2.77812158203125E+0003  -2.77844091796875E+0003  -2.77890283203125E+0003  -2.77950830078125E+0003  -2.78024169921875E+0003  -2.78104565429688E+0003  -2.78185668945313E+0003  -2.78261157226563E+0003  -2.78326733398438E+0003  -2.78381860351563E+0003  -2.78426464843750E+0003  -2.78460498046875E+0003  -2.78484179687500E+0003  -2.78498315429688E+0003  -2.78503808593750E+0003  -2.78501611328125E+0003  -2.78493481445313E+0003  -2.78482104492188E+0003  -2.78470239257813E+0003  -2.78460644531250E+0003  -2.78455175781250E+0003  -2.78455053710938E+0003  -2.78461376953125E+0003  -2.78475122070313E+0003  -2.78495434570313E+0003  -2.78520019531250E+0003  -2.78546533203125E+0003  -2.78572607421875E+0003  -2.78595703125000E+0003  -2.78613183593750E+0003  -2.78616821289063E+0003  -2.78603784179688E+0003  -2.78572753906250E+0003  -2.78517260742188E+0003  -2.78431640625000E+0003  -2.78312988281250E+0003  -2.78171899414063E+0003  -2.78020092773438E+0003  -2.77887402343750E+0003  -2.77832373046875E+0003  -2.77841723632813E+0003  -2.77885791015625E+0003  -2.77935888671875E+0003  -2.77969580078125E+0003  -2.77985742187500E+0003  -2.77986328125000E+0003  -2.77968066406250E+0003  -2.77928906250000E+0003  -2.77873022460938E+0003  -2.77805615234375E+0003  -2.77731958007813E+0003  -2.77657714843750E+0003  -2.77589599609375E+0003  -2.77534497070313E+0003  -2.77499218750000E+0003  -2.77486889648438E+0003  -2.77494409179688E+0003  -2.77518115234375E+0003  -2.77554321289063E+0003  -2.77599584960938E+0003  -2.77650854492188E+0003  -2.77705029296875E+0003  -2.77759106445313E+0003  -2.77811523437500E+0003  -2.77862280273438E+0003  -2.77911450195313E+0003  -2.77959106445313E+0003  -2.78005175781250E+0003  -2.78049511718750E+0003  -2.78091943359375E+0003  -2.78132348632813E+0003  -2.78170849609375E+0003  -2.78207690429688E+0003  -2.78243139648438E+0003  -2.78277514648438E+0003  -2.78311083984375E+0003  -2.78344091796875E+0003  -2.78376831054688E+0003  -2.78409545898438E+0003  -2.78442187500000E+0003  -2.78474658203125E+0003  -2.78506762695313E+0003  -2.78538403320313E+0003  -2.78569433593750E+0003  -2.78599707031250E+0003  -2.78629077148438E+0003
  -2.80126831054688E+0003  -2.80088818359375E+0003  -2.80049218750000E+0003  -2.80008129882813E+0003  -2.79965527343750E+0003  -2.79921508789063E+0003  -2.79876098632813E+0003  -2.79829370117188E+0003  -2.79781347656250E+0003  -2.79732177734375E+0003  -2.79681933593750E+0003  -2.79630712890625E+0003  -2.79578637695313E+0003  -2.79525756835938E+0003  -2.79472192382813E+0003  -2.79418115234375E+0003  -2.79363891601563E+0003  -2.79309985351563E+0003  -2.79256811523438E+0003  -2.79204956054688E+0003  -2.79155175781250E+0003  -2.79108374023438E+0003  -2.79065405273438E+0003  -2.79026586914063E+0003  -2.78991455078125E+0003  -2.78959399414063E+0003  -2.78929785156250E+0003  -2.78900390625000E+0003  -2.78866601562500E+0003  -2.78823657226563E+0003  -2.78767016601563E+0003  -2.78696313476563E+0003  -2.78616210937500E+0003  -2.78531567382813E+0003  -2.78447192382813E+0003  -2.78366357421875E+0003  -2.78290966796875E+0003  -2.78222827148438E+0003  -2.78163696289063E+0003  -2.78114160156250E+0003  -2.78073999023438E+0003  -2.78042944335938E+0003  -2.78020678710938E+0003  -2.78006738281250E+0003  -2.78000708007813E+0003  -2.78002075195313E+0003  -2.78010473632813E+0003  -2.78026440429688E+0003  -2.78050976562500E+0003  -2.78085229492188E+0003  -2.78130371093750E+0003  -2.78187060546875E+0003  -2.78255908203125E+0003  -2.78337524414063E+0003  -2.78431396484375E+0003  -2.78531274414063E+0003  -2.78629492187500E+0003  -2.78718676757813E+0003  -2.78791235351563E+0003  -2.78838085937500E+0003  -2.78853808593750E+0003  -2.78847778320313E+0003  -2.78829077148438E+0003  -2.78801367187500E+0003  -2.78767333984375E+0003  -2.78728930664063E+0003  -2.78686547851563E+0003  -2.78637817382813E+0003  -2.78580224609375E+0003  -2.78511767578125E+0003  -2.78434033203125E+0003  -2.78354199218750E+0003  -2.78279785156250E+0003  -2.78217919921875E+0003  -2.78171020507813E+0003  -2.78135595703125E+0003  -2.78107641601563E+0003  -2.78083154296875E+0003  -2.78059887695313E+0003  -2.78037524414063E+0003  -2.78015698242188E+0003  -2.77994067382813E+0003  -2.77973168945313E+0003  -2.77954394531250E+0003  -2.77939208984375E+0003  -2.77929125976563E+0003  -2.77924267578125E+0003  -2.77923779296875E+0003  -2.77926831054688E+0003  -2.77933032226563E+0003  -2.77945825195313E+0003  -2.77970678710938E+0003  -2.78013769531250E+0003  -2.78080541992188E+0003  -2.78169311523438E+0003  -2.78274121093750E+0003  -2.78377343750000E+0003  -2.78457324218750E+0003  -2.78525878906250E+0003  -2.78589624023438E+0003  -2.78655493164063E+0003  -2.78731298828125E+0003  -2.78814526367188E+0003  -2.78900927734375E+0003  -2.78988671875000E+0003  -2.79075073242188E+0003  -2.79153442382813E+0003  -2.79216381835938E+0003  -2.79256494140625E+0003  -2.79271215820313E+0003  -2.79268725585938E+0003  -2.79258569335938E+0003  -2.79250219726563E+0003  -2.79247680664063E+0003  -2.79245385742188E+0003  -2.79236743164063E+0003  -2.79215039062500E+0003  -2.79177807617188E+0003  -2.79128173828125E+0003  -2.79069824218750E+0003  -2.79006494140625E+0003  -2.78940869140625E+0003  -2.78874682617188E+0003  -2.78809619140625E+0003  -2.78747290039063E+0003  -2.78687963867188E+0003  -2.78630834960938E+0003  -2.78574926757813E+0003  -2.78519433593750E+0003  -2.78464086914063E+0003  -2.78409106445313E+0003  -2.78354736328125E+0003  -2.78301147460938E+0003  -2.78248608398438E+0003  -2.78197314453125E+0003  -2.78147534179688E+0003  -2.78099438476563E+0003  -2.78053295898438E+0003  -2.78009277343750E+0003  -2.77967602539063E+0003  -2.77928442382813E+0003  -2.77891918945313E+0003  -2.77858007812500E+0003  -2.77826757812500E+0003  -2.77798681640625E+0003  -2.77776293945313E+0003  -2.77762573242188E+0003  -2.77760522460938E+0003  -2.77772631835938E+0003  -2.77799853515625E+0003  -2.77842822265625E+0003  -2.77902099609375E+0003  -2.77976245117188E+0003  -2.78059204101563E+0003  -2.78144165039063E+0003  -2.78224438476563E+0003  -2.78295336914063E+0003  -2.78355957031250E+0003  -2.78405859375000E+0003  -2.78444555664063E+0003  -2.78472021484375E+0003  -2.78488964843750E+0003  -2.78496191406250E+0003  -2.78494726562500E+0003  -2.78486376953125E+0003  -2.78473925781250E+0003  -2.78460229492188E+0003  -2.78448168945313E+0003  -2.78439672851563E+0003  -2.78435815429688E+0003  -2.78437622070313E+0003  -2.78446020507813E+0003  -2.78460205078125E+0003  -2.78477929687500E+0003  -2.78497021484375E+0003  -2.78515161132813E+0003  -2.78529711914063E+0003  -2.78537695312500E+0003  -2.78536157226563E+0003  -2.78520043945313E+0003  -2.78482739257813E+0003  -2.78425390625000E+0003  -2.78345117187500E+0003  -2.78241284179688E+0003  -2.78120971679688E+0003  -2.77990112304688E+0003  -2.77889379882813E+0003  -2.77847167968750E+0003  -2.77853515625000E+0003  -2.77887255859375E+0003  -2.77927270507813E+0003  -2.77956591796875E+0003  -2.77973193359375E+0003  -2.77977490234375E+0003  -2.77966748046875E+0003  -2.77939282226563E+0003  -2.77897680664063E+0003  -2.77845288085938E+0003  -2.77785449218750E+0003  -2.77722412109375E+0003  -2.77662402343750E+0003  -2.77611865234375E+0003  -2.77577197265625E+0003  -2.77561669921875E+0003  -2.77563085937500E+0003  -2.77578784179688E+0003  -2.77606054687500E+0003  -2.77642187500000E+0003  -2.77684448242188E+0003  -2.77730102539063E+0003  -2.77776489257813E+0003  -2.77822143554688E+0003  -2.77866943359375E+0003  -2.77910864257813E+0003  -2.77953881835938E+0003  -2.77995825195313E+0003  -2.78036596679688E+0003  -2.78076025390625E+0003  -2.78113989257813E+0003  -2.78150537109375E+0003  -2.78185864257813E+0003  -2.78220214843750E+0003  -2.78253784179688E+0003  -2.78286767578125E+0003  -2.78319384765625E+0003  -2.78351831054688E+0003  -2.78384277343750E+0003  -2.78416699218750E+0003  -2.78448950195313E+0003  -2.78480883789063E+0003  -2.78512353515625E+0003  -2.78543261718750E+0003  -2.78573413085938E+0003  -2.78602685546875E+0003
  -2.80062304687500E+0003  -2.80023974609375E+0003  -2.79984155273438E+0003  -2.79942871093750E+0003  -2.79900195312500E+0003  -2.79856152343750E+0003  -2.79810766601563E+0003  -2.79764086914063E+0003  -2.79716235351563E+0003  -2.79667236328125E+0003  -2.79617236328125E+0003  -2.79566333007813E+0003  -2.79514575195313E+0003  -2.79462084960938E+0003  -2.79408935546875E+0003  -2.79355297851563E+0003  -2.79301513671875E+0003  -2.79247924804688E+0003  -2.79194897460938E+0003  -2.79142895507813E+0003  -2.79092578125000E+0003  -2.79044628906250E+0003  -2.78999707031250E+0003  -2.78958129882813E+0003  -2.78919409179688E+0003  -2.78883007812500E+0003  -2.78848413085938E+0003  -2.78813818359375E+0003  -2.78775659179688E+0003  -2.78730322265625E+0003  -2.78674194335938E+0003  -2.78607080078125E+0003  -2.78532568359375E+0003  -2.78454443359375E+0003  -2.78376416015625E+0003  -2.78301123046875E+0003  -2.78230151367188E+0003  -2.78165063476563E+0003  -2.78107373046875E+0003  -2.78057788085938E+0003  -2.78016430664063E+0003  -2.77983374023438E+0003  -2.77958715820313E+0003  -2.77942553710938E+0003  -2.77934960937500E+0003  -2.77936010742188E+0003  -2.77945849609375E+0003  -2.77964526367188E+0003  -2.77992211914063E+0003  -2.78029125976563E+0003  -2.78075585937500E+0003  -2.78132421875000E+0003  -2.78200561523438E+0003  -2.78281103515625E+0003  -2.78373730468750E+0003  -2.78472485351563E+0003  -2.78569921875000E+0003  -2.78658935546875E+0003  -2.78732104492188E+0003  -2.78779711914063E+0003  -2.78795410156250E+0003  -2.78787377929688E+0003  -2.78763769531250E+0003  -2.78728637695313E+0003  -2.78685400390625E+0003  -2.78637084960938E+0003  -2.78585717773438E+0003  -2.78531323242188E+0003  -2.78473510742188E+0003  -2.78411279296875E+0003  -2.78345727539063E+0003  -2.78281372070313E+0003  -2.78222924804688E+0003  -2.78174902343750E+0003  -2.78138598632813E+0003  -2.78111254882813E+0003  -2.78089672851563E+0003  -2.78070727539063E+0003  -2.78052661132813E+0003  -2.78035131835938E+0003  -2.78017749023438E+0003  -2.78000097656250E+0003  -2.77982714843750E+0003  -2.77966796875000E+0003  -2.77953637695313E+0003  -2.77944384765625E+0003  -2.77938525390625E+0003  -2.77934545898438E+0003  -2.77930737304688E+0003  -2.77926000976563E+0003  -2.77925195312500E+0003  -2.77936206054688E+0003  -2.77968041992188E+0003  -2.78028710937500E+0003  -2.78117114257813E+0003  -2.78226635742188E+0003  -2.78335839843750E+0003  -2.78416088867188E+0003  -2.78486279296875E+0003  -2.78551660156250E+0003  -2.78618945312500E+0003  -2.78697705078125E+0003  -2.78785253906250E+0003  -2.78876660156250E+0003  -2.78969995117188E+0003  -2.79062475585938E+0003  -2.79147265625000E+0003  -2.79216772460938E+0003  -2.79263427734375E+0003  -2.79284521484375E+0003  -2.79288183593750E+0003  -2.79283984375000E+0003  -2.79281396484375E+0003  -2.79284301757813E+0003  -2.79286865234375E+0003  -2.79282177734375E+0003  -2.79263232421875E+0003  -2.79227343750000E+0003  -2.79178002929688E+0003  -2.79119091796875E+0003  -2.79054687500000E+0003  -2.78987695312500E+0003  -2.78919848632813E+0003  -2.78852880859375E+0003  -2.78788500976563E+0003  -2.78727026367188E+0003  -2.78667602539063E+0003  -2.78609326171875E+0003  -2.78551367187500E+0003  -2.78493554687500E+0003  -2.78436181640625E+0003  -2.78379516601563E+0003  -2.78323876953125E+0003  -2.78269458007813E+0003  -2.78216406250000E+0003  -2.78164868164063E+0003  -2.78114965820313E+0003  -2.78066845703125E+0003  -2.78020605468750E+0003  -2.77976391601563E+0003  -2.77934326171875E+0003  -2.77894433593750E+0003  -2.77856738281250E+0003  -2.77821264648438E+0003  -2.77788549804688E+0003  -2.77761254882813E+0003  -2.77742602539063E+0003  -2.77735717773438E+0003  -2.77743310546875E+0003  -2.77766674804688E+0003  -2.77806713867188E+0003  -2.77864257812500E+0003  -2.77938012695313E+0003  -2.78021728515625E+0003  -2.78108398437500E+0003  -2.78191162109375E+0003  -2.78265112304688E+0003  -2.78329150390625E+0003  -2.78382568359375E+0003  -2.78424609375000E+0003  -2.78455053710938E+0003  -2.78474438476563E+0003  -2.78483520507813E+0003  -2.78483227539063E+0003  -2.78475268554688E+0003  -2.78462500000000E+0003  -2.78447753906250E+0003  -2.78433911132813E+0003  -2.78422875976563E+0003  -2.78415698242188E+0003  -2.78413281250000E+0003  -2.78416552734375E+0003  -2.78424731445313E+0003  -2.78435839843750E+0003  -2.78447851562500E+0003  -2.78458740234375E+0003  -2.78466015625000E+0003  -2.78466943359375E+0003  -2.78458813476563E+0003  -2.78438916015625E+0003  -2.78405004882813E+0003  -2.78354956054688E+0003  -2.78286743164063E+0003  -2.78200195312500E+0003  -2.78105883789063E+0003  -2.78018505859375E+0003  -2.77952343750000E+0003  -2.77918286132813E+0003  -2.77911889648438E+0003  -2.77923950195313E+0003  -2.77943505859375E+0003  -2.77960913085938E+0003  -2.77972753906250E+0003  -2.77976806640625E+0003  -2.77970825195313E+0003  -2.77953295898438E+0003  -2.77924829101563E+0003  -2.77886499023438E+0003  -2.77839355468750E+0003  -2.77785986328125E+0003  -2.77732397460938E+0003  -2.77685058593750E+0003  -2.77650366210938E+0003  -2.77631811523438E+0003  -2.77627905273438E+0003  -2.77636645507813E+0003  -2.77656079101563E+0003  -2.77684033203125E+0003  -2.77718090820313E+0003  -2.77755883789063E+0003  -2.77794995117188E+0003  -2.77834155273438E+0003  -2.77873144531250E+0003  -2.77911914062500E+0003  -2.77950292968750E+0003  -2.77988208007813E+0003  -2.78025463867188E+0003  -2.78061914062500E+0003  -2.78097436523438E+0003  -2.78132055664063E+0003  -2.78165893554688E+0003  -2.78199121093750E+0003  -2.78231835937500E+0003  -2.78264233398438E+0003  -2.78296411132813E+0003  -2.78328515625000E+0003  -2.78360668945313E+0003  -2.78392822265625E+0003  -2.78424804687500E+0003  -2.78456518554688E+0003  -2.78487792968750E+0003  -2.78518505859375E+0003  -2.78548510742188E+0003  -2.78577661132813E+0003
  -2.79998706054688E+0003  -2.79960058593750E+0003  -2.79920019531250E+0003  -2.79878613281250E+0003  -2.79835864257813E+0003  -2.79791796875000E+0003  -2.79746459960938E+0003  -2.79699877929688E+0003  -2.79652148437500E+0003  -2.79603344726563E+0003  -2.79553540039063E+0003  -2.79502832031250E+0003  -2.79451318359375E+0003  -2.79399023437500E+0003  -2.79346093750000E+0003  -2.79292651367188E+0003  -2.79238964843750E+0003  -2.79185375976563E+0003  -2.79132153320313E+0003  -2.79079711914063E+0003  -2.79028564453125E+0003  -2.78979248046875E+0003  -2.78932250976563E+0003  -2.78887817382813E+0003  -2.78845507812500E+0003  -2.78804833984375E+0003  -2.78765332031250E+0003  -2.78725659179688E+0003  -2.78683398437500E+0003  -2.78636035156250E+0003  -2.78581103515625E+0003  -2.78518432617188E+0003  -2.78450439453125E+0003  -2.78379736328125E+0003  -2.78308862304688E+0003  -2.78239648437500E+0003  -2.78173339843750E+0003  -2.78111206054688E+0003  -2.78054394531250E+0003  -2.78003808593750E+0003  -2.77960083007813E+0003  -2.77923901367188E+0003  -2.77895874023438E+0003  -2.77876782226563E+0003  -2.77867407226563E+0003  -2.77868530273438E+0003  -2.77880810546875E+0003  -2.77903662109375E+0003  -2.77935961914063E+0003  -2.77976611328125E+0003  -2.78024780273438E+0003  -2.78081298828125E+0003  -2.78147460937500E+0003  -2.78224658203125E+0003  -2.78312890625000E+0003  -2.78406445312500E+0003  -2.78498071289063E+0003  -2.78580786132813E+0003  -2.78647583007813E+0003  -2.78691113281250E+0003  -2.78706860351563E+0003  -2.78699755859375E+0003  -2.78675512695313E+0003  -2.78638208007813E+0003  -2.78591723632813E+0003  -2.78539843750000E+0003  -2.78485766601563E+0003  -2.78431835937500E+0003  -2.78379199218750E+0003  -2.78327075195313E+0003  -2.78275927734375E+0003  -2.78228393554688E+0003  -2.78186816406250E+0003  -2.78152905273438E+0003  -2.78126684570313E+0003  -2.78106127929688E+0003  -2.78089184570313E+0003  -2.78073852539063E+0003  -2.78059057617188E+0003  -2.78044604492188E+0003  -2.78030175781250E+0003  -2.78015454101563E+0003  -2.78000830078125E+0003  -2.77987280273438E+0003  -2.77975732421875E+0003  -2.77966870117188E+0003  -2.77959667968750E+0003  -2.77951928710938E+0003  -2.77940917968750E+0003  -2.77924536132813E+0003  -2.77908789062500E+0003  -2.77903808593750E+0003  -2.77921362304688E+0003  -2.77972045898438E+0003  -2.78054711914063E+0003  -2.78161401367188E+0003  -2.78270556640625E+0003  -2.78358447265625E+0003  -2.78433813476563E+0003  -2.78504565429688E+0003  -2.78578002929688E+0003  -2.78660913085938E+0003  -2.78750878906250E+0003  -2.78844018554688E+0003  -2.78938793945313E+0003  -2.79032739257813E+0003  -2.79119458007813E+0003  -2.79191748046875E+0003  -2.79242529296875E+0003  -2.79269213867188E+0003  -2.79279394531250E+0003  -2.79282006835938E+0003  -2.79285913085938E+0003  -2.79294580078125E+0003  -2.79302197265625E+0003  -2.79301831054688E+0003  -2.79286523437500E+0003  -2.79253710937500E+0003  -2.79206884765625E+0003  -2.79150024414063E+0003  -2.79087182617188E+0003  -2.79021337890625E+0003  -2.78954150390625E+0003  -2.78887353515625E+0003  -2.78822583007813E+0003  -2.78760205078125E+0003  -2.78699462890625E+0003  -2.78639575195313E+0003  -2.78579785156250E+0003  -2.78520043945313E+0003  -2.78460693359375E+0003  -2.78402172851563E+0003  -2.78344848632813E+0003  -2.78288916015625E+0003  -2.78234423828125E+0003  -2.78181445312500E+0003  -2.78130102539063E+0003  -2.78080395507813E+0003  -2.78032446289063E+0003  -2.77986254882813E+0003  -2.77941918945313E+0003  -2.77899487304688E+0003  -2.77859057617188E+0003  -2.77820654296875E+0003  -2.77784887695313E+0003  -2.77754443359375E+0003  -2.77732617187500E+0003  -2.77722583007813E+0003  -2.77727124023438E+0003  -2.77747558593750E+0003  -2.77784912109375E+0003  -2.77840087890625E+0003  -2.77911865234375E+0003  -2.77994116210938E+0003  -2.78079931640625E+0003  -2.78162500000000E+0003  -2.78236962890625E+0003  -2.78302075195313E+0003  -2.78356982421875E+0003  -2.78400830078125E+0003  -2.78433251953125E+0003  -2.78454638671875E+0003  -2.78465576171875E+0003  -2.78466772460938E+0003  -2.78459838867188E+0003  -2.78447509765625E+0003  -2.78432543945313E+0003  -2.78417724609375E+0003  -2.78404882812500E+0003  -2.78394995117188E+0003  -2.78388964843750E+0003  -2.78387670898438E+0003  -2.78390429687500E+0003  -2.78395556640625E+0003  -2.78401269531250E+0003  -2.78405786132813E+0003  -2.78407055664063E+0003  -2.78402807617188E+0003  -2.78390844726563E+0003  -2.78369067382813E+0003  -2.78336596679688E+0003  -2.78293212890625E+0003  -2.78239208984375E+0003  -2.78176586914063E+0003  -2.78115991210938E+0003  -2.78068774414063E+0003  -2.78032861328125E+0003  -2.78003125000000E+0003  -2.77981298828125E+0003  -2.77970043945313E+0003  -2.77967846679688E+0003  -2.77971533203125E+0003  -2.77976464843750E+0003  -2.77978295898438E+0003  -2.77975097656250E+0003  -2.77965454101563E+0003  -2.77948144531250E+0003  -2.77922045898438E+0003  -2.77885913085938E+0003  -2.77840869140625E+0003  -2.77792797851563E+0003  -2.77748266601563E+0003  -2.77713745117188E+0003  -2.77692944335938E+0003  -2.77684887695313E+0003  -2.77688061523438E+0003  -2.77701025390625E+0003  -2.77722021484375E+0003  -2.77748974609375E+0003  -2.77779785156250E+0003  -2.77812377929688E+0003  -2.77845605468750E+0003  -2.77879248046875E+0003  -2.77913208007813E+0003  -2.77947314453125E+0003  -2.77981420898438E+0003  -2.78015405273438E+0003  -2.78049072265625E+0003  -2.78082324218750E+0003  -2.78115112304688E+0003  -2.78147534179688E+0003  -2.78179663085938E+0003  -2.78211572265625E+0003  -2.78243334960938E+0003  -2.78275073242188E+0003  -2.78306811523438E+0003  -2.78338623046875E+0003  -2.78370458984375E+0003  -2.78402172851563E+0003  -2.78433593750000E+0003  -2.78464624023438E+0003  -2.78495117187500E+0003  -2.78524951171875E+0003  -2.78553955078125E+0003
  -2.79935986328125E+0003  -2.79897094726563E+0003  -2.79856860351563E+0003  -2.79815307617188E+0003  -2.79772509765625E+0003  -2.79728442382813E+0003  -2.79683154296875E+0003  -2.79636669921875E+0003  -2.79589086914063E+0003  -2.79540429687500E+0003  -2.79490771484375E+0003  -2.79440209960938E+0003  -2.79388793945313E+0003  -2.79336596679688E+0003  -2.79283666992188E+0003  -2.79230151367188E+0003  -2.79176293945313E+0003  -2.79122387695313E+0003  -2.79068725585938E+0003  -2.79015625000000E+0003  -2.78963476562500E+0003  -2.78912719726563E+0003  -2.78863745117188E+0003  -2.78816699218750E+0003  -2.78771215820313E+0003  -2.78726879882813E+0003  -2.78683276367188E+0003  -2.78639501953125E+0003  -2.78594140625000E+0003  -2.78545629882813E+0003  -2.78492553710938E+0003  -2.78434716796875E+0003  -2.78373461914063E+0003  -2.78310180664063E+0003  -2.78246264648438E+0003  -2.78182788085938E+0003  -2.78120556640625E+0003  -2.78060375976563E+0003  -2.78003051757813E+0003  -2.77949731445313E+0003  -2.77901855468750E+0003  -2.77860864257813E+0003  -2.77828173828125E+0003  -2.77805346679688E+0003  -2.77793994140625E+0003  -2.77795776367188E+0003  -2.77811865234375E+0003  -2.77840747070313E+0003  -2.77879541015625E+0003  -2.77925415039063E+0003  -2.77976074218750E+0003  -2.78032177734375E+0003  -2.78095434570313E+0003  -2.78167553710938E+0003  -2.78248901367188E+0003  -2.78333935546875E+0003  -2.78415649414063E+0003  -2.78487060546875E+0003  -2.78541992187500E+0003  -2.78576928710938E+0003  -2.78590307617188E+0003  -2.78584570312500E+0003  -2.78562988281250E+0003  -2.78529248046875E+0003  -2.78487109375000E+0003  -2.78440380859375E+0003  -2.78392773437500E+0003  -2.78347729492188E+0003  -2.78306933593750E+0003  -2.78269091796875E+0003  -2.78233837890625E+0003  -2.78202734375000E+0003  -2.78176635742188E+0003  -2.78155053710938E+0003  -2.78137158203125E+0003  -2.78121630859375E+0003  -2.78107397460938E+0003  -2.78093701171875E+0003  -2.78080175781250E+0003  -2.78066821289063E+0003  -2.78053564453125E+0003  -2.78040356445313E+0003  -2.78027514648438E+0003  -2.78015625000000E+0003  -2.78005102539063E+0003  -2.77996044921875E+0003  -2.77987060546875E+0003  -2.77975854492188E+0003  -2.77958618164063E+0003  -2.77931420898438E+0003  -2.77900732421875E+0003  -2.77878540039063E+0003  -2.77879516601563E+0003  -2.77917358398438E+0003  -2.77991455078125E+0003  -2.78094018554688E+0003  -2.78203735351563E+0003  -2.78297509765625E+0003  -2.78378466796875E+0003  -2.78456469726563E+0003  -2.78536645507813E+0003  -2.78622216796875E+0003  -2.78711523437500E+0003  -2.78802270507813E+0003  -2.78893701171875E+0003  -2.78984057617188E+0003  -2.79067871093750E+0003  -2.79139013671875E+0003  -2.79191333007813E+0003  -2.79222656250000E+0003  -2.79239501953125E+0003  -2.79249560546875E+0003  -2.79260498046875E+0003  -2.79275122070313E+0003  -2.79287792968750E+0003  -2.79292065429688E+0003  -2.79281396484375E+0003  -2.79253417968750E+0003  -2.79211499023438E+0003  -2.79159423828125E+0003  -2.79101098632813E+0003  -2.79039208984375E+0003  -2.78975366210938E+0003  -2.78911083984375E+0003  -2.78847851562500E+0003  -2.78786083984375E+0003  -2.78725195312500E+0003  -2.78664599609375E+0003  -2.78603784179688E+0003  -2.78542773437500E+0003  -2.78482080078125E+0003  -2.78422216796875E+0003  -2.78363671875000E+0003  -2.78306616210938E+0003  -2.78251098632813E+0003  -2.78197143554688E+0003  -2.78144775390625E+0003  -2.78094067382813E+0003  -2.78044970703125E+0003  -2.77997558593750E+0003  -2.77951831054688E+0003  -2.77907934570313E+0003  -2.77866040039063E+0003  -2.77826318359375E+0003  -2.77789379882813E+0003  -2.77757910156250E+0003  -2.77734985351563E+0003  -2.77723706054688E+0003  -2.77726757812500E+0003  -2.77745288085938E+0003  -2.77780151367188E+0003  -2.77832128906250E+0003  -2.77900097656250E+0003  -2.77978295898438E+0003  -2.78060278320313E+0003  -2.78139648437500E+0003  -2.78211791992188E+0003  -2.78275439453125E+0003  -2.78329711914063E+0003  -2.78373681640625E+0003  -2.78406909179688E+0003  -2.78429638671875E+0003  -2.78442236328125E+0003  -2.78445141601563E+0003  -2.78439770507813E+0003  -2.78428637695313E+0003  -2.78414355468750E+0003  -2.78399438476563E+0003  -2.78385693359375E+0003  -2.78373999023438E+0003  -2.78365307617188E+0003  -2.78360375976563E+0003  -2.78358789062500E+0003  -2.78358984375000E+0003  -2.78359497070313E+0003  -2.78358813476563E+0003  -2.78355249023438E+0003  -2.78347143554688E+0003  -2.78332788085938E+0003  -2.78310668945313E+0003  -2.78280859375000E+0003  -2.78244335937500E+0003  -2.78202856445313E+0003  -2.78159667968750E+0003  -2.78124462890625E+0003  -2.78105444335938E+0003  -2.78089916992188E+0003  -2.78062695312500E+0003  -2.78029907226563E+0003  -2.78002319335938E+0003  -2.77984472656250E+0003  -2.77977563476563E+0003  -2.77976489257813E+0003  -2.77975927734375E+0003  -2.77974291992188E+0003  -2.77970263671875E+0003  -2.77961303710938E+0003  -2.77944604492188E+0003  -2.77917407226563E+0003  -2.77879589843750E+0003  -2.77836840820313E+0003  -2.77795629882813E+0003  -2.77762329101563E+0003  -2.77740722656250E+0003  -2.77730126953125E+0003  -2.77729467773438E+0003  -2.77737573242188E+0003  -2.77753100585938E+0003  -2.77774243164063E+0003  -2.77799267578125E+0003  -2.77826342773438E+0003  -2.77854516601563E+0003  -2.77883593750000E+0003  -2.77913403320313E+0003  -2.77943798828125E+0003  -2.77974633789063E+0003  -2.78005761718750E+0003  -2.78037011718750E+0003  -2.78068237304688E+0003  -2.78099414062500E+0003  -2.78130541992188E+0003  -2.78161669921875E+0003  -2.78192797851563E+0003  -2.78223999023438E+0003  -2.78255249023438E+0003  -2.78286596679688E+0003  -2.78318066406250E+0003  -2.78349560546875E+0003  -2.78380957031250E+0003  -2.78412084960938E+0003  -2.78442846679688E+0003  -2.78473071289063E+0003  -2.78502685546875E+0003  -2.78531494140625E+0003
  -2.79874218750000E+0003  -2.79835058593750E+0003  -2.79794653320313E+0003  -2.79753002929688E+0003  -2.79710131835938E+0003  -2.79666064453125E+0003  -2.79620825195313E+0003  -2.79574462890625E+0003  -2.79526977539063E+0003  -2.79478442382813E+0003  -2.79428906250000E+0003  -2.79378417968750E+0003  -2.79327026367188E+0003  -2.79274755859375E+0003  -2.79221655273438E+0003  -2.79167846679688E+0003  -2.79113574218750E+0003  -2.79059130859375E+0003  -2.79004785156250E+0003  -2.78950830078125E+0003  -2.78897607421875E+0003  -2.78845507812500E+0003  -2.78794824218750E+0003  -2.78745703125000E+0003  -2.78697827148438E+0003  -2.78650903320313E+0003  -2.78604541015625E+0003  -2.78558276367188E+0003  -2.78511328125000E+0003  -2.78462939453125E+0003  -2.78412377929688E+0003  -2.78359399414063E+0003  -2.78304370117188E+0003  -2.78247729492188E+0003  -2.78189843750000E+0003  -2.78131054687500E+0003  -2.78071655273438E+0003  -2.78011889648438E+0003  -2.77952172851563E+0003  -2.77894018554688E+0003  -2.77839916992188E+0003  -2.77792260742188E+0003  -2.77753540039063E+0003  -2.77726245117188E+0003  -2.77712915039063E+0003  -2.77716040039063E+0003  -2.77737500000000E+0003  -2.77774389648438E+0003  -2.77821728515625E+0003  -2.77874511718750E+0003  -2.77928564453125E+0003  -2.77984423828125E+0003  -2.78044140625000E+0003  -2.78109912109375E+0003  -2.78182470703125E+0003  -2.78256665039063E+0003  -2.78325683593750E+0003  -2.78382666015625E+0003  -2.78422338867188E+0003  -2.78444677734375E+0003  -2.78451123046875E+0003  -2.78444384765625E+0003  -2.78427368164063E+0003  -2.78402807617188E+0003  -2.78373486328125E+0003  -2.78342309570313E+0003  -2.78312133789063E+0003  -2.78285668945313E+0003  -2.78263793945313E+0003  -2.78244189453125E+0003  -2.78225634765625E+0003  -2.78209277343750E+0003  -2.78195434570313E+0003  -2.78182885742188E+0003  -2.78170629882813E+0003  -2.78157983398438E+0003  -2.78144677734375E+0003  -2.78130712890625E+0003  -2.78116381835938E+0003  -2.78102050781250E+0003  -2.78088085937500E+0003  -2.78074853515625E+0003  -2.78062597656250E+0003  -2.78051464843750E+0003  -2.78041333007813E+0003  -2.78031494140625E+0003  -2.78018505859375E+0003  -2.78003222656250E+0003  -2.77983959960938E+0003  -2.77949243164063E+0003  -2.77904858398438E+0003  -2.77865478515625E+0003  -2.77849169921875E+0003  -2.77874194335938E+0003  -2.77939306640625E+0003  -2.78041162109375E+0003  -2.78158544921875E+0003  -2.78256347656250E+0003  -2.78337426757813E+0003  -2.78417822265625E+0003  -2.78499658203125E+0003  -2.78583398437500E+0003  -2.78667797851563E+0003  -2.78751391601563E+0003  -2.78834277343750E+0003  -2.78915795898438E+0003  -2.78991821289063E+0003  -2.79057739257813E+0003  -2.79108886718750E+0003  -2.79143676757813E+0003  -2.79167041015625E+0003  -2.79184960937500E+0003  -2.79203271484375E+0003  -2.79223876953125E+0003  -2.79241723632813E+0003  -2.79251025390625E+0003  -2.79246044921875E+0003  -2.79224707031250E+0003  -2.79190063476563E+0003  -2.79145556640625E+0003  -2.79094628906250E+0003  -2.79039672851563E+0003  -2.78981982421875E+0003  -2.78922729492188E+0003  -2.78863134765625E+0003  -2.78803613281250E+0003  -2.78743872070313E+0003  -2.78683642578125E+0003  -2.78622656250000E+0003  -2.78561157226563E+0003  -2.78499804687500E+0003  -2.78439208984375E+0003  -2.78379956054688E+0003  -2.78322290039063E+0003  -2.78266235351563E+0003  -2.78211791992188E+0003  -2.78158984375000E+0003  -2.78107836914063E+0003  -2.78058349609375E+0003  -2.78010546875000E+0003  -2.77964453125000E+0003  -2.77920312500000E+0003  -2.77878466796875E+0003  -2.77839184570313E+0003  -2.77803222656250E+0003  -2.77772924804688E+0003  -2.77751123046875E+0003  -2.77740625000000E+0003  -2.77743750000000E+0003  -2.77761328125000E+0003  -2.77793823242188E+0003  -2.77841748046875E+0003  -2.77903930664063E+0003  -2.77975341796875E+0003  -2.78050366210938E+0003  -2.78123388671875E+0003  -2.78190332031250E+0003  -2.78249975585938E+0003  -2.78301440429688E+0003  -2.78343823242188E+0003  -2.78376611328125E+0003  -2.78399877929688E+0003  -2.78413769531250E+0003  -2.78418457031250E+0003  -2.78415087890625E+0003  -2.78405859375000E+0003  -2.78393090820313E+0003  -2.78379101562500E+0003  -2.78365429687500E+0003  -2.78353027343750E+0003  -2.78342797851563E+0003  -2.78335546875000E+0003  -2.78330932617188E+0003  -2.78327612304688E+0003  -2.78324340820313E+0003  -2.78319750976563E+0003  -2.78312573242188E+0003  -2.78301416015625E+0003  -2.78285009765625E+0003  -2.78262182617188E+0003  -2.78233618164063E+0003  -2.78200878906250E+0003  -2.78166381835938E+0003  -2.78133544921875E+0003  -2.78110009765625E+0003  -2.78101196289063E+0003  -2.78092651367188E+0003  -2.78068188476563E+0003  -2.78034472656250E+0003  -2.78003466796875E+0003  -2.77981250000000E+0003  -2.77970434570313E+0003  -2.77966601562500E+0003  -2.77965014648438E+0003  -2.77964428710938E+0003  -2.77963623046875E+0003  -2.77959570312500E+0003  -2.77948828125000E+0003  -2.77928051757813E+0003  -2.77896557617188E+0003  -2.77859497070313E+0003  -2.77822827148438E+0003  -2.77792456054688E+0003  -2.77771875000000E+0003  -2.77760668945313E+0003  -2.77758032226563E+0003  -2.77763110351563E+0003  -2.77774804687500E+0003  -2.77791674804688E+0003  -2.77812255859375E+0003  -2.77835107421875E+0003  -2.77859350585938E+0003  -2.77884838867188E+0003  -2.77911401367188E+0003  -2.77938891601563E+0003  -2.77967138671875E+0003  -2.77995971679688E+0003  -2.78025268554688E+0003  -2.78054882812500E+0003  -2.78084692382813E+0003  -2.78114746093750E+0003  -2.78144995117188E+0003  -2.78175439453125E+0003  -2.78206079101563E+0003  -2.78236865234375E+0003  -2.78267822265625E+0003  -2.78298925781250E+0003  -2.78330053710938E+0003  -2.78361083984375E+0003  -2.78391894531250E+0003  -2.78422363281250E+0003  -2.78452319335938E+0003  -2.78481665039063E+0003  -2.78510278320313E+0003
  -2.79813452148438E+0003  -2.79774072265625E+0003  -2.79733471679688E+0003  -2.79691723632813E+0003  -2.79648803710938E+0003  -2.79604760742188E+0003  -2.79559570312500E+0003  -2.79513305664063E+0003  -2.79465942382813E+0003  -2.79417529296875E+0003  -2.79368066406250E+0003  -2.79317602539063E+0003  -2.79266137695313E+0003  -2.79213696289063E+0003  -2.79160302734375E+0003  -2.79106030273438E+0003  -2.79051147460938E+0003  -2.78995947265625E+0003  -2.78940747070313E+0003  -2.78885815429688E+0003  -2.78831494140625E+0003  -2.78778125000000E+0003  -2.78726000976563E+0003  -2.78675292968750E+0003  -2.78625756835938E+0003  -2.78577197265625E+0003  -2.78529345703125E+0003  -2.78481958007813E+0003  -2.78434741210938E+0003  -2.78387426757813E+0003  -2.78339746093750E+0003  -2.78291333007813E+0003  -2.78241870117188E+0003  -2.78190942382813E+0003  -2.78138159179688E+0003  -2.78083203125000E+0003  -2.78025830078125E+0003  -2.77965771484375E+0003  -2.77902954101563E+0003  -2.77839331054688E+0003  -2.77778442382813E+0003  -2.77723828125000E+0003  -2.77678979492188E+0003  -2.77647387695313E+0003  -2.77632495117188E+0003  -2.77637670898438E+0003  -2.77665258789063E+0003  -2.77710986328125E+0003  -2.77767578125000E+0003  -2.77827758789063E+0003  -2.77885400390625E+0003  -2.77940820312500E+0003  -2.77996508789063E+0003  -2.78055029296875E+0003  -2.78117675781250E+0003  -2.78179638671875E+0003  -2.78234472656250E+0003  -2.78275390625000E+0003  -2.78297875976563E+0003  -2.78304956054688E+0003  -2.78301245117188E+0003  -2.78291699218750E+0003  -2.78280395507813E+0003  -2.78269067382813E+0003  -2.78259033203125E+0003  -2.78251440429688E+0003  -2.78247143554688E+0003  -2.78246557617188E+0003  -2.78248632812500E+0003  -2.78249633789063E+0003  -2.78247656250000E+0003  -2.78243847656250E+0003  -2.78238818359375E+0003  -2.78231958007813E+0003  -2.78222753906250E+0003  -2.78211132812500E+0003  -2.78197216796875E+0003  -2.78181567382813E+0003  -2.78164868164063E+0003  -2.78147998046875E+0003  -2.78131835937500E+0003  -2.78117211914063E+0003  -2.78104443359375E+0003  -2.78093334960938E+0003  -2.78083789062500E+0003  -2.78074487304688E+0003  -2.78055712890625E+0003  -2.78036645507813E+0003  -2.78020166015625E+0003  -2.77980273437500E+0003  -2.77923437500000E+0003  -2.77869604492188E+0003  -2.77838623046875E+0003  -2.77851611328125E+0003  -2.77902832031250E+0003  -2.77999584960938E+0003  -2.78122631835938E+0003  -2.78225268554688E+0003  -2.78308178710938E+0003  -2.78389379882813E+0003  -2.78469360351563E+0003  -2.78547460937500E+0003  -2.78622802734375E+0003  -2.78694799804688E+0003  -2.78764575195313E+0003  -2.78832592773438E+0003  -2.78896557617188E+0003  -2.78953613281250E+0003  -2.79000976562500E+0003  -2.79037695312500E+0003  -2.79067016601563E+0003  -2.79092773437500E+0003  -2.79118750000000E+0003  -2.79145727539063E+0003  -2.79169287109375E+0003  -2.79184497070313E+0003  -2.79186401367188E+0003  -2.79173242187500E+0003  -2.79147607421875E+0003  -2.79112500000000E+0003  -2.79071020507813E+0003  -2.79025195312500E+0003  -2.78975756835938E+0003  -2.78923461914063E+0003  -2.78869116210938E+0003  -2.78813159179688E+0003  -2.78755664062500E+0003  -2.78696728515625E+0003  -2.78636425781250E+0003  -2.78575219726563E+0003  -2.78513867187500E+0003  -2.78453125000000E+0003  -2.78393725585938E+0003  -2.78335937500000E+0003  -2.78279785156250E+0003  -2.78225341796875E+0003  -2.78172607421875E+0003  -2.78121606445313E+0003  -2.78072387695313E+0003  -2.78024951171875E+0003  -2.77979394531250E+0003  -2.77936108398438E+0003  -2.77895507812500E+0003  -2.77858105468750E+0003  -2.77824658203125E+0003  -2.77797216796875E+0003  -2.77778125000000E+0003  -2.77769750976563E+0003  -2.77773999023438E+0003  -2.77791186523438E+0003  -2.77821386718750E+0003  -2.77864599609375E+0003  -2.77919653320313E+0003  -2.77982446289063E+0003  -2.78048364257813E+0003  -2.78112841796875E+0003  -2.78172534179688E+0003  -2.78226293945313E+0003  -2.78273315429688E+0003  -2.78312768554688E+0003  -2.78344116210938E+0003  -2.78367187500000E+0003  -2.78381909179688E+0003  -2.78388281250000E+0003  -2.78387060546875E+0003  -2.78380175781250E+0003  -2.78369604492188E+0003  -2.78357226562500E+0003  -2.78344506835938E+0003  -2.78332348632813E+0003  -2.78321655273438E+0003  -2.78313256835938E+0003  -2.78306884765625E+0003  -2.78301391601563E+0003  -2.78295605468750E+0003  -2.78288403320313E+0003  -2.78278637695313E+0003  -2.78265161132813E+0003  -2.78246850585938E+0003  -2.78222802734375E+0003  -2.78193872070313E+0003  -2.78161962890625E+0003  -2.78129443359375E+0003  -2.78099340820313E+0003  -2.78076806640625E+0003  -2.78065332031250E+0003  -2.78054516601563E+0003  -2.78032934570313E+0003  -2.78005297851563E+0003  -2.77980102539063E+0003  -2.77961743164063E+0003  -2.77952246093750E+0003  -2.77948510742188E+0003  -2.77947143554688E+0003  -2.77947216796875E+0003  -2.77947631835938E+0003  -2.77945556640625E+0003  -2.77937817382813E+0003  -2.77921264648438E+0003  -2.77895141601563E+0003  -2.77863891601563E+0003  -2.77832617187500E+0003  -2.77806372070313E+0003  -2.77788256835938E+0003  -2.77777954101563E+0003  -2.77774902343750E+0003  -2.77778442382813E+0003  -2.77787768554688E+0003  -2.77801733398438E+0003  -2.77819140625000E+0003  -2.77838916015625E+0003  -2.77860302734375E+0003  -2.77883154296875E+0003  -2.77907324218750E+0003  -2.77932641601563E+0003  -2.77958935546875E+0003  -2.77986059570313E+0003  -2.78013867187500E+0003  -2.78042187500000E+0003  -2.78070947265625E+0003  -2.78100097656250E+0003  -2.78129614257813E+0003  -2.78159423828125E+0003  -2.78189526367188E+0003  -2.78219873046875E+0003  -2.78250415039063E+0003  -2.78281127929688E+0003  -2.78311865234375E+0003  -2.78342553710938E+0003  -2.78372998046875E+0003  -2.78403149414063E+0003  -2.78432812500000E+0003  -2.78461889648438E+0003  -2.78490258789063E+0003
  -2.79753759765625E+0003  -2.79714160156250E+0003  -2.79673437500000E+0003  -2.79631591796875E+0003  -2.79588623046875E+0003  -2.79544604492188E+0003  -2.79499487304688E+0003  -2.79453320312500E+0003  -2.79406103515625E+0003  -2.79357788085938E+0003  -2.79308422851563E+0003  -2.79257934570313E+0003  -2.79206347656250E+0003  -2.79153662109375E+0003  -2.79099853515625E+0003  -2.79044995117188E+0003  -2.78989355468750E+0003  -2.78933276367188E+0003  -2.78877099609375E+0003  -2.78821118164063E+0003  -2.78765673828125E+0003  -2.78711132812500E+0003  -2.78657812500000E+0003  -2.78605908203125E+0003  -2.78555273437500E+0003  -2.78505786132813E+0003  -2.78457299804688E+0003  -2.78409716796875E+0003  -2.78363061523438E+0003  -2.78317309570313E+0003  -2.78272485351563E+0003  -2.78228125000000E+0003  -2.78183422851563E+0003  -2.78137353515625E+0003  -2.78088989257813E+0003  -2.78037500000000E+0003  -2.77982128906250E+0003  -2.77922192382813E+0003  -2.77857202148438E+0003  -2.77789453125000E+0003  -2.77723437500000E+0003  -2.77663525390625E+0003  -2.77614135742188E+0003  -2.77579589843750E+0003  -2.77564184570313E+0003  -2.77571923828125E+0003  -2.77605493164063E+0003  -2.77659277343750E+0003  -2.77724023437500E+0003  -2.77790478515625E+0003  -2.77850927734375E+0003  -2.77905322265625E+0003  -2.77956494140625E+0003  -2.78007397460938E+0003  -2.78059692382813E+0003  -2.78109106445313E+0003  -2.78149487304688E+0003  -2.78174096679688E+0003  -2.78178906250000E+0003  -2.78169848632813E+0003  -2.78154858398438E+0003  -2.78141821289063E+0003  -2.78136718750000E+0003  -2.78140698242188E+0003  -2.78153564453125E+0003  -2.78174096679688E+0003  -2.78200390625000E+0003  -2.78229638671875E+0003  -2.78257983398438E+0003  -2.78280151367188E+0003  -2.78293457031250E+0003  -2.78299633789063E+0003  -2.78300219726563E+0003  -2.78296093750000E+0003  -2.78287792968750E+0003  -2.78275659179688E+0003  -2.78260156250000E+0003  -2.78241918945313E+0003  -2.78221972656250E+0003  -2.78201660156250E+0003  -2.78182324218750E+0003  -2.78165307617188E+0003  -2.78151000976563E+0003  -2.78139257812500E+0003  -2.78130957031250E+0003  -2.78126708984375E+0003  -2.78119677734375E+0003  -2.78112500000000E+0003  -2.78082836914063E+0003  -2.78025268554688E+0003  -2.77957080078125E+0003  -2.77894506835938E+0003  -2.77852221679688E+0003  -2.77844531250000E+0003  -2.77875195312500E+0003  -2.77964477539063E+0003  -2.78084692382813E+0003  -2.78192944335938E+0003  -2.78285986328125E+0003  -2.78370825195313E+0003  -2.78448022460938E+0003  -2.78517675781250E+0003  -2.78580346679688E+0003  -2.78636987304688E+0003  -2.78689868164063E+0003  -2.78740722656250E+0003  -2.78789135742188E+0003  -2.78834277343750E+0003  -2.78875292968750E+0003  -2.78912109375000E+0003  -2.78946215820313E+0003  -2.78979345703125E+0003  -2.79013183593750E+0003  -2.79047387695313E+0003  -2.79077954101563E+0003  -2.79100488281250E+0003  -2.79110668945313E+0003  -2.79106860351563E+0003  -2.79091162109375E+0003  -2.79066259765625E+0003  -2.79035180664063E+0003  -2.78999584960938E+0003  -2.78959521484375E+0003  -2.78915234375000E+0003  -2.78867089843750E+0003  -2.78815551757813E+0003  -2.78761132812500E+0003  -2.78704272460938E+0003  -2.78645361328125E+0003  -2.78585107421875E+0003  -2.78524389648438E+0003  -2.78464111328125E+0003  -2.78405053710938E+0003  -2.78347607421875E+0003  -2.78291821289063E+0003  -2.78237768554688E+0003  -2.78185546875000E+0003  -2.78135180664063E+0003  -2.78086767578125E+0003  -2.78040332031250E+0003  -2.77996044921875E+0003  -2.77954394531250E+0003  -2.77915917968750E+0003  -2.77881274414063E+0003  -2.77851245117188E+0003  -2.77827465820313E+0003  -2.77811816406250E+0003  -2.77806127929688E+0003  -2.77811816406250E+0003  -2.77828759765625E+0003  -2.77856542968750E+0003  -2.77894775390625E+0003  -2.77942187500000E+0003  -2.77995629882813E+0003  -2.78051586914063E+0003  -2.78106616210938E+0003  -2.78158081054688E+0003  -2.78205053710938E+0003  -2.78246728515625E+0003  -2.78282421875000E+0003  -2.78311523437500E+0003  -2.78333764648438E+0003  -2.78348852539063E+0003  -2.78356567382813E+0003  -2.78357446289063E+0003  -2.78353002929688E+0003  -2.78344873046875E+0003  -2.78334594726563E+0003  -2.78323388671875E+0003  -2.78312207031250E+0003  -2.78301928710938E+0003  -2.78293359375000E+0003  -2.78286303710938E+0003  -2.78279736328125E+0003  -2.78272631835938E+0003  -2.78263891601563E+0003  -2.78252514648438E+0003  -2.78237377929688E+0003  -2.78217480468750E+0003  -2.78191943359375E+0003  -2.78161743164063E+0003  -2.78128686523438E+0003  -2.78094946289063E+0003  -2.78062915039063E+0003  -2.78035986328125E+0003  -2.78016552734375E+0003  -2.78000000000000E+0003  -2.77980883789063E+0003  -2.77961328125000E+0003  -2.77945068359375E+0003  -2.77933837890625E+0003  -2.77928173828125E+0003  -2.77926123046875E+0003  -2.77925683593750E+0003  -2.77926049804688E+0003  -2.77926269531250E+0003  -2.77924121093750E+0003  -2.77917211914063E+0003  -2.77903125000000E+0003  -2.77881372070313E+0003  -2.77855541992188E+0003  -2.77829760742188E+0003  -2.77808129882813E+0003  -2.77793188476563E+0003  -2.77784692382813E+0003  -2.77782250976563E+0003  -2.77785400390625E+0003  -2.77793481445313E+0003  -2.77805615234375E+0003  -2.77820971679688E+0003  -2.77838647460938E+0003  -2.77858081054688E+0003  -2.77879125976563E+0003  -2.77901635742188E+0003  -2.77925415039063E+0003  -2.77950317382813E+0003  -2.77976196289063E+0003  -2.78002905273438E+0003  -2.78030249023438E+0003  -2.78058154296875E+0003  -2.78086596679688E+0003  -2.78115454101563E+0003  -2.78144726562500E+0003  -2.78174340820313E+0003  -2.78204248046875E+0003  -2.78234350585938E+0003  -2.78264648437500E+0003  -2.78294995117188E+0003  -2.78325292968750E+0003  -2.78355395507813E+0003  -2.78385180664063E+0003  -2.78414526367188E+0003  -2.78443334960938E+0003  -2.78471435546875E+0003
  -2.79695190429688E+0003  -2.79655419921875E+0003  -2.79614575195313E+0003  -2.79572656250000E+0003  -2.79529711914063E+0003  -2.79485717773438E+0003  -2.79440698242188E+0003  -2.79394677734375E+0003  -2.79347583007813E+0003  -2.79299414062500E+0003  -2.79250097656250E+0003  -2.79199609375000E+0003  -2.79147900390625E+0003  -2.79094921875000E+0003  -2.79040649414063E+0003  -2.78985107421875E+0003  -2.78928613281250E+0003  -2.78871582031250E+0003  -2.78814331054688E+0003  -2.78757250976563E+0003  -2.78700708007813E+0003  -2.78645068359375E+0003  -2.78590722656250E+0003  -2.78537915039063E+0003  -2.78486547851563E+0003  -2.78436572265625E+0003  -2.78387963867188E+0003  -2.78340673828125E+0003  -2.78294897460938E+0003  -2.78250756835938E+0003  -2.78208398437500E+0003  -2.78167358398438E+0003  -2.78126464843750E+0003  -2.78084497070313E+0003  -2.78040087890625E+0003  -2.77992114257813E+0003  -2.77939550781250E+0003  -2.77881347656250E+0003  -2.77816748046875E+0003  -2.77748266601563E+0003  -2.77680859375000E+0003  -2.77619433593750E+0003  -2.77568896484375E+0003  -2.77534082031250E+0003  -2.77519799804688E+0003  -2.77530395507813E+0003  -2.77568603515625E+0003  -2.77628002929688E+0003  -2.77697949218750E+0003  -2.77768041992188E+0003  -2.77829443359375E+0003  -2.77881933593750E+0003  -2.77928393554688E+0003  -2.77971948242188E+0003  -2.78014501953125E+0003  -2.78052148437500E+0003  -2.78079077148438E+0003  -2.78088549804688E+0003  -2.78077050781250E+0003  -2.78053002929688E+0003  -2.78027197265625E+0003  -2.78010351562500E+0003  -2.78010644531250E+0003  -2.78029589843750E+0003  -2.78066308593750E+0003  -2.78116406250000E+0003  -2.78174584960938E+0003  -2.78234423828125E+0003  -2.78289086914063E+0003  -2.78331176757813E+0003  -2.78357299804688E+0003  -2.78370214843750E+0003  -2.78373217773438E+0003  -2.78369189453125E+0003  -2.78360034179688E+0003  -2.78346289062500E+0003  -2.78328540039063E+0003  -2.78307373046875E+0003  -2.78283984375000E+0003  -2.78259985351563E+0003  -2.78237084960938E+0003  -2.78216943359375E+0003  -2.78200097656250E+0003  -2.78186547851563E+0003  -2.78178027343750E+0003  -2.78177075195313E+0003  -2.78180371093750E+0003  -2.78176049804688E+0003  -2.78136718750000E+0003  -2.78072045898438E+0003  -2.78001318359375E+0003  -2.77938745117188E+0003  -2.77894262695313E+0003  -2.77874975585938E+0003  -2.77893017578125E+0003  -2.77971606445313E+0003  -2.78082690429688E+0003  -2.78189770507813E+0003  -2.78285815429688E+0003  -2.78369580078125E+0003  -2.78440209960938E+0003  -2.78497753906250E+0003  -2.78544238281250E+0003  -2.78582397460938E+0003  -2.78615478515625E+0003  -2.78646435546875E+0003  -2.78676660156250E+0003  -2.78707348632813E+0003  -2.78739624023438E+0003  -2.78774316406250E+0003  -2.78811499023438E+0003  -2.78851074218750E+0003  -2.78892968750000E+0003  -2.78935668945313E+0003  -2.78975146484375E+0003  -2.79007080078125E+0003  -2.79027124023438E+0003  -2.79033544921875E+0003  -2.79028100585938E+0003  -2.79013378906250E+0003  -2.78992553710938E+0003  -2.78967065429688E+0003  -2.78936352539063E+0003  -2.78900097656250E+0003  -2.78858374023438E+0003  -2.78811669921875E+0003  -2.78760815429688E+0003  -2.78706591796875E+0003  -2.78649707031250E+0003  -2.78591040039063E+0003  -2.78531542968750E+0003  -2.78472241210938E+0003  -2.78414038085938E+0003  -2.78357373046875E+0003  -2.78302343750000E+0003  -2.78249072265625E+0003  -2.78197729492188E+0003  -2.78148388671875E+0003  -2.78101196289063E+0003  -2.78056250000000E+0003  -2.78013769531250E+0003  -2.77974267578125E+0003  -2.77938427734375E+0003  -2.77906909179688E+0003  -2.77880468750000E+0003  -2.77860351562500E+0003  -2.77847998046875E+0003  -2.77844750976563E+0003  -2.77851562500000E+0003  -2.77867944335938E+0003  -2.77893115234375E+0003  -2.77926367187500E+0003  -2.77966406250000E+0003  -2.78010937500000E+0003  -2.78057421875000E+0003  -2.78103320312500E+0003  -2.78146728515625E+0003  -2.78186840820313E+0003  -2.78222998046875E+0003  -2.78254589843750E+0003  -2.78281005859375E+0003  -2.78301855468750E+0003  -2.78316748046875E+0003  -2.78325341796875E+0003  -2.78327929687500E+0003  -2.78325708007813E+0003  -2.78319970703125E+0003  -2.78311914062500E+0003  -2.78302612304688E+0003  -2.78292919921875E+0003  -2.78283691406250E+0003  -2.78275756835938E+0003  -2.78268896484375E+0003  -2.78262182617188E+0003  -2.78254638671875E+0003  -2.78245312500000E+0003  -2.78233154296875E+0003  -2.78217065429688E+0003  -2.78196020507813E+0003  -2.78169091796875E+0003  -2.78137207031250E+0003  -2.78102099609375E+0003  -2.78065576171875E+0003  -2.78029541015625E+0003  -2.77996435546875E+0003  -2.77968554687500E+0003  -2.77946166992188E+0003  -2.77928979492188E+0003  -2.77916650390625E+0003  -2.77908813476563E+0003  -2.77904663085938E+0003  -2.77903247070313E+0003  -2.77903393554688E+0003  -2.77903979492188E+0003  -2.77904272460938E+0003  -2.77903417968750E+0003  -2.77900048828125E+0003  -2.77892626953125E+0003  -2.77879736328125E+0003  -2.77861230468750E+0003  -2.77839941406250E+0003  -2.77819042968750E+0003  -2.77801757812500E+0003  -2.77790014648438E+0003  -2.77783666992188E+0003  -2.77782373046875E+0003  -2.77785766601563E+0003  -2.77793408203125E+0003  -2.77804638671875E+0003  -2.77818774414063E+0003  -2.77835180664063E+0003  -2.77853417968750E+0003  -2.77873339843750E+0003  -2.77894775390625E+0003  -2.77917553710938E+0003  -2.77941552734375E+0003  -2.77966577148438E+0003  -2.77992480468750E+0003  -2.78019140625000E+0003  -2.78046386718750E+0003  -2.78074218750000E+0003  -2.78102563476563E+0003  -2.78131323242188E+0003  -2.78160473632813E+0003  -2.78189916992188E+0003  -2.78219604492188E+0003  -2.78249462890625E+0003  -2.78279394531250E+0003  -2.78309301757813E+0003  -2.78339013671875E+0003  -2.78368432617188E+0003  -2.78397436523438E+0003  -2.78425927734375E+0003  -2.78453759765625E+0003
  -2.79637866210938E+0003  -2.79597924804688E+0003  -2.79556982421875E+0003  -2.79515039062500E+0003  -2.79472119140625E+0003  -2.79428198242188E+0003  -2.79383325195313E+0003  -2.79337451171875E+0003  -2.79290527343750E+0003  -2.79242504882813E+0003  -2.79193286132813E+0003  -2.79142797851563E+0003  -2.79090966796875E+0003  -2.79037695312500E+0003  -2.78982910156250E+0003  -2.78926660156250E+0003  -2.78869311523438E+0003  -2.78811254882813E+0003  -2.78752929687500E+0003  -2.78694726562500E+0003  -2.78637109375000E+0003  -2.78580493164063E+0003  -2.78525268554688E+0003  -2.78471728515625E+0003  -2.78419873046875E+0003  -2.78369677734375E+0003  -2.78321093750000E+0003  -2.78274218750000E+0003  -2.78229248046875E+0003  -2.78186376953125E+0003  -2.78145800781250E+0003  -2.78107080078125E+0003  -2.78068969726563E+0003  -2.78030224609375E+0003  -2.77989428710938E+0003  -2.77945410156250E+0003  -2.77896997070313E+0003  -2.77843066406250E+0003  -2.77782714843750E+0003  -2.77718432617188E+0003  -2.77655151367188E+0003  -2.77597729492188E+0003  -2.77551049804688E+0003  -2.77519921875000E+0003  -2.77509130859375E+0003  -2.77522875976563E+0003  -2.77563720703125E+0003  -2.77625000000000E+0003  -2.77695825195313E+0003  -2.77765576171875E+0003  -2.77825292968750E+0003  -2.77874584960938E+0003  -2.77916210937500E+0003  -2.77953173828125E+0003  -2.77987304687500E+0003  -2.78014892578125E+0003  -2.78030346679688E+0003  -2.78027148437500E+0003  -2.78002441406250E+0003  -2.77966406250000E+0003  -2.77931884765625E+0003  -2.77911694335938E+0003  -2.77915966796875E+0003  -2.77947998046875E+0003  -2.78006909179688E+0003  -2.78084912109375E+0003  -2.78172875976563E+0003  -2.78261108398438E+0003  -2.78339770507813E+0003  -2.78398828125000E+0003  -2.78434008789063E+0003  -2.78449975585938E+0003  -2.78452148437500E+0003  -2.78445874023438E+0003  -2.78434399414063E+0003  -2.78418334960938E+0003  -2.78398095703125E+0003  -2.78374145507813E+0003  -2.78347607421875E+0003  -2.78320263671875E+0003  -2.78293896484375E+0003  -2.78270214843750E+0003  -2.78249951171875E+0003  -2.78233105468750E+0003  -2.78221118164063E+0003  -2.78215893554688E+0003  -2.78212207031250E+0003  -2.78199023437500E+0003  -2.78165673828125E+0003  -2.78112475585938E+0003  -2.78051806640625E+0003  -2.77999389648438E+0003  -2.77964794921875E+0003  -2.77954760742188E+0003  -2.77978833007813E+0003  -2.78046826171875E+0003  -2.78139892578125E+0003  -2.78233691406250E+0003  -2.78319409179688E+0003  -2.78392333984375E+0003  -2.78449755859375E+0003  -2.78490625000000E+0003  -2.78517749023438E+0003  -2.78534985351563E+0003  -2.78546313476563E+0003  -2.78555590820313E+0003  -2.78565893554688E+0003  -2.78580273437500E+0003  -2.78601684570313E+0003  -2.78631933593750E+0003  -2.78670092773438E+0003  -2.78714794921875E+0003  -2.78764746093750E+0003  -2.78817358398438E+0003  -2.78867919921875E+0003  -2.78911401367188E+0003  -2.78942846679688E+0003  -2.78960009765625E+0003  -2.78964648437500E+0003  -2.78959448242188E+0003  -2.78947875976563E+0003  -2.78931347656250E+0003  -2.78908886718750E+0003  -2.78879882812500E+0003  -2.78844165039063E+0003  -2.78802221679688E+0003  -2.78755200195313E+0003  -2.78704077148438E+0003  -2.78649731445313E+0003  -2.78593164062500E+0003  -2.78535449218750E+0003  -2.78477636718750E+0003  -2.78420751953125E+0003  -2.78365258789063E+0003  -2.78311328125000E+0003  -2.78259204101563E+0003  -2.78209033203125E+0003  -2.78161035156250E+0003  -2.78115380859375E+0003  -2.78072265625000E+0003  -2.78031933593750E+0003  -2.77994921875000E+0003  -2.77961840820313E+0003  -2.77933325195313E+0003  -2.77910083007813E+0003  -2.77893041992188E+0003  -2.77883154296875E+0003  -2.77881469726563E+0003  -2.77888549804688E+0003  -2.77903710937500E+0003  -2.77926049804688E+0003  -2.77954614257813E+0003  -2.77988232421875E+0003  -2.78025146484375E+0003  -2.78063598632813E+0003  -2.78101708984375E+0003  -2.78138085937500E+0003  -2.78172070312500E+0003  -2.78203100585938E+0003  -2.78230639648438E+0003  -2.78254150390625E+0003  -2.78273217773438E+0003  -2.78287377929688E+0003  -2.78296215820313E+0003  -2.78299951171875E+0003  -2.78299511718750E+0003  -2.78295825195313E+0003  -2.78289892578125E+0003  -2.78282592773438E+0003  -2.78274707031250E+0003  -2.78267041015625E+0003  -2.78260302734375E+0003  -2.78254296875000E+0003  -2.78248168945313E+0003  -2.78240966796875E+0003  -2.78231835937500E+0003  -2.78219653320313E+0003  -2.78203295898438E+0003  -2.78181665039063E+0003  -2.78153784179688E+0003  -2.78120458984375E+0003  -2.78083300781250E+0003  -2.78043823242188E+0003  -2.78003710937500E+0003  -2.77965307617188E+0003  -2.77931347656250E+0003  -2.77905126953125E+0003  -2.77889184570313E+0003  -2.77881591796875E+0003  -2.77879345703125E+0003  -2.77880029296875E+0003  -2.77881787109375E+0003  -2.77883666992188E+0003  -2.77884912109375E+0003  -2.77884765625000E+0003  -2.77882470703125E+0003  -2.77877368164063E+0003  -2.77868823242188E+0003  -2.77856225585938E+0003  -2.77839819335938E+0003  -2.77821801757813E+0003  -2.77804663085938E+0003  -2.77790820312500E+0003  -2.77781762695313E+0003  -2.77777368164063E+0003  -2.77777319335938E+0003  -2.77781347656250E+0003  -2.77789062500000E+0003  -2.77800000000000E+0003  -2.77813598632813E+0003  -2.77829394531250E+0003  -2.77847045898438E+0003  -2.77866357421875E+0003  -2.77887231445313E+0003  -2.77909448242188E+0003  -2.77932885742188E+0003  -2.77957373046875E+0003  -2.77982763671875E+0003  -2.78008886718750E+0003  -2.78035668945313E+0003  -2.78063012695313E+0003  -2.78090869140625E+0003  -2.78119165039063E+0003  -2.78147851562500E+0003  -2.78176855468750E+0003  -2.78206103515625E+0003  -2.78235546875000E+0003  -2.78265039062500E+0003  -2.78294506835938E+0003  -2.78323828125000E+0003  -2.78352880859375E+0003  -2.78381542968750E+0003  -2.78409692382813E+0003  -2.78437231445313E+0003
  -2.79581835937500E+0003  -2.79541772460938E+0003  -2.79500781250000E+0003  -2.79458837890625E+0003  -2.79415966796875E+0003  -2.79372167968750E+0003  -2.79327441406250E+0003  -2.79281762695313E+0003  -2.79235083007813E+0003  -2.79187255859375E+0003  -2.79138159179688E+0003  -2.79087719726563E+0003  -2.79035766601563E+0003  -2.78982226562500E+0003  -2.78926977539063E+0003  -2.78870043945313E+0003  -2.78811791992188E+0003  -2.78752758789063E+0003  -2.78693359375000E+0003  -2.78634106445313E+0003  -2.78575488281250E+0003  -2.78517944335938E+0003  -2.78461987304688E+0003  -2.78407910156250E+0003  -2.78355712890625E+0003  -2.78305444335938E+0003  -2.78257031250000E+0003  -2.78210595703125E+0003  -2.78166235351563E+0003  -2.78124194335938E+0003  -2.78084594726563E+0003  -2.78047070312500E+0003  -2.78010571289063E+0003  -2.77974047851563E+0003  -2.77936328125000E+0003  -2.77896386718750E+0003  -2.77853198242188E+0003  -2.77805834960938E+0003  -2.77753515625000E+0003  -2.77698437500000E+0003  -2.77645043945313E+0003  -2.77597729492188E+0003  -2.77560766601563E+0003  -2.77538330078125E+0003  -2.77534448242188E+0003  -2.77552587890625E+0003  -2.77594799804688E+0003  -2.77654760742188E+0003  -2.77722412109375E+0003  -2.77787890625000E+0003  -2.77842846679688E+0003  -2.77887011718750E+0003  -2.77922949218750E+0003  -2.77953369140625E+0003  -2.77979956054688E+0003  -2.77998999023438E+0003  -2.78005151367188E+0003  -2.77992382812500E+0003  -2.77958544921875E+0003  -2.77914990234375E+0003  -2.77875952148438E+0003  -2.77855639648438E+0003  -2.77865551757813E+0003  -2.77909790039063E+0003  -2.77987377929688E+0003  -2.78088183593750E+0003  -2.78200463867188E+0003  -2.78311767578125E+0003  -2.78409399414063E+0003  -2.78480688476563E+0003  -2.78520458984375E+0003  -2.78535595703125E+0003  -2.78533959960938E+0003  -2.78523413085938E+0003  -2.78508422851563E+0003  -2.78489477539063E+0003  -2.78466699218750E+0003  -2.78440258789063E+0003  -2.78411108398438E+0003  -2.78380932617188E+0003  -2.78351464843750E+0003  -2.78324316406250E+0003  -2.78300268554688E+0003  -2.78279443359375E+0003  -2.78262597656250E+0003  -2.78250488281250E+0003  -2.78239257812500E+0003  -2.78222265625000E+0003  -2.78194726562500E+0003  -2.78154370117188E+0003  -2.78109399414063E+0003  -2.78072729492188E+0003  -2.78054125976563E+0003  -2.78061206054688E+0003  -2.78096557617188E+0003  -2.78159082031250E+0003  -2.78236010742188E+0003  -2.78312329101563E+0003  -2.78380664062500E+0003  -2.78436303710938E+0003  -2.78475512695313E+0003  -2.78496337890625E+0003  -2.78502026367188E+0003  -2.78496972656250E+0003  -2.78485668945313E+0003  -2.78472680664063E+0003  -2.78462524414063E+0003  -2.78459863281250E+0003  -2.78469213867188E+0003  -2.78493286132813E+0003  -2.78530590820313E+0003  -2.78578979492188E+0003  -2.78636376953125E+0003  -2.78699267578125E+0003  -2.78761791992188E+0003  -2.78817749023438E+0003  -2.78861035156250E+0003  -2.78888793945313E+0003  -2.78902978515625E+0003  -2.78906445312500E+0003  -2.78902905273438E+0003  -2.78893847656250E+0003  -2.78878222656250E+0003  -2.78855346679688E+0003  -2.78825000000000E+0003  -2.78787719726563E+0003  -2.78744653320313E+0003  -2.78696972656250E+0003  -2.78645629882813E+0003  -2.78591674804688E+0003  -2.78536254882813E+0003  -2.78480444335938E+0003  -2.78425292968750E+0003  -2.78371337890625E+0003  -2.78318847656250E+0003  -2.78268115234375E+0003  -2.78219409179688E+0003  -2.78172949218750E+0003  -2.78129052734375E+0003  -2.78087939453125E+0003  -2.78049926757813E+0003  -2.78015502929688E+0003  -2.77985180664063E+0003  -2.77959472656250E+0003  -2.77938940429688E+0003  -2.77924243164063E+0003  -2.77916088867188E+0003  -2.77915136718750E+0003  -2.77921777343750E+0003  -2.77935229492188E+0003  -2.77954565429688E+0003  -2.77978808593750E+0003  -2.78006909179688E+0003  -2.78037573242188E+0003  -2.78069409179688E+0003  -2.78101049804688E+0003  -2.78131494140625E+0003  -2.78160131835938E+0003  -2.78186572265625E+0003  -2.78210302734375E+0003  -2.78230908203125E+0003  -2.78247924804688E+0003  -2.78260986328125E+0003  -2.78269677734375E+0003  -2.78274072265625E+0003  -2.78274926757813E+0003  -2.78272998046875E+0003  -2.78269018554688E+0003  -2.78263745117188E+0003  -2.78257861328125E+0003  -2.78252026367188E+0003  -2.78246875000000E+0003  -2.78242187500000E+0003  -2.78237182617188E+0003  -2.78230981445313E+0003  -2.78222680664063E+0003  -2.78211254882813E+0003  -2.78195458984375E+0003  -2.78174047851563E+0003  -2.78146044921875E+0003  -2.78112084960938E+0003  -2.78073559570313E+0003  -2.78031713867188E+0003  -2.77987988281250E+0003  -2.77945092773438E+0003  -2.77906542968750E+0003  -2.77877490234375E+0003  -2.77862060546875E+0003  -2.77857202148438E+0003  -2.77858227539063E+0003  -2.77861791992188E+0003  -2.77865454101563E+0003  -2.77868261718750E+0003  -2.77869580078125E+0003  -2.77868530273438E+0003  -2.77864477539063E+0003  -2.77857397460938E+0003  -2.77847338867188E+0003  -2.77834350585938E+0003  -2.77819067382813E+0003  -2.77803222656250E+0003  -2.77788696289063E+0003  -2.77777416992188E+0003  -2.77770458984375E+0003  -2.77767700195313E+0003  -2.77768872070313E+0003  -2.77773706054688E+0003  -2.77781835937500E+0003  -2.77792919921875E+0003  -2.77806494140625E+0003  -2.77822167968750E+0003  -2.77839648437500E+0003  -2.77858789062500E+0003  -2.77879443359375E+0003  -2.77901416015625E+0003  -2.77924584960938E+0003  -2.77948779296875E+0003  -2.77973828125000E+0003  -2.77999609375000E+0003  -2.78025976562500E+0003  -2.78052929687500E+0003  -2.78080371093750E+0003  -2.78108251953125E+0003  -2.78136499023438E+0003  -2.78165039062500E+0003  -2.78193847656250E+0003  -2.78222827148438E+0003  -2.78251904296875E+0003  -2.78280932617188E+0003  -2.78309838867188E+0003  -2.78338476562500E+0003  -2.78366772460938E+0003  -2.78394580078125E+0003  -2.78421801757813E+0003
  -2.79527172851563E+0003  -2.79487011718750E+0003  -2.79445996093750E+0003  -2.79404101562500E+0003  -2.79361328125000E+0003  -2.79317675781250E+0003  -2.79273168945313E+0003  -2.79227758789063E+0003  -2.79181347656250E+0003  -2.79133764648438E+0003  -2.79084863281250E+0003  -2.79034521484375E+0003  -2.78982543945313E+0003  -2.78928784179688E+0003  -2.78873120117188E+0003  -2.78815527343750E+0003  -2.78756494140625E+0003  -2.78696508789063E+0003  -2.78636132812500E+0003  -2.78575903320313E+0003  -2.78516357421875E+0003  -2.78458032226563E+0003  -2.78401440429688E+0003  -2.78346972656250E+0003  -2.78294604492188E+0003  -2.78244360351563E+0003  -2.78196215820313E+0003  -2.78150170898438E+0003  -2.78106250000000E+0003  -2.78064526367188E+0003  -2.78025048828125E+0003  -2.77987524414063E+0003  -2.77951342773438E+0003  -2.77915820312500E+0003  -2.77880297851563E+0003  -2.77844140625000E+0003  -2.77806835937500E+0003  -2.77767895507813E+0003  -2.77726953125000E+0003  -2.77685864257813E+0003  -2.77648120117188E+0003  -2.77617187500000E+0003  -2.77596411132813E+0003  -2.77588623046875E+0003  -2.77596191406250E+0003  -2.77621191406250E+0003  -2.77664624023438E+0003  -2.77721069335938E+0003  -2.77782104492188E+0003  -2.77839575195313E+0003  -2.77886499023438E+0003  -2.77922924804688E+0003  -2.77951342773438E+0003  -2.77974365234375E+0003  -2.77993505859375E+0003  -2.78005151367188E+0003  -2.78004272460938E+0003  -2.77985449218750E+0003  -2.77947241210938E+0003  -2.77901831054688E+0003  -2.77864257812500E+0003  -2.77849633789063E+0003  -2.77869531250000E+0003  -2.77926440429688E+0003  -2.78018066406250E+0003  -2.78134375000000E+0003  -2.78263012695313E+0003  -2.78389331054688E+0003  -2.78498315429688E+0003  -2.78575146484375E+0003  -2.78614233398438E+0003  -2.78624536132813E+0003  -2.78616308593750E+0003  -2.78599633789063E+0003  -2.78580175781250E+0003  -2.78557958984375E+0003  -2.78532714843750E+0003  -2.78504199218750E+0003  -2.78473022460938E+0003  -2.78440673828125E+0003  -2.78408691406250E+0003  -2.78378564453125E+0003  -2.78351123046875E+0003  -2.78326635742188E+0003  -2.78305615234375E+0003  -2.78288476562500E+0003  -2.78273071289063E+0003  -2.78255712890625E+0003  -2.78233471679688E+0003  -2.78204614257813E+0003  -2.78175219726563E+0003  -2.78155029296875E+0003  -2.78152856445313E+0003  -2.78175610351563E+0003  -2.78221020507813E+0003  -2.78282397460938E+0003  -2.78349145507813E+0003  -2.78410424804688E+0003  -2.78460888671875E+0003  -2.78496899414063E+0003  -2.78515258789063E+0003  -2.78514331054688E+0003  -2.78497680664063E+0003  -2.78470141601563E+0003  -2.78436547851563E+0003  -2.78401928710938E+0003  -2.78372070312500E+0003  -2.78352758789063E+0003  -2.78349877929688E+0003  -2.78366870117188E+0003  -2.78401904296875E+0003  -2.78452490234375E+0003  -2.78516015625000E+0003  -2.78588256835938E+0003  -2.78661987304688E+0003  -2.78729711914063E+0003  -2.78783935546875E+0003  -2.78821313476563E+0003  -2.78844018554688E+0003  -2.78855200195313E+0003  -2.78858398437500E+0003  -2.78855175781250E+0003  -2.78844897460938E+0003  -2.78827050781250E+0003  -2.78801416015625E+0003  -2.78768530273438E+0003  -2.78729541015625E+0003  -2.78685571289063E+0003  -2.78637622070313E+0003  -2.78586743164063E+0003  -2.78534082031250E+0003  -2.78480712890625E+0003  -2.78427709960938E+0003  -2.78375659179688E+0003  -2.78324926757813E+0003  -2.78275830078125E+0003  -2.78228710937500E+0003  -2.78183959960938E+0003  -2.78141894531250E+0003  -2.78102832031250E+0003  -2.78067187500000E+0003  -2.78035278320313E+0003  -2.78007519531250E+0003  -2.77984301757813E+0003  -2.77966015625000E+0003  -2.77953125000000E+0003  -2.77946069335938E+0003  -2.77945288085938E+0003  -2.77951000976563E+0003  -2.77962475585938E+0003  -2.77978833007813E+0003  -2.77999194335938E+0003  -2.78022607421875E+0003  -2.78048046875000E+0003  -2.78074462890625E+0003  -2.78100805664063E+0003  -2.78126245117188E+0003  -2.78150341796875E+0003  -2.78172705078125E+0003  -2.78192993164063E+0003  -2.78210791015625E+0003  -2.78225781250000E+0003  -2.78237548828125E+0003  -2.78245800781250E+0003  -2.78250561523438E+0003  -2.78252416992188E+0003  -2.78251953125000E+0003  -2.78249780273438E+0003  -2.78246459960938E+0003  -2.78242578125000E+0003  -2.78238696289063E+0003  -2.78235327148438E+0003  -2.78232250976563E+0003  -2.78228735351563E+0003  -2.78223999023438E+0003  -2.78217211914063E+0003  -2.78207275390625E+0003  -2.78192944335938E+0003  -2.78172900390625E+0003  -2.78146044921875E+0003  -2.78112792968750E+0003  -2.78074194335938E+0003  -2.78031079101563E+0003  -2.77984570312500E+0003  -2.77937768554688E+0003  -2.77894970703125E+0003  -2.77862915039063E+0003  -2.77847045898438E+0003  -2.77843505859375E+0003  -2.77846166992188E+0003  -2.77851049804688E+0003  -2.77855346679688E+0003  -2.77858056640625E+0003  -2.77858642578125E+0003  -2.77856176757813E+0003  -2.77850097656250E+0003  -2.77840844726563E+0003  -2.77829003906250E+0003  -2.77815185546875E+0003  -2.77800244140625E+0003  -2.77785620117188E+0003  -2.77772778320313E+0003  -2.77763232421875E+0003  -2.77757836914063E+0003  -2.77756420898438E+0003  -2.77758666992188E+0003  -2.77764355468750E+0003  -2.77773120117188E+0003  -2.77784594726563E+0003  -2.77798486328125E+0003  -2.77814355468750E+0003  -2.77832006835938E+0003  -2.77851220703125E+0003  -2.77871899414063E+0003  -2.77893847656250E+0003  -2.77916918945313E+0003  -2.77940942382813E+0003  -2.77965795898438E+0003  -2.77991308593750E+0003  -2.78017407226563E+0003  -2.78043994140625E+0003  -2.78071044921875E+0003  -2.78098510742188E+0003  -2.78126318359375E+0003  -2.78154418945313E+0003  -2.78182763671875E+0003  -2.78211303710938E+0003  -2.78239916992188E+0003  -2.78268530273438E+0003  -2.78296997070313E+0003  -2.78325219726563E+0003  -2.78353125000000E+0003  -2.78380566406250E+0003  -2.78407470703125E+0003
  -2.79473925781250E+0003  -2.79433764648438E+0003  -2.79392749023438E+0003  -2.79350952148438E+0003  -2.79308325195313E+0003  -2.79264892578125E+0003  -2.79220629882813E+0003  -2.79175537109375E+0003  -2.79129443359375E+0003  -2.79082202148438E+0003  -2.79033569335938E+0003  -2.78983398437500E+0003  -2.78931469726563E+0003  -2.78877612304688E+0003  -2.78821630859375E+0003  -2.78763500976563E+0003  -2.78703735351563E+0003  -2.78642944335938E+0003  -2.78581689453125E+0003  -2.78520605468750E+0003  -2.78460278320313E+0003  -2.78401293945313E+0003  -2.78344238281250E+0003  -2.78289477539063E+0003  -2.78237060546875E+0003  -2.78186938476563E+0003  -2.78139062500000E+0003  -2.78093359375000E+0003  -2.78049633789063E+0003  -2.78007739257813E+0003  -2.77967431640625E+0003  -2.77928662109375E+0003  -2.77891333007813E+0003  -2.77855419921875E+0003  -2.77820874023438E+0003  -2.77787817382813E+0003  -2.77756591796875E+0003  -2.77727465820313E+0003  -2.77700878906250E+0003  -2.77678271484375E+0003  -2.77661816406250E+0003  -2.77653759765625E+0003  -2.77656127929688E+0003  -2.77669677734375E+0003  -2.77694335937500E+0003  -2.77729956054688E+0003  -2.77775781250000E+0003  -2.77827539062500E+0003  -2.77879321289063E+0003  -2.77925292968750E+0003  -2.77960571289063E+0003  -2.77985961914063E+0003  -2.78004174804688E+0003  -2.78017993164063E+0003  -2.78029052734375E+0003  -2.78034106445313E+0003  -2.78028540039063E+0003  -2.78007568359375E+0003  -2.77970410156250E+0003  -2.77929394531250E+0003  -2.77899682617188E+0003  -2.77896362304688E+0003  -2.77930224609375E+0003  -2.78000659179688E+0003  -2.78103247070313E+0003  -2.78229052734375E+0003  -2.78366186523438E+0003  -2.78498168945313E+0003  -2.78608520507813E+0003  -2.78682080078125E+0003  -2.78713793945313E+0003  -2.78714697265625E+0003  -2.78696948242188E+0003  -2.78672485351563E+0003  -2.78647656250000E+0003  -2.78621997070313E+0003  -2.78594531250000E+0003  -2.78564428710938E+0003  -2.78531860351563E+0003  -2.78498120117188E+0003  -2.78464526367188E+0003  -2.78432373046875E+0003  -2.78402514648438E+0003  -2.78375439453125E+0003  -2.78351733398438E+0003  -2.78331860351563E+0003  -2.78314770507813E+0003  -2.78298632812500E+0003  -2.78281738281250E+0003  -2.78263085937500E+0003  -2.78247509765625E+0003  -2.78242529296875E+0003  -2.78255493164063E+0003  -2.78291992187500E+0003  -2.78346752929688E+0003  -2.78410205078125E+0003  -2.78471533203125E+0003  -2.78520849609375E+0003  -2.78554394531250E+0003  -2.78570361328125E+0003  -2.78567041015625E+0003  -2.78544067382813E+0003  -2.78505444335938E+0003  -2.78456347656250E+0003  -2.78401879882813E+0003  -2.78347583007813E+0003  -2.78299951171875E+0003  -2.78265649414063E+0003  -2.78251391601563E+0003  -2.78261132812500E+0003  -2.78292993164063E+0003  -2.78344140625000E+0003  -2.78411816406250E+0003  -2.78491137695313E+0003  -2.78573730468750E+0003  -2.78650830078125E+0003  -2.78713818359375E+0003  -2.78758740234375E+0003  -2.78788183593750E+0003  -2.78805395507813E+0003  -2.78813818359375E+0003  -2.78815112304688E+0003  -2.78808984375000E+0003  -2.78795263671875E+0003  -2.78773779296875E+0003  -2.78745092773438E+0003  -2.78710205078125E+0003  -2.78670141601563E+0003  -2.78625903320313E+0003  -2.78578540039063E+0003  -2.78529077148438E+0003  -2.78478613281250E+0003  -2.78428149414063E+0003  -2.78378295898438E+0003  -2.78329541015625E+0003  -2.78282250976563E+0003  -2.78236889648438E+0003  -2.78193872070313E+0003  -2.78153613281250E+0003  -2.78116528320313E+0003  -2.78083056640625E+0003  -2.78053442382813E+0003  -2.78027954101563E+0003  -2.78006860351563E+0003  -2.77990380859375E+0003  -2.77978784179688E+0003  -2.77972387695313E+0003  -2.77971435546875E+0003  -2.77976000976563E+0003  -2.77985449218750E+0003  -2.77999023437500E+0003  -2.78015917968750E+0003  -2.78035351562500E+0003  -2.78056469726563E+0003  -2.78078442382813E+0003  -2.78100390625000E+0003  -2.78121655273438E+0003  -2.78141870117188E+0003  -2.78160766601563E+0003  -2.78178027343750E+0003  -2.78193359375000E+0003  -2.78206445312500E+0003  -2.78217016601563E+0003  -2.78224780273438E+0003  -2.78229760742188E+0003  -2.78232421875000E+0003  -2.78233203125000E+0003  -2.78232617187500E+0003  -2.78231103515625E+0003  -2.78229125976563E+0003  -2.78227124023438E+0003  -2.78225537109375E+0003  -2.78224145507813E+0003  -2.78222338867188E+0003  -2.78219409179688E+0003  -2.78214648437500E+0003  -2.78207031250000E+0003  -2.78195190429688E+0003  -2.78177880859375E+0003  -2.78153906250000E+0003  -2.78123266601563E+0003  -2.78086523437500E+0003  -2.78043945312500E+0003  -2.77996264648438E+0003  -2.77946923828125E+0003  -2.77901000976563E+0003  -2.77866064453125E+0003  -2.77848291015625E+0003  -2.77843579101563E+0003  -2.77845385742188E+0003  -2.77849414062500E+0003  -2.77852612304688E+0003  -2.77853930664063E+0003  -2.77852783203125E+0003  -2.77848291015625E+0003  -2.77839892578125E+0003  -2.77828369140625E+0003  -2.77814672851563E+0003  -2.77799707031250E+0003  -2.77784570312500E+0003  -2.77770434570313E+0003  -2.77758496093750E+0003  -2.77750024414063E+0003  -2.77745678710938E+0003  -2.77745239257813E+0003  -2.77748388671875E+0003  -2.77754833984375E+0003  -2.77764257812500E+0003  -2.77776293945313E+0003  -2.77790600585938E+0003  -2.77806860351563E+0003  -2.77824780273438E+0003  -2.77844238281250E+0003  -2.77865039062500E+0003  -2.77887060546875E+0003  -2.77910131835938E+0003  -2.77934106445313E+0003  -2.77958813476563E+0003  -2.77984130859375E+0003  -2.78009936523438E+0003  -2.78036206054688E+0003  -2.78062890625000E+0003  -2.78089941406250E+0003  -2.78117309570313E+0003  -2.78144970703125E+0003  -2.78172851562500E+0003  -2.78200927734375E+0003  -2.78229077148438E+0003  -2.78257226562500E+0003  -2.78285253906250E+0003  -2.78313085937500E+0003  -2.78340576171875E+0003  -2.78367651367188E+0003  -2.78394189453125E+0003
  -2.79422216796875E+0003  -2.79382055664063E+0003  -2.79341137695313E+0003  -2.79299462890625E+0003  -2.79257031250000E+0003  -2.79213842773438E+0003  -2.79169921875000E+0003  -2.79125219726563E+0003  -2.79079541015625E+0003  -2.79032690429688E+0003  -2.78984423828125E+0003  -2.78934545898438E+0003  -2.78882763671875E+0003  -2.78828930664063E+0003  -2.78772778320313E+0003  -2.78714257812500E+0003  -2.78653979492188E+0003  -2.78592529296875E+0003  -2.78530615234375E+0003  -2.78468847656250E+0003  -2.78407910156250E+0003  -2.78348413085938E+0003  -2.78291015625000E+0003  -2.78236132812500E+0003  -2.78183740234375E+0003  -2.78133789062500E+0003  -2.78086230468750E+0003  -2.78040820312500E+0003  -2.77997070312500E+0003  -2.77954492187500E+0003  -2.77912573242188E+0003  -2.77871386718750E+0003  -2.77831616210938E+0003  -2.77793969726563E+0003  -2.77759179687500E+0003  -2.77728369140625E+0003  -2.77703027343750E+0003  -2.77684692382813E+0003  -2.77674829101563E+0003  -2.77674462890625E+0003  -2.77684277343750E+0003  -2.77704907226563E+0003  -2.77736840820313E+0003  -2.77778173828125E+0003  -2.77825708007813E+0003  -2.77876196289063E+0003  -2.77926391601563E+0003  -2.77973291015625E+0003  -2.78013964843750E+0003  -2.78045507812500E+0003  -2.78065795898438E+0003  -2.78076733398438E+0003  -2.78081713867188E+0003  -2.78084106445313E+0003  -2.78086132812500E+0003  -2.78085083007813E+0003  -2.78076953125000E+0003  -2.78057666015625E+0003  -2.78026855468750E+0003  -2.77996191406250E+0003  -2.77979882812500E+0003  -2.77992236328125E+0003  -2.78042407226563E+0003  -2.78126660156250E+0003  -2.78238500976563E+0003  -2.78369677734375E+0003  -2.78508496093750E+0003  -2.78636840820313E+0003  -2.78737866210938E+0003  -2.78798486328125E+0003  -2.78815917968750E+0003  -2.78802929687500E+0003  -2.78773266601563E+0003  -2.78739794921875E+0003  -2.78709130859375E+0003  -2.78680029296875E+0003  -2.78650756835938E+0003  -2.78619628906250E+0003  -2.78586376953125E+0003  -2.78552075195313E+0003  -2.78517895507813E+0003  -2.78484936523438E+0003  -2.78454077148438E+0003  -2.78425976562500E+0003  -2.78401318359375E+0003  -2.78380664062500E+0003  -2.78363745117188E+0003  -2.78349780273438E+0003  -2.78337890625000E+0003  -2.78327832031250E+0003  -2.78323632812500E+0003  -2.78331445312500E+0003  -2.78357446289063E+0003  -2.78405981445313E+0003  -2.78469921875000E+0003  -2.78537548828125E+0003  -2.78596630859375E+0003  -2.78636499023438E+0003  -2.78654736328125E+0003  -2.78651513671875E+0003  -2.78627270507813E+0003  -2.78583398437500E+0003  -2.78524487304688E+0003  -2.78455908203125E+0003  -2.78383203125000E+0003  -2.78312231445313E+0003  -2.78249877929688E+0003  -2.78203198242188E+0003  -2.78179296875000E+0003  -2.78182348632813E+0003  -2.78210400390625E+0003  -2.78260571289063E+0003  -2.78329858398438E+0003  -2.78413037109375E+0003  -2.78500903320313E+0003  -2.78583813476563E+0003  -2.78652270507813E+0003  -2.78701977539063E+0003  -2.78735717773438E+0003  -2.78756909179688E+0003  -2.78768920898438E+0003  -2.78773535156250E+0003  -2.78770751953125E+0003  -2.78760498046875E+0003  -2.78742724609375E+0003  -2.78717968750000E+0003  -2.78687133789063E+0003  -2.78651123046875E+0003  -2.78610888671875E+0003  -2.78567333984375E+0003  -2.78521484375000E+0003  -2.78474291992188E+0003  -2.78426708984375E+0003  -2.78379370117188E+0003  -2.78332788085938E+0003  -2.78287451171875E+0003  -2.78243896484375E+0003  -2.78202587890625E+0003  -2.78164038085938E+0003  -2.78128735351563E+0003  -2.78097167968750E+0003  -2.78069482421875E+0003  -2.78045874023438E+0003  -2.78026440429688E+0003  -2.78011352539063E+0003  -2.78000683593750E+0003  -2.77994628906250E+0003  -2.77993334960938E+0003  -2.77996752929688E+0003  -2.78004345703125E+0003  -2.78015405273438E+0003  -2.78029296875000E+0003  -2.78045336914063E+0003  -2.78062841796875E+0003  -2.78081079101563E+0003  -2.78099365234375E+0003  -2.78117163085938E+0003  -2.78134179687500E+0003  -2.78150195312500E+0003  -2.78164941406250E+0003  -2.78178198242188E+0003  -2.78189721679688E+0003  -2.78199267578125E+0003  -2.78206616210938E+0003  -2.78211791992188E+0003  -2.78215136718750E+0003  -2.78217041015625E+0003  -2.78217822265625E+0003  -2.78217895507813E+0003  -2.78217602539063E+0003  -2.78217309570313E+0003  -2.78217333984375E+0003  -2.78217553710938E+0003  -2.78217480468750E+0003  -2.78216577148438E+0003  -2.78214282226563E+0003  -2.78209643554688E+0003  -2.78201342773438E+0003  -2.78188159179688E+0003  -2.78168847656250E+0003  -2.78142968750000E+0003  -2.78110278320313E+0003  -2.78070385742188E+0003  -2.78023535156250E+0003  -2.77973608398438E+0003  -2.77926318359375E+0003  -2.77889038085938E+0003  -2.77867675781250E+0003  -2.77858837890625E+0003  -2.77856811523438E+0003  -2.77857470703125E+0003  -2.77857617187500E+0003  -2.77856127929688E+0003  -2.77852246093750E+0003  -2.77845092773438E+0003  -2.77834155273438E+0003  -2.77820361328125E+0003  -2.77804785156250E+0003  -2.77788574218750E+0003  -2.77772851562500E+0003  -2.77758642578125E+0003  -2.77747045898438E+0003  -2.77739086914063E+0003  -2.77735327148438E+0003  -2.77735522460938E+0003  -2.77739306640625E+0003  -2.77746386718750E+0003  -2.77756372070313E+0003  -2.77768945312500E+0003  -2.77783715820313E+0003  -2.77800341796875E+0003  -2.77818579101563E+0003  -2.77838281250000E+0003  -2.77859252929688E+0003  -2.77881347656250E+0003  -2.77904443359375E+0003  -2.77928344726563E+0003  -2.77952929687500E+0003  -2.77978051757813E+0003  -2.78003588867188E+0003  -2.78029541015625E+0003  -2.78055859375000E+0003  -2.78082519531250E+0003  -2.78109448242188E+0003  -2.78136645507813E+0003  -2.78164062500000E+0003  -2.78191650390625E+0003  -2.78219335937500E+0003  -2.78247021484375E+0003  -2.78274609375000E+0003  -2.78302001953125E+0003  -2.78329077148438E+0003  -2.78355761718750E+0003  -2.78381958007813E+0003
  -2.79372094726563E+0003  -2.79331982421875E+0003  -2.79291186523438E+0003  -2.79249707031250E+0003  -2.79207543945313E+0003  -2.79164697265625E+0003  -2.79121166992188E+0003  -2.79076928710938E+0003  -2.79031762695313E+0003  -2.78985400390625E+0003  -2.78937622070313E+0003  -2.78888134765625E+0003  -2.78836694335938E+0003  -2.78783032226563E+0003  -2.78726904296875E+0003  -2.78668261718750E+0003  -2.78607690429688E+0003  -2.78545874023438E+0003  -2.78483544921875E+0003  -2.78421386718750E+0003  -2.78360083007813E+0003  -2.78300317382813E+0003  -2.78242797851563E+0003  -2.78187939453125E+0003  -2.78135717773438E+0003  -2.78086059570313E+0003  -2.78038867187500E+0003  -2.77993774414063E+0003  -2.77949951171875E+0003  -2.77906518554688E+0003  -2.77862670898438E+0003  -2.77818652343750E+0003  -2.77775927734375E+0003  -2.77735986328125E+0003  -2.77700439453125E+0003  -2.77671484375000E+0003  -2.77652026367188E+0003  -2.77644970703125E+0003  -2.77653027343750E+0003  -2.77676806640625E+0003  -2.77715307617188E+0003  -2.77767626953125E+0003  -2.77832446289063E+0003  -2.77905004882813E+0003  -2.77978613281250E+0003  -2.78046459960938E+0003  -2.78102392578125E+0003  -2.78144628906250E+0003  -2.78173461914063E+0003  -2.78189233398438E+0003  -2.78192724609375E+0003  -2.78187353515625E+0003  -2.78177392578125E+0003  -2.78167138671875E+0003  -2.78159716796875E+0003  -2.78153076171875E+0003  -2.78143847656250E+0003  -2.78128613281250E+0003  -2.78107177734375E+0003  -2.78089941406250E+0003  -2.78089501953125E+0003  -2.78118457031250E+0003  -2.78184179687500E+0003  -2.78280468750000E+0003  -2.78399194335938E+0003  -2.78532568359375E+0003  -2.78668701171875E+0003  -2.78787255859375E+0003  -2.78871508789063E+0003  -2.78912792968750E+0003  -2.78911938476563E+0003  -2.78883300781250E+0003  -2.78841479492188E+0003  -2.78799365234375E+0003  -2.78763256835938E+0003  -2.78731127929688E+0003  -2.78700488281250E+0003  -2.78668872070313E+0003  -2.78635571289063E+0003  -2.78601513671875E+0003  -2.78567675781250E+0003  -2.78535058593750E+0003  -2.78504467773438E+0003  -2.78476708984375E+0003  -2.78452490234375E+0003  -2.78432568359375E+0003  -2.78417065429688E+0003  -2.78405761718750E+0003  -2.78398486328125E+0003  -2.78395410156250E+0003  -2.78400170898438E+0003  -2.78418017578125E+0003  -2.78454321289063E+0003  -2.78512500000000E+0003  -2.78584179687500E+0003  -2.78656176757813E+0003  -2.78714355468750E+0003  -2.78746484375000E+0003  -2.78751293945313E+0003  -2.78730883789063E+0003  -2.78687963867188E+0003  -2.78625927734375E+0003  -2.78549829101563E+0003  -2.78465209960938E+0003  -2.78377880859375E+0003  -2.78294042968750E+0003  -2.78220605468750E+0003  -2.78164624023438E+0003  -2.78133178710938E+0003  -2.78130468750000E+0003  -2.78154467773438E+0003  -2.78202221679688E+0003  -2.78270703125000E+0003  -2.78354418945313E+0003  -2.78443798828125E+0003  -2.78528759765625E+0003  -2.78599414062500E+0003  -2.78651220703125E+0003  -2.78687036132813E+0003  -2.78710351562500E+0003  -2.78724536132813E+0003  -2.78731445312500E+0003  -2.78731176757813E+0003  -2.78723779296875E+0003  -2.78709326171875E+0003  -2.78688232421875E+0003  -2.78661352539063E+0003  -2.78629443359375E+0003  -2.78593334960938E+0003  -2.78553857421875E+0003  -2.78511865234375E+0003  -2.78468212890625E+0003  -2.78423730468750E+0003  -2.78379101562500E+0003  -2.78334838867188E+0003  -2.78291577148438E+0003  -2.78249853515625E+0003  -2.78210229492188E+0003  -2.78173266601563E+0003  -2.78139575195313E+0003  -2.78109619140625E+0003  -2.78083569335938E+0003  -2.78061450195313E+0003  -2.78043334960938E+0003  -2.78029223632813E+0003  -2.78019189453125E+0003  -2.78013256835938E+0003  -2.78011499023438E+0003  -2.78013793945313E+0003  -2.78019653320313E+0003  -2.78028540039063E+0003  -2.78039843750000E+0003  -2.78053002929688E+0003  -2.78067456054688E+0003  -2.78082617187500E+0003  -2.78097875976563E+0003  -2.78112817382813E+0003  -2.78127221679688E+0003  -2.78140844726563E+0003  -2.78153564453125E+0003  -2.78165112304688E+0003  -2.78175366210938E+0003  -2.78184106445313E+0003  -2.78191137695313E+0003  -2.78196484375000E+0003  -2.78200415039063E+0003  -2.78203222656250E+0003  -2.78205200195313E+0003  -2.78206640625000E+0003  -2.78207812500000E+0003  -2.78208984375000E+0003  -2.78210473632813E+0003  -2.78212158203125E+0003  -2.78213745117188E+0003  -2.78214892578125E+0003  -2.78215209960938E+0003  -2.78213842773438E+0003  -2.78209570312500E+0003  -2.78201245117188E+0003  -2.78187719726563E+0003  -2.78167944335938E+0003  -2.78140771484375E+0003  -2.78105078125000E+0003  -2.78060400390625E+0003  -2.78011059570313E+0003  -2.77963354492188E+0003  -2.77924047851563E+0003  -2.77898486328125E+0003  -2.77884252929688E+0003  -2.77876953125000E+0003  -2.77872753906250E+0003  -2.77868627929688E+0003  -2.77863330078125E+0003  -2.77856030273438E+0003  -2.77845776367188E+0003  -2.77832177734375E+0003  -2.77816113281250E+0003  -2.77798754882813E+0003  -2.77781250000000E+0003  -2.77764672851563E+0003  -2.77750048828125E+0003  -2.77738330078125E+0003  -2.77730468750000E+0003  -2.77726977539063E+0003  -2.77727514648438E+0003  -2.77731762695313E+0003  -2.77739306640625E+0003  -2.77749780273438E+0003  -2.77762817382813E+0003  -2.77778027343750E+0003  -2.77795019531250E+0003  -2.77813574218750E+0003  -2.77833471679688E+0003  -2.77854589843750E+0003  -2.77876782226563E+0003  -2.77899877929688E+0003  -2.77923730468750E+0003  -2.77948168945313E+0003  -2.77973071289063E+0003  -2.77998364257813E+0003  -2.78023974609375E+0003  -2.78049926757813E+0003  -2.78076171875000E+0003  -2.78102661132813E+0003  -2.78129394531250E+0003  -2.78156347656250E+0003  -2.78183471679688E+0003  -2.78210693359375E+0003  -2.78237915039063E+0003  -2.78265039062500E+0003  -2.78291967773438E+0003  -2.78318627929688E+0003  -2.78344921875000E+0003  -2.78370751953125E+0003
  -2.79323632812500E+0003  -2.79283642578125E+0003  -2.79243017578125E+0003  -2.79201806640625E+0003  -2.79159960937500E+0003  -2.79117529296875E+0003  -2.79074462890625E+0003  -2.79030761718750E+0003  -2.78986206054688E+0003  -2.78940454101563E+0003  -2.78893286132813E+0003  -2.78844384765625E+0003  -2.78793457031250E+0003  -2.78740209960938E+0003  -2.78684375000000E+0003  -2.78625903320313E+0003  -2.78565380859375E+0003  -2.78503564453125E+0003  -2.78441186523438E+0003  -2.78378979492188E+0003  -2.78317675781250E+0003  -2.78257958984375E+0003  -2.78200585937500E+0003  -2.78145971679688E+0003  -2.78094116210938E+0003  -2.78044897460938E+0003  -2.77998217773438E+0003  -2.77953588867188E+0003  -2.77909838867188E+0003  -2.77865771484375E+0003  -2.77820263671875E+0003  -2.77773754882813E+0003  -2.77728442382813E+0003  -2.77686621093750E+0003  -2.77650634765625E+0003  -2.77623779296875E+0003  -2.77610375976563E+0003  -2.77614648437500E+0003  -2.77640527343750E+0003  -2.77688183593750E+0003  -2.77755102539063E+0003  -2.77838745117188E+0003  -2.77936206054688E+0003  -2.78039965820313E+0003  -2.78139794921875E+0003  -2.78225415039063E+0003  -2.78287622070313E+0003  -2.78325805664063E+0003  -2.78343237304688E+0003  -2.78343457031250E+0003  -2.78330200195313E+0003  -2.78308422851563E+0003  -2.78283422851563E+0003  -2.78260571289063E+0003  -2.78243994140625E+0003  -2.78232299804688E+0003  -2.78222631835938E+0003  -2.78212084960938E+0003  -2.78200537109375E+0003  -2.78196630859375E+0003  -2.78210937500000E+0003  -2.78253979492188E+0003  -2.78331250000000E+0003  -2.78435205078125E+0003  -2.78556933593750E+0003  -2.78689038085938E+0003  -2.78819213867188E+0003  -2.78924853515625E+0003  -2.78989550781250E+0003  -2.79010156250000E+0003  -2.78991552734375E+0003  -2.78949145507813E+0003  -2.78897534179688E+0003  -2.78848901367188E+0003  -2.78808764648438E+0003  -2.78774487304688E+0003  -2.78743041992188E+0003  -2.78711450195313E+0003  -2.78678662109375E+0003  -2.78645507812500E+0003  -2.78612841796875E+0003  -2.78581469726563E+0003  -2.78552197265625E+0003  -2.78525805664063E+0003  -2.78503149414063E+0003  -2.78484912109375E+0003  -2.78471508789063E+0003  -2.78463110351563E+0003  -2.78459863281250E+0003  -2.78462255859375E+0003  -2.78473559570313E+0003  -2.78498437500000E+0003  -2.78541601562500E+0003  -2.78605859375000E+0003  -2.78682104492188E+0003  -2.78756347656250E+0003  -2.78812939453125E+0003  -2.78838330078125E+0003  -2.78832055664063E+0003  -2.78797778320313E+0003  -2.78740234375000E+0003  -2.78664453125000E+0003  -2.78575805664063E+0003  -2.78479858398438E+0003  -2.78382641601563E+0003  -2.78290478515625E+0003  -2.78210058593750E+0003  -2.78148193359375E+0003  -2.78111621093750E+0003  -2.78104370117188E+0003  -2.78124316406250E+0003  -2.78168505859375E+0003  -2.78233862304688E+0003  -2.78314916992188E+0003  -2.78402099609375E+0003  -2.78485424804688E+0003  -2.78555078125000E+0003  -2.78606469726563E+0003  -2.78642456054688E+0003  -2.78666381835938E+0003  -2.78681542968750E+0003  -2.78689819335938E+0003  -2.78691357421875E+0003  -2.78686279296875E+0003  -2.78674682617188E+0003  -2.78657006835938E+0003  -2.78633911132813E+0003  -2.78606054687500E+0003  -2.78574121093750E+0003  -2.78538793945313E+0003  -2.78500805664063E+0003  -2.78460839843750E+0003  -2.78419604492188E+0003  -2.78377758789063E+0003  -2.78335937500000E+0003  -2.78294775390625E+0003  -2.78254882812500E+0003  -2.78216918945313E+0003  -2.78181469726563E+0003  -2.78149194335938E+0003  -2.78120654296875E+0003  -2.78095922851563E+0003  -2.78075000000000E+0003  -2.78057861328125E+0003  -2.78044482421875E+0003  -2.78034790039063E+0003  -2.78028808593750E+0003  -2.78026489257813E+0003  -2.78027709960938E+0003  -2.78032031250000E+0003  -2.78038989257813E+0003  -2.78048095703125E+0003  -2.78058837890625E+0003  -2.78070751953125E+0003  -2.78083349609375E+0003  -2.78096142578125E+0003  -2.78108740234375E+0003  -2.78120971679688E+0003  -2.78132690429688E+0003  -2.78143725585938E+0003  -2.78153930664063E+0003  -2.78163134765625E+0003  -2.78171215820313E+0003  -2.78178002929688E+0003  -2.78183496093750E+0003  -2.78187939453125E+0003  -2.78191528320313E+0003  -2.78194482421875E+0003  -2.78197070312500E+0003  -2.78199462890625E+0003  -2.78201904296875E+0003  -2.78204638671875E+0003  -2.78207617187500E+0003  -2.78210717773438E+0003  -2.78213745117188E+0003  -2.78216503906250E+0003  -2.78218261718750E+0003  -2.78217895507813E+0003  -2.78214428710938E+0003  -2.78206811523438E+0003  -2.78193457031250E+0003  -2.78172387695313E+0003  -2.78141552734375E+0003  -2.78099731445313E+0003  -2.78051586914063E+0003  -2.78003784179688E+0003  -2.77962817382813E+0003  -2.77933544921875E+0003  -2.77914331054688E+0003  -2.77901708984375E+0003  -2.77892333984375E+0003  -2.77883471679688E+0003  -2.77873925781250E+0003  -2.77862841796875E+0003  -2.77849365234375E+0003  -2.77833056640625E+0003  -2.77814819335938E+0003  -2.77795751953125E+0003  -2.77776953125000E+0003  -2.77759448242188E+0003  -2.77744189453125E+0003  -2.77732080078125E+0003  -2.77724072265625E+0003  -2.77720605468750E+0003  -2.77721337890625E+0003  -2.77725854492188E+0003  -2.77733764648438E+0003  -2.77744653320313E+0003  -2.77758081054688E+0003  -2.77773681640625E+0003  -2.77791015625000E+0003  -2.77809790039063E+0003  -2.77829907226563E+0003  -2.77851147460938E+0003  -2.77873364257813E+0003  -2.77896435546875E+0003  -2.77920214843750E+0003  -2.77944506835938E+0003  -2.77969189453125E+0003  -2.77994189453125E+0003  -2.78019482421875E+0003  -2.78045043945313E+0003  -2.78070874023438E+0003  -2.78096948242188E+0003  -2.78123217773438E+0003  -2.78149682617188E+0003  -2.78176318359375E+0003  -2.78203051757813E+0003  -2.78229809570313E+0003  -2.78256469726563E+0003  -2.78282958984375E+0003  -2.78309204101563E+0003  -2.78335083007813E+0003  -2.78360522460938E+0003
  -2.79276904296875E+0003  -2.79237084960938E+0003  -2.79196728515625E+0003  -2.79155810546875E+0003  -2.79114379882813E+0003  -2.79072412109375E+0003  -2.79029931640625E+0003  -2.78986865234375E+0003  -2.78942993164063E+0003  -2.78898022460938E+0003  -2.78851611328125E+0003  -2.78803466796875E+0003  -2.78753271484375E+0003  -2.78700732421875E+0003  -2.78645532226563E+0003  -2.78587622070313E+0003  -2.78527587890625E+0003  -2.78466210937500E+0003  -2.78404248046875E+0003  -2.78342456054688E+0003  -2.78281567382813E+0003  -2.78222314453125E+0003  -2.78165405273438E+0003  -2.78111328125000E+0003  -2.78060058593750E+0003  -2.78011474609375E+0003  -2.77965527343750E+0003  -2.77921582031250E+0003  -2.77878247070313E+0003  -2.77834106445313E+0003  -2.77787817382813E+0003  -2.77739965820313E+0003  -2.77693383789063E+0003  -2.77651000976563E+0003  -2.77615771484375E+0003  -2.77591918945313E+0003  -2.77584887695313E+0003  -2.77600073242188E+0003  -2.77642358398438E+0003  -2.77711572265625E+0003  -2.77803759765625E+0003  -2.77915136718750E+0003  -2.78041430664063E+0003  -2.78172753906250E+0003  -2.78295971679688E+0003  -2.78397680664063E+0003  -2.78465991210938E+0003  -2.78501123046875E+0003  -2.78508789062500E+0003  -2.78495288085938E+0003  -2.78467089843750E+0003  -2.78430541992188E+0003  -2.78391967773438E+0003  -2.78357763671875E+0003  -2.78333056640625E+0003  -2.78316845703125E+0003  -2.78306640625000E+0003  -2.78299829101563E+0003  -2.78296093750000E+0003  -2.78302319335938E+0003  -2.78326928710938E+0003  -2.78378320312500E+0003  -2.78460327148438E+0003  -2.78564916992188E+0003  -2.78682958984375E+0003  -2.78807153320313E+0003  -2.78925512695313E+0003  -2.79016333007813E+0003  -2.79065014648438E+0003  -2.79071508789063E+0003  -2.79042626953125E+0003  -2.78993310546875E+0003  -2.78937451171875E+0003  -2.78886181640625E+0003  -2.78844360351563E+0003  -2.78809277343750E+0003  -2.78777709960938E+0003  -2.78746630859375E+0003  -2.78714892578125E+0003  -2.78683227539063E+0003  -2.78652343750000E+0003  -2.78622924804688E+0003  -2.78595727539063E+0003  -2.78571533203125E+0003  -2.78551147460938E+0003  -2.78535253906250E+0003  -2.78524365234375E+0003  -2.78518774414063E+0003  -2.78518798828125E+0003  -2.78525024414063E+0003  -2.78540332031250E+0003  -2.78568725585938E+0003  -2.78614306640625E+0003  -2.78679321289063E+0003  -2.78754589843750E+0003  -2.78826171875000E+0003  -2.78878295898438E+0003  -2.78897363281250E+0003  -2.78883325195313E+0003  -2.78840649414063E+0003  -2.78774853515625E+0003  -2.78691723632813E+0003  -2.78596752929688E+0003  -2.78495532226563E+0003  -2.78394189453125E+0003  -2.78298950195313E+0003  -2.78216162109375E+0003  -2.78152124023438E+0003  -2.78113134765625E+0003  -2.78102832031250E+0003  -2.78119042968750E+0003  -2.78158740234375E+0003  -2.78218823242188E+0003  -2.78294067382813E+0003  -2.78375415039063E+0003  -2.78453515625000E+0003  -2.78519042968750E+0003  -2.78567724609375E+0003  -2.78602148437500E+0003  -2.78625439453125E+0003  -2.78640673828125E+0003  -2.78649560546875E+0003  -2.78652294921875E+0003  -2.78649047851563E+0003  -2.78639990234375E+0003  -2.78625439453125E+0003  -2.78605932617188E+0003  -2.78581982421875E+0003  -2.78554125976563E+0003  -2.78522924804688E+0003  -2.78488891601563E+0003  -2.78452636718750E+0003  -2.78414672851563E+0003  -2.78375659179688E+0003  -2.78336303710938E+0003  -2.78297241210938E+0003  -2.78259179687500E+0003  -2.78222802734375E+0003  -2.78188793945313E+0003  -2.78157812500000E+0003  -2.78130468750000E+0003  -2.78106835937500E+0003  -2.78086865234375E+0003  -2.78070458984375E+0003  -2.78057543945313E+0003  -2.78048022460938E+0003  -2.78041870117188E+0003  -2.78038964843750E+0003  -2.78039160156250E+0003  -2.78042114257813E+0003  -2.78047387695313E+0003  -2.78054589843750E+0003  -2.78063305664063E+0003  -2.78073095703125E+0003  -2.78083569335938E+0003  -2.78094311523438E+0003  -2.78105004882813E+0003  -2.78115478515625E+0003  -2.78125634765625E+0003  -2.78135327148438E+0003  -2.78144433593750E+0003  -2.78152807617188E+0003  -2.78160375976563E+0003  -2.78166943359375E+0003  -2.78172583007813E+0003  -2.78177392578125E+0003  -2.78181616210938E+0003  -2.78185375976563E+0003  -2.78188891601563E+0003  -2.78192285156250E+0003  -2.78195800781250E+0003  -2.78199536132813E+0003  -2.78203613281250E+0003  -2.78207958984375E+0003  -2.78212524414063E+0003  -2.78217285156250E+0003  -2.78221533203125E+0003  -2.78224340820313E+0003  -2.78224877929688E+0003  -2.78222265625000E+0003  -2.78214477539063E+0003  -2.78198950195313E+0003  -2.78172875976563E+0003  -2.78134448242188E+0003  -2.78088354492188E+0003  -2.78041430664063E+0003  -2.77999804687500E+0003  -2.77968017578125E+0003  -2.77944897460938E+0003  -2.77927612304688E+0003  -2.77913452148438E+0003  -2.77900024414063E+0003  -2.77886303710938E+0003  -2.77871508789063E+0003  -2.77854833984375E+0003  -2.77835961914063E+0003  -2.77815673828125E+0003  -2.77794995117188E+0003  -2.77774951171875E+0003  -2.77756494140625E+0003  -2.77740576171875E+0003  -2.77728027343750E+0003  -2.77719775390625E+0003  -2.77716259765625E+0003  -2.77717065429688E+0003  -2.77721777343750E+0003  -2.77729931640625E+0003  -2.77741137695313E+0003  -2.77754882812500E+0003  -2.77770800781250E+0003  -2.77788378906250E+0003  -2.77807373046875E+0003  -2.77827612304688E+0003  -2.77848925781250E+0003  -2.77871166992188E+0003  -2.77894165039063E+0003  -2.77917822265625E+0003  -2.77941918945313E+0003  -2.77966381835938E+0003  -2.77991064453125E+0003  -2.78016015625000E+0003  -2.78041210937500E+0003  -2.78066601562500E+0003  -2.78092236328125E+0003  -2.78118041992188E+0003  -2.78144018554688E+0003  -2.78170190429688E+0003  -2.78196435546875E+0003  -2.78222705078125E+0003  -2.78248901367188E+0003  -2.78274951171875E+0003  -2.78300756835938E+0003  -2.78326220703125E+0003  -2.78351293945313E+0003
  -2.79231958007813E+0003  -2.79192382812500E+0003  -2.79152343750000E+0003  -2.79111840820313E+0003  -2.79070898437500E+0003  -2.79029492187500E+0003  -2.78987646484375E+0003  -2.78945336914063E+0003  -2.78902294921875E+0003  -2.78858203125000E+0003  -2.78812719726563E+0003  -2.78765576171875E+0003  -2.78716381835938E+0003  -2.78664892578125E+0003  -2.78610717773438E+0003  -2.78553808593750E+0003  -2.78494799804688E+0003  -2.78434423828125E+0003  -2.78373437500000E+0003  -2.78312622070313E+0003  -2.78252685546875E+0003  -2.78194335937500E+0003  -2.78138330078125E+0003  -2.78085131835938E+0003  -2.78034716796875E+0003  -2.77987036132813E+0003  -2.77942041015625E+0003  -2.77899072265625E+0003  -2.77856665039063E+0003  -2.77813281250000E+0003  -2.77767504882813E+0003  -2.77720043945313E+0003  -2.77674218750000E+0003  -2.77633300781250E+0003  -2.77600659179688E+0003  -2.77581152343750E+0003  -2.77581005859375E+0003  -2.77606298828125E+0003  -2.77662597656250E+0003  -2.77749316406250E+0003  -2.77861499023438E+0003  -2.77994433593750E+0003  -2.78142919921875E+0003  -2.78295385742188E+0003  -2.78436621093750E+0003  -2.78550878906250E+0003  -2.78624243164063E+0003  -2.78657373046875E+0003  -2.78657666015625E+0003  -2.78633569335938E+0003  -2.78593603515625E+0003  -2.78545312500000E+0003  -2.78495800781250E+0003  -2.78452441406250E+0003  -2.78421069335938E+0003  -2.78401000976563E+0003  -2.78389697265625E+0003  -2.78384667968750E+0003  -2.78385205078125E+0003  -2.78396557617188E+0003  -2.78425219726563E+0003  -2.78477709960938E+0003  -2.78556469726563E+0003  -2.78653686523438E+0003  -2.78760473632813E+0003  -2.78869165039063E+0003  -2.78969360351563E+0003  -2.79044848632813E+0003  -2.79084521484375E+0003  -2.79087573242188E+0003  -2.79059204101563E+0003  -2.79012280273438E+0003  -2.78959057617188E+0003  -2.78909838867188E+0003  -2.78869189453125E+0003  -2.78834814453125E+0003  -2.78803906250000E+0003  -2.78773828125000E+0003  -2.78743603515625E+0003  -2.78713842773438E+0003  -2.78685180664063E+0003  -2.78658227539063E+0003  -2.78633642578125E+0003  -2.78612158203125E+0003  -2.78594482421875E+0003  -2.78581298828125E+0003  -2.78573022460938E+0003  -2.78569970703125E+0003  -2.78572387695313E+0003  -2.78580834960938E+0003  -2.78597631835938E+0003  -2.78626000976563E+0003  -2.78669262695313E+0003  -2.78729077148438E+0003  -2.78796850585938E+0003  -2.78859790039063E+0003  -2.78903686523438E+0003  -2.78916528320313E+0003  -2.78898461914063E+0003  -2.78853613281250E+0003  -2.78786889648438E+0003  -2.78703540039063E+0003  -2.78609008789063E+0003  -2.78508959960938E+0003  -2.78409448242188E+0003  -2.78316479492188E+0003  -2.78235815429688E+0003  -2.78173242187500E+0003  -2.78134472656250E+0003  -2.78122705078125E+0003  -2.78135644531250E+0003  -2.78170239257813E+0003  -2.78223339843750E+0003  -2.78290087890625E+0003  -2.78362475585938E+0003  -2.78432153320313E+0003  -2.78490917968750E+0003  -2.78534936523438E+0003  -2.78566430664063E+0003  -2.78588134765625E+0003  -2.78602709960938E+0003  -2.78611596679688E+0003  -2.78615087890625E+0003  -2.78613305664063E+0003  -2.78606420898438E+0003  -2.78594702148438E+0003  -2.78578515625000E+0003  -2.78558227539063E+0003  -2.78534252929688E+0003  -2.78506958007813E+0003  -2.78476757812500E+0003  -2.78444067382813E+0003  -2.78409301757813E+0003  -2.78373071289063E+0003  -2.78336108398438E+0003  -2.78299121093750E+0003  -2.78262866210938E+0003  -2.78228051757813E+0003  -2.78195385742188E+0003  -2.78165576171875E+0003  -2.78139306640625E+0003  -2.78116577148438E+0003  -2.78097338867188E+0003  -2.78081469726563E+0003  -2.78068847656250E+0003  -2.78059375000000E+0003  -2.78052929687500E+0003  -2.78049438476563E+0003  -2.78048706054688E+0003  -2.78050439453125E+0003  -2.78054272460938E+0003  -2.78059863281250E+0003  -2.78066821289063E+0003  -2.78074853515625E+0003  -2.78083569335938E+0003  -2.78092602539063E+0003  -2.78101733398438E+0003  -2.78110766601563E+0003  -2.78119653320313E+0003  -2.78128247070313E+0003  -2.78136474609375E+0003  -2.78144189453125E+0003  -2.78151318359375E+0003  -2.78157714843750E+0003  -2.78163427734375E+0003  -2.78168554687500E+0003  -2.78173242187500E+0003  -2.78177612304688E+0003  -2.78181835937500E+0003  -2.78186035156250E+0003  -2.78190356445313E+0003  -2.78194921875000E+0003  -2.78199804687500E+0003  -2.78205078125000E+0003  -2.78210742187500E+0003  -2.78216796875000E+0003  -2.78222680664063E+0003  -2.78227539062500E+0003  -2.78230712890625E+0003  -2.78231396484375E+0003  -2.78227490234375E+0003  -2.78216113281250E+0003  -2.78194189453125E+0003  -2.78159594726563E+0003  -2.78116699218750E+0003  -2.78072119140625E+0003  -2.78031347656250E+0003  -2.77998535156250E+0003  -2.77972851562500E+0003  -2.77952026367188E+0003  -2.77933886718750E+0003  -2.77916552734375E+0003  -2.77899096679688E+0003  -2.77880932617188E+0003  -2.77861352539063E+0003  -2.77840112304688E+0003  -2.77817993164063E+0003  -2.77795874023438E+0003  -2.77774731445313E+0003  -2.77755468750000E+0003  -2.77738940429688E+0003  -2.77726025390625E+0003  -2.77717553710938E+0003  -2.77713940429688E+0003  -2.77714794921875E+0003  -2.77719628906250E+0003  -2.77728002929688E+0003  -2.77739404296875E+0003  -2.77753417968750E+0003  -2.77769531250000E+0003  -2.77787280273438E+0003  -2.77806396484375E+0003  -2.77826660156250E+0003  -2.77847973632813E+0003  -2.77870141601563E+0003  -2.77893041992188E+0003  -2.77916528320313E+0003  -2.77940429687500E+0003  -2.77964599609375E+0003  -2.77988964843750E+0003  -2.78013549804688E+0003  -2.78038354492188E+0003  -2.78063330078125E+0003  -2.78088476562500E+0003  -2.78113818359375E+0003  -2.78139355468750E+0003  -2.78165014648438E+0003  -2.78190795898438E+0003  -2.78216577148438E+0003  -2.78242309570313E+0003  -2.78267895507813E+0003  -2.78293261718750E+0003  -2.78318310546875E+0003  -2.78342993164063E+0003
  -2.79188916015625E+0003  -2.79149658203125E+0003  -2.79110009765625E+0003  -2.79069970703125E+0003  -2.79029589843750E+0003  -2.78988842773438E+0003  -2.78947753906250E+0003  -2.78906274414063E+0003  -2.78864184570313E+0003  -2.78821142578125E+0003  -2.78776831054688E+0003  -2.78730883789063E+0003  -2.78683056640625E+0003  -2.78632934570313E+0003  -2.78580273437500E+0003  -2.78524926757813E+0003  -2.78467553710938E+0003  -2.78408837890625E+0003  -2.78349511718750E+0003  -2.78290332031250E+0003  -2.78231982421875E+0003  -2.78175146484375E+0003  -2.78120507812500E+0003  -2.78068530273438E+0003  -2.78019262695313E+0003  -2.77972753906250E+0003  -2.77928979492188E+0003  -2.77887329101563E+0003  -2.77846411132813E+0003  -2.77804736328125E+0003  -2.77760864257813E+0003  -2.77715722656250E+0003  -2.77672753906250E+0003  -2.77635498046875E+0003  -2.77607495117188E+0003  -2.77593872070313E+0003  -2.77601098632813E+0003  -2.77635546875000E+0003  -2.77703002929688E+0003  -2.77802587890625E+0003  -2.77928759765625E+0003  -2.78076220703125E+0003  -2.78239111328125E+0003  -2.78404931640625E+0003  -2.78557226562500E+0003  -2.78678979492188E+0003  -2.78755151367188E+0003  -2.78786718750000E+0003  -2.78782104492188E+0003  -2.78750903320313E+0003  -2.78702905273438E+0003  -2.78646386718750E+0003  -2.78589086914063E+0003  -2.78539062500000E+0003  -2.78502783203125E+0003  -2.78479516601563E+0003  -2.78466748046875E+0003  -2.78461889648438E+0003  -2.78463818359375E+0003  -2.78476342773438E+0003  -2.78504272460938E+0003  -2.78552490234375E+0003  -2.78622436523438E+0003  -2.78707104492188E+0003  -2.78798388671875E+0003  -2.78888793945313E+0003  -2.78969946289063E+0003  -2.79031713867188E+0003  -2.79066455078125E+0003  -2.79071484375000E+0003  -2.79049414062500E+0003  -2.79010278320313E+0003  -2.78964233398438E+0003  -2.78920385742188E+0003  -2.78883056640625E+0003  -2.78850610351563E+0003  -2.78821069335938E+0003  -2.78792480468750E+0003  -2.78764160156250E+0003  -2.78736669921875E+0003  -2.78710571289063E+0003  -2.78686401367188E+0003  -2.78664721679688E+0003  -2.78646166992188E+0003  -2.78631396484375E+0003  -2.78620947265625E+0003  -2.78615161132813E+0003  -2.78614233398438E+0003  -2.78618237304688E+0003  -2.78627563476563E+0003  -2.78643920898438E+0003  -2.78669677734375E+0003  -2.78707348632813E+0003  -2.78757958984375E+0003  -2.78814086914063E+0003  -2.78864843750000E+0003  -2.78898657226563E+0003  -2.78905810546875E+0003  -2.78886376953125E+0003  -2.78843530273438E+0003  -2.78780834960938E+0003  -2.78702319335938E+0003  -2.78613232421875E+0003  -2.78519165039063E+0003  -2.78425854492188E+0003  -2.78339013671875E+0003  -2.78263793945313E+0003  -2.78205297851563E+0003  -2.78168652343750E+0003  -2.78156616210938E+0003  -2.78166772460938E+0003  -2.78196044921875E+0003  -2.78241333007813E+0003  -2.78298168945313E+0003  -2.78359838867188E+0003  -2.78419360351563E+0003  -2.78469848632813E+0003  -2.78508056640625E+0003  -2.78535839843750E+0003  -2.78555346679688E+0003  -2.78568774414063E+0003  -2.78577270507813E+0003  -2.78581127929688E+0003  -2.78580419921875E+0003  -2.78575341796875E+0003  -2.78566064453125E+0003  -2.78552807617188E+0003  -2.78535839843750E+0003  -2.78515380859375E+0003  -2.78491650390625E+0003  -2.78464990234375E+0003  -2.78435620117188E+0003  -2.78403833007813E+0003  -2.78370239257813E+0003  -2.78335595703125E+0003  -2.78300634765625E+0003  -2.78266113281250E+0003  -2.78232788085938E+0003  -2.78201391601563E+0003  -2.78172705078125E+0003  -2.78147363281250E+0003  -2.78125415039063E+0003  -2.78106762695313E+0003  -2.78091284179688E+0003  -2.78078833007813E+0003  -2.78069311523438E+0003  -2.78062548828125E+0003  -2.78058471679688E+0003  -2.78056909179688E+0003  -2.78057543945313E+0003  -2.78060131835938E+0003  -2.78064306640625E+0003  -2.78069824218750E+0003  -2.78076342773438E+0003  -2.78083569335938E+0003  -2.78091210937500E+0003  -2.78099023437500E+0003  -2.78106884765625E+0003  -2.78114721679688E+0003  -2.78122436523438E+0003  -2.78129907226563E+0003  -2.78137060546875E+0003  -2.78143798828125E+0003  -2.78150048828125E+0003  -2.78155761718750E+0003  -2.78161083984375E+0003  -2.78166088867188E+0003  -2.78170922851563E+0003  -2.78175659179688E+0003  -2.78180419921875E+0003  -2.78185327148438E+0003  -2.78190478515625E+0003  -2.78195947265625E+0003  -2.78201782226563E+0003  -2.78208081054688E+0003  -2.78214794921875E+0003  -2.78221484375000E+0003  -2.78227368164063E+0003  -2.78231860351563E+0003  -2.78234228515625E+0003  -2.78232470703125E+0003  -2.78223803710938E+0003  -2.78205297851563E+0003  -2.78174877929688E+0003  -2.78136279296875E+0003  -2.78095312500000E+0003  -2.78056713867188E+0003  -2.78024145507813E+0003  -2.77997070312500E+0003  -2.77973754882813E+0003  -2.77952563476563E+0003  -2.77932031250000E+0003  -2.77911499023438E+0003  -2.77890454101563E+0003  -2.77868408203125E+0003  -2.77845190429688E+0003  -2.77821508789063E+0003  -2.77798217773438E+0003  -2.77776196289063E+0003  -2.77756323242188E+0003  -2.77739355468750E+0003  -2.77726171875000E+0003  -2.77717578125000E+0003  -2.77713916015625E+0003  -2.77714770507813E+0003  -2.77719677734375E+0003  -2.77728149414063E+0003  -2.77739672851563E+0003  -2.77753784179688E+0003  -2.77769995117188E+0003  -2.77787817382813E+0003  -2.77806909179688E+0003  -2.77827148437500E+0003  -2.77848364257813E+0003  -2.77870385742188E+0003  -2.77893115234375E+0003  -2.77916357421875E+0003  -2.77939965820313E+0003  -2.77963818359375E+0003  -2.77987841796875E+0003  -2.78012060546875E+0003  -2.78036425781250E+0003  -2.78060961914063E+0003  -2.78085693359375E+0003  -2.78110546875000E+0003  -2.78135595703125E+0003  -2.78160791015625E+0003  -2.78186083984375E+0003  -2.78211401367188E+0003  -2.78236645507813E+0003  -2.78261791992188E+0003  -2.78286694335938E+0003  -2.78311328125000E+0003  -2.78335620117188E+0003
  -2.79147827148438E+0003  -2.79108959960938E+0003  -2.79069775390625E+0003  -2.79030297851563E+0003  -2.78990551757813E+0003  -2.78950561523438E+0003  -2.78910327148438E+0003  -2.78869824218750E+0003  -2.78828833007813E+0003  -2.78787011718750E+0003  -2.78744042968750E+0003  -2.78699633789063E+0003  -2.78653466796875E+0003  -2.78605200195313E+0003  -2.78554541015625E+0003  -2.78501416015625E+0003  -2.78446362304688E+0003  -2.78390063476563E+0003  -2.78333227539063E+0003  -2.78276489257813E+0003  -2.78220483398438E+0003  -2.78165795898438E+0003  -2.78113061523438E+0003  -2.78062719726563E+0003  -2.78014916992188E+0003  -2.77969824218750E+0003  -2.77927539062500E+0003  -2.77887622070313E+0003  -2.77848803710938E+0003  -2.77809790039063E+0003  -2.77769384765625E+0003  -2.77728491210938E+0003  -2.77690600585938E+0003  -2.77659252929688E+0003  -2.77638012695313E+0003  -2.77631811523438E+0003  -2.77646899414063E+0003  -2.77689404296875E+0003  -2.77764868164063E+0003  -2.77872314453125E+0003  -2.78005957031250E+0003  -2.78160180664063E+0003  -2.78328833007813E+0003  -2.78499096679688E+0003  -2.78654296875000E+0003  -2.78777270507813E+0003  -2.78852978515625E+0003  -2.78882714843750E+0003  -2.78875366210938E+0003  -2.78840698242188E+0003  -2.78788623046875E+0003  -2.78727709960938E+0003  -2.78666137695313E+0003  -2.78612304687500E+0003  -2.78572900390625E+0003  -2.78547338867188E+0003  -2.78532958984375E+0003  -2.78527148437500E+0003  -2.78528491210938E+0003  -2.78539624023438E+0003  -2.78563940429688E+0003  -2.78604858398438E+0003  -2.78663232421875E+0003  -2.78733276367188E+0003  -2.78808251953125E+0003  -2.78881640625000E+0003  -2.78946972656250E+0003  -2.78997851562500E+0003  -2.79028955078125E+0003  -2.79036718750000E+0003  -2.79021997070313E+0003  -2.78992260742188E+0003  -2.78955322265625E+0003  -2.78918603515625E+0003  -2.78885864257813E+0003  -2.78856250000000E+0003  -2.78828662109375E+0003  -2.78802001953125E+0003  -2.78775976562500E+0003  -2.78751049804688E+0003  -2.78727709960938E+0003  -2.78706420898438E+0003  -2.78687695312500E+0003  -2.78672045898438E+0003  -2.78660034179688E+0003  -2.78652124023438E+0003  -2.78648486328125E+0003  -2.78649121093750E+0003  -2.78654003906250E+0003  -2.78663183593750E+0003  -2.78677832031250E+0003  -2.78699536132813E+0003  -2.78729931640625E+0003  -2.78769580078125E+0003  -2.78812573242188E+0003  -2.78850366210938E+0003  -2.78874121093750E+0003  -2.78876464843750E+0003  -2.78857226562500E+0003  -2.78818408203125E+0003  -2.78762182617188E+0003  -2.78691333007813E+0003  -2.78610644531250E+0003  -2.78525415039063E+0003  -2.78440966796875E+0003  -2.78362475585938E+0003  -2.78294531250000E+0003  -2.78241625976563E+0003  -2.78208227539063E+0003  -2.78196655273438E+0003  -2.78204516601563E+0003  -2.78228735351563E+0003  -2.78266210937500E+0003  -2.78313037109375E+0003  -2.78363793945313E+0003  -2.78412890625000E+0003  -2.78454882812500E+0003  -2.78487084960938E+0003  -2.78510913085938E+0003  -2.78528027343750E+0003  -2.78540063476563E+0003  -2.78547924804688E+0003  -2.78551831054688E+0003  -2.78551855468750E+0003  -2.78548168945313E+0003  -2.78540869140625E+0003  -2.78530053710938E+0003  -2.78515844726563E+0003  -2.78498388671875E+0003  -2.78477783203125E+0003  -2.78454174804688E+0003  -2.78427734375000E+0003  -2.78398657226563E+0003  -2.78367480468750E+0003  -2.78334985351563E+0003  -2.78301904296875E+0003  -2.78269042968750E+0003  -2.78237158203125E+0003  -2.78207006835938E+0003  -2.78179345703125E+0003  -2.78154858398438E+0003  -2.78133618164063E+0003  -2.78115454101563E+0003  -2.78100268554688E+0003  -2.78087915039063E+0003  -2.78078271484375E+0003  -2.78071191406250E+0003  -2.78066577148438E+0003  -2.78064233398438E+0003  -2.78063916015625E+0003  -2.78065405273438E+0003  -2.78068408203125E+0003  -2.78072656250000E+0003  -2.78077880859375E+0003  -2.78083862304688E+0003  -2.78090307617188E+0003  -2.78096997070313E+0003  -2.78103881835938E+0003  -2.78110815429688E+0003  -2.78117749023438E+0003  -2.78124584960938E+0003  -2.78131250000000E+0003  -2.78137646484375E+0003  -2.78143676757813E+0003  -2.78149365234375E+0003  -2.78154736328125E+0003  -2.78159936523438E+0003  -2.78165014648438E+0003  -2.78170068359375E+0003  -2.78175170898438E+0003  -2.78180444335938E+0003  -2.78185913085938E+0003  -2.78191699218750E+0003  -2.78197802734375E+0003  -2.78204272460938E+0003  -2.78211108398438E+0003  -2.78217871093750E+0003  -2.78223876953125E+0003  -2.78228564453125E+0003  -2.78231250000000E+0003  -2.78230151367188E+0003  -2.78222924804688E+0003  -2.78207128906250E+0003  -2.78180981445313E+0003  -2.78147412109375E+0003  -2.78110913085938E+0003  -2.78075488281250E+0003  -2.78044140625000E+0003  -2.78016674804688E+0003  -2.77991845703125E+0003  -2.77968505859375E+0003  -2.77945605468750E+0003  -2.77922705078125E+0003  -2.77899438476563E+0003  -2.77875488281250E+0003  -2.77850805664063E+0003  -2.77826000976563E+0003  -2.77801928710938E+0003  -2.77779370117188E+0003  -2.77759130859375E+0003  -2.77741992187500E+0003  -2.77728710937500E+0003  -2.77720043945313E+0003  -2.77716381835938E+0003  -2.77717236328125E+0003  -2.77722143554688E+0003  -2.77730615234375E+0003  -2.77742114257813E+0003  -2.77756201171875E+0003  -2.77772338867188E+0003  -2.77790063476563E+0003  -2.77809033203125E+0003  -2.77829101562500E+0003  -2.77850097656250E+0003  -2.77871899414063E+0003  -2.77894335937500E+0003  -2.77917260742188E+0003  -2.77940551757813E+0003  -2.77964038085938E+0003  -2.77987695312500E+0003  -2.78011474609375E+0003  -2.78035424804688E+0003  -2.78059521484375E+0003  -2.78083764648438E+0003  -2.78108178710938E+0003  -2.78132739257813E+0003  -2.78157470703125E+0003  -2.78182275390625E+0003  -2.78207104492188E+0003  -2.78231909179688E+0003  -2.78256567382813E+0003  -2.78281054687500E+0003  -2.78305273437500E+0003  -2.78329150390625E+0003
  -2.79108764648438E+0003  -2.79070336914063E+0003  -2.79031713867188E+0003  -2.78992871093750E+0003  -2.78953881835938E+0003  -2.78914746093750E+0003  -2.78875488281250E+0003  -2.78836083984375E+0003  -2.78796337890625E+0003  -2.78755932617188E+0003  -2.78714575195313E+0003  -2.78671972656250E+0003  -2.78627856445313E+0003  -2.78581909179688E+0003  -2.78533886718750E+0003  -2.78483666992188E+0003  -2.78431762695313E+0003  -2.78378784179688E+0003  -2.78325317382813E+0003  -2.78271923828125E+0003  -2.78219140625000E+0003  -2.78167382812500E+0003  -2.78117163085938E+0003  -2.78068872070313E+0003  -2.78022875976563E+0003  -2.77979467773438E+0003  -2.77938964843750E+0003  -2.77901147460938E+0003  -2.77865112304688E+0003  -2.77829858398438E+0003  -2.77794433593750E+0003  -2.77759863281250E+0003  -2.77729345703125E+0003  -2.77706152343750E+0003  -2.77693627929688E+0003  -2.77696240234375E+0003  -2.77719458007813E+0003  -2.77768725585938E+0003  -2.77849047851563E+0003  -2.77959179687500E+0003  -2.78093408203125E+0003  -2.78246118164063E+0003  -2.78411010742188E+0003  -2.78575854492188E+0003  -2.78724902343750E+0003  -2.78842089843750E+0003  -2.78913452148438E+0003  -2.78940527343750E+0003  -2.78931933593750E+0003  -2.78896875000000E+0003  -2.78844531250000E+0003  -2.78783325195313E+0003  -2.78721313476563E+0003  -2.78666772460938E+0003  -2.78626293945313E+0003  -2.78599316406250E+0003  -2.78583398437500E+0003  -2.78576098632813E+0003  -2.78575878906250E+0003  -2.78584399414063E+0003  -2.78604003906250E+0003  -2.78637011718750E+0003  -2.78683837890625E+0003  -2.78739941406250E+0003  -2.78800048828125E+0003  -2.78858959960938E+0003  -2.78911743164063E+0003  -2.78954077148438E+0003  -2.78981958007813E+0003  -2.78991845703125E+0003  -2.78983618164063E+0003  -2.78962646484375E+0003  -2.78934667968750E+0003  -2.78905297851563E+0003  -2.78877563476563E+0003  -2.78851342773438E+0003  -2.78826245117188E+0003  -2.78801977539063E+0003  -2.78778540039063E+0003  -2.78756323242188E+0003  -2.78735791015625E+0003  -2.78717309570313E+0003  -2.78701342773438E+0003  -2.78688330078125E+0003  -2.78678662109375E+0003  -2.78672778320313E+0003  -2.78670703125000E+0003  -2.78672290039063E+0003  -2.78677319335938E+0003  -2.78685693359375E+0003  -2.78698046875000E+0003  -2.78715283203125E+0003  -2.78738378906250E+0003  -2.78767529296875E+0003  -2.78798291015625E+0003  -2.78824340820313E+0003  -2.78839331054688E+0003  -2.78837890625000E+0003  -2.78819531250000E+0003  -2.78785253906250E+0003  -2.78736083984375E+0003  -2.78673779296875E+0003  -2.78602490234375E+0003  -2.78527050781250E+0003  -2.78452294921875E+0003  -2.78382788085938E+0003  -2.78322583007813E+0003  -2.78275610351563E+0003  -2.78245776367188E+0003  -2.78235034179688E+0003  -2.78241040039063E+0003  -2.78260839843750E+0003  -2.78291455078125E+0003  -2.78329492187500E+0003  -2.78370654296875E+0003  -2.78410620117188E+0003  -2.78445092773438E+0003  -2.78471972656250E+0003  -2.78492236328125E+0003  -2.78507104492188E+0003  -2.78517773437500E+0003  -2.78524877929688E+0003  -2.78528613281250E+0003  -2.78529028320313E+0003  -2.78526269531250E+0003  -2.78520385742188E+0003  -2.78511401367188E+0003  -2.78499316406250E+0003  -2.78484179687500E+0003  -2.78466040039063E+0003  -2.78444946289063E+0003  -2.78420922851563E+0003  -2.78394140625000E+0003  -2.78365063476563E+0003  -2.78334472656250E+0003  -2.78303125000000E+0003  -2.78271826171875E+0003  -2.78241308593750E+0003  -2.78212353515625E+0003  -2.78185717773438E+0003  -2.78162036132813E+0003  -2.78141430664063E+0003  -2.78123706054688E+0003  -2.78108789062500E+0003  -2.78096508789063E+0003  -2.78086743164063E+0003  -2.78079370117188E+0003  -2.78074243164063E+0003  -2.78071191406250E+0003  -2.78070068359375E+0003  -2.78070581054688E+0003  -2.78072509765625E+0003  -2.78075659179688E+0003  -2.78079785156250E+0003  -2.78084667968750E+0003  -2.78090063476563E+0003  -2.78095776367188E+0003  -2.78101757812500E+0003  -2.78107910156250E+0003  -2.78114160156250E+0003  -2.78120410156250E+0003  -2.78126562500000E+0003  -2.78132592773438E+0003  -2.78138378906250E+0003  -2.78143896484375E+0003  -2.78149243164063E+0003  -2.78154467773438E+0003  -2.78159643554688E+0003  -2.78164794921875E+0003  -2.78170043945313E+0003  -2.78175415039063E+0003  -2.78180981445313E+0003  -2.78186791992188E+0003  -2.78192797851563E+0003  -2.78199047851563E+0003  -2.78205493164063E+0003  -2.78211718750000E+0003  -2.78217138671875E+0003  -2.78221215820313E+0003  -2.78223291015625E+0003  -2.78221923828125E+0003  -2.78215307617188E+0003  -2.78201538085938E+0003  -2.78179321289063E+0003  -2.78150683593750E+0003  -2.78118920898438E+0003  -2.78087109375000E+0003  -2.78057714843750E+0003  -2.78030688476563E+0003  -2.78005297851563E+0003  -2.77980737304688E+0003  -2.77956396484375E+0003  -2.77931958007813E+0003  -2.77907275390625E+0003  -2.77882153320313E+0003  -2.77856591796875E+0003  -2.77831274414063E+0003  -2.77806909179688E+0003  -2.77784228515625E+0003  -2.77764013671875E+0003  -2.77746923828125E+0003  -2.77733764648438E+0003  -2.77725195312500E+0003  -2.77721533203125E+0003  -2.77722387695313E+0003  -2.77727221679688E+0003  -2.77735571289063E+0003  -2.77746923828125E+0003  -2.77760791015625E+0003  -2.77776708984375E+0003  -2.77794165039063E+0003  -2.77812841796875E+0003  -2.77832592773438E+0003  -2.77853247070313E+0003  -2.77874682617188E+0003  -2.77896752929688E+0003  -2.77919287109375E+0003  -2.77942163085938E+0003  -2.77965234375000E+0003  -2.77988452148438E+0003  -2.78011791992188E+0003  -2.78035302734375E+0003  -2.78058935546875E+0003  -2.78082739257813E+0003  -2.78106665039063E+0003  -2.78130761718750E+0003  -2.78155004882813E+0003  -2.78179321289063E+0003  -2.78203686523438E+0003  -2.78228027343750E+0003  -2.78252246093750E+0003  -2.78276269531250E+0003  -2.78300073242188E+0003  -2.78323559570313E+0003
  -2.79071752929688E+0003  -2.79033862304688E+0003  -2.78995849609375E+0003  -2.78957763671875E+0003  -2.78919604492188E+0003  -2.78881420898438E+0003  -2.78843237304688E+0003  -2.78805053710938E+0003  -2.78766699218750E+0003  -2.78727880859375E+0003  -2.78688354492188E+0003  -2.78647875976563E+0003  -2.78606201171875E+0003  -2.78563061523438E+0003  -2.78518237304688E+0003  -2.78471630859375E+0003  -2.78423681640625E+0003  -2.78374877929688E+0003  -2.78325708007813E+0003  -2.78276635742188E+0003  -2.78227929687500E+0003  -2.78179882812500E+0003  -2.78132788085938E+0003  -2.78086987304688E+0003  -2.78043041992188E+0003  -2.78001562500000E+0003  -2.77963110351563E+0003  -2.77927832031250E+0003  -2.77895166015625E+0003  -2.77864599609375E+0003  -2.77835595703125E+0003  -2.77809179687500E+0003  -2.77788012695313E+0003  -2.77774926757813E+0003  -2.77772705078125E+0003  -2.77785058593750E+0003  -2.77816381835938E+0003  -2.77871142578125E+0003  -2.77953320312500E+0003  -2.78061425781250E+0003  -2.78189941406250E+0003  -2.78333349609375E+0003  -2.78485620117188E+0003  -2.78635839843750E+0003  -2.78770288085938E+0003  -2.78875146484375E+0003  -2.78938354492188E+0003  -2.78961523437500E+0003  -2.78952490234375E+0003  -2.78919262695313E+0003  -2.78869848632813E+0003  -2.78811889648438E+0003  -2.78752929687500E+0003  -2.78700512695313E+0003  -2.78660717773438E+0003  -2.78633227539063E+0003  -2.78615991210938E+0003  -2.78606933593750E+0003  -2.78604760742188E+0003  -2.78610449218750E+0003  -2.78625512695313E+0003  -2.78651464843750E+0003  -2.78688403320313E+0003  -2.78732836914063E+0003  -2.78780737304688E+0003  -2.78828100585938E+0003  -2.78871142578125E+0003  -2.78906616210938E+0003  -2.78931347656250E+0003  -2.78942236328125E+0003  -2.78938818359375E+0003  -2.78924853515625E+0003  -2.78904443359375E+0003  -2.78881616210938E+0003  -2.78858764648438E+0003  -2.78836206054688E+0003  -2.78814086914063E+0003  -2.78792602539063E+0003  -2.78771972656250E+0003  -2.78752587890625E+0003  -2.78734790039063E+0003  -2.78718945312500E+0003  -2.78705395507813E+0003  -2.78694506835938E+0003  -2.78686645507813E+0003  -2.78682153320313E+0003  -2.78680957031250E+0003  -2.78682812500000E+0003  -2.78687402343750E+0003  -2.78694555664063E+0003  -2.78704467773438E+0003  -2.78717578125000E+0003  -2.78734375000000E+0003  -2.78754785156250E+0003  -2.78775610351563E+0003  -2.78792333984375E+0003  -2.78800488281250E+0003  -2.78796264648438E+0003  -2.78778955078125E+0003  -2.78748852539063E+0003  -2.78706201171875E+0003  -2.78652001953125E+0003  -2.78589843750000E+0003  -2.78523950195313E+0003  -2.78458544921875E+0003  -2.78397631835938E+0003  -2.78344775390625E+0003  -2.78303393554688E+0003  -2.78276953125000E+0003  -2.78267138671875E+0003  -2.78271728515625E+0003  -2.78287988281250E+0003  -2.78313183593750E+0003  -2.78344360351563E+0003  -2.78378100585938E+0003  -2.78410986328125E+0003  -2.78439624023438E+0003  -2.78462304687500E+0003  -2.78479736328125E+0003  -2.78492749023438E+0003  -2.78502197265625E+0003  -2.78508569335938E+0003  -2.78511938476563E+0003  -2.78512451171875E+0003  -2.78510180664063E+0003  -2.78505151367188E+0003  -2.78497338867188E+0003  -2.78486669921875E+0003  -2.78473168945313E+0003  -2.78456787109375E+0003  -2.78437548828125E+0003  -2.78415405273438E+0003  -2.78390429687500E+0003  -2.78363110351563E+0003  -2.78334179687500E+0003  -2.78304418945313E+0003  -2.78274560546875E+0003  -2.78245361328125E+0003  -2.78217553710938E+0003  -2.78191894531250E+0003  -2.78169042968750E+0003  -2.78149047851563E+0003  -2.78131762695313E+0003  -2.78117089843750E+0003  -2.78104907226563E+0003  -2.78095043945313E+0003  -2.78087377929688E+0003  -2.78081811523438E+0003  -2.78078173828125E+0003  -2.78076293945313E+0003  -2.78075952148438E+0003  -2.78076953125000E+0003  -2.78079125976563E+0003  -2.78082250976563E+0003  -2.78086132812500E+0003  -2.78090576171875E+0003  -2.78095434570313E+0003  -2.78100585937500E+0003  -2.78105981445313E+0003  -2.78111572265625E+0003  -2.78117211914063E+0003  -2.78122875976563E+0003  -2.78128491210938E+0003  -2.78133959960938E+0003  -2.78139257812500E+0003  -2.78144433593750E+0003  -2.78149536132813E+0003  -2.78154614257813E+0003  -2.78159692382813E+0003  -2.78164868164063E+0003  -2.78170117187500E+0003  -2.78175537109375E+0003  -2.78181103515625E+0003  -2.78186743164063E+0003  -2.78192407226563E+0003  -2.78198022460938E+0003  -2.78203247070313E+0003  -2.78207543945313E+0003  -2.78210449218750E+0003  -2.78211401367188E+0003  -2.78209277343750E+0003  -2.78202758789063E+0003  -2.78190502929688E+0003  -2.78171533203125E+0003  -2.78147241210938E+0003  -2.78119921875000E+0003  -2.78091845703125E+0003  -2.78064794921875E+0003  -2.78038916015625E+0003  -2.78013769531250E+0003  -2.77988916015625E+0003  -2.77964013671875E+0003  -2.77938940429688E+0003  -2.77913647460938E+0003  -2.77888085937500E+0003  -2.77862402343750E+0003  -2.77837133789063E+0003  -2.77813012695313E+0003  -2.77790673828125E+0003  -2.77770849609375E+0003  -2.77754174804688E+0003  -2.77741333007813E+0003  -2.77732983398438E+0003  -2.77729418945313E+0003  -2.77730224609375E+0003  -2.77734912109375E+0003  -2.77743017578125E+0003  -2.77754077148438E+0003  -2.77767578125000E+0003  -2.77783081054688E+0003  -2.77800097656250E+0003  -2.77818334960938E+0003  -2.77837597656250E+0003  -2.77857788085938E+0003  -2.77878759765625E+0003  -2.77900317382813E+0003  -2.77922387695313E+0003  -2.77944775390625E+0003  -2.77967358398438E+0003  -2.77990112304688E+0003  -2.78012988281250E+0003  -2.78036010742188E+0003  -2.78059179687500E+0003  -2.78082519531250E+0003  -2.78105981445313E+0003  -2.78129589843750E+0003  -2.78153369140625E+0003  -2.78177221679688E+0003  -2.78201123046875E+0003  -2.78225000000000E+0003  -2.78248754882813E+0003  -2.78272363281250E+0003  -2.78295727539063E+0003  -2.78318823242188E+0003
  -2.79036694335938E+0003  -2.78999438476563E+0003  -2.78962133789063E+0003  -2.78924829101563E+0003  -2.78887573242188E+0003  -2.78850439453125E+0003  -2.78813427734375E+0003  -2.78776562500000E+0003  -2.78739697265625E+0003  -2.78702612304688E+0003  -2.78665087890625E+0003  -2.78626928710938E+0003  -2.78587963867188E+0003  -2.78547973632813E+0003  -2.78506811523438E+0003  -2.78464355468750E+0003  -2.78420996093750E+0003  -2.78377050781250E+0003  -2.78332958984375E+0003  -2.78288989257813E+0003  -2.78245166015625E+0003  -2.78201489257813E+0003  -2.78158007812500E+0003  -2.78114990234375E+0003  -2.78073315429688E+0003  -2.78033886718750E+0003  -2.77997631835938E+0003  -2.77965063476563E+0003  -2.77936157226563E+0003  -2.77910864257813E+0003  -2.77889135742188E+0003  -2.77871948242188E+0003  -2.77861328125000E+0003  -2.77859375000000E+0003  -2.77868237304688E+0003  -2.77890600585938E+0003  -2.77929663085938E+0003  -2.77988671875000E+0003  -2.78070458984375E+0003  -2.78173193359375E+0003  -2.78291699218750E+0003  -2.78420703125000E+0003  -2.78554565429688E+0003  -2.78684252929688E+0003  -2.78798754882813E+0003  -2.78887011718750E+0003  -2.78939453125000E+0003  -2.78957666015625E+0003  -2.78948168945313E+0003  -2.78917651367188E+0003  -2.78872729492188E+0003  -2.78819970703125E+0003  -2.78765942382813E+0003  -2.78717211914063E+0003  -2.78679125976563E+0003  -2.78651586914063E+0003  -2.78633105468750E+0003  -2.78622192382813E+0003  -2.78617822265625E+0003  -2.78620556640625E+0003  -2.78631372070313E+0003  -2.78651147460938E+0003  -2.78679785156250E+0003  -2.78714648437500E+0003  -2.78752661132813E+0003  -2.78790771484375E+0003  -2.78826049804688E+0003  -2.78855859375000E+0003  -2.78877685546875E+0003  -2.78888940429688E+0003  -2.78889062500000E+0003  -2.78880639648438E+0003  -2.78866479492188E+0003  -2.78849389648438E+0003  -2.78831225585938E+0003  -2.78812500000000E+0003  -2.78793701171875E+0003  -2.78775292968750E+0003  -2.78757666015625E+0003  -2.78741113281250E+0003  -2.78725976562500E+0003  -2.78712524414063E+0003  -2.78701049804688E+0003  -2.78691894531250E+0003  -2.78685351562500E+0003  -2.78681665039063E+0003  -2.78680786132813E+0003  -2.78682373046875E+0003  -2.78686108398438E+0003  -2.78691699218750E+0003  -2.78699121093750E+0003  -2.78708544921875E+0003  -2.78720019531250E+0003  -2.78733422851563E+0003  -2.78746435546875E+0003  -2.78755981445313E+0003  -2.78759008789063E+0003  -2.78752856445313E+0003  -2.78736718750000E+0003  -2.78710400390625E+0003  -2.78673730468750E+0003  -2.78627148437500E+0003  -2.78573681640625E+0003  -2.78516918945313E+0003  -2.78460449218750E+0003  -2.78407714843750E+0003  -2.78361816406250E+0003  -2.78325805664063E+0003  -2.78302661132813E+0003  -2.78293872070313E+0003  -2.78297436523438E+0003  -2.78310961914063E+0003  -2.78331933593750E+0003  -2.78357861328125E+0003  -2.78385937500000E+0003  -2.78413452148438E+0003  -2.78437622070313E+0003  -2.78457104492188E+0003  -2.78472290039063E+0003  -2.78483789062500E+0003  -2.78492187500000E+0003  -2.78497802734375E+0003  -2.78500756835938E+0003  -2.78501123046875E+0003  -2.78498999023438E+0003  -2.78494360351563E+0003  -2.78487182617188E+0003  -2.78477368164063E+0003  -2.78464892578125E+0003  -2.78449707031250E+0003  -2.78431738281250E+0003  -2.78411010742188E+0003  -2.78387451171875E+0003  -2.78361596679688E+0003  -2.78334130859375E+0003  -2.78305786132813E+0003  -2.78277270507813E+0003  -2.78249316406250E+0003  -2.78222656250000E+0003  -2.78197973632813E+0003  -2.78175903320313E+0003  -2.78156518554688E+0003  -2.78139697265625E+0003  -2.78125292968750E+0003  -2.78113183593750E+0003  -2.78103247070313E+0003  -2.78095361328125E+0003  -2.78089404296875E+0003  -2.78085253906250E+0003  -2.78082690429688E+0003  -2.78081616210938E+0003  -2.78081787109375E+0003  -2.78083081054688E+0003  -2.78085327148438E+0003  -2.78088305664063E+0003  -2.78091894531250E+0003  -2.78095922851563E+0003  -2.78100317382813E+0003  -2.78105029296875E+0003  -2.78109936523438E+0003  -2.78115014648438E+0003  -2.78120166015625E+0003  -2.78125317382813E+0003  -2.78130395507813E+0003  -2.78135375976563E+0003  -2.78140283203125E+0003  -2.78145141601563E+0003  -2.78149975585938E+0003  -2.78154833984375E+0003  -2.78159716796875E+0003  -2.78164697265625E+0003  -2.78169750976563E+0003  -2.78174853515625E+0003  -2.78179858398438E+0003  -2.78184716796875E+0003  -2.78189257812500E+0003  -2.78193164062500E+0003  -2.78196044921875E+0003  -2.78197460937500E+0003  -2.78196997070313E+0003  -2.78193847656250E+0003  -2.78187133789063E+0003  -2.78175927734375E+0003  -2.78159594726563E+0003  -2.78139013671875E+0003  -2.78115747070313E+0003  -2.78091235351563E+0003  -2.78066748046875E+0003  -2.78042456054688E+0003  -2.78018139648438E+0003  -2.77993701171875E+0003  -2.77968945312500E+0003  -2.77943969726563E+0003  -2.77918774414063E+0003  -2.77893432617188E+0003  -2.77868164062500E+0003  -2.77843481445313E+0003  -2.77820043945313E+0003  -2.77798461914063E+0003  -2.77779345703125E+0003  -2.77763330078125E+0003  -2.77751025390625E+0003  -2.77743017578125E+0003  -2.77739599609375E+0003  -2.77740380859375E+0003  -2.77744873046875E+0003  -2.77752636718750E+0003  -2.77763256835938E+0003  -2.77776269531250E+0003  -2.77791210937500E+0003  -2.77807666015625E+0003  -2.77825292968750E+0003  -2.77843994140625E+0003  -2.77863598632813E+0003  -2.77883984375000E+0003  -2.77904980468750E+0003  -2.77926489257813E+0003  -2.77948339843750E+0003  -2.77970385742188E+0003  -2.77992626953125E+0003  -2.78015014648438E+0003  -2.78037548828125E+0003  -2.78060253906250E+0003  -2.78083105468750E+0003  -2.78106103515625E+0003  -2.78129248046875E+0003  -2.78152539062500E+0003  -2.78175952148438E+0003  -2.78199389648438E+0003  -2.78222778320313E+0003  -2.78246118164063E+0003  -2.78269287109375E+0003  -2.78292236328125E+0003  -2.78314916992188E+0003
  -2.79003564453125E+0003  -2.78966943359375E+0003  -2.78930395507813E+0003  -2.78893969726563E+0003  -2.78857690429688E+0003  -2.78821655273438E+0003  -2.78785864257813E+0003  -2.78750390625000E+0003  -2.78715087890625E+0003  -2.78679809570313E+0003  -2.78644409179688E+0003  -2.78608715820313E+0003  -2.78572631835938E+0003  -2.78536010742188E+0003  -2.78498779296875E+0003  -2.78460864257813E+0003  -2.78422485351563E+0003  -2.78383959960938E+0003  -2.78345507812500E+0003  -2.78307275390625E+0003  -2.78268945312500E+0003  -2.78230200195313E+0003  -2.78190698242188E+0003  -2.78150659179688E+0003  -2.78111303710938E+0003  -2.78073950195313E+0003  -2.78039892578125E+0003  -2.78010107421875E+0003  -2.77985083007813E+0003  -2.77965234375000E+0003  -2.77951074218750E+0003  -2.77943408203125E+0003  -2.77943579101563E+0003  -2.77952880859375E+0003  -2.77972680664063E+0003  -2.78004638671875E+0003  -2.78050683593750E+0003  -2.78112817382813E+0003  -2.78192700195313E+0003  -2.78288232421875E+0003  -2.78394555664063E+0003  -2.78506811523438E+0003  -2.78619897460938E+0003  -2.78726757812500E+0003  -2.78819238281250E+0003  -2.78889160156250E+0003  -2.78929492187500E+0003  -2.78941723632813E+0003  -2.78931054687500E+0003  -2.78902807617188E+0003  -2.78862231445313E+0003  -2.78814794921875E+0003  -2.78765942382813E+0003  -2.78721142578125E+0003  -2.78684887695313E+0003  -2.78657373046875E+0003  -2.78637646484375E+0003  -2.78624755859375E+0003  -2.78618041992188E+0003  -2.78617846679688E+0003  -2.78624658203125E+0003  -2.78639038085938E+0003  -2.78660742187500E+0003  -2.78687744140625E+0003  -2.78717700195313E+0003  -2.78748266601563E+0003  -2.78777148437500E+0003  -2.78802270507813E+0003  -2.78821508789063E+0003  -2.78832836914063E+0003  -2.78835644531250E+0003  -2.78831591796875E+0003  -2.78822607421875E+0003  -2.78810571289063E+0003  -2.78796801757813E+0003  -2.78781982421875E+0003  -2.78766699218750E+0003  -2.78751562500000E+0003  -2.78736987304688E+0003  -2.78723266601563E+0003  -2.78710644531250E+0003  -2.78699365234375E+0003  -2.78689721679688E+0003  -2.78681933593750E+0003  -2.78676293945313E+0003  -2.78673022460938E+0003  -2.78671997070313E+0003  -2.78672900390625E+0003  -2.78675439453125E+0003  -2.78679296875000E+0003  -2.78684301757813E+0003  -2.78690405273438E+0003  -2.78697509765625E+0003  -2.78705371093750E+0003  -2.78712402343750E+0003  -2.78716601562500E+0003  -2.78715893554688E+0003  -2.78708520507813E+0003  -2.78693652343750E+0003  -2.78670849609375E+0003  -2.78639648437500E+0003  -2.78600195312500E+0003  -2.78554956054688E+0003  -2.78506884765625E+0003  -2.78458959960938E+0003  -2.78414062500000E+0003  -2.78374902343750E+0003  -2.78344091796875E+0003  -2.78324243164063E+0003  -2.78316650390625E+0003  -2.78319628906250E+0003  -2.78331030273438E+0003  -2.78348730468750E+0003  -2.78370556640625E+0003  -2.78394287109375E+0003  -2.78417626953125E+0003  -2.78438354492188E+0003  -2.78455273437500E+0003  -2.78468676757813E+0003  -2.78478930664063E+0003  -2.78486401367188E+0003  -2.78491333007813E+0003  -2.78493798828125E+0003  -2.78493896484375E+0003  -2.78491650390625E+0003  -2.78487084960938E+0003  -2.78480126953125E+0003  -2.78470727539063E+0003  -2.78458813476563E+0003  -2.78444335937500E+0003  -2.78427246093750E+0003  -2.78407495117188E+0003  -2.78385083007813E+0003  -2.78360449218750E+0003  -2.78334277343750E+0003  -2.78307226562500E+0003  -2.78280004882813E+0003  -2.78253247070313E+0003  -2.78227685546875E+0003  -2.78203979492188E+0003  -2.78182714843750E+0003  -2.78163940429688E+0003  -2.78147534179688E+0003  -2.78133398437500E+0003  -2.78121411132813E+0003  -2.78111450195313E+0003  -2.78103369140625E+0003  -2.78097094726563E+0003  -2.78092456054688E+0003  -2.78089355468750E+0003  -2.78087597656250E+0003  -2.78087060546875E+0003  -2.78087573242188E+0003  -2.78088989257813E+0003  -2.78091186523438E+0003  -2.78093994140625E+0003  -2.78097265625000E+0003  -2.78100952148438E+0003  -2.78104980468750E+0003  -2.78109277343750E+0003  -2.78113769531250E+0003  -2.78118359375000E+0003  -2.78123022460938E+0003  -2.78127661132813E+0003  -2.78132250976563E+0003  -2.78136791992188E+0003  -2.78141308593750E+0003  -2.78145776367188E+0003  -2.78150268554688E+0003  -2.78154760742188E+0003  -2.78159252929688E+0003  -2.78163793945313E+0003  -2.78168261718750E+0003  -2.78172509765625E+0003  -2.78176367187500E+0003  -2.78179711914063E+0003  -2.78182250976563E+0003  -2.78183642578125E+0003  -2.78183544921875E+0003  -2.78181591796875E+0003  -2.78177343750000E+0003  -2.78170263671875E+0003  -2.78159790039063E+0003  -2.78145556640625E+0003  -2.78128100585938E+0003  -2.78108276367188E+0003  -2.78086987304688E+0003  -2.78064990234375E+0003  -2.78042456054688E+0003  -2.78019384765625E+0003  -2.77995800781250E+0003  -2.77971777343750E+0003  -2.77947436523438E+0003  -2.77922900390625E+0003  -2.77898315429688E+0003  -2.77873925781250E+0003  -2.77850268554688E+0003  -2.77827880859375E+0003  -2.77807348632813E+0003  -2.77789233398438E+0003  -2.77774072265625E+0003  -2.77762426757813E+0003  -2.77754907226563E+0003  -2.77751660156250E+0003  -2.77752392578125E+0003  -2.77756665039063E+0003  -2.77764038085938E+0003  -2.77774145507813E+0003  -2.77786547851563E+0003  -2.77800830078125E+0003  -2.77816601562500E+0003  -2.77833569335938E+0003  -2.77851586914063E+0003  -2.77870532226563E+0003  -2.77890258789063E+0003  -2.77910620117188E+0003  -2.77931494140625E+0003  -2.77952758789063E+0003  -2.77974267578125E+0003  -2.77995947265625E+0003  -2.78017822265625E+0003  -2.78039868164063E+0003  -2.78062084960938E+0003  -2.78084472656250E+0003  -2.78107006835938E+0003  -2.78129687500000E+0003  -2.78152514648438E+0003  -2.78175463867188E+0003  -2.78198437500000E+0003  -2.78221386718750E+0003  -2.78244262695313E+0003  -2.78266992187500E+0003  -2.78289526367188E+0003  -2.78311816406250E+0003
  -2.78972265625000E+0003  -2.78936352539063E+0003  -2.78900610351563E+0003  -2.78865087890625E+0003  -2.78829833984375E+0003  -2.78794921875000E+0003  -2.78760400390625E+0003  -2.78726318359375E+0003  -2.78692626953125E+0003  -2.78659204101563E+0003  -2.78625927734375E+0003  -2.78592773437500E+0003  -2.78559643554688E+0003  -2.78526489257813E+0003  -2.78493310546875E+0003  -2.78460107421875E+0003  -2.78426977539063E+0003  -2.78394140625000E+0003  -2.78361767578125E+0003  -2.78329736328125E+0003  -2.78297387695313E+0003  -2.78263964843750E+0003  -2.78228710937500E+0003  -2.78191748046875E+0003  -2.78154663085938E+0003  -2.78119262695313E+0003  -2.78087280273438E+0003  -2.78060180664063E+0003  -2.78038891601563E+0003  -2.78024316406250E+0003  -2.78017382812500E+0003  -2.78018798828125E+0003  -2.78029101562500E+0003  -2.78048852539063E+0003  -2.78078564453125E+0003  -2.78118945312500E+0003  -2.78170849609375E+0003  -2.78235107421875E+0003  -2.78312353515625E+0003  -2.78400268554688E+0003  -2.78494458007813E+0003  -2.78590429687500E+0003  -2.78683642578125E+0003  -2.78768872070313E+0003  -2.78840454101563E+0003  -2.78892700195313E+0003  -2.78920849609375E+0003  -2.78926220703125E+0003  -2.78912988281250E+0003  -2.78885302734375E+0003  -2.78847363281250E+0003  -2.78803588867188E+0003  -2.78758471679688E+0003  -2.78716503906250E+0003  -2.78681420898438E+0003  -2.78653564453125E+0003  -2.78632446289063E+0003  -2.78617529296875E+0003  -2.78608447265625E+0003  -2.78605346679688E+0003  -2.78608496093750E+0003  -2.78618164062500E+0003  -2.78634033203125E+0003  -2.78654565429688E+0003  -2.78677905273438E+0003  -2.78702270507813E+0003  -2.78725878906250E+0003  -2.78747021484375E+0003  -2.78764038085938E+0003  -2.78775219726563E+0003  -2.78779980468750E+0003  -2.78779394531250E+0003  -2.78774658203125E+0003  -2.78767016601563E+0003  -2.78757397460938E+0003  -2.78746435546875E+0003  -2.78734741210938E+0003  -2.78722949218750E+0003  -2.78711425781250E+0003  -2.78700415039063E+0003  -2.78690161132813E+0003  -2.78680883789063E+0003  -2.78672778320313E+0003  -2.78666088867188E+0003  -2.78661059570313E+0003  -2.78657836914063E+0003  -2.78656372070313E+0003  -2.78656347656250E+0003  -2.78657495117188E+0003  -2.78659545898438E+0003  -2.78662255859375E+0003  -2.78665454101563E+0003  -2.78669018554688E+0003  -2.78672607421875E+0003  -2.78675219726563E+0003  -2.78675561523438E+0003  -2.78672314453125E+0003  -2.78664282226563E+0003  -2.78650756835938E+0003  -2.78631176757813E+0003  -2.78604956054688E+0003  -2.78572119140625E+0003  -2.78534570312500E+0003  -2.78494726562500E+0003  -2.78454980468750E+0003  -2.78417675781250E+0003  -2.78385107421875E+0003  -2.78359497070313E+0003  -2.78343090820313E+0003  -2.78336938476563E+0003  -2.78339648437500E+0003  -2.78349438476563E+0003  -2.78364477539063E+0003  -2.78383007812500E+0003  -2.78403173828125E+0003  -2.78423095703125E+0003  -2.78440966796875E+0003  -2.78455761718750E+0003  -2.78467626953125E+0003  -2.78476806640625E+0003  -2.78483471679688E+0003  -2.78487792968750E+0003  -2.78489819335938E+0003  -2.78489575195313E+0003  -2.78487084960938E+0003  -2.78482373046875E+0003  -2.78475390625000E+0003  -2.78466088867188E+0003  -2.78454394531250E+0003  -2.78440283203125E+0003  -2.78423754882813E+0003  -2.78404711914063E+0003  -2.78383203125000E+0003  -2.78359619140625E+0003  -2.78334570312500E+0003  -2.78308740234375E+0003  -2.78282714843750E+0003  -2.78257177734375E+0003  -2.78232690429688E+0003  -2.78209960937500E+0003  -2.78189477539063E+0003  -2.78171337890625E+0003  -2.78155371093750E+0003  -2.78141528320313E+0003  -2.78129687500000E+0003  -2.78119702148438E+0003  -2.78111474609375E+0003  -2.78104931640625E+0003  -2.78099902343750E+0003  -2.78096289062500E+0003  -2.78093969726563E+0003  -2.78092773437500E+0003  -2.78092602539063E+0003  -2.78093310546875E+0003  -2.78094775390625E+0003  -2.78096850585938E+0003  -2.78099438476563E+0003  -2.78102465820313E+0003  -2.78105834960938E+0003  -2.78109521484375E+0003  -2.78113427734375E+0003  -2.78117480468750E+0003  -2.78121606445313E+0003  -2.78125756835938E+0003  -2.78129882812500E+0003  -2.78133984375000E+0003  -2.78138061523438E+0003  -2.78142089843750E+0003  -2.78146093750000E+0003  -2.78150048828125E+0003  -2.78153955078125E+0003  -2.78157836914063E+0003  -2.78161547851563E+0003  -2.78164941406250E+0003  -2.78167822265625E+0003  -2.78170019531250E+0003  -2.78171264648438E+0003  -2.78171337890625E+0003  -2.78169921875000E+0003  -2.78166772460938E+0003  -2.78161645507813E+0003  -2.78154223632813E+0003  -2.78144311523438E+0003  -2.78131665039063E+0003  -2.78116577148438E+0003  -2.78099487304688E+0003  -2.78080810546875E+0003  -2.78060961914063E+0003  -2.78040112304688E+0003  -2.78018432617188E+0003  -2.77996044921875E+0003  -2.77973071289063E+0003  -2.77949755859375E+0003  -2.77926293945313E+0003  -2.77902856445313E+0003  -2.77879736328125E+0003  -2.77857397460938E+0003  -2.77836352539063E+0003  -2.77817089843750E+0003  -2.77800146484375E+0003  -2.77786010742188E+0003  -2.77775170898438E+0003  -2.77768164062500E+0003  -2.77765161132813E+0003  -2.77765869140625E+0003  -2.77769873046875E+0003  -2.77776831054688E+0003  -2.77786376953125E+0003  -2.77798095703125E+0003  -2.77811669921875E+0003  -2.77826684570313E+0003  -2.77842919921875E+0003  -2.77860205078125E+0003  -2.77878442382813E+0003  -2.77897460937500E+0003  -2.77917163085938E+0003  -2.77937402343750E+0003  -2.77958032226563E+0003  -2.77978930664063E+0003  -2.78000073242188E+0003  -2.78021411132813E+0003  -2.78042944335938E+0003  -2.78064672851563E+0003  -2.78086596679688E+0003  -2.78108666992188E+0003  -2.78130883789063E+0003  -2.78153271484375E+0003  -2.78175732421875E+0003  -2.78198266601563E+0003  -2.78220751953125E+0003  -2.78243188476563E+0003  -2.78265502929688E+0003  -2.78287622070313E+0003  -2.78309497070313E+0003
  -2.78942700195313E+0003  -2.78907543945313E+0003  -2.78872631835938E+0003  -2.78838037109375E+0003  -2.78803833007813E+0003  -2.78770068359375E+0003  -2.78736840820313E+0003  -2.78704174804688E+0003  -2.78672070312500E+0003  -2.78640454101563E+0003  -2.78609326171875E+0003  -2.78578637695313E+0003  -2.78548413085938E+0003  -2.78518725585938E+0003  -2.78489550781250E+0003  -2.78461010742188E+0003  -2.78433129882813E+0003  -2.78406054687500E+0003  -2.78379809570313E+0003  -2.78354150390625E+0003  -2.78327978515625E+0003  -2.78300048828125E+0003  -2.78269165039063E+0003  -2.78235278320313E+0003  -2.78200390625000E+0003  -2.78166821289063E+0003  -2.78136816406250E+0003  -2.78112255859375E+0003  -2.78094482421875E+0003  -2.78084741210938E+0003  -2.78084350585938E+0003  -2.78093872070313E+0003  -2.78113134765625E+0003  -2.78141918945313E+0003  -2.78180004882813E+0003  -2.78227246093750E+0003  -2.78283618164063E+0003  -2.78349072265625E+0003  -2.78423388671875E+0003  -2.78504174804688E+0003  -2.78587451171875E+0003  -2.78669165039063E+0003  -2.78745361328125E+0003  -2.78812182617188E+0003  -2.78865869140625E+0003  -2.78902636718750E+0003  -2.78919335937500E+0003  -2.78917382812500E+0003  -2.78900097656250E+0003  -2.78870922851563E+0003  -2.78833300781250E+0003  -2.78790893554688E+0003  -2.78747412109375E+0003  -2.78706640625000E+0003  -2.78671704101563E+0003  -2.78643017578125E+0003  -2.78620336914063E+0003  -2.78603393554688E+0003  -2.78591967773438E+0003  -2.78586108398438E+0003  -2.78585888671875E+0003  -2.78591406250000E+0003  -2.78602343750000E+0003  -2.78617480468750E+0003  -2.78635400390625E+0003  -2.78654638671875E+0003  -2.78673852539063E+0003  -2.78691674804688E+0003  -2.78706689453125E+0003  -2.78717578125000E+0003  -2.78723730468750E+0003  -2.78725830078125E+0003  -2.78724560546875E+0003  -2.78720703125000E+0003  -2.78714868164063E+0003  -2.78707617187500E+0003  -2.78699462890625E+0003  -2.78690917968750E+0003  -2.78682324218750E+0003  -2.78673901367188E+0003  -2.78665844726563E+0003  -2.78658349609375E+0003  -2.78651586914063E+0003  -2.78645800781250E+0003  -2.78641137695313E+0003  -2.78637792968750E+0003  -2.78635717773438E+0003  -2.78634643554688E+0003  -2.78634350585938E+0003  -2.78634619140625E+0003  -2.78635205078125E+0003  -2.78635986328125E+0003  -2.78636694335938E+0003  -2.78637133789063E+0003  -2.78636621093750E+0003  -2.78634350585938E+0003  -2.78629492187500E+0003  -2.78621264648438E+0003  -2.78609106445313E+0003  -2.78592456054688E+0003  -2.78570751953125E+0003  -2.78543920898438E+0003  -2.78513476562500E+0003  -2.78481298828125E+0003  -2.78449267578125E+0003  -2.78419262695313E+0003  -2.78393139648438E+0003  -2.78372705078125E+0003  -2.78359814453125E+0003  -2.78355322265625E+0003  -2.78358081054688E+0003  -2.78366625976563E+0003  -2.78379492187500E+0003  -2.78395190429688E+0003  -2.78412280273438E+0003  -2.78429248046875E+0003  -2.78444604492188E+0003  -2.78457543945313E+0003  -2.78468066406250E+0003  -2.78476269531250E+0003  -2.78482250976563E+0003  -2.78486059570313E+0003  -2.78487695312500E+0003  -2.78487109375000E+0003  -2.78484350585938E+0003  -2.78479394531250E+0003  -2.78472216796875E+0003  -2.78462792968750E+0003  -2.78451098632813E+0003  -2.78437158203125E+0003  -2.78420947265625E+0003  -2.78402416992188E+0003  -2.78381640625000E+0003  -2.78358984375000E+0003  -2.78335009765625E+0003  -2.78310327148438E+0003  -2.78285498046875E+0003  -2.78261083984375E+0003  -2.78237719726563E+0003  -2.78215942382813E+0003  -2.78196264648438E+0003  -2.78178735351563E+0003  -2.78163256835938E+0003  -2.78149731445313E+0003  -2.78138037109375E+0003  -2.78128076171875E+0003  -2.78119750976563E+0003  -2.78112963867188E+0003  -2.78107617187500E+0003  -2.78103588867188E+0003  -2.78100756835938E+0003  -2.78098999023438E+0003  -2.78098217773438E+0003  -2.78098266601563E+0003  -2.78099072265625E+0003  -2.78100488281250E+0003  -2.78102441406250E+0003  -2.78104833984375E+0003  -2.78107592773438E+0003  -2.78110668945313E+0003  -2.78113964843750E+0003  -2.78117456054688E+0003  -2.78121044921875E+0003  -2.78124682617188E+0003  -2.78128295898438E+0003  -2.78131884765625E+0003  -2.78135424804688E+0003  -2.78138940429688E+0003  -2.78142358398438E+0003  -2.78145703125000E+0003  -2.78148950195313E+0003  -2.78152075195313E+0003  -2.78154980468750E+0003  -2.78157470703125E+0003  -2.78159399414063E+0003  -2.78160546875000E+0003  -2.78160742187500E+0003  -2.78159765625000E+0003  -2.78157397460938E+0003  -2.78153442382813E+0003  -2.78147729492188E+0003  -2.78140209960938E+0003  -2.78130712890625E+0003  -2.78119213867188E+0003  -2.78105786132813E+0003  -2.78090625000000E+0003  -2.78073876953125E+0003  -2.78055737304688E+0003  -2.78036425781250E+0003  -2.78016113281250E+0003  -2.77995019531250E+0003  -2.77973364257813E+0003  -2.77951342773438E+0003  -2.77929223632813E+0003  -2.77907202148438E+0003  -2.77885571289063E+0003  -2.77864770507813E+0003  -2.77845239257813E+0003  -2.77827416992188E+0003  -2.77811791992188E+0003  -2.77798779296875E+0003  -2.77788818359375E+0003  -2.77782397460938E+0003  -2.77779687500000E+0003  -2.77780371093750E+0003  -2.77784130859375E+0003  -2.77790673828125E+0003  -2.77799609375000E+0003  -2.77810644531250E+0003  -2.77823461914063E+0003  -2.77837719726563E+0003  -2.77853173828125E+0003  -2.77869702148438E+0003  -2.77887207031250E+0003  -2.77905493164063E+0003  -2.77924487304688E+0003  -2.77944067382813E+0003  -2.77964062500000E+0003  -2.77984375000000E+0003  -2.78004956054688E+0003  -2.78025756835938E+0003  -2.78046777343750E+0003  -2.78068017578125E+0003  -2.78089453125000E+0003  -2.78111059570313E+0003  -2.78132836914063E+0003  -2.78154760742188E+0003  -2.78176782226563E+0003  -2.78198828125000E+0003  -2.78220898437500E+0003  -2.78242871093750E+0003  -2.78264746093750E+0003  -2.78286450195313E+0003  -2.78307934570313E+0003
  -2.78914794921875E+0003  -2.78880419921875E+0003  -2.78846386718750E+0003  -2.78812744140625E+0003  -2.78779589843750E+0003  -2.78746997070313E+0003  -2.78715014648438E+0003  -2.78683715820313E+0003  -2.78653173828125E+0003  -2.78623339843750E+0003  -2.78594238281250E+0003  -2.78565893554688E+0003  -2.78538452148438E+0003  -2.78511962890625E+0003  -2.78486596679688E+0003  -2.78462426757813E+0003  -2.78439477539063E+0003  -2.78417773437500E+0003  -2.78397338867188E+0003  -2.78377734375000E+0003  -2.78357421875000E+0003  -2.78334765625000E+0003  -2.78308105468750E+0003  -2.78277270507813E+0003  -2.78244677734375E+0003  -2.78213037109375E+0003  -2.78185083007813E+0003  -2.78163061523438E+0003  -2.78148632812500E+0003  -2.78143334960938E+0003  -2.78148730468750E+0003  -2.78165258789063E+0003  -2.78192114257813E+0003  -2.78228369140625E+0003  -2.78273168945313E+0003  -2.78325708007813E+0003  -2.78385229492188E+0003  -2.78451000976563E+0003  -2.78522167968750E+0003  -2.78596313476563E+0003  -2.78669897460938E+0003  -2.78739404296875E+0003  -2.78801367187500E+0003  -2.78852954101563E+0003  -2.78891796875000E+0003  -2.78915454101563E+0003  -2.78921997070313E+0003  -2.78912866210938E+0003  -2.78890917968750E+0003  -2.78859082031250E+0003  -2.78820263671875E+0003  -2.78777636718750E+0003  -2.78734375000000E+0003  -2.78693652343750E+0003  -2.78658178710938E+0003  -2.78628369140625E+0003  -2.78604077148438E+0003  -2.78585131835938E+0003  -2.78571435546875E+0003  -2.78562963867188E+0003  -2.78559667968750E+0003  -2.78561547851563E+0003  -2.78568310546875E+0003  -2.78578955078125E+0003  -2.78592358398438E+0003  -2.78607397460938E+0003  -2.78622949218750E+0003  -2.78637915039063E+0003  -2.78651171875000E+0003  -2.78661596679688E+0003  -2.78668701171875E+0003  -2.78672778320313E+0003  -2.78674267578125E+0003  -2.78673583984375E+0003  -2.78671142578125E+0003  -2.78667309570313E+0003  -2.78662475585938E+0003  -2.78657006835938E+0003  -2.78651147460938E+0003  -2.78645092773438E+0003  -2.78639038085938E+0003  -2.78633129882813E+0003  -2.78627563476563E+0003  -2.78622485351563E+0003  -2.78618115234375E+0003  -2.78614575195313E+0003  -2.78611816406250E+0003  -2.78609692382813E+0003  -2.78608056640625E+0003  -2.78606689453125E+0003  -2.78605468750000E+0003  -2.78604223632813E+0003  -2.78602783203125E+0003  -2.78600976562500E+0003  -2.78598339843750E+0003  -2.78594433593750E+0003  -2.78588696289063E+0003  -2.78580639648438E+0003  -2.78569824218750E+0003  -2.78555786132813E+0003  -2.78538110351563E+0003  -2.78516625976563E+0003  -2.78492553710938E+0003  -2.78467309570313E+0003  -2.78442358398438E+0003  -2.78419116210938E+0003  -2.78399023437500E+0003  -2.78383520507813E+0003  -2.78374047851563E+0003  -2.78371264648438E+0003  -2.78374267578125E+0003  -2.78381884765625E+0003  -2.78392968750000E+0003  -2.78406298828125E+0003  -2.78420776367188E+0003  -2.78435205078125E+0003  -2.78448413085938E+0003  -2.78459716796875E+0003  -2.78469042968750E+0003  -2.78476416015625E+0003  -2.78481787109375E+0003  -2.78485156250000E+0003  -2.78486450195313E+0003  -2.78485595703125E+0003  -2.78482543945313E+0003  -2.78477270507813E+0003  -2.78469824218750E+0003  -2.78460205078125E+0003  -2.78448437500000E+0003  -2.78434545898438E+0003  -2.78418530273438E+0003  -2.78400439453125E+0003  -2.78380297851563E+0003  -2.78358496093750E+0003  -2.78335546875000E+0003  -2.78311987304688E+0003  -2.78288305664063E+0003  -2.78265063476563E+0003  -2.78242797851563E+0003  -2.78221997070313E+0003  -2.78203125000000E+0003  -2.78186230468750E+0003  -2.78171240234375E+0003  -2.78158032226563E+0003  -2.78146533203125E+0003  -2.78136645507813E+0003  -2.78128271484375E+0003  -2.78121313476563E+0003  -2.78115698242188E+0003  -2.78111279296875E+0003  -2.78108007812500E+0003  -2.78105761718750E+0003  -2.78104418945313E+0003  -2.78103906250000E+0003  -2.78104101562500E+0003  -2.78104907226563E+0003  -2.78106250000000E+0003  -2.78108032226563E+0003  -2.78110180664063E+0003  -2.78112646484375E+0003  -2.78115380859375E+0003  -2.78118286132813E+0003  -2.78121313476563E+0003  -2.78124365234375E+0003  -2.78127441406250E+0003  -2.78130468750000E+0003  -2.78133471679688E+0003  -2.78136376953125E+0003  -2.78139160156250E+0003  -2.78141845703125E+0003  -2.78144360351563E+0003  -2.78146704101563E+0003  -2.78148730468750E+0003  -2.78150341796875E+0003  -2.78151342773438E+0003  -2.78151586914063E+0003  -2.78150903320313E+0003  -2.78149121093750E+0003  -2.78146069335938E+0003  -2.78141577148438E+0003  -2.78135595703125E+0003  -2.78128051757813E+0003  -2.78118945312500E+0003  -2.78108227539063E+0003  -2.78095922851563E+0003  -2.78082055664063E+0003  -2.78066723632813E+0003  -2.78049975585938E+0003  -2.78032006835938E+0003  -2.78013061523438E+0003  -2.77993334960938E+0003  -2.77973071289063E+0003  -2.77952514648438E+0003  -2.77931884765625E+0003  -2.77911450195313E+0003  -2.77891479492188E+0003  -2.77872314453125E+0003  -2.77854394531250E+0003  -2.77838110351563E+0003  -2.77823828125000E+0003  -2.77811987304688E+0003  -2.77802978515625E+0003  -2.77797192382813E+0003  -2.77794750976563E+0003  -2.77795458984375E+0003  -2.77799023437500E+0003  -2.77805126953125E+0003  -2.77813500976563E+0003  -2.77823876953125E+0003  -2.77835937500000E+0003  -2.77849438476563E+0003  -2.77864135742188E+0003  -2.77879931640625E+0003  -2.77896655273438E+0003  -2.77914257812500E+0003  -2.77932543945313E+0003  -2.77951440429688E+0003  -2.77970800781250E+0003  -2.77990527343750E+0003  -2.78010522460938E+0003  -2.78030810546875E+0003  -2.78051342773438E+0003  -2.78072094726563E+0003  -2.78093041992188E+0003  -2.78114208984375E+0003  -2.78135522460938E+0003  -2.78156982421875E+0003  -2.78178540039063E+0003  -2.78200146484375E+0003  -2.78221752929688E+0003  -2.78243286132813E+0003  -2.78264746093750E+0003  -2.78286035156250E+0003  -2.78307104492188E+0003
  -2.78888500976563E+0003  -2.78854931640625E+0003  -2.78821777343750E+0003  -2.78789086914063E+0003  -2.78756958007813E+0003  -2.78725488281250E+0003  -2.78694726562500E+0003  -2.78664770507813E+0003  -2.78635693359375E+0003  -2.78607495117188E+0003  -2.78580273437500E+0003  -2.78554101562500E+0003  -2.78529125976563E+0003  -2.78505541992188E+0003  -2.78483520507813E+0003  -2.78463183593750E+0003  -2.78444506835938E+0003  -2.78427465820313E+0003  -2.78412011718750E+0003  -2.78397558593750E+0003  -2.78382299804688E+0003  -2.78364257812500E+0003  -2.78341503906250E+0003  -2.78313720703125E+0003  -2.78283593750000E+0003  -2.78254223632813E+0003  -2.78228613281250E+0003  -2.78209301757813E+0003  -2.78198120117188E+0003  -2.78196875000000E+0003  -2.78207250976563E+0003  -2.78229589843750E+0003  -2.78262524414063E+0003  -2.78304614257813E+0003  -2.78354443359375E+0003  -2.78410693359375E+0003  -2.78472045898438E+0003  -2.78537304687500E+0003  -2.78605102539063E+0003  -2.78673095703125E+0003  -2.78738208007813E+0003  -2.78797412109375E+0003  -2.78847705078125E+0003  -2.78887084960938E+0003  -2.78914062500000E+0003  -2.78927124023438E+0003  -2.78925219726563E+0003  -2.78909790039063E+0003  -2.78883374023438E+0003  -2.78848608398438E+0003  -2.78808105468750E+0003  -2.78764575195313E+0003  -2.78720800781250E+0003  -2.78679589843750E+0003  -2.78643261718750E+0003  -2.78612207031250E+0003  -2.78586352539063E+0003  -2.78565551757813E+0003  -2.78549707031250E+0003  -2.78538769531250E+0003  -2.78532666015625E+0003  -2.78531347656250E+0003  -2.78534521484375E+0003  -2.78541381835938E+0003  -2.78551025390625E+0003  -2.78562548828125E+0003  -2.78575000000000E+0003  -2.78587524414063E+0003  -2.78599169921875E+0003  -2.78609033203125E+0003  -2.78616650390625E+0003  -2.78622167968750E+0003  -2.78625756835938E+0003  -2.78627685546875E+0003  -2.78628125000000E+0003  -2.78627294921875E+0003  -2.78625415039063E+0003  -2.78622656250000E+0003  -2.78619238281250E+0003  -2.78615307617188E+0003  -2.78611035156250E+0003  -2.78606542968750E+0003  -2.78602026367188E+0003  -2.78597631835938E+0003  -2.78593481445313E+0003  -2.78589770507813E+0003  -2.78586474609375E+0003  -2.78583471679688E+0003  -2.78580664062500E+0003  -2.78577978515625E+0003  -2.78575292968750E+0003  -2.78572485351563E+0003  -2.78569482421875E+0003  -2.78566137695313E+0003  -2.78562182617188E+0003  -2.78557324218750E+0003  -2.78551220703125E+0003  -2.78543579101563E+0003  -2.78534033203125E+0003  -2.78522314453125E+0003  -2.78508056640625E+0003  -2.78491259765625E+0003  -2.78472705078125E+0003  -2.78453540039063E+0003  -2.78434765625000E+0003  -2.78417480468750E+0003  -2.78402783203125E+0003  -2.78391723632813E+0003  -2.78385351562500E+0003  -2.78384204101563E+0003  -2.78387548828125E+0003  -2.78394458007813E+0003  -2.78404077148438E+0003  -2.78415478515625E+0003  -2.78427758789063E+0003  -2.78440063476563E+0003  -2.78451440429688E+0003  -2.78461352539063E+0003  -2.78469653320313E+0003  -2.78476293945313E+0003  -2.78481152343750E+0003  -2.78484130859375E+0003  -2.78485131835938E+0003  -2.78484057617188E+0003  -2.78480761718750E+0003  -2.78475244140625E+0003  -2.78467553710938E+0003  -2.78457739257813E+0003  -2.78445874023438E+0003  -2.78432031250000E+0003  -2.78416210937500E+0003  -2.78398535156250E+0003  -2.78379052734375E+0003  -2.78358105468750E+0003  -2.78336181640625E+0003  -2.78313720703125E+0003  -2.78291210937500E+0003  -2.78269116210938E+0003  -2.78247949218750E+0003  -2.78228125000000E+0003  -2.78210083007813E+0003  -2.78193872070313E+0003  -2.78179370117188E+0003  -2.78166552734375E+0003  -2.78155273437500E+0003  -2.78145483398438E+0003  -2.78137084960938E+0003  -2.78130004882813E+0003  -2.78124169921875E+0003  -2.78119458007813E+0003  -2.78115795898438E+0003  -2.78113110351563E+0003  -2.78111279296875E+0003  -2.78110229492188E+0003  -2.78109863281250E+0003  -2.78110107421875E+0003  -2.78110839843750E+0003  -2.78112036132813E+0003  -2.78113598632813E+0003  -2.78115502929688E+0003  -2.78117626953125E+0003  -2.78119946289063E+0003  -2.78122363281250E+0003  -2.78124853515625E+0003  -2.78127343750000E+0003  -2.78129785156250E+0003  -2.78132153320313E+0003  -2.78134448242188E+0003  -2.78136572265625E+0003  -2.78138549804688E+0003  -2.78140332031250E+0003  -2.78141870117188E+0003  -2.78143066406250E+0003  -2.78143823242188E+0003  -2.78143969726563E+0003  -2.78143383789063E+0003  -2.78141967773438E+0003  -2.78139526367188E+0003  -2.78135961914063E+0003  -2.78131152343750E+0003  -2.78125024414063E+0003  -2.78117578125000E+0003  -2.78108764648438E+0003  -2.78098608398438E+0003  -2.78087060546875E+0003  -2.78074145507813E+0003  -2.78059887695313E+0003  -2.78044262695313E+0003  -2.78027514648438E+0003  -2.78009838867188E+0003  -2.77991479492188E+0003  -2.77972680664063E+0003  -2.77953613281250E+0003  -2.77934570312500E+0003  -2.77915771484375E+0003  -2.77897460937500E+0003  -2.77879956054688E+0003  -2.77863671875000E+0003  -2.77848876953125E+0003  -2.77835986328125E+0003  -2.77825317382813E+0003  -2.77817236328125E+0003  -2.77812060546875E+0003  -2.77809985351563E+0003  -2.77810742187500E+0003  -2.77814111328125E+0003  -2.77819848632813E+0003  -2.77827709960938E+0003  -2.77837475585938E+0003  -2.77848852539063E+0003  -2.77861621093750E+0003  -2.77875610351563E+0003  -2.77890673828125E+0003  -2.77906713867188E+0003  -2.77923608398438E+0003  -2.77941235351563E+0003  -2.77959472656250E+0003  -2.77978222656250E+0003  -2.77997338867188E+0003  -2.78016796875000E+0003  -2.78036547851563E+0003  -2.78056567382813E+0003  -2.78076855468750E+0003  -2.78097338867188E+0003  -2.78118017578125E+0003  -2.78138891601563E+0003  -2.78159887695313E+0003  -2.78181005859375E+0003  -2.78202148437500E+0003  -2.78223315429688E+0003  -2.78244433593750E+0003  -2.78265429687500E+0003  -2.78286303710938E+0003  -2.78306982421875E+0003
  -2.78863720703125E+0003  -2.78830957031250E+0003  -2.78798681640625E+0003  -2.78766943359375E+0003  -2.78735839843750E+0003  -2.78705444335938E+0003  -2.78675854492188E+0003  -2.78647119140625E+0003  -2.78619384765625E+0003  -2.78592675781250E+0003  -2.78567114257813E+0003  -2.78542797851563E+0003  -2.78519946289063E+0003  -2.78498730468750E+0003  -2.78479418945313E+0003  -2.78462133789063E+0003  -2.78446777343750E+0003  -2.78433276367188E+0003  -2.78421508789063E+0003  -2.78410815429688E+0003  -2.78399316406250E+0003  -2.78384863281250E+0003  -2.78365454101563E+0003  -2.78340673828125E+0003  -2.78313427734375E+0003  -2.78286816406250E+0003  -2.78264038085938E+0003  -2.78247729492188E+0003  -2.78239819335938E+0003  -2.78242211914063E+0003  -2.78256738281250E+0003  -2.78283593750000E+0003  -2.78320996093750E+0003  -2.78367187500000E+0003  -2.78420312500000E+0003  -2.78478662109375E+0003  -2.78540625000000E+0003  -2.78604565429688E+0003  -2.78668798828125E+0003  -2.78731127929688E+0003  -2.78788940429688E+0003  -2.78839599609375E+0003  -2.78880639648438E+0003  -2.78910620117188E+0003  -2.78928588867188E+0003  -2.78933740234375E+0003  -2.78925488281250E+0003  -2.78905297851563E+0003  -2.78875512695313E+0003  -2.78838500976563E+0003  -2.78796630859375E+0003  -2.78752343750000E+0003  -2.78708105468750E+0003  -2.78666406250000E+0003  -2.78629296875000E+0003  -2.78597143554688E+0003  -2.78569873046875E+0003  -2.78547363281250E+0003  -2.78529541015625E+0003  -2.78516357421875E+0003  -2.78507690429688E+0003  -2.78503515625000E+0003  -2.78503564453125E+0003  -2.78507177734375E+0003  -2.78513598632813E+0003  -2.78522070312500E+0003  -2.78531860351563E+0003  -2.78542187500000E+0003  -2.78552343750000E+0003  -2.78561572265625E+0003  -2.78569409179688E+0003  -2.78575878906250E+0003  -2.78581030273438E+0003  -2.78584960937500E+0003  -2.78587695312500E+0003  -2.78589282226563E+0003  -2.78589843750000E+0003  -2.78589379882813E+0003  -2.78588012695313E+0003  -2.78585888671875E+0003  -2.78583154296875E+0003  -2.78579931640625E+0003  -2.78576367187500E+0003  -2.78572631835938E+0003  -2.78568798828125E+0003  -2.78565063476563E+0003  -2.78561425781250E+0003  -2.78557836914063E+0003  -2.78554248046875E+0003  -2.78550610351563E+0003  -2.78546875000000E+0003  -2.78542993164063E+0003  -2.78538940429688E+0003  -2.78534619140625E+0003  -2.78529858398438E+0003  -2.78524511718750E+0003  -2.78518359375000E+0003  -2.78511206054688E+0003  -2.78502832031250E+0003  -2.78493066406250E+0003  -2.78481738281250E+0003  -2.78468774414063E+0003  -2.78454809570313E+0003  -2.78440625000000E+0003  -2.78427001953125E+0003  -2.78414672851563E+0003  -2.78404443359375E+0003  -2.78397070312500E+0003  -2.78393310546875E+0003  -2.78393554687500E+0003  -2.78397192382813E+0003  -2.78403588867188E+0003  -2.78412036132813E+0003  -2.78421875000000E+0003  -2.78432397460938E+0003  -2.78442919921875E+0003  -2.78452807617188E+0003  -2.78461547851563E+0003  -2.78468994140625E+0003  -2.78475000000000E+0003  -2.78479394531250E+0003  -2.78482080078125E+0003  -2.78482861328125E+0003  -2.78481591796875E+0003  -2.78478149414063E+0003  -2.78472460937500E+0003  -2.78464624023438E+0003  -2.78454736328125E+0003  -2.78442919921875E+0003  -2.78429199218750E+0003  -2.78413720703125E+0003  -2.78396533203125E+0003  -2.78377758789063E+0003  -2.78357714843750E+0003  -2.78336840820313E+0003  -2.78315527343750E+0003  -2.78294189453125E+0003  -2.78273291015625E+0003  -2.78253222656250E+0003  -2.78234399414063E+0003  -2.78217211914063E+0003  -2.78201684570313E+0003  -2.78187744140625E+0003  -2.78175292968750E+0003  -2.78164282226563E+0003  -2.78154638671875E+0003  -2.78146289062500E+0003  -2.78139135742188E+0003  -2.78133105468750E+0003  -2.78128149414063E+0003  -2.78124169921875E+0003  -2.78121069335938E+0003  -2.78118798828125E+0003  -2.78117260742188E+0003  -2.78116357421875E+0003  -2.78116064453125E+0003  -2.78116235351563E+0003  -2.78116845703125E+0003  -2.78117846679688E+0003  -2.78119140625000E+0003  -2.78120654296875E+0003  -2.78122387695313E+0003  -2.78124194335938E+0003  -2.78126074218750E+0003  -2.78127954101563E+0003  -2.78129809570313E+0003  -2.78131567382813E+0003  -2.78133203125000E+0003  -2.78134667968750E+0003  -2.78135961914063E+0003  -2.78137011718750E+0003  -2.78137768554688E+0003  -2.78138159179688E+0003  -2.78138110351563E+0003  -2.78137475585938E+0003  -2.78136181640625E+0003  -2.78134106445313E+0003  -2.78131152343750E+0003  -2.78127172851563E+0003  -2.78122119140625E+0003  -2.78115942382813E+0003  -2.78108569335938E+0003  -2.78100048828125E+0003  -2.78090307617188E+0003  -2.78079370117188E+0003  -2.78067211914063E+0003  -2.78053808593750E+0003  -2.78039208984375E+0003  -2.78023559570313E+0003  -2.78007104492188E+0003  -2.77990039062500E+0003  -2.77972607421875E+0003  -2.77955029296875E+0003  -2.77937500000000E+0003  -2.77920263671875E+0003  -2.77903540039063E+0003  -2.77887622070313E+0003  -2.77872851562500E+0003  -2.77859521484375E+0003  -2.77847924804688E+0003  -2.77838378906250E+0003  -2.77831176757813E+0003  -2.77826635742188E+0003  -2.77824902343750E+0003  -2.77825756835938E+0003  -2.77829028320313E+0003  -2.77834472656250E+0003  -2.77841918945313E+0003  -2.77851123046875E+0003  -2.77861889648438E+0003  -2.77874047851563E+0003  -2.77887377929688E+0003  -2.77901806640625E+0003  -2.77917187500000E+0003  -2.77933447265625E+0003  -2.77950439453125E+0003  -2.77968066406250E+0003  -2.77986230468750E+0003  -2.78004785156250E+0003  -2.78023706054688E+0003  -2.78042944335938E+0003  -2.78062475585938E+0003  -2.78082275390625E+0003  -2.78102294921875E+0003  -2.78122534179688E+0003  -2.78142944335938E+0003  -2.78163500976563E+0003  -2.78184130859375E+0003  -2.78204858398438E+0003  -2.78225561523438E+0003  -2.78246240234375E+0003  -2.78266821289063E+0003  -2.78287280273438E+0003  -2.78307543945313E+0003
  -2.78840380859375E+0003  -2.78808447265625E+0003  -2.78777026367188E+0003  -2.78746215820313E+0003  -2.78716064453125E+0003  -2.78686718750000E+0003  -2.78658203125000E+0003  -2.78630615234375E+0003  -2.78604077148438E+0003  -2.78578662109375E+0003  -2.78554516601563E+0003  -2.78531762695313E+0003  -2.78510595703125E+0003  -2.78491259765625E+0003  -2.78473974609375E+0003  -2.78458862304688E+0003  -2.78445825195313E+0003  -2.78434667968750E+0003  -2.78425219726563E+0003  -2.78416796875000E+0003  -2.78407617187500E+0003  -2.78395654296875E+0003  -2.78378930664063E+0003  -2.78357153320313E+0003  -2.78333081054688E+0003  -2.78309790039063E+0003  -2.78290307617188E+0003  -2.78277246093750E+0003  -2.78272583007813E+0003  -2.78278247070313E+0003  -2.78296069335938E+0003  -2.78326123046875E+0003  -2.78366479492188E+0003  -2.78415063476563E+0003  -2.78469848632813E+0003  -2.78528857421875E+0003  -2.78590258789063E+0003  -2.78652197265625E+0003  -2.78712744140625E+0003  -2.78769897460938E+0003  -2.78821435546875E+0003  -2.78865209960938E+0003  -2.78899169921875E+0003  -2.78922216796875E+0003  -2.78933837890625E+0003  -2.78933544921875E+0003  -2.78921118164063E+0003  -2.78897949218750E+0003  -2.78866186523438E+0003  -2.78828027343750E+0003  -2.78785620117188E+0003  -2.78741137695313E+0003  -2.78696850585938E+0003  -2.78654956054688E+0003  -2.78617333984375E+0003  -2.78584301757813E+0003  -2.78555834960938E+0003  -2.78531835937500E+0003  -2.78512255859375E+0003  -2.78496997070313E+0003  -2.78486059570313E+0003  -2.78479321289063E+0003  -2.78476635742188E+0003  -2.78477392578125E+0003  -2.78481005859375E+0003  -2.78486840820313E+0003  -2.78494262695313E+0003  -2.78502661132813E+0003  -2.78511425781250E+0003  -2.78519921875000E+0003  -2.78527709960938E+0003  -2.78534765625000E+0003  -2.78540991210938E+0003  -2.78546362304688E+0003  -2.78550805664063E+0003  -2.78554248046875E+0003  -2.78556665039063E+0003  -2.78558007812500E+0003  -2.78558300781250E+0003  -2.78557666015625E+0003  -2.78556225585938E+0003  -2.78554101562500E+0003  -2.78551440429688E+0003  -2.78548364257813E+0003  -2.78544970703125E+0003  -2.78541406250000E+0003  -2.78537719726563E+0003  -2.78533862304688E+0003  -2.78529858398438E+0003  -2.78525708007813E+0003  -2.78521386718750E+0003  -2.78516870117188E+0003  -2.78512207031250E+0003  -2.78507299804688E+0003  -2.78502148437500E+0003  -2.78496582031250E+0003  -2.78490551757813E+0003  -2.78483935546875E+0003  -2.78476611328125E+0003  -2.78468505859375E+0003  -2.78459497070313E+0003  -2.78449609375000E+0003  -2.78439257812500E+0003  -2.78429028320313E+0003  -2.78419409179688E+0003  -2.78410961914063E+0003  -2.78404223632813E+0003  -2.78399731445313E+0003  -2.78398022460938E+0003  -2.78399316406250E+0003  -2.78403222656250E+0003  -2.78409179687500E+0003  -2.78416723632813E+0003  -2.78425317382813E+0003  -2.78434423828125E+0003  -2.78443579101563E+0003  -2.78452246093750E+0003  -2.78460009765625E+0003  -2.78466748046875E+0003  -2.78472216796875E+0003  -2.78476245117188E+0003  -2.78478662109375E+0003  -2.78479296875000E+0003  -2.78477905273438E+0003  -2.78474365234375E+0003  -2.78468627929688E+0003  -2.78460815429688E+0003  -2.78451025390625E+0003  -2.78439379882813E+0003  -2.78425976562500E+0003  -2.78410937500000E+0003  -2.78394360351563E+0003  -2.78376416015625E+0003  -2.78357348632813E+0003  -2.78337573242188E+0003  -2.78317431640625E+0003  -2.78297314453125E+0003  -2.78277587890625E+0003  -2.78258642578125E+0003  -2.78240844726563E+0003  -2.78224536132813E+0003  -2.78209716796875E+0003  -2.78196337890625E+0003  -2.78184326171875E+0003  -2.78173632812500E+0003  -2.78164160156250E+0003  -2.78155859375000E+0003  -2.78148681640625E+0003  -2.78142553710938E+0003  -2.78137377929688E+0003  -2.78133105468750E+0003  -2.78129663085938E+0003  -2.78126977539063E+0003  -2.78124975585938E+0003  -2.78123583984375E+0003  -2.78122753906250E+0003  -2.78122387695313E+0003  -2.78122436523438E+0003  -2.78122851562500E+0003  -2.78123559570313E+0003  -2.78124487304688E+0003  -2.78125585937500E+0003  -2.78126806640625E+0003  -2.78128076171875E+0003  -2.78129345703125E+0003  -2.78130566406250E+0003  -2.78131689453125E+0003  -2.78132690429688E+0003  -2.78133520507813E+0003  -2.78134130859375E+0003  -2.78134472656250E+0003  -2.78134521484375E+0003  -2.78134179687500E+0003  -2.78133398437500E+0003  -2.78132080078125E+0003  -2.78130126953125E+0003  -2.78127490234375E+0003  -2.78124047851563E+0003  -2.78119726562500E+0003  -2.78114477539063E+0003  -2.78108227539063E+0003  -2.78100952148438E+0003  -2.78092651367188E+0003  -2.78083325195313E+0003  -2.78072900390625E+0003  -2.78061401367188E+0003  -2.78048803710938E+0003  -2.78035107421875E+0003  -2.78020483398438E+0003  -2.78005151367188E+0003  -2.77989306640625E+0003  -2.77973168945313E+0003  -2.77956933593750E+0003  -2.77940820312500E+0003  -2.77925024414063E+0003  -2.77909765625000E+0003  -2.77895336914063E+0003  -2.77881958007813E+0003  -2.77869946289063E+0003  -2.77859545898438E+0003  -2.77851025390625E+0003  -2.77844677734375E+0003  -2.77840771484375E+0003  -2.77839379882813E+0003  -2.77840380859375E+0003  -2.77843603515625E+0003  -2.77848828125000E+0003  -2.77855932617188E+0003  -2.77864721679688E+0003  -2.77875000000000E+0003  -2.77886596679688E+0003  -2.77899365234375E+0003  -2.77913232421875E+0003  -2.77928051757813E+0003  -2.77943725585938E+0003  -2.77960131835938E+0003  -2.77977197265625E+0003  -2.77994799804688E+0003  -2.78012841796875E+0003  -2.78031250000000E+0003  -2.78049975585938E+0003  -2.78069042968750E+0003  -2.78088354492188E+0003  -2.78107910156250E+0003  -2.78127685546875E+0003  -2.78147656250000E+0003  -2.78167749023438E+0003  -2.78187939453125E+0003  -2.78208203125000E+0003  -2.78228466796875E+0003  -2.78248706054688E+0003  -2.78268872070313E+0003  -2.78288891601563E+0003  -2.78308764648438E+0003
  -2.78818408203125E+0003  -2.78787280273438E+0003  -2.78756713867188E+0003  -2.78726782226563E+0003  -2.78697607421875E+0003  -2.78669213867188E+0003  -2.78641699218750E+0003  -2.78615161132813E+0003  -2.78589697265625E+0003  -2.78565429687500E+0003  -2.78542480468750E+0003  -2.78520996093750E+0003  -2.78501171875000E+0003  -2.78483227539063E+0003  -2.78467358398438E+0003  -2.78453735351563E+0003  -2.78442163085938E+0003  -2.78432373046875E+0003  -2.78424194335938E+0003  -2.78416918945313E+0003  -2.78408984375000E+0003  -2.78398632812500E+0003  -2.78384106445313E+0003  -2.78365209960938E+0003  -2.78344482421875E+0003  -2.78324731445313E+0003  -2.78308789062500E+0003  -2.78299072265625E+0003  -2.78297534179688E+0003  -2.78306005859375E+0003  -2.78326293945313E+0003  -2.78358422851563E+0003  -2.78400317382813E+0003  -2.78449877929688E+0003  -2.78504907226563E+0003  -2.78563378906250E+0003  -2.78623266601563E+0003  -2.78682641601563E+0003  -2.78739501953125E+0003  -2.78791943359375E+0003  -2.78838208007813E+0003  -2.78876538085938E+0003  -2.78905200195313E+0003  -2.78923437500000E+0003  -2.78930859375000E+0003  -2.78927221679688E+0003  -2.78912402343750E+0003  -2.78887768554688E+0003  -2.78855273437500E+0003  -2.78816894531250E+0003  -2.78774658203125E+0003  -2.78730566406250E+0003  -2.78686621093750E+0003  -2.78644873046875E+0003  -2.78607031250000E+0003  -2.78573388671875E+0003  -2.78543969726563E+0003  -2.78518701171875E+0003  -2.78497534179688E+0003  -2.78480493164063E+0003  -2.78467504882813E+0003  -2.78458544921875E+0003  -2.78453466796875E+0003  -2.78451782226563E+0003  -2.78452978515625E+0003  -2.78456518554688E+0003  -2.78461889648438E+0003  -2.78468579101563E+0003  -2.78476025390625E+0003  -2.78483740234375E+0003  -2.78491333007813E+0003  -2.78498632812500E+0003  -2.78505517578125E+0003  -2.78511840820313E+0003  -2.78517456054688E+0003  -2.78522241210938E+0003  -2.78526049804688E+0003  -2.78528759765625E+0003  -2.78530322265625E+0003  -2.78530883789063E+0003  -2.78530541992188E+0003  -2.78529394531250E+0003  -2.78527563476563E+0003  -2.78525146484375E+0003  -2.78522290039063E+0003  -2.78519042968750E+0003  -2.78515527343750E+0003  -2.78511718750000E+0003  -2.78507641601563E+0003  -2.78503320312500E+0003  -2.78498779296875E+0003  -2.78494018554688E+0003  -2.78489086914063E+0003  -2.78483984375000E+0003  -2.78478710937500E+0003  -2.78473193359375E+0003  -2.78467407226563E+0003  -2.78461352539063E+0003  -2.78454956054688E+0003  -2.78448217773438E+0003  -2.78441064453125E+0003  -2.78433569335938E+0003  -2.78426025390625E+0003  -2.78418774414063E+0003  -2.78412207031250E+0003  -2.78406689453125E+0003  -2.78402587890625E+0003  -2.78400244140625E+0003  -2.78400048828125E+0003  -2.78402148437500E+0003  -2.78406225585938E+0003  -2.78411865234375E+0003  -2.78418701171875E+0003  -2.78426318359375E+0003  -2.78434375000000E+0003  -2.78442431640625E+0003  -2.78450122070313E+0003  -2.78457128906250E+0003  -2.78463256835938E+0003  -2.78468261718750E+0003  -2.78471997070313E+0003  -2.78474194335938E+0003  -2.78474682617188E+0003  -2.78473266601563E+0003  -2.78469726562500E+0003  -2.78464062500000E+0003  -2.78456372070313E+0003  -2.78446777343750E+0003  -2.78435449218750E+0003  -2.78422485351563E+0003  -2.78408007812500E+0003  -2.78392187500000E+0003  -2.78375122070313E+0003  -2.78357104492188E+0003  -2.78338452148438E+0003  -2.78319531250000E+0003  -2.78300610351563E+0003  -2.78282104492188E+0003  -2.78264282226563E+0003  -2.78247509765625E+0003  -2.78232055664063E+0003  -2.78217968750000E+0003  -2.78205175781250E+0003  -2.78193627929688E+0003  -2.78183251953125E+0003  -2.78174023437500E+0003  -2.78165844726563E+0003  -2.78158666992188E+0003  -2.78152441406250E+0003  -2.78147094726563E+0003  -2.78142578125000E+0003  -2.78138818359375E+0003  -2.78135766601563E+0003  -2.78133349609375E+0003  -2.78131494140625E+0003  -2.78130151367188E+0003  -2.78129272460938E+0003  -2.78128784179688E+0003  -2.78128613281250E+0003  -2.78128735351563E+0003  -2.78129077148438E+0003  -2.78129589843750E+0003  -2.78130200195313E+0003  -2.78130834960938E+0003  -2.78131494140625E+0003  -2.78132104492188E+0003  -2.78132617187500E+0003  -2.78132983398438E+0003  -2.78133178710938E+0003  -2.78133129882813E+0003  -2.78132812500000E+0003  -2.78132177734375E+0003  -2.78131176757813E+0003  -2.78129736328125E+0003  -2.78127783203125E+0003  -2.78125268554688E+0003  -2.78122119140625E+0003  -2.78118261718750E+0003  -2.78113647460938E+0003  -2.78108203125000E+0003  -2.78101904296875E+0003  -2.78094726562500E+0003  -2.78086645507813E+0003  -2.78077636718750E+0003  -2.78067700195313E+0003  -2.78056811523438E+0003  -2.78044921875000E+0003  -2.78032080078125E+0003  -2.78018408203125E+0003  -2.78004125976563E+0003  -2.77989404296875E+0003  -2.77974462890625E+0003  -2.77959472656250E+0003  -2.77944653320313E+0003  -2.77930200195313E+0003  -2.77916284179688E+0003  -2.77903173828125E+0003  -2.77891088867188E+0003  -2.77880297851563E+0003  -2.77870996093750E+0003  -2.77863452148438E+0003  -2.77857885742188E+0003  -2.77854541015625E+0003  -2.77853540039063E+0003  -2.77854711914063E+0003  -2.77857934570313E+0003  -2.77863037109375E+0003  -2.77869897460938E+0003  -2.77878320312500E+0003  -2.77888183593750E+0003  -2.77899340820313E+0003  -2.77911645507813E+0003  -2.77925000000000E+0003  -2.77939282226563E+0003  -2.77954443359375E+0003  -2.77970336914063E+0003  -2.77986865234375E+0003  -2.78003930664063E+0003  -2.78021459960938E+0003  -2.78039379882813E+0003  -2.78057641601563E+0003  -2.78076220703125E+0003  -2.78095068359375E+0003  -2.78114184570313E+0003  -2.78133496093750E+0003  -2.78153002929688E+0003  -2.78172631835938E+0003  -2.78192382812500E+0003  -2.78212207031250E+0003  -2.78232031250000E+0003  -2.78251831054688E+0003  -2.78271557617188E+0003  -2.78291162109375E+0003  -2.78310620117188E+0003
  -2.78797729492188E+0003  -2.78767382812500E+0003  -2.78737646484375E+0003  -2.78708593750000E+0003  -2.78680297851563E+0003  -2.78652832031250E+0003  -2.78626245117188E+0003  -2.78600659179688E+0003  -2.78576171875000E+0003  -2.78552880859375E+0003  -2.78530932617188E+0003  -2.78510473632813E+0003  -2.78491674804688E+0003  -2.78474755859375E+0003  -2.78459863281250E+0003  -2.78447167968750E+0003  -2.78436401367188E+0003  -2.78427294921875E+0003  -2.78419604492188E+0003  -2.78412744140625E+0003  -2.78405346679688E+0003  -2.78395996093750E+0003  -2.78383300781250E+0003  -2.78367089843750E+0003  -2.78349633789063E+0003  -2.78333471679688E+0003  -2.78321020507813E+0003  -2.78314550781250E+0003  -2.78315820312500E+0003  -2.78326586914063E+0003  -2.78348583984375E+0003  -2.78381762695313E+0003  -2.78424072265625E+0003  -2.78473364257813E+0003  -2.78527514648438E+0003  -2.78584423828125E+0003  -2.78642114257813E+0003  -2.78698559570313E+0003  -2.78751733398438E+0003  -2.78800000000000E+0003  -2.78841894531250E+0003  -2.78875976562500E+0003  -2.78900878906250E+0003  -2.78915942382813E+0003  -2.78920922851563E+0003  -2.78915576171875E+0003  -2.78899804687500E+0003  -2.78874877929688E+0003  -2.78842626953125E+0003  -2.78804858398438E+0003  -2.78763452148438E+0003  -2.78720214843750E+0003  -2.78677026367188E+0003  -2.78635766601563E+0003  -2.78597973632813E+0003  -2.78563989257813E+0003  -2.78533862304688E+0003  -2.78507543945313E+0003  -2.78485083007813E+0003  -2.78466479492188E+0003  -2.78451733398438E+0003  -2.78440844726563E+0003  -2.78433740234375E+0003  -2.78429980468750E+0003  -2.78429125976563E+0003  -2.78430712890625E+0003  -2.78434326171875E+0003  -2.78439477539063E+0003  -2.78445751953125E+0003  -2.78452661132813E+0003  -2.78459863281250E+0003  -2.78467187500000E+0003  -2.78474365234375E+0003  -2.78481250000000E+0003  -2.78487646484375E+0003  -2.78493310546875E+0003  -2.78498095703125E+0003  -2.78501782226563E+0003  -2.78504345703125E+0003  -2.78505834960938E+0003  -2.78506372070313E+0003  -2.78506079101563E+0003  -2.78505004882813E+0003  -2.78503271484375E+0003  -2.78500976562500E+0003  -2.78498217773438E+0003  -2.78495043945313E+0003  -2.78491479492188E+0003  -2.78487597656250E+0003  -2.78483398437500E+0003  -2.78478955078125E+0003  -2.78474267578125E+0003  -2.78469409179688E+0003  -2.78464379882813E+0003  -2.78459204101563E+0003  -2.78453930664063E+0003  -2.78448535156250E+0003  -2.78443041992188E+0003  -2.78437475585938E+0003  -2.78431835937500E+0003  -2.78426147460938E+0003  -2.78420434570313E+0003  -2.78414941406250E+0003  -2.78409912109375E+0003  -2.78405566406250E+0003  -2.78402172851563E+0003  -2.78399951171875E+0003  -2.78399169921875E+0003  -2.78400073242188E+0003  -2.78402734375000E+0003  -2.78406909179688E+0003  -2.78412280273438E+0003  -2.78418579101563E+0003  -2.78425488281250E+0003  -2.78432714843750E+0003  -2.78439941406250E+0003  -2.78446875000000E+0003  -2.78453271484375E+0003  -2.78458886718750E+0003  -2.78463525390625E+0003  -2.78466967773438E+0003  -2.78468994140625E+0003  -2.78469409179688E+0003  -2.78467968750000E+0003  -2.78464501953125E+0003  -2.78458984375000E+0003  -2.78451513671875E+0003  -2.78442260742188E+0003  -2.78431347656250E+0003  -2.78418945312500E+0003  -2.78405151367188E+0003  -2.78390136718750E+0003  -2.78374023437500E+0003  -2.78357080078125E+0003  -2.78339599609375E+0003  -2.78321850585938E+0003  -2.78304174804688E+0003  -2.78286840820313E+0003  -2.78270141601563E+0003  -2.78254370117188E+0003  -2.78239819335938E+0003  -2.78226464843750E+0003  -2.78214282226563E+0003  -2.78203198242188E+0003  -2.78193188476563E+0003  -2.78184204101563E+0003  -2.78176171875000E+0003  -2.78169042968750E+0003  -2.78162768554688E+0003  -2.78157275390625E+0003  -2.78152563476563E+0003  -2.78148535156250E+0003  -2.78145141601563E+0003  -2.78142333984375E+0003  -2.78140039062500E+0003  -2.78138232421875E+0003  -2.78136840820313E+0003  -2.78135839843750E+0003  -2.78135131835938E+0003  -2.78134667968750E+0003  -2.78134423828125E+0003  -2.78134350585938E+0003  -2.78134350585938E+0003  -2.78134399414063E+0003  -2.78134448242188E+0003  -2.78134448242188E+0003  -2.78134326171875E+0003  -2.78134082031250E+0003  -2.78133666992188E+0003  -2.78133007812500E+0003  -2.78132080078125E+0003  -2.78130810546875E+0003  -2.78129199218750E+0003  -2.78127148437500E+0003  -2.78124658203125E+0003  -2.78121630859375E+0003  -2.78118041992188E+0003  -2.78113818359375E+0003  -2.78108959960938E+0003  -2.78103344726563E+0003  -2.78097021484375E+0003  -2.78089916992188E+0003  -2.78082031250000E+0003  -2.78073339843750E+0003  -2.78063842773438E+0003  -2.78053466796875E+0003  -2.78042260742188E+0003  -2.78030175781250E+0003  -2.78017382812500E+0003  -2.78004052734375E+0003  -2.77990380859375E+0003  -2.77976562500000E+0003  -2.77962744140625E+0003  -2.77949121093750E+0003  -2.77935864257813E+0003  -2.77923193359375E+0003  -2.77911303710938E+0003  -2.77900415039063E+0003  -2.77890698242188E+0003  -2.77882421875000E+0003  -2.77875756835938E+0003  -2.77870947265625E+0003  -2.77868164062500E+0003  -2.77867504882813E+0003  -2.77868896484375E+0003  -2.77872167968750E+0003  -2.77877197265625E+0003  -2.77883862304688E+0003  -2.77892041015625E+0003  -2.77901562500000E+0003  -2.77912329101563E+0003  -2.77924194335938E+0003  -2.77937109375000E+0003  -2.77950952148438E+0003  -2.77965600585938E+0003  -2.77981005859375E+0003  -2.77997045898438E+0003  -2.78013623046875E+0003  -2.78030664062500E+0003  -2.78048095703125E+0003  -2.78065893554688E+0003  -2.78084008789063E+0003  -2.78102392578125E+0003  -2.78121044921875E+0003  -2.78139916992188E+0003  -2.78158959960938E+0003  -2.78178149414063E+0003  -2.78197436523438E+0003  -2.78216796875000E+0003  -2.78236181640625E+0003  -2.78255541992188E+0003  -2.78274829101563E+0003  -2.78294018554688E+0003  -2.78313061523438E+0003
  -2.78778271484375E+0003  -2.78748706054688E+0003  -2.78719775390625E+0003  -2.78691552734375E+0003  -2.78664086914063E+0003  -2.78637475585938E+0003  -2.78611767578125E+0003  -2.78587036132813E+0003  -2.78563378906250E+0003  -2.78540966796875E+0003  -2.78519848632813E+0003  -2.78500219726563E+0003  -2.78482202148438E+0003  -2.78465966796875E+0003  -2.78451733398438E+0003  -2.78439526367188E+0003  -2.78429125976563E+0003  -2.78420263671875E+0003  -2.78412646484375E+0003  -2.78405761718750E+0003  -2.78398535156250E+0003  -2.78389892578125E+0003  -2.78378710937500E+0003  -2.78364941406250E+0003  -2.78350561523438E+0003  -2.78337719726563E+0003  -2.78328515625000E+0003  -2.78324926757813E+0003  -2.78328613281250E+0003  -2.78341137695313E+0003  -2.78364135742188E+0003  -2.78397460937500E+0003  -2.78439208984375E+0003  -2.78487280273438E+0003  -2.78539648437500E+0003  -2.78594287109375E+0003  -2.78649218750000E+0003  -2.78702490234375E+0003  -2.78752172851563E+0003  -2.78796752929688E+0003  -2.78835058593750E+0003  -2.78865917968750E+0003  -2.78888256835938E+0003  -2.78901440429688E+0003  -2.78905224609375E+0003  -2.78899340820313E+0003  -2.78883691406250E+0003  -2.78859399414063E+0003  -2.78828149414063E+0003  -2.78791650390625E+0003  -2.78751586914063E+0003  -2.78709667968750E+0003  -2.78667626953125E+0003  -2.78627148437500E+0003  -2.78589721679688E+0003  -2.78555688476563E+0003  -2.78525122070313E+0003  -2.78498046875000E+0003  -2.78474536132813E+0003  -2.78454638671875E+0003  -2.78438427734375E+0003  -2.78425927734375E+0003  -2.78417114257813E+0003  -2.78411645507813E+0003  -2.78409082031250E+0003  -2.78409057617188E+0003  -2.78411157226563E+0003  -2.78414990234375E+0003  -2.78420166015625E+0003  -2.78426293945313E+0003  -2.78433032226563E+0003  -2.78440136718750E+0003  -2.78447363281250E+0003  -2.78454492187500E+0003  -2.78461279296875E+0003  -2.78467480468750E+0003  -2.78472900390625E+0003  -2.78477270507813E+0003  -2.78480517578125E+0003  -2.78482763671875E+0003  -2.78484033203125E+0003  -2.78484448242188E+0003  -2.78484082031250E+0003  -2.78483007812500E+0003  -2.78481323242188E+0003  -2.78479101562500E+0003  -2.78476416015625E+0003  -2.78473291015625E+0003  -2.78469799804688E+0003  -2.78465966796875E+0003  -2.78461840820313E+0003  -2.78457446289063E+0003  -2.78452880859375E+0003  -2.78448168945313E+0003  -2.78443310546875E+0003  -2.78438427734375E+0003  -2.78433496093750E+0003  -2.78428588867188E+0003  -2.78423730468750E+0003  -2.78418994140625E+0003  -2.78414379882813E+0003  -2.78410009765625E+0003  -2.78405981445313E+0003  -2.78402490234375E+0003  -2.78399682617188E+0003  -2.78397729492188E+0003  -2.78396801757813E+0003  -2.78397070312500E+0003  -2.78398681640625E+0003  -2.78401684570313E+0003  -2.78405908203125E+0003  -2.78411083984375E+0003  -2.78416967773438E+0003  -2.78423339843750E+0003  -2.78429956054688E+0003  -2.78436547851563E+0003  -2.78442919921875E+0003  -2.78448803710938E+0003  -2.78454003906250E+0003  -2.78458325195313E+0003  -2.78461523437500E+0003  -2.78463403320313E+0003  -2.78463745117188E+0003  -2.78462353515625E+0003  -2.78459008789063E+0003  -2.78453686523438E+0003  -2.78446533203125E+0003  -2.78437695312500E+0003  -2.78427294921875E+0003  -2.78415502929688E+0003  -2.78402465820313E+0003  -2.78388330078125E+0003  -2.78373217773438E+0003  -2.78357373046875E+0003  -2.78341040039063E+0003  -2.78324511718750E+0003  -2.78308032226563E+0003  -2.78291870117188E+0003  -2.78276269531250E+0003  -2.78261499023438E+0003  -2.78247802734375E+0003  -2.78235205078125E+0003  -2.78223632812500E+0003  -2.78213037109375E+0003  -2.78203417968750E+0003  -2.78194677734375E+0003  -2.78186816406250E+0003  -2.78179760742188E+0003  -2.78173461914063E+0003  -2.78167895507813E+0003  -2.78163012695313E+0003  -2.78158740234375E+0003  -2.78155029296875E+0003  -2.78151879882813E+0003  -2.78149194335938E+0003  -2.78146948242188E+0003  -2.78145092773438E+0003  -2.78143579101563E+0003  -2.78142333984375E+0003  -2.78141333007813E+0003  -2.78140527343750E+0003  -2.78139868164063E+0003  -2.78139306640625E+0003  -2.78138745117188E+0003  -2.78138208007813E+0003  -2.78137597656250E+0003  -2.78136914062500E+0003  -2.78136083984375E+0003  -2.78135058593750E+0003  -2.78133813476563E+0003  -2.78132299804688E+0003  -2.78130493164063E+0003  -2.78128295898438E+0003  -2.78125732421875E+0003  -2.78122729492188E+0003  -2.78119262695313E+0003  -2.78115283203125E+0003  -2.78110766601563E+0003  -2.78105664062500E+0003  -2.78099951171875E+0003  -2.78093579101563E+0003  -2.78086572265625E+0003  -2.78078857421875E+0003  -2.78070434570313E+0003  -2.78061328125000E+0003  -2.78051464843750E+0003  -2.78040844726563E+0003  -2.78029467773438E+0003  -2.78017480468750E+0003  -2.78005053710938E+0003  -2.77992358398438E+0003  -2.77979541015625E+0003  -2.77966796875000E+0003  -2.77954296875000E+0003  -2.77942163085938E+0003  -2.77930639648438E+0003  -2.77919848632813E+0003  -2.77910034179688E+0003  -2.77901342773438E+0003  -2.77893969726563E+0003  -2.77888134765625E+0003  -2.77883984375000E+0003  -2.77881738281250E+0003  -2.77881469726563E+0003  -2.77883056640625E+0003  -2.77886425781250E+0003  -2.77891430664063E+0003  -2.77897949218750E+0003  -2.77905908203125E+0003  -2.77915161132813E+0003  -2.77925585937500E+0003  -2.77937109375000E+0003  -2.77949609375000E+0003  -2.77963012695313E+0003  -2.77977246093750E+0003  -2.77992187500000E+0003  -2.78007763671875E+0003  -2.78023876953125E+0003  -2.78040429687500E+0003  -2.78057397460938E+0003  -2.78074731445313E+0003  -2.78092382812500E+0003  -2.78110327148438E+0003  -2.78128515625000E+0003  -2.78146923828125E+0003  -2.78165527343750E+0003  -2.78184252929688E+0003  -2.78203100585938E+0003  -2.78221997070313E+0003  -2.78240942382813E+0003  -2.78259863281250E+0003  -2.78278710937500E+0003  -2.78297485351563E+0003  -2.78316113281250E+0003
  -2.78759936523438E+0003  -2.78731127929688E+0003  -2.78702978515625E+0003  -2.78675537109375E+0003  -2.78648876953125E+0003  -2.78623046875000E+0003  -2.78598120117188E+0003  -2.78574169921875E+0003  -2.78551293945313E+0003  -2.78529614257813E+0003  -2.78509204101563E+0003  -2.78490209960938E+0003  -2.78472778320313E+0003  -2.78457031250000E+0003  -2.78443139648438E+0003  -2.78431152343750E+0003  -2.78420849609375E+0003  -2.78411938476563E+0003  -2.78404150390625E+0003  -2.78397045898438E+0003  -2.78389868164063E+0003  -2.78381738281250E+0003  -2.78371850585938E+0003  -2.78360278320313E+0003  -2.78348632812500E+0003  -2.78338745117188E+0003  -2.78332421875000E+0003  -2.78331323242188E+0003  -2.78336914062500E+0003  -2.78350683593750E+0003  -2.78374023437500E+0003  -2.78406811523438E+0003  -2.78447241210938E+0003  -2.78493383789063E+0003  -2.78543310546875E+0003  -2.78595117187500E+0003  -2.78646948242188E+0003  -2.78696972656250E+0003  -2.78743310546875E+0003  -2.78784643554688E+0003  -2.78820043945313E+0003  -2.78848510742188E+0003  -2.78869140625000E+0003  -2.78881372070313E+0003  -2.78884863281250E+0003  -2.78879296875000E+0003  -2.78864501953125E+0003  -2.78841479492188E+0003  -2.78811816406250E+0003  -2.78777050781250E+0003  -2.78738793945313E+0003  -2.78698583984375E+0003  -2.78658007812500E+0003  -2.78618676757813E+0003  -2.78581909179688E+0003  -2.78548120117188E+0003  -2.78517382812500E+0003  -2.78489794921875E+0003  -2.78465527343750E+0003  -2.78444628906250E+0003  -2.78427246093750E+0003  -2.78413452148438E+0003  -2.78403295898438E+0003  -2.78396411132813E+0003  -2.78392480468750E+0003  -2.78391113281250E+0003  -2.78391967773438E+0003  -2.78394702148438E+0003  -2.78398925781250E+0003  -2.78404272460938E+0003  -2.78410473632813E+0003  -2.78417236328125E+0003  -2.78424291992188E+0003  -2.78431420898438E+0003  -2.78438330078125E+0003  -2.78444799804688E+0003  -2.78450561523438E+0003  -2.78455371093750E+0003  -2.78459130859375E+0003  -2.78461914062500E+0003  -2.78463769531250E+0003  -2.78464794921875E+0003  -2.78465063476563E+0003  -2.78464624023438E+0003  -2.78463549804688E+0003  -2.78461938476563E+0003  -2.78459814453125E+0003  -2.78457250976563E+0003  -2.78454272460938E+0003  -2.78450952148438E+0003  -2.78447338867188E+0003  -2.78443432617188E+0003  -2.78439331054688E+0003  -2.78435058593750E+0003  -2.78430688476563E+0003  -2.78426269531250E+0003  -2.78421850585938E+0003  -2.78417504882813E+0003  -2.78413281250000E+0003  -2.78409252929688E+0003  -2.78405493164063E+0003  -2.78402026367188E+0003  -2.78399023437500E+0003  -2.78396533203125E+0003  -2.78394726562500E+0003  -2.78393701171875E+0003  -2.78393579101563E+0003  -2.78394482421875E+0003  -2.78396508789063E+0003  -2.78399731445313E+0003  -2.78403930664063E+0003  -2.78408911132813E+0003  -2.78414477539063E+0003  -2.78420458984375E+0003  -2.78426586914063E+0003  -2.78432739257813E+0003  -2.78438647460938E+0003  -2.78444116210938E+0003  -2.78448999023438E+0003  -2.78453027343750E+0003  -2.78456005859375E+0003  -2.78457763671875E+0003  -2.78458056640625E+0003  -2.78456713867188E+0003  -2.78453515625000E+0003  -2.78448437500000E+0003  -2.78441650390625E+0003  -2.78433300781250E+0003  -2.78423486328125E+0003  -2.78412402343750E+0003  -2.78400146484375E+0003  -2.78386914062500E+0003  -2.78372802734375E+0003  -2.78358056640625E+0003  -2.78342895507813E+0003  -2.78327563476563E+0003  -2.78312255859375E+0003  -2.78297216796875E+0003  -2.78282690429688E+0003  -2.78268920898438E+0003  -2.78256079101563E+0003  -2.78244189453125E+0003  -2.78233227539063E+0003  -2.78223144531250E+0003  -2.78213891601563E+0003  -2.78205444335938E+0003  -2.78197778320313E+0003  -2.78190820312500E+0003  -2.78184545898438E+0003  -2.78178906250000E+0003  -2.78173876953125E+0003  -2.78169384765625E+0003  -2.78165429687500E+0003  -2.78161962890625E+0003  -2.78158911132813E+0003  -2.78156250000000E+0003  -2.78153955078125E+0003  -2.78151977539063E+0003  -2.78150244140625E+0003  -2.78148730468750E+0003  -2.78147387695313E+0003  -2.78146166992188E+0003  -2.78145043945313E+0003  -2.78143920898438E+0003  -2.78142822265625E+0003  -2.78141650390625E+0003  -2.78140380859375E+0003  -2.78138989257813E+0003  -2.78137426757813E+0003  -2.78135644531250E+0003  -2.78133593750000E+0003  -2.78131250000000E+0003  -2.78128564453125E+0003  -2.78125512695313E+0003  -2.78122094726563E+0003  -2.78118237304688E+0003  -2.78113916015625E+0003  -2.78109130859375E+0003  -2.78103857421875E+0003  -2.78098022460938E+0003  -2.78091625976563E+0003  -2.78084667968750E+0003  -2.78077124023438E+0003  -2.78068994140625E+0003  -2.78060205078125E+0003  -2.78050805664063E+0003  -2.78040747070313E+0003  -2.78030029296875E+0003  -2.78018798828125E+0003  -2.78007202148438E+0003  -2.77995410156250E+0003  -2.77983544921875E+0003  -2.77971777343750E+0003  -2.77960278320313E+0003  -2.77949194335938E+0003  -2.77938696289063E+0003  -2.77928930664063E+0003  -2.77920092773438E+0003  -2.77912304687500E+0003  -2.77905786132813E+0003  -2.77900683593750E+0003  -2.77897192382813E+0003  -2.77895434570313E+0003  -2.77895507812500E+0003  -2.77897338867188E+0003  -2.77900781250000E+0003  -2.77905786132813E+0003  -2.77912231445313E+0003  -2.77920019531250E+0003  -2.77929028320313E+0003  -2.77939184570313E+0003  -2.77950390625000E+0003  -2.77962524414063E+0003  -2.77975537109375E+0003  -2.77989355468750E+0003  -2.78003857421875E+0003  -2.78018994140625E+0003  -2.78034643554688E+0003  -2.78050756835938E+0003  -2.78067260742188E+0003  -2.78084130859375E+0003  -2.78101342773438E+0003  -2.78118823242188E+0003  -2.78136547851563E+0003  -2.78154516601563E+0003  -2.78172656250000E+0003  -2.78190917968750E+0003  -2.78209326171875E+0003  -2.78227758789063E+0003  -2.78246264648438E+0003  -2.78264721679688E+0003  -2.78283154296875E+0003  -2.78301489257813E+0003  -2.78319702148438E+0003
  -2.78742675781250E+0003  -2.78714575195313E+0003  -2.78687158203125E+0003  -2.78660449218750E+0003  -2.78634545898438E+0003  -2.78609448242188E+0003  -2.78585253906250E+0003  -2.78562011718750E+0003  -2.78539819335938E+0003  -2.78518750000000E+0003  -2.78498925781250E+0003  -2.78480444335938E+0003  -2.78463452148438E+0003  -2.78448022460938E+0003  -2.78434326171875E+0003  -2.78422338867188E+0003  -2.78411938476563E+0003  -2.78402807617188E+0003  -2.78394726562500E+0003  -2.78387353515625E+0003  -2.78380102539063E+0003  -2.78372412109375E+0003  -2.78363671875000E+0003  -2.78353979492188E+0003  -2.78344750976563E+0003  -2.78337426757813E+0003  -2.78333544921875E+0003  -2.78334521484375E+0003  -2.78341625976563E+0003  -2.78356152343750E+0003  -2.78379345703125E+0003  -2.78411059570313E+0003  -2.78449658203125E+0003  -2.78493334960938E+0003  -2.78540380859375E+0003  -2.78589038085938E+0003  -2.78637573242188E+0003  -2.78684277343750E+0003  -2.78727465820313E+0003  -2.78765966796875E+0003  -2.78798925781250E+0003  -2.78825585937500E+0003  -2.78845141601563E+0003  -2.78857006835938E+0003  -2.78860791015625E+0003  -2.78856103515625E+0003  -2.78842626953125E+0003  -2.78821337890625E+0003  -2.78793627929688E+0003  -2.78760986328125E+0003  -2.78724853515625E+0003  -2.78686645507813E+0003  -2.78647875976563E+0003  -2.78609936523438E+0003  -2.78574145507813E+0003  -2.78540844726563E+0003  -2.78510229492188E+0003  -2.78482470703125E+0003  -2.78457714843750E+0003  -2.78436108398438E+0003  -2.78417871093750E+0003  -2.78403125000000E+0003  -2.78391918945313E+0003  -2.78383959960938E+0003  -2.78378955078125E+0003  -2.78376538085938E+0003  -2.78376391601563E+0003  -2.78378173828125E+0003  -2.78381542968750E+0003  -2.78386206054688E+0003  -2.78391845703125E+0003  -2.78398168945313E+0003  -2.78404956054688E+0003  -2.78411914062500E+0003  -2.78418774414063E+0003  -2.78425292968750E+0003  -2.78431225585938E+0003  -2.78436279296875E+0003  -2.78440356445313E+0003  -2.78443554687500E+0003  -2.78445874023438E+0003  -2.78447412109375E+0003  -2.78448242187500E+0003  -2.78448388671875E+0003  -2.78447924804688E+0003  -2.78446923828125E+0003  -2.78445434570313E+0003  -2.78443481445313E+0003  -2.78441113281250E+0003  -2.78438403320313E+0003  -2.78435351562500E+0003  -2.78432055664063E+0003  -2.78428515625000E+0003  -2.78424780273438E+0003  -2.78420947265625E+0003  -2.78417065429688E+0003  -2.78413183593750E+0003  -2.78409375000000E+0003  -2.78405737304688E+0003  -2.78402294921875E+0003  -2.78399121093750E+0003  -2.78396313476563E+0003  -2.78393945312500E+0003  -2.78392114257813E+0003  -2.78390893554688E+0003  -2.78390405273438E+0003  -2.78390747070313E+0003  -2.78391967773438E+0003  -2.78394213867188E+0003  -2.78397485351563E+0003  -2.78401611328125E+0003  -2.78406420898438E+0003  -2.78411743164063E+0003  -2.78417382812500E+0003  -2.78423168945313E+0003  -2.78428930664063E+0003  -2.78434472656250E+0003  -2.78439599609375E+0003  -2.78444165039063E+0003  -2.78447924804688E+0003  -2.78450732421875E+0003  -2.78452343750000E+0003  -2.78452612304688E+0003  -2.78451342773438E+0003  -2.78448315429688E+0003  -2.78443554687500E+0003  -2.78437182617188E+0003  -2.78429321289063E+0003  -2.78420141601563E+0003  -2.78409765625000E+0003  -2.78398364257813E+0003  -2.78386035156250E+0003  -2.78372949218750E+0003  -2.78359277343750E+0003  -2.78345263671875E+0003  -2.78331054687500E+0003  -2.78316894531250E+0003  -2.78302954101563E+0003  -2.78289477539063E+0003  -2.78276635742188E+0003  -2.78264624023438E+0003  -2.78253442382813E+0003  -2.78243090820313E+0003  -2.78233496093750E+0003  -2.78224633789063E+0003  -2.78216479492188E+0003  -2.78209008789063E+0003  -2.78202172851563E+0003  -2.78195922851563E+0003  -2.78190258789063E+0003  -2.78185107421875E+0003  -2.78180468750000E+0003  -2.78176269531250E+0003  -2.78172509765625E+0003  -2.78169140625000E+0003  -2.78166137695313E+0003  -2.78163427734375E+0003  -2.78161010742188E+0003  -2.78158813476563E+0003  -2.78156811523438E+0003  -2.78154980468750E+0003  -2.78153247070313E+0003  -2.78151586914063E+0003  -2.78149926757813E+0003  -2.78148291015625E+0003  -2.78146582031250E+0003  -2.78144799804688E+0003  -2.78142871093750E+0003  -2.78140795898438E+0003  -2.78138500976563E+0003  -2.78135961914063E+0003  -2.78133154296875E+0003  -2.78130004882813E+0003  -2.78126562500000E+0003  -2.78122729492188E+0003  -2.78118554687500E+0003  -2.78113964843750E+0003  -2.78108959960938E+0003  -2.78103491210938E+0003  -2.78097583007813E+0003  -2.78091210937500E+0003  -2.78084326171875E+0003  -2.78076928710938E+0003  -2.78069018554688E+0003  -2.78060571289063E+0003  -2.78051586914063E+0003  -2.78042041015625E+0003  -2.78031958007813E+0003  -2.78021411132813E+0003  -2.78010571289063E+0003  -2.77999609375000E+0003  -2.77988623046875E+0003  -2.77977783203125E+0003  -2.77967211914063E+0003  -2.77957080078125E+0003  -2.77947509765625E+0003  -2.77938671875000E+0003  -2.77930712890625E+0003  -2.77923779296875E+0003  -2.77918041992188E+0003  -2.77913623046875E+0003  -2.77910693359375E+0003  -2.77909399414063E+0003  -2.77909814453125E+0003  -2.77911840820313E+0003  -2.77915429687500E+0003  -2.77920434570313E+0003  -2.77926831054688E+0003  -2.77934472656250E+0003  -2.77943286132813E+0003  -2.77953173828125E+0003  -2.77964062500000E+0003  -2.77975878906250E+0003  -2.77988525390625E+0003  -2.78001953125000E+0003  -2.78016040039063E+0003  -2.78030737304688E+0003  -2.78045947265625E+0003  -2.78061621093750E+0003  -2.78077685546875E+0003  -2.78094091796875E+0003  -2.78110839843750E+0003  -2.78127880859375E+0003  -2.78145141601563E+0003  -2.78162646484375E+0003  -2.78180322265625E+0003  -2.78198144531250E+0003  -2.78216088867188E+0003  -2.78234082031250E+0003  -2.78252124023438E+0003  -2.78270141601563E+0003  -2.78288134765625E+0003  -2.78306030273438E+0003  -2.78323828125000E+0003
  -2.78726391601563E+0003  -2.78698974609375E+0003  -2.78672241210938E+0003  -2.78646240234375E+0003  -2.78620996093750E+0003  -2.78596582031250E+0003  -2.78573046875000E+0003  -2.78550439453125E+0003  -2.78528833007813E+0003  -2.78508325195313E+0003  -2.78489013671875E+0003  -2.78470947265625E+0003  -2.78454272460938E+0003  -2.78439062500000E+0003  -2.78425439453125E+0003  -2.78413403320313E+0003  -2.78402783203125E+0003  -2.78393383789063E+0003  -2.78385009765625E+0003  -2.78377343750000E+0003  -2.78370068359375E+0003  -2.78362744140625E+0003  -2.78354980468750E+0003  -2.78346948242188E+0003  -2.78339746093750E+0003  -2.78334619140625E+0003  -2.78332763671875E+0003  -2.78335400390625E+0003  -2.78343603515625E+0003  -2.78358520507813E+0003  -2.78381176757813E+0003  -2.78411474609375E+0003  -2.78447900390625E+0003  -2.78488867187500E+0003  -2.78532788085938E+0003  -2.78578125000000E+0003  -2.78623291015625E+0003  -2.78666748046875E+0003  -2.78706958007813E+0003  -2.78742895507813E+0003  -2.78773803710938E+0003  -2.78799023437500E+0003  -2.78817797851563E+0003  -2.78829638671875E+0003  -2.78833984375000E+0003  -2.78830395507813E+0003  -2.78818530273438E+0003  -2.78799169921875E+0003  -2.78773681640625E+0003  -2.78743359375000E+0003  -2.78709545898438E+0003  -2.78673608398438E+0003  -2.78636816406250E+0003  -2.78600561523438E+0003  -2.78565991210938E+0003  -2.78533496093750E+0003  -2.78503320312500E+0003  -2.78475659179688E+0003  -2.78450732421875E+0003  -2.78428784179688E+0003  -2.78410009765625E+0003  -2.78394604492188E+0003  -2.78382666015625E+0003  -2.78373950195313E+0003  -2.78368139648438E+0003  -2.78364916992188E+0003  -2.78363964843750E+0003  -2.78364990234375E+0003  -2.78367700195313E+0003  -2.78371728515625E+0003  -2.78376831054688E+0003  -2.78382714843750E+0003  -2.78389135742188E+0003  -2.78395825195313E+0003  -2.78402539062500E+0003  -2.78409008789063E+0003  -2.78414941406250E+0003  -2.78420117187500E+0003  -2.78424438476563E+0003  -2.78427929687500E+0003  -2.78430639648438E+0003  -2.78432617187500E+0003  -2.78433935546875E+0003  -2.78434619140625E+0003  -2.78434716796875E+0003  -2.78434301757813E+0003  -2.78433422851563E+0003  -2.78432080078125E+0003  -2.78430346679688E+0003  -2.78428247070313E+0003  -2.78425830078125E+0003  -2.78423120117188E+0003  -2.78420190429688E+0003  -2.78417041015625E+0003  -2.78413769531250E+0003  -2.78410424804688E+0003  -2.78407080078125E+0003  -2.78403784179688E+0003  -2.78400634765625E+0003  -2.78397680664063E+0003  -2.78394995117188E+0003  -2.78392626953125E+0003  -2.78390673828125E+0003  -2.78389233398438E+0003  -2.78388378906250E+0003  -2.78388183593750E+0003  -2.78388745117188E+0003  -2.78390112304688E+0003  -2.78392407226563E+0003  -2.78395629882813E+0003  -2.78399633789063E+0003  -2.78404272460938E+0003  -2.78409326171875E+0003  -2.78414672851563E+0003  -2.78420166015625E+0003  -2.78425585937500E+0003  -2.78430786132813E+0003  -2.78435620117188E+0003  -2.78439868164063E+0003  -2.78443408203125E+0003  -2.78445996093750E+0003  -2.78447509765625E+0003  -2.78447753906250E+0003  -2.78446557617188E+0003  -2.78443725585938E+0003  -2.78439257812500E+0003  -2.78433300781250E+0003  -2.78426000976563E+0003  -2.78417456054688E+0003  -2.78407812500000E+0003  -2.78397241210938E+0003  -2.78385815429688E+0003  -2.78373730468750E+0003  -2.78361132812500E+0003  -2.78348168945313E+0003  -2.78335083007813E+0003  -2.78321997070313E+0003  -2.78309106445313E+0003  -2.78296606445313E+0003  -2.78284692382813E+0003  -2.78273461914063E+0003  -2.78262963867188E+0003  -2.78253198242188E+0003  -2.78244091796875E+0003  -2.78235620117188E+0003  -2.78227758789063E+0003  -2.78220507812500E+0003  -2.78213793945313E+0003  -2.78207617187500E+0003  -2.78201928710938E+0003  -2.78196704101563E+0003  -2.78191918945313E+0003  -2.78187524414063E+0003  -2.78183520507813E+0003  -2.78179858398438E+0003  -2.78176513671875E+0003  -2.78173461914063E+0003  -2.78170654296875E+0003  -2.78168041992188E+0003  -2.78165600585938E+0003  -2.78163281250000E+0003  -2.78161083984375E+0003  -2.78158935546875E+0003  -2.78156787109375E+0003  -2.78154638671875E+0003  -2.78152465820313E+0003  -2.78150170898438E+0003  -2.78147778320313E+0003  -2.78145214843750E+0003  -2.78142456054688E+0003  -2.78139477539063E+0003  -2.78136254882813E+0003  -2.78132714843750E+0003  -2.78128906250000E+0003  -2.78124755859375E+0003  -2.78120288085938E+0003  -2.78115454101563E+0003  -2.78110253906250E+0003  -2.78104687500000E+0003  -2.78098706054688E+0003  -2.78092309570313E+0003  -2.78085498046875E+0003  -2.78078271484375E+0003  -2.78070605468750E+0003  -2.78062451171875E+0003  -2.78053857421875E+0003  -2.78044799804688E+0003  -2.78035278320313E+0003  -2.78025366210938E+0003  -2.78015258789063E+0003  -2.78005053710938E+0003  -2.77994873046875E+0003  -2.77984863281250E+0003  -2.77975170898438E+0003  -2.77965893554688E+0003  -2.77957202148438E+0003  -2.77949194335938E+0003  -2.77942065429688E+0003  -2.77935888671875E+0003  -2.77930834960938E+0003  -2.77927026367188E+0003  -2.77924633789063E+0003  -2.77923754882813E+0003  -2.77924487304688E+0003  -2.77926733398438E+0003  -2.77930419921875E+0003  -2.77935473632813E+0003  -2.77941796875000E+0003  -2.77949316406250E+0003  -2.77957934570313E+0003  -2.77967602539063E+0003  -2.77978222656250E+0003  -2.77989697265625E+0003  -2.78002001953125E+0003  -2.78015039062500E+0003  -2.78028735351563E+0003  -2.78043017578125E+0003  -2.78057788085938E+0003  -2.78073022460938E+0003  -2.78088623046875E+0003  -2.78104589843750E+0003  -2.78120898437500E+0003  -2.78137451171875E+0003  -2.78154272460938E+0003  -2.78171313476563E+0003  -2.78188525390625E+0003  -2.78205908203125E+0003  -2.78223364257813E+0003  -2.78240917968750E+0003  -2.78258496093750E+0003  -2.78276074218750E+0003  -2.78293627929688E+0003  -2.78311108398438E+0003  -2.78328466796875E+0003
  -2.78711035156250E+0003  -2.78684252929688E+0003  -2.78658154296875E+0003  -2.78632788085938E+0003  -2.78608178710938E+0003  -2.78584375000000E+0003  -2.78561425781250E+0003  -2.78539379882813E+0003  -2.78518310546875E+0003  -2.78498291015625E+0003  -2.78479394531250E+0003  -2.78461694335938E+0003  -2.78445312500000E+0003  -2.78430249023438E+0003  -2.78416674804688E+0003  -2.78404565429688E+0003  -2.78393774414063E+0003  -2.78384155273438E+0003  -2.78375537109375E+0003  -2.78367724609375E+0003  -2.78360473632813E+0003  -2.78353540039063E+0003  -2.78346630859375E+0003  -2.78339965820313E+0003  -2.78334448242188E+0003  -2.78331079101563E+0003  -2.78330859375000E+0003  -2.78334741210938E+0003  -2.78343701171875E+0003  -2.78358666992188E+0003  -2.78380566406250E+0003  -2.78409252929688E+0003  -2.78443408203125E+0003  -2.78481567382813E+0003  -2.78522387695313E+0003  -2.78564428710938E+0003  -2.78606323242188E+0003  -2.78646655273438E+0003  -2.78684057617188E+0003  -2.78717602539063E+0003  -2.78746655273438E+0003  -2.78770556640625E+0003  -2.78788671875000E+0003  -2.78800463867188E+0003  -2.78805395507813E+0003  -2.78802880859375E+0003  -2.78792602539063E+0003  -2.78775219726563E+0003  -2.78751977539063E+0003  -2.78724072265625E+0003  -2.78692724609375E+0003  -2.78659155273438E+0003  -2.78624560546875E+0003  -2.78590185546875E+0003  -2.78557080078125E+0003  -2.78525683593750E+0003  -2.78496240234375E+0003  -2.78469042968750E+0003  -2.78444311523438E+0003  -2.78422314453125E+0003  -2.78403320312500E+0003  -2.78387597656250E+0003  -2.78375244140625E+0003  -2.78366040039063E+0003  -2.78359667968750E+0003  -2.78355883789063E+0003  -2.78354345703125E+0003  -2.78354785156250E+0003  -2.78356933593750E+0003  -2.78360449218750E+0003  -2.78365063476563E+0003  -2.78370556640625E+0003  -2.78376635742188E+0003  -2.78383081054688E+0003  -2.78389575195313E+0003  -2.78395922851563E+0003  -2.78401855468750E+0003  -2.78407104492188E+0003  -2.78411572265625E+0003  -2.78415283203125E+0003  -2.78418286132813E+0003  -2.78420654296875E+0003  -2.78422387695313E+0003  -2.78423535156250E+0003  -2.78424145507813E+0003  -2.78424267578125E+0003  -2.78423925781250E+0003  -2.78423144531250E+0003  -2.78421997070313E+0003  -2.78420483398438E+0003  -2.78418652343750E+0003  -2.78416528320313E+0003  -2.78414135742188E+0003  -2.78411547851563E+0003  -2.78408813476563E+0003  -2.78405981445313E+0003  -2.78403125000000E+0003  -2.78400292968750E+0003  -2.78397583007813E+0003  -2.78395043945313E+0003  -2.78392749023438E+0003  -2.78390747070313E+0003  -2.78389135742188E+0003  -2.78387963867188E+0003  -2.78387353515625E+0003  -2.78387329101563E+0003  -2.78388012695313E+0003  -2.78389428710938E+0003  -2.78391699218750E+0003  -2.78394824218750E+0003  -2.78398657226563E+0003  -2.78403051757813E+0003  -2.78407836914063E+0003  -2.78412890625000E+0003  -2.78418041992188E+0003  -2.78423120117188E+0003  -2.78428002929688E+0003  -2.78432495117188E+0003  -2.78436474609375E+0003  -2.78439746093750E+0003  -2.78442163085938E+0003  -2.78443554687500E+0003  -2.78443774414063E+0003  -2.78442626953125E+0003  -2.78439990234375E+0003  -2.78435839843750E+0003  -2.78430322265625E+0003  -2.78423535156250E+0003  -2.78415625000000E+0003  -2.78406713867188E+0003  -2.78396948242188E+0003  -2.78386401367188E+0003  -2.78375268554688E+0003  -2.78363671875000E+0003  -2.78351757812500E+0003  -2.78339697265625E+0003  -2.78327636718750E+0003  -2.78315747070313E+0003  -2.78304174804688E+0003  -2.78293090820313E+0003  -2.78282617187500E+0003  -2.78272778320313E+0003  -2.78263549804688E+0003  -2.78254907226563E+0003  -2.78246826171875E+0003  -2.78239282226563E+0003  -2.78232226562500E+0003  -2.78225659179688E+0003  -2.78219555664063E+0003  -2.78213867187500E+0003  -2.78208593750000E+0003  -2.78203686523438E+0003  -2.78199145507813E+0003  -2.78194946289063E+0003  -2.78191040039063E+0003  -2.78187402343750E+0003  -2.78184008789063E+0003  -2.78180859375000E+0003  -2.78177856445313E+0003  -2.78175024414063E+0003  -2.78172314453125E+0003  -2.78169677734375E+0003  -2.78167089843750E+0003  -2.78164501953125E+0003  -2.78161914062500E+0003  -2.78159277343750E+0003  -2.78156567382813E+0003  -2.78153735351563E+0003  -2.78150732421875E+0003  -2.78147583007813E+0003  -2.78144213867188E+0003  -2.78140600585938E+0003  -2.78136743164063E+0003  -2.78132592773438E+0003  -2.78128173828125E+0003  -2.78123437500000E+0003  -2.78118408203125E+0003  -2.78113061523438E+0003  -2.78107397460938E+0003  -2.78101391601563E+0003  -2.78095019531250E+0003  -2.78088305664063E+0003  -2.78081201171875E+0003  -2.78073754882813E+0003  -2.78065917968750E+0003  -2.78057690429688E+0003  -2.78049072265625E+0003  -2.78040063476563E+0003  -2.78030786132813E+0003  -2.78021313476563E+0003  -2.78011816406250E+0003  -2.78002392578125E+0003  -2.77993164062500E+0003  -2.77984252929688E+0003  -2.77975781250000E+0003  -2.77967871093750E+0003  -2.77960644531250E+0003  -2.77954223632813E+0003  -2.77948754882813E+0003  -2.77944335937500E+0003  -2.77941113281250E+0003  -2.77939184570313E+0003  -2.77938696289063E+0003  -2.77939697265625E+0003  -2.77942138671875E+0003  -2.77945898437500E+0003  -2.77950976562500E+0003  -2.77957226562500E+0003  -2.77964624023438E+0003  -2.77973071289063E+0003  -2.77982495117188E+0003  -2.77992846679688E+0003  -2.78004028320313E+0003  -2.78015991210938E+0003  -2.78028637695313E+0003  -2.78041918945313E+0003  -2.78055786132813E+0003  -2.78070141601563E+0003  -2.78084936523438E+0003  -2.78100097656250E+0003  -2.78115625000000E+0003  -2.78131445312500E+0003  -2.78147558593750E+0003  -2.78163916015625E+0003  -2.78180493164063E+0003  -2.78197265625000E+0003  -2.78214160156250E+0003  -2.78231176757813E+0003  -2.78248242187500E+0003  -2.78265380859375E+0003  -2.78282519531250E+0003  -2.78299609375000E+0003  -2.78316650390625E+0003  -2.78333593750000E+0003
  -2.78696557617188E+0003  -2.78670361328125E+0003  -2.78644848632813E+0003  -2.78620068359375E+0003  -2.78596020507813E+0003  -2.78572778320313E+0003  -2.78550341796875E+0003  -2.78528808593750E+0003  -2.78508227539063E+0003  -2.78488647460938E+0003  -2.78470117187500E+0003  -2.78452758789063E+0003  -2.78436596679688E+0003  -2.78421704101563E+0003  -2.78408154296875E+0003  -2.78395996093750E+0003  -2.78385083007813E+0003  -2.78375317382813E+0003  -2.78366577148438E+0003  -2.78358715820313E+0003  -2.78351586914063E+0003  -2.78345043945313E+0003  -2.78338916015625E+0003  -2.78333374023438E+0003  -2.78329199218750E+0003  -2.78327197265625E+0003  -2.78328198242188E+0003  -2.78332983398438E+0003  -2.78342358398438E+0003  -2.78357153320313E+0003  -2.78378125000000E+0003  -2.78405102539063E+0003  -2.78436938476563E+0003  -2.78472363281250E+0003  -2.78510131835938E+0003  -2.78548999023438E+0003  -2.78587744140625E+0003  -2.78625097656250E+0003  -2.78659863281250E+0003  -2.78691162109375E+0003  -2.78718432617188E+0003  -2.78741088867188E+0003  -2.78758520507813E+0003  -2.78770190429688E+0003  -2.78775537109375E+0003  -2.78774023437500E+0003  -2.78765234375000E+0003  -2.78749780273438E+0003  -2.78728759765625E+0003  -2.78703295898438E+0003  -2.78674462890625E+0003  -2.78643383789063E+0003  -2.78611132812500E+0003  -2.78578808593750E+0003  -2.78547412109375E+0003  -2.78517358398438E+0003  -2.78488964843750E+0003  -2.78462500000000E+0003  -2.78438256835938E+0003  -2.78416552734375E+0003  -2.78397680664063E+0003  -2.78381933593750E+0003  -2.78369433593750E+0003  -2.78359985351563E+0003  -2.78353320312500E+0003  -2.78349169921875E+0003  -2.78347241210938E+0003  -2.78347265625000E+0003  -2.78348974609375E+0003  -2.78352075195313E+0003  -2.78356323242188E+0003  -2.78361474609375E+0003  -2.78367260742188E+0003  -2.78373437500000E+0003  -2.78379760742188E+0003  -2.78385986328125E+0003  -2.78391845703125E+0003  -2.78397119140625E+0003  -2.78401684570313E+0003  -2.78405590820313E+0003  -2.78408862304688E+0003  -2.78411499023438E+0003  -2.78413598632813E+0003  -2.78415136718750E+0003  -2.78416186523438E+0003  -2.78416772460938E+0003  -2.78416894531250E+0003  -2.78416625976563E+0003  -2.78415991210938E+0003  -2.78414990234375E+0003  -2.78413671875000E+0003  -2.78412084960938E+0003  -2.78410205078125E+0003  -2.78408105468750E+0003  -2.78405859375000E+0003  -2.78403491210938E+0003  -2.78401049804688E+0003  -2.78398657226563E+0003  -2.78396337890625E+0003  -2.78394165039063E+0003  -2.78392211914063E+0003  -2.78390527343750E+0003  -2.78389184570313E+0003  -2.78388256835938E+0003  -2.78387817382813E+0003  -2.78387915039063E+0003  -2.78388647460938E+0003  -2.78390087890625E+0003  -2.78392285156250E+0003  -2.78395263671875E+0003  -2.78398876953125E+0003  -2.78403002929688E+0003  -2.78407495117188E+0003  -2.78412207031250E+0003  -2.78417016601563E+0003  -2.78421728515625E+0003  -2.78426245117188E+0003  -2.78430419921875E+0003  -2.78434082031250E+0003  -2.78437109375000E+0003  -2.78439306640625E+0003  -2.78440576171875E+0003  -2.78440771484375E+0003  -2.78439697265625E+0003  -2.78437255859375E+0003  -2.78433398437500E+0003  -2.78428295898438E+0003  -2.78422021484375E+0003  -2.78414746093750E+0003  -2.78406518554688E+0003  -2.78397509765625E+0003  -2.78387841796875E+0003  -2.78377587890625E+0003  -2.78366943359375E+0003  -2.78356005859375E+0003  -2.78344897460938E+0003  -2.78333813476563E+0003  -2.78322851562500E+0003  -2.78312133789063E+0003  -2.78301855468750E+0003  -2.78292089843750E+0003  -2.78282885742188E+0003  -2.78274169921875E+0003  -2.78265966796875E+0003  -2.78258251953125E+0003  -2.78250976562500E+0003  -2.78244140625000E+0003  -2.78237744140625E+0003  -2.78231713867188E+0003  -2.78226049804688E+0003  -2.78220751953125E+0003  -2.78215771484375E+0003  -2.78211108398438E+0003  -2.78206738281250E+0003  -2.78202612304688E+0003  -2.78198730468750E+0003  -2.78195068359375E+0003  -2.78191601562500E+0003  -2.78188281250000E+0003  -2.78185107421875E+0003  -2.78182006835938E+0003  -2.78179003906250E+0003  -2.78176025390625E+0003  -2.78173046875000E+0003  -2.78170068359375E+0003  -2.78167041015625E+0003  -2.78163916015625E+0003  -2.78160717773438E+0003  -2.78157348632813E+0003  -2.78153833007813E+0003  -2.78150122070313E+0003  -2.78146191406250E+0003  -2.78142016601563E+0003  -2.78137622070313E+0003  -2.78132958984375E+0003  -2.78128027343750E+0003  -2.78122827148438E+0003  -2.78117358398438E+0003  -2.78111621093750E+0003  -2.78105566406250E+0003  -2.78099243164063E+0003  -2.78092626953125E+0003  -2.78085693359375E+0003  -2.78078442382813E+0003  -2.78070898437500E+0003  -2.78063012695313E+0003  -2.78054809570313E+0003  -2.78046313476563E+0003  -2.78037573242188E+0003  -2.78028735351563E+0003  -2.78019897460938E+0003  -2.78011157226563E+0003  -2.78002636718750E+0003  -2.77994458007813E+0003  -2.77986718750000E+0003  -2.77979516601563E+0003  -2.77972998046875E+0003  -2.77967260742188E+0003  -2.77962402343750E+0003  -2.77958569335938E+0003  -2.77955834960938E+0003  -2.77954345703125E+0003  -2.77954199218750E+0003  -2.77955444335938E+0003  -2.77958032226563E+0003  -2.77961889648438E+0003  -2.77966967773438E+0003  -2.77973168945313E+0003  -2.77980419921875E+0003  -2.77988696289063E+0003  -2.77997875976563E+0003  -2.78007958984375E+0003  -2.78018823242188E+0003  -2.78030419921875E+0003  -2.78042724609375E+0003  -2.78055615234375E+0003  -2.78069042968750E+0003  -2.78082983398438E+0003  -2.78097338867188E+0003  -2.78112060546875E+0003  -2.78127124023438E+0003  -2.78142504882813E+0003  -2.78158154296875E+0003  -2.78174047851563E+0003  -2.78190161132813E+0003  -2.78206445312500E+0003  -2.78222875976563E+0003  -2.78239428710938E+0003  -2.78256054687500E+0003  -2.78272729492188E+0003  -2.78289404296875E+0003  -2.78306054687500E+0003  -2.78322656250000E+0003  -2.78339160156250E+0003
  -2.78682958984375E+0003  -2.78657324218750E+0003  -2.78632348632813E+0003  -2.78608081054688E+0003  -2.78584545898438E+0003  -2.78561816406250E+0003  -2.78539868164063E+0003  -2.78518798828125E+0003  -2.78498632812500E+0003  -2.78479418945313E+0003  -2.78461254882813E+0003  -2.78444140625000E+0003  -2.78428198242188E+0003  -2.78413452148438E+0003  -2.78399951171875E+0003  -2.78387768554688E+0003  -2.78376782226563E+0003  -2.78366943359375E+0003  -2.78358154296875E+0003  -2.78350317382813E+0003  -2.78343359375000E+0003  -2.78337182617188E+0003  -2.78331713867188E+0003  -2.78327099609375E+0003  -2.78323974609375E+0003  -2.78322998046875E+0003  -2.78324877929688E+0003  -2.78330249023438E+0003  -2.78339819335938E+0003  -2.78354223632813E+0003  -2.78374096679688E+0003  -2.78399340820313E+0003  -2.78428881835938E+0003  -2.78461596679688E+0003  -2.78496411132813E+0003  -2.78532226562500E+0003  -2.78567944335938E+0003  -2.78602465820313E+0003  -2.78634716796875E+0003  -2.78663891601563E+0003  -2.78689501953125E+0003  -2.78710937500000E+0003  -2.78727661132813E+0003  -2.78739135742188E+0003  -2.78744848632813E+0003  -2.78744189453125E+0003  -2.78736791992188E+0003  -2.78723217773438E+0003  -2.78704418945313E+0003  -2.78681372070313E+0003  -2.78655102539063E+0003  -2.78626562500000E+0003  -2.78596752929688E+0003  -2.78566650390625E+0003  -2.78537133789063E+0003  -2.78508666992188E+0003  -2.78481542968750E+0003  -2.78456103515625E+0003  -2.78432666015625E+0003  -2.78411547851563E+0003  -2.78393066406250E+0003  -2.78377539062500E+0003  -2.78365161132813E+0003  -2.78355737304688E+0003  -2.78348974609375E+0003  -2.78344653320313E+0003  -2.78342480468750E+0003  -2.78342236328125E+0003  -2.78343652343750E+0003  -2.78346435546875E+0003  -2.78350390625000E+0003  -2.78355249023438E+0003  -2.78360766601563E+0003  -2.78366699218750E+0003  -2.78372851562500E+0003  -2.78378930664063E+0003  -2.78384716796875E+0003  -2.78389990234375E+0003  -2.78394628906250E+0003  -2.78398657226563E+0003  -2.78402124023438E+0003  -2.78405029296875E+0003  -2.78407397460938E+0003  -2.78409277343750E+0003  -2.78410693359375E+0003  -2.78411669921875E+0003  -2.78412207031250E+0003  -2.78412377929688E+0003  -2.78412182617188E+0003  -2.78411645507813E+0003  -2.78410791015625E+0003  -2.78409643554688E+0003  -2.78408227539063E+0003  -2.78406567382813E+0003  -2.78404736328125E+0003  -2.78402783203125E+0003  -2.78400756835938E+0003  -2.78398730468750E+0003  -2.78396777343750E+0003  -2.78394921875000E+0003  -2.78393261718750E+0003  -2.78391821289063E+0003  -2.78390722656250E+0003  -2.78389965820313E+0003  -2.78389648437500E+0003  -2.78389843750000E+0003  -2.78390600585938E+0003  -2.78391992187500E+0003  -2.78394067382813E+0003  -2.78396875000000E+0003  -2.78400244140625E+0003  -2.78404077148438E+0003  -2.78408251953125E+0003  -2.78412597656250E+0003  -2.78417016601563E+0003  -2.78421362304688E+0003  -2.78425512695313E+0003  -2.78429345703125E+0003  -2.78432690429688E+0003  -2.78435449218750E+0003  -2.78437451171875E+0003  -2.78438598632813E+0003  -2.78438745117188E+0003  -2.78437744140625E+0003  -2.78435473632813E+0003  -2.78431933593750E+0003  -2.78427221679688E+0003  -2.78421459960938E+0003  -2.78414746093750E+0003  -2.78407202148438E+0003  -2.78398950195313E+0003  -2.78390063476563E+0003  -2.78380664062500E+0003  -2.78370898437500E+0003  -2.78360864257813E+0003  -2.78350683593750E+0003  -2.78340478515625E+0003  -2.78330371093750E+0003  -2.78320483398438E+0003  -2.78310937500000E+0003  -2.78301855468750E+0003  -2.78293212890625E+0003  -2.78285009765625E+0003  -2.78277221679688E+0003  -2.78269848632813E+0003  -2.78262866210938E+0003  -2.78256274414063E+0003  -2.78250000000000E+0003  -2.78244067382813E+0003  -2.78238476562500E+0003  -2.78233154296875E+0003  -2.78228125000000E+0003  -2.78223364257813E+0003  -2.78218847656250E+0003  -2.78214550781250E+0003  -2.78210449218750E+0003  -2.78206567382813E+0003  -2.78202832031250E+0003  -2.78199243164063E+0003  -2.78195751953125E+0003  -2.78192333984375E+0003  -2.78188989257813E+0003  -2.78185668945313E+0003  -2.78182373046875E+0003  -2.78179028320313E+0003  -2.78175659179688E+0003  -2.78172192382813E+0003  -2.78168652343750E+0003  -2.78164965820313E+0003  -2.78161132812500E+0003  -2.78157128906250E+0003  -2.78152929687500E+0003  -2.78148510742188E+0003  -2.78143847656250E+0003  -2.78138989257813E+0003  -2.78133911132813E+0003  -2.78128588867188E+0003  -2.78123022460938E+0003  -2.78117236328125E+0003  -2.78111181640625E+0003  -2.78104907226563E+0003  -2.78098364257813E+0003  -2.78091601562500E+0003  -2.78084570312500E+0003  -2.78077270507813E+0003  -2.78069750976563E+0003  -2.78061938476563E+0003  -2.78053881835938E+0003  -2.78045678710938E+0003  -2.78037402343750E+0003  -2.78029174804688E+0003  -2.78021069335938E+0003  -2.78013208007813E+0003  -2.78005688476563E+0003  -2.77998608398438E+0003  -2.77992089843750E+0003  -2.77986206054688E+0003  -2.77981079101563E+0003  -2.77976782226563E+0003  -2.77973461914063E+0003  -2.77971191406250E+0003  -2.77970092773438E+0003  -2.77970263671875E+0003  -2.77971728515625E+0003  -2.77974438476563E+0003  -2.77978344726563E+0003  -2.77983398437500E+0003  -2.77989526367188E+0003  -2.77996655273438E+0003  -2.78004736328125E+0003  -2.78013696289063E+0003  -2.78023486328125E+0003  -2.78034057617188E+0003  -2.78045312500000E+0003  -2.78057226562500E+0003  -2.78069726562500E+0003  -2.78082763671875E+0003  -2.78096264648438E+0003  -2.78110180664063E+0003  -2.78124438476563E+0003  -2.78139062500000E+0003  -2.78153979492188E+0003  -2.78169189453125E+0003  -2.78184619140625E+0003  -2.78200268554688E+0003  -2.78216088867188E+0003  -2.78232055664063E+0003  -2.78248120117188E+0003  -2.78264282226563E+0003  -2.78280493164063E+0003  -2.78296728515625E+0003  -2.78312939453125E+0003  -2.78329101562500E+0003  -2.78345166015625E+0003
  -2.78670239257813E+0003  -2.78645117187500E+0003  -2.78620654296875E+0003  -2.78596875000000E+0003  -2.78573828125000E+0003  -2.78551513671875E+0003  -2.78530029296875E+0003  -2.78509350585938E+0003  -2.78489550781250E+0003  -2.78470703125000E+0003  -2.78452807617188E+0003  -2.78435961914063E+0003  -2.78420214843750E+0003  -2.78405590820313E+0003  -2.78392163085938E+0003  -2.78379956054688E+0003  -2.78368920898438E+0003  -2.78359008789063E+0003  -2.78350219726563E+0003  -2.78342456054688E+0003  -2.78335668945313E+0003  -2.78329833984375E+0003  -2.78324902343750E+0003  -2.78321020507813E+0003  -2.78318725585938E+0003  -2.78318530273438E+0003  -2.78321020507813E+0003  -2.78326757812500E+0003  -2.78336254882813E+0003  -2.78350122070313E+0003  -2.78368847656250E+0003  -2.78392285156250E+0003  -2.78419555664063E+0003  -2.78449633789063E+0003  -2.78481591796875E+0003  -2.78514477539063E+0003  -2.78547314453125E+0003  -2.78579101562500E+0003  -2.78608935546875E+0003  -2.78636108398438E+0003  -2.78660083007813E+0003  -2.78680346679688E+0003  -2.78696362304688E+0003  -2.78707617187500E+0003  -2.78713598632813E+0003  -2.78713745117188E+0003  -2.78707714843750E+0003  -2.78695922851563E+0003  -2.78679296875000E+0003  -2.78658666992188E+0003  -2.78634936523438E+0003  -2.78608984375000E+0003  -2.78581689453125E+0003  -2.78553906250000E+0003  -2.78526440429688E+0003  -2.78499731445313E+0003  -2.78474121093750E+0003  -2.78449951171875E+0003  -2.78427539062500E+0003  -2.78407250976563E+0003  -2.78389428710938E+0003  -2.78374389648438E+0003  -2.78362353515625E+0003  -2.78353125000000E+0003  -2.78346484375000E+0003  -2.78342138671875E+0003  -2.78339892578125E+0003  -2.78339501953125E+0003  -2.78340722656250E+0003  -2.78343310546875E+0003  -2.78347021484375E+0003  -2.78351635742188E+0003  -2.78356933593750E+0003  -2.78362670898438E+0003  -2.78368603515625E+0003  -2.78374560546875E+0003  -2.78380249023438E+0003  -2.78385498046875E+0003  -2.78390161132813E+0003  -2.78394287109375E+0003  -2.78397900390625E+0003  -2.78400976562500E+0003  -2.78403588867188E+0003  -2.78405761718750E+0003  -2.78407470703125E+0003  -2.78408764648438E+0003  -2.78409667968750E+0003  -2.78410205078125E+0003  -2.78410400390625E+0003  -2.78410253906250E+0003  -2.78409790039063E+0003  -2.78409057617188E+0003  -2.78408032226563E+0003  -2.78406762695313E+0003  -2.78405322265625E+0003  -2.78403735351563E+0003  -2.78402050781250E+0003  -2.78400366210938E+0003  -2.78398706054688E+0003  -2.78397143554688E+0003  -2.78395751953125E+0003  -2.78394531250000E+0003  -2.78393603515625E+0003  -2.78392993164063E+0003  -2.78392797851563E+0003  -2.78393017578125E+0003  -2.78393774414063E+0003  -2.78395068359375E+0003  -2.78397021484375E+0003  -2.78399584960938E+0003  -2.78402709960938E+0003  -2.78406225585938E+0003  -2.78410034179688E+0003  -2.78414013671875E+0003  -2.78418041992188E+0003  -2.78422021484375E+0003  -2.78425781250000E+0003  -2.78429248046875E+0003  -2.78432299804688E+0003  -2.78434765625000E+0003  -2.78436572265625E+0003  -2.78437597656250E+0003  -2.78437695312500E+0003  -2.78436743164063E+0003  -2.78434643554688E+0003  -2.78431372070313E+0003  -2.78427050781250E+0003  -2.78421777343750E+0003  -2.78415625000000E+0003  -2.78408740234375E+0003  -2.78401171875000E+0003  -2.78393041992188E+0003  -2.78384448242188E+0003  -2.78375512695313E+0003  -2.78366333007813E+0003  -2.78356982421875E+0003  -2.78347631835938E+0003  -2.78338305664063E+0003  -2.78329174804688E+0003  -2.78320336914063E+0003  -2.78311865234375E+0003  -2.78303759765625E+0003  -2.78296044921875E+0003  -2.78288671875000E+0003  -2.78281640625000E+0003  -2.78274926757813E+0003  -2.78268530273438E+0003  -2.78262426757813E+0003  -2.78256616210938E+0003  -2.78251074218750E+0003  -2.78245776367188E+0003  -2.78240722656250E+0003  -2.78235864257813E+0003  -2.78231250000000E+0003  -2.78226806640625E+0003  -2.78222558593750E+0003  -2.78218457031250E+0003  -2.78214501953125E+0003  -2.78210668945313E+0003  -2.78206909179688E+0003  -2.78203247070313E+0003  -2.78199609375000E+0003  -2.78195996093750E+0003  -2.78192382812500E+0003  -2.78188745117188E+0003  -2.78185058593750E+0003  -2.78181323242188E+0003  -2.78177465820313E+0003  -2.78173510742188E+0003  -2.78169409179688E+0003  -2.78165161132813E+0003  -2.78160717773438E+0003  -2.78156079101563E+0003  -2.78151245117188E+0003  -2.78146215820313E+0003  -2.78140991210938E+0003  -2.78135571289063E+0003  -2.78129956054688E+0003  -2.78124121093750E+0003  -2.78118115234375E+0003  -2.78111889648438E+0003  -2.78105468750000E+0003  -2.78098828125000E+0003  -2.78092016601563E+0003  -2.78084985351563E+0003  -2.78077758789063E+0003  -2.78070336914063E+0003  -2.78062719726563E+0003  -2.78055004882813E+0003  -2.78047241210938E+0003  -2.78039575195313E+0003  -2.78032055664063E+0003  -2.78024804687500E+0003  -2.78017895507813E+0003  -2.78011425781250E+0003  -2.78005493164063E+0003  -2.78000195312500E+0003  -2.77995605468750E+0003  -2.77991845703125E+0003  -2.77988989257813E+0003  -2.77987133789063E+0003  -2.77986376953125E+0003  -2.77986791992188E+0003  -2.77988452148438E+0003  -2.77991284179688E+0003  -2.77995239257813E+0003  -2.78000244140625E+0003  -2.78006298828125E+0003  -2.78013281250000E+0003  -2.78021166992188E+0003  -2.78029907226563E+0003  -2.78039404296875E+0003  -2.78049658203125E+0003  -2.78060595703125E+0003  -2.78072119140625E+0003  -2.78084228515625E+0003  -2.78096850585938E+0003  -2.78109936523438E+0003  -2.78123413085938E+0003  -2.78137255859375E+0003  -2.78151416015625E+0003  -2.78165869140625E+0003  -2.78180615234375E+0003  -2.78195581054688E+0003  -2.78210766601563E+0003  -2.78226123046875E+0003  -2.78241625976563E+0003  -2.78257226562500E+0003  -2.78272924804688E+0003  -2.78288671875000E+0003  -2.78304443359375E+0003  -2.78320190429688E+0003  -2.78335913085938E+0003  -2.78351562500000E+0003
  -2.78658398437500E+0003  -2.78633764648438E+0003  -2.78609765625000E+0003  -2.78586425781250E+0003  -2.78563818359375E+0003  -2.78541943359375E+0003  -2.78520825195313E+0003  -2.78500512695313E+0003  -2.78481079101563E+0003  -2.78462524414063E+0003  -2.78444897460938E+0003  -2.78428271484375E+0003  -2.78412695312500E+0003  -2.78398193359375E+0003  -2.78384814453125E+0003  -2.78372607421875E+0003  -2.78361547851563E+0003  -2.78351611328125E+0003  -2.78342797851563E+0003  -2.78335083007813E+0003  -2.78328466796875E+0003  -2.78322924804688E+0003  -2.78318432617188E+0003  -2.78315112304688E+0003  -2.78313427734375E+0003  -2.78313818359375E+0003  -2.78316723632813E+0003  -2.78322607421875E+0003  -2.78331909179688E+0003  -2.78345117187500E+0003  -2.78362597656250E+0003  -2.78384277343750E+0003  -2.78409301757813E+0003  -2.78436840820313E+0003  -2.78466064453125E+0003  -2.78496142578125E+0003  -2.78526196289063E+0003  -2.78555395507813E+0003  -2.78582934570313E+0003  -2.78608154296875E+0003  -2.78630566406250E+0003  -2.78649658203125E+0003  -2.78664965820313E+0003  -2.78675952148438E+0003  -2.78682177734375E+0003  -2.78683081054688E+0003  -2.78678320312500E+0003  -2.78668286132813E+0003  -2.78653759765625E+0003  -2.78635522460938E+0003  -2.78614331054688E+0003  -2.78590966796875E+0003  -2.78566210937500E+0003  -2.78540820312500E+0003  -2.78515502929688E+0003  -2.78490722656250E+0003  -2.78466796875000E+0003  -2.78444067382813E+0003  -2.78422924804688E+0003  -2.78403710937500E+0003  -2.78386743164063E+0003  -2.78372412109375E+0003  -2.78360913085938E+0003  -2.78352075195313E+0003  -2.78345678710938E+0003  -2.78341503906250E+0003  -2.78339331054688E+0003  -2.78338891601563E+0003  -2.78340039062500E+0003  -2.78342480468750E+0003  -2.78346020507813E+0003  -2.78350439453125E+0003  -2.78355541992188E+0003  -2.78361083984375E+0003  -2.78366845703125E+0003  -2.78372631835938E+0003  -2.78378247070313E+0003  -2.78383422851563E+0003  -2.78388085937500E+0003  -2.78392260742188E+0003  -2.78395971679688E+0003  -2.78399218750000E+0003  -2.78402001953125E+0003  -2.78404370117188E+0003  -2.78406347656250E+0003  -2.78407910156250E+0003  -2.78409130859375E+0003  -2.78409960937500E+0003  -2.78410473632813E+0003  -2.78410668945313E+0003  -2.78410571289063E+0003  -2.78410156250000E+0003  -2.78409497070313E+0003  -2.78408569335938E+0003  -2.78407470703125E+0003  -2.78406201171875E+0003  -2.78404833984375E+0003  -2.78403442382813E+0003  -2.78402050781250E+0003  -2.78400732421875E+0003  -2.78399536132813E+0003  -2.78398535156250E+0003  -2.78397753906250E+0003  -2.78397241210938E+0003  -2.78397094726563E+0003  -2.78397338867188E+0003  -2.78398046875000E+0003  -2.78399243164063E+0003  -2.78401025390625E+0003  -2.78403369140625E+0003  -2.78406176757813E+0003  -2.78409375000000E+0003  -2.78412817382813E+0003  -2.78416430664063E+0003  -2.78420068359375E+0003  -2.78423632812500E+0003  -2.78427026367188E+0003  -2.78430151367188E+0003  -2.78432861328125E+0003  -2.78435083007813E+0003  -2.78436669921875E+0003  -2.78437548828125E+0003  -2.78437597656250E+0003  -2.78436694335938E+0003  -2.78434765625000E+0003  -2.78431762695313E+0003  -2.78427807617188E+0003  -2.78422973632813E+0003  -2.78417382812500E+0003  -2.78411083984375E+0003  -2.78404174804688E+0003  -2.78396752929688E+0003  -2.78388916015625E+0003  -2.78380761718750E+0003  -2.78372338867188E+0003  -2.78363793945313E+0003  -2.78355200195313E+0003  -2.78346630859375E+0003  -2.78338208007813E+0003  -2.78330004882813E+0003  -2.78322094726563E+0003  -2.78314526367188E+0003  -2.78307250976563E+0003  -2.78300244140625E+0003  -2.78293554687500E+0003  -2.78287109375000E+0003  -2.78280932617188E+0003  -2.78275000000000E+0003  -2.78269311523438E+0003  -2.78263818359375E+0003  -2.78258569335938E+0003  -2.78253491210938E+0003  -2.78248608398438E+0003  -2.78243896484375E+0003  -2.78239355468750E+0003  -2.78234960937500E+0003  -2.78230712890625E+0003  -2.78226562500000E+0003  -2.78222534179688E+0003  -2.78218554687500E+0003  -2.78214648437500E+0003  -2.78210766601563E+0003  -2.78206909179688E+0003  -2.78203027343750E+0003  -2.78199145507813E+0003  -2.78195214843750E+0003  -2.78191186523438E+0003  -2.78187109375000E+0003  -2.78182910156250E+0003  -2.78178588867188E+0003  -2.78174121093750E+0003  -2.78169482421875E+0003  -2.78164648437500E+0003  -2.78159667968750E+0003  -2.78154516601563E+0003  -2.78149194335938E+0003  -2.78143701171875E+0003  -2.78138037109375E+0003  -2.78132202148438E+0003  -2.78126220703125E+0003  -2.78120068359375E+0003  -2.78113769531250E+0003  -2.78107299804688E+0003  -2.78100683593750E+0003  -2.78093896484375E+0003  -2.78086987304688E+0003  -2.78079907226563E+0003  -2.78072680664063E+0003  -2.78065405273438E+0003  -2.78058154296875E+0003  -2.78051000976563E+0003  -2.78044018554688E+0003  -2.78037304687500E+0003  -2.78030957031250E+0003  -2.78025048828125E+0003  -2.78019677734375E+0003  -2.78014892578125E+0003  -2.78010815429688E+0003  -2.78007519531250E+0003  -2.78005078125000E+0003  -2.78003588867188E+0003  -2.78003125000000E+0003  -2.78003784179688E+0003  -2.78005590820313E+0003  -2.78008496093750E+0003  -2.78012475585938E+0003  -2.78017480468750E+0003  -2.78023413085938E+0003  -2.78030249023438E+0003  -2.78037939453125E+0003  -2.78046435546875E+0003  -2.78055688476563E+0003  -2.78065625000000E+0003  -2.78076196289063E+0003  -2.78087377929688E+0003  -2.78099096679688E+0003  -2.78111303710938E+0003  -2.78123974609375E+0003  -2.78137011718750E+0003  -2.78150415039063E+0003  -2.78164135742188E+0003  -2.78178125000000E+0003  -2.78192407226563E+0003  -2.78206909179688E+0003  -2.78221630859375E+0003  -2.78236523437500E+0003  -2.78251538085938E+0003  -2.78266699218750E+0003  -2.78281933593750E+0003  -2.78297216796875E+0003  -2.78312524414063E+0003  -2.78327832031250E+0003  -2.78343115234375E+0003  -2.78358325195313E+0003
  -2.78647436523438E+0003  -2.78623266601563E+0003  -2.78599707031250E+0003  -2.78576782226563E+0003  -2.78554565429688E+0003  -2.78533056640625E+0003  -2.78512304687500E+0003  -2.78492358398438E+0003  -2.78473217773438E+0003  -2.78454931640625E+0003  -2.78437573242188E+0003  -2.78421142578125E+0003  -2.78405712890625E+0003  -2.78391333007813E+0003  -2.78378002929688E+0003  -2.78365820312500E+0003  -2.78354736328125E+0003  -2.78344775390625E+0003  -2.78335986328125E+0003  -2.78328320312500E+0003  -2.78321826171875E+0003  -2.78316479492188E+0003  -2.78312304687500E+0003  -2.78309448242188E+0003  -2.78308227539063E+0003  -2.78309008789063E+0003  -2.78312158203125E+0003  -2.78318041992188E+0003  -2.78327026367188E+0003  -2.78339477539063E+0003  -2.78355712890625E+0003  -2.78375610351563E+0003  -2.78398486328125E+0003  -2.78423583984375E+0003  -2.78450195312500E+0003  -2.78477563476563E+0003  -2.78505004882813E+0003  -2.78531738281250E+0003  -2.78557055664063E+0003  -2.78580395507813E+0003  -2.78601293945313E+0003  -2.78619262695313E+0003  -2.78633837890625E+0003  -2.78644580078125E+0003  -2.78650976562500E+0003  -2.78652587890625E+0003  -2.78649047851563E+0003  -2.78640698242188E+0003  -2.78628222656250E+0003  -2.78612280273438E+0003  -2.78593579101563E+0003  -2.78572778320313E+0003  -2.78550561523438E+0003  -2.78527587890625E+0003  -2.78504516601563E+0003  -2.78481762695313E+0003  -2.78459667968750E+0003  -2.78438574218750E+0003  -2.78418872070313E+0003  -2.78400878906250E+0003  -2.78384985351563E+0003  -2.78371533203125E+0003  -2.78360742187500E+0003  -2.78352465820313E+0003  -2.78346484375000E+0003  -2.78342578125000E+0003  -2.78340576171875E+0003  -2.78340234375000E+0003  -2.78341357421875E+0003  -2.78343725585938E+0003  -2.78347167968750E+0003  -2.78351440429688E+0003  -2.78356372070313E+0003  -2.78361743164063E+0003  -2.78367333984375E+0003  -2.78372973632813E+0003  -2.78378442382813E+0003  -2.78383569335938E+0003  -2.78388208007813E+0003  -2.78392407226563E+0003  -2.78396166992188E+0003  -2.78399511718750E+0003  -2.78402441406250E+0003  -2.78404980468750E+0003  -2.78407128906250E+0003  -2.78408935546875E+0003  -2.78410375976563E+0003  -2.78411474609375E+0003  -2.78412280273438E+0003  -2.78412744140625E+0003  -2.78412915039063E+0003  -2.78412817382813E+0003  -2.78412451171875E+0003  -2.78411840820313E+0003  -2.78411010742188E+0003  -2.78410034179688E+0003  -2.78408935546875E+0003  -2.78407812500000E+0003  -2.78406640625000E+0003  -2.78405541992188E+0003  -2.78404541015625E+0003  -2.78403686523438E+0003  -2.78403002929688E+0003  -2.78402587890625E+0003  -2.78402465820313E+0003  -2.78402709960938E+0003  -2.78403344726563E+0003  -2.78404418945313E+0003  -2.78406005859375E+0003  -2.78408105468750E+0003  -2.78410644531250E+0003  -2.78413476562500E+0003  -2.78416577148438E+0003  -2.78419775390625E+0003  -2.78423022460938E+0003  -2.78426220703125E+0003  -2.78429248046875E+0003  -2.78432006835938E+0003  -2.78434399414063E+0003  -2.78436352539063E+0003  -2.78437744140625E+0003  -2.78438476562500E+0003  -2.78438476562500E+0003  -2.78437622070313E+0003  -2.78435815429688E+0003  -2.78433081054688E+0003  -2.78429443359375E+0003  -2.78425048828125E+0003  -2.78419946289063E+0003  -2.78414208984375E+0003  -2.78407910156250E+0003  -2.78401171875000E+0003  -2.78394018554688E+0003  -2.78386572265625E+0003  -2.78378906250000E+0003  -2.78371069335938E+0003  -2.78363183593750E+0003  -2.78355297851563E+0003  -2.78347509765625E+0003  -2.78339916992188E+0003  -2.78332543945313E+0003  -2.78325439453125E+0003  -2.78318603515625E+0003  -2.78311987304688E+0003  -2.78305590820313E+0003  -2.78299414062500E+0003  -2.78293457031250E+0003  -2.78287695312500E+0003  -2.78282104492188E+0003  -2.78276733398438E+0003  -2.78271508789063E+0003  -2.78266455078125E+0003  -2.78261547851563E+0003  -2.78256787109375E+0003  -2.78252172851563E+0003  -2.78247656250000E+0003  -2.78243286132813E+0003  -2.78238989257813E+0003  -2.78234765625000E+0003  -2.78230615234375E+0003  -2.78226513671875E+0003  -2.78222436523438E+0003  -2.78218359375000E+0003  -2.78214257812500E+0003  -2.78210156250000E+0003  -2.78206005859375E+0003  -2.78201782226563E+0003  -2.78197485351563E+0003  -2.78193066406250E+0003  -2.78188574218750E+0003  -2.78183911132813E+0003  -2.78179125976563E+0003  -2.78174169921875E+0003  -2.78169067382813E+0003  -2.78163793945313E+0003  -2.78158398437500E+0003  -2.78152856445313E+0003  -2.78147192382813E+0003  -2.78141381835938E+0003  -2.78135449218750E+0003  -2.78129370117188E+0003  -2.78123193359375E+0003  -2.78116870117188E+0003  -2.78110449218750E+0003  -2.78103930664063E+0003  -2.78097290039063E+0003  -2.78090527343750E+0003  -2.78083691406250E+0003  -2.78076831054688E+0003  -2.78070019531250E+0003  -2.78063354492188E+0003  -2.78056860351563E+0003  -2.78050683593750E+0003  -2.78044848632813E+0003  -2.78039428710938E+0003  -2.78034545898438E+0003  -2.78030249023438E+0003  -2.78026611328125E+0003  -2.78023730468750E+0003  -2.78021655273438E+0003  -2.78020483398438E+0003  -2.78020288085938E+0003  -2.78021166992188E+0003  -2.78023095703125E+0003  -2.78026098632813E+0003  -2.78030078125000E+0003  -2.78035009765625E+0003  -2.78040844726563E+0003  -2.78047534179688E+0003  -2.78055029296875E+0003  -2.78063281250000E+0003  -2.78072241210938E+0003  -2.78081884765625E+0003  -2.78092114257813E+0003  -2.78102929687500E+0003  -2.78114257812500E+0003  -2.78126074218750E+0003  -2.78138305664063E+0003  -2.78150927734375E+0003  -2.78163867187500E+0003  -2.78177148437500E+0003  -2.78190698242188E+0003  -2.78204516601563E+0003  -2.78218579101563E+0003  -2.78232812500000E+0003  -2.78247241210938E+0003  -2.78261791992188E+0003  -2.78276489257813E+0003  -2.78291259765625E+0003  -2.78306079101563E+0003  -2.78320947265625E+0003  -2.78335815429688E+0003  -2.78350634765625E+0003  -2.78365429687500E+0003
  -2.78637377929688E+0003  -2.78613623046875E+0003  -2.78590478515625E+0003  -2.78567944335938E+0003  -2.78546093750000E+0003  -2.78524951171875E+0003  -2.78504541015625E+0003  -2.78484863281250E+0003  -2.78466015625000E+0003  -2.78447998046875E+0003  -2.78430859375000E+0003  -2.78414624023438E+0003  -2.78399365234375E+0003  -2.78385083007813E+0003  -2.78371826171875E+0003  -2.78359667968750E+0003  -2.78348583984375E+0003  -2.78338647460938E+0003  -2.78329858398438E+0003  -2.78322241210938E+0003  -2.78315820312500E+0003  -2.78310644531250E+0003  -2.78306713867188E+0003  -2.78304174804688E+0003  -2.78303271484375E+0003  -2.78304296875000E+0003  -2.78307543945313E+0003  -2.78313305664063E+0003  -2.78321850585938E+0003  -2.78333471679688E+0003  -2.78348461914063E+0003  -2.78366650390625E+0003  -2.78387451171875E+0003  -2.78410229492188E+0003  -2.78434375000000E+0003  -2.78459228515625E+0003  -2.78484155273438E+0003  -2.78508544921875E+0003  -2.78531787109375E+0003  -2.78553344726563E+0003  -2.78572753906250E+0003  -2.78589624023438E+0003  -2.78603491210938E+0003  -2.78613940429688E+0003  -2.78620507812500E+0003  -2.78622753906250E+0003  -2.78620361328125E+0003  -2.78613574218750E+0003  -2.78603051757813E+0003  -2.78589331054688E+0003  -2.78573022460938E+0003  -2.78554711914063E+0003  -2.78534985351563E+0003  -2.78514453125000E+0003  -2.78493676757813E+0003  -2.78472998046875E+0003  -2.78452832031250E+0003  -2.78433520507813E+0003  -2.78415380859375E+0003  -2.78398803710938E+0003  -2.78384130859375E+0003  -2.78371704101563E+0003  -2.78361767578125E+0003  -2.78354174804688E+0003  -2.78348706054688E+0003  -2.78345214843750E+0003  -2.78343457031250E+0003  -2.78343286132813E+0003  -2.78344482421875E+0003  -2.78346875000000E+0003  -2.78350244140625E+0003  -2.78354418945313E+0003  -2.78359204101563E+0003  -2.78364404296875E+0003  -2.78369848632813E+0003  -2.78375341796875E+0003  -2.78380688476563E+0003  -2.78385717773438E+0003  -2.78390307617188E+0003  -2.78394506835938E+0003  -2.78398291015625E+0003  -2.78401684570313E+0003  -2.78404711914063E+0003  -2.78407373046875E+0003  -2.78409692382813E+0003  -2.78411645507813E+0003  -2.78413281250000E+0003  -2.78414599609375E+0003  -2.78415600585938E+0003  -2.78416308593750E+0003  -2.78416748046875E+0003  -2.78416894531250E+0003  -2.78416772460938E+0003  -2.78416406250000E+0003  -2.78415844726563E+0003  -2.78415087890625E+0003  -2.78414233398438E+0003  -2.78413305664063E+0003  -2.78412377929688E+0003  -2.78411450195313E+0003  -2.78410595703125E+0003  -2.78409863281250E+0003  -2.78409277343750E+0003  -2.78408911132813E+0003  -2.78408813476563E+0003  -2.78409008789063E+0003  -2.78409570312500E+0003  -2.78410522460938E+0003  -2.78411914062500E+0003  -2.78413769531250E+0003  -2.78415991210938E+0003  -2.78418505859375E+0003  -2.78421215820313E+0003  -2.78424047851563E+0003  -2.78426928710938E+0003  -2.78429711914063E+0003  -2.78432373046875E+0003  -2.78434790039063E+0003  -2.78436889648438E+0003  -2.78438574218750E+0003  -2.78439770507813E+0003  -2.78440356445313E+0003  -2.78440307617188E+0003  -2.78439477539063E+0003  -2.78437792968750E+0003  -2.78435278320313E+0003  -2.78431982421875E+0003  -2.78427954101563E+0003  -2.78423315429688E+0003  -2.78418090820313E+0003  -2.78412377929688E+0003  -2.78406225585938E+0003  -2.78399731445313E+0003  -2.78392944335938E+0003  -2.78385937500000E+0003  -2.78378759765625E+0003  -2.78371533203125E+0003  -2.78364282226563E+0003  -2.78357104492188E+0003  -2.78350048828125E+0003  -2.78343188476563E+0003  -2.78336547851563E+0003  -2.78330078125000E+0003  -2.78323803710938E+0003  -2.78317724609375E+0003  -2.78311791992188E+0003  -2.78306054687500E+0003  -2.78300463867188E+0003  -2.78295019531250E+0003  -2.78289721679688E+0003  -2.78284570312500E+0003  -2.78279541015625E+0003  -2.78274633789063E+0003  -2.78269848632813E+0003  -2.78265161132813E+0003  -2.78260595703125E+0003  -2.78256103515625E+0003  -2.78251708984375E+0003  -2.78247363281250E+0003  -2.78243066406250E+0003  -2.78238793945313E+0003  -2.78234545898438E+0003  -2.78230273437500E+0003  -2.78226025390625E+0003  -2.78221728515625E+0003  -2.78217382812500E+0003  -2.78212988281250E+0003  -2.78208520507813E+0003  -2.78203955078125E+0003  -2.78199291992188E+0003  -2.78194482421875E+0003  -2.78189575195313E+0003  -2.78184497070313E+0003  -2.78179321289063E+0003  -2.78173999023438E+0003  -2.78168530273438E+0003  -2.78162988281250E+0003  -2.78157299804688E+0003  -2.78151538085938E+0003  -2.78145654296875E+0003  -2.78139672851563E+0003  -2.78133618164063E+0003  -2.78127465820313E+0003  -2.78121240234375E+0003  -2.78114916992188E+0003  -2.78108569335938E+0003  -2.78102124023438E+0003  -2.78095654296875E+0003  -2.78089184570313E+0003  -2.78082788085938E+0003  -2.78076538085938E+0003  -2.78070532226563E+0003  -2.78064794921875E+0003  -2.78059423828125E+0003  -2.78054492187500E+0003  -2.78050048828125E+0003  -2.78046191406250E+0003  -2.78042944335938E+0003  -2.78040429687500E+0003  -2.78038696289063E+0003  -2.78037817382813E+0003  -2.78037866210938E+0003  -2.78038891601563E+0003  -2.78040942382813E+0003  -2.78043969726563E+0003  -2.78047949218750E+0003  -2.78052832031250E+0003  -2.78058544921875E+0003  -2.78065063476563E+0003  -2.78072363281250E+0003  -2.78080371093750E+0003  -2.78089062500000E+0003  -2.78098388671875E+0003  -2.78108300781250E+0003  -2.78118750000000E+0003  -2.78129687500000E+0003  -2.78141088867188E+0003  -2.78152905273438E+0003  -2.78165112304688E+0003  -2.78177612304688E+0003  -2.78190454101563E+0003  -2.78203564453125E+0003  -2.78216918945313E+0003  -2.78230493164063E+0003  -2.78244287109375E+0003  -2.78258251953125E+0003  -2.78272338867188E+0003  -2.78286572265625E+0003  -2.78300878906250E+0003  -2.78315258789063E+0003  -2.78329663085938E+0003  -2.78344067382813E+0003  -2.78358471679688E+0003  -2.78372827148438E+0003
  -2.78628173828125E+0003  -2.78604833984375E+0003  -2.78582080078125E+0003  -2.78559936523438E+0003  -2.78538427734375E+0003  -2.78517626953125E+0003  -2.78497509765625E+0003  -2.78478125000000E+0003  -2.78459545898438E+0003  -2.78441748046875E+0003  -2.78424829101563E+0003  -2.78408789062500E+0003  -2.78393676757813E+0003  -2.78379516601563E+0003  -2.78366357421875E+0003  -2.78354248046875E+0003  -2.78343212890625E+0003  -2.78333276367188E+0003  -2.78324511718750E+0003  -2.78316943359375E+0003  -2.78310595703125E+0003  -2.78305541992188E+0003  -2.78301782226563E+0003  -2.78299462890625E+0003  -2.78298754882813E+0003  -2.78299902343750E+0003  -2.78303100585938E+0003  -2.78308618164063E+0003  -2.78316650390625E+0003  -2.78327441406250E+0003  -2.78341162109375E+0003  -2.78357714843750E+0003  -2.78376562500000E+0003  -2.78397167968750E+0003  -2.78418969726563E+0003  -2.78441479492188E+0003  -2.78464086914063E+0003  -2.78486303710938E+0003  -2.78507568359375E+0003  -2.78527392578125E+0003  -2.78545434570313E+0003  -2.78561230468750E+0003  -2.78574389648438E+0003  -2.78584521484375E+0003  -2.78591186523438E+0003  -2.78594018554688E+0003  -2.78592651367188E+0003  -2.78587353515625E+0003  -2.78578637695313E+0003  -2.78566992187500E+0003  -2.78552978515625E+0003  -2.78537060546875E+0003  -2.78519775390625E+0003  -2.78501635742188E+0003  -2.78483129882813E+0003  -2.78464599609375E+0003  -2.78446435546875E+0003  -2.78428955078125E+0003  -2.78412524414063E+0003  -2.78397460937500E+0003  -2.78384130859375E+0003  -2.78372875976563E+0003  -2.78363891601563E+0003  -2.78357080078125E+0003  -2.78352246093750E+0003  -2.78349243164063E+0003  -2.78347851562500E+0003  -2.78347900390625E+0003  -2.78349243164063E+0003  -2.78351684570313E+0003  -2.78355029296875E+0003  -2.78359130859375E+0003  -2.78363818359375E+0003  -2.78368872070313E+0003  -2.78374169921875E+0003  -2.78379516601563E+0003  -2.78384741210938E+0003  -2.78389648437500E+0003  -2.78394189453125E+0003  -2.78398339843750E+0003  -2.78402124023438E+0003  -2.78405566406250E+0003  -2.78408642578125E+0003  -2.78411376953125E+0003  -2.78413793945313E+0003  -2.78415893554688E+0003  -2.78417675781250E+0003  -2.78419140625000E+0003  -2.78420312500000E+0003  -2.78421215820313E+0003  -2.78421826171875E+0003  -2.78422192382813E+0003  -2.78422290039063E+0003  -2.78422143554688E+0003  -2.78421777343750E+0003  -2.78421240234375E+0003  -2.78420581054688E+0003  -2.78419848632813E+0003  -2.78419067382813E+0003  -2.78418310546875E+0003  -2.78417578125000E+0003  -2.78416943359375E+0003  -2.78416455078125E+0003  -2.78416113281250E+0003  -2.78416015625000E+0003  -2.78416186523438E+0003  -2.78416650390625E+0003  -2.78417456054688E+0003  -2.78418652343750E+0003  -2.78420263671875E+0003  -2.78422192382813E+0003  -2.78424389648438E+0003  -2.78426757812500E+0003  -2.78429223632813E+0003  -2.78431713867188E+0003  -2.78434130859375E+0003  -2.78436425781250E+0003  -2.78438525390625E+0003  -2.78440332031250E+0003  -2.78441748046875E+0003  -2.78442724609375E+0003  -2.78443188476563E+0003  -2.78443066406250E+0003  -2.78442236328125E+0003  -2.78440673828125E+0003  -2.78438354492188E+0003  -2.78435351562500E+0003  -2.78431689453125E+0003  -2.78427465820313E+0003  -2.78422705078125E+0003  -2.78417529296875E+0003  -2.78411938476563E+0003  -2.78406005859375E+0003  -2.78399829101563E+0003  -2.78393408203125E+0003  -2.78386865234375E+0003  -2.78380224609375E+0003  -2.78373559570313E+0003  -2.78366918945313E+0003  -2.78360375976563E+0003  -2.78353979492188E+0003  -2.78347753906250E+0003  -2.78341650390625E+0003  -2.78335717773438E+0003  -2.78329907226563E+0003  -2.78324243164063E+0003  -2.78318701171875E+0003  -2.78313281250000E+0003  -2.78307983398438E+0003  -2.78302783203125E+0003  -2.78297705078125E+0003  -2.78292724609375E+0003  -2.78287841796875E+0003  -2.78283056640625E+0003  -2.78278344726563E+0003  -2.78273730468750E+0003  -2.78269165039063E+0003  -2.78264672851563E+0003  -2.78260229492188E+0003  -2.78255810546875E+0003  -2.78251416015625E+0003  -2.78247021484375E+0003  -2.78242626953125E+0003  -2.78238232421875E+0003  -2.78233789062500E+0003  -2.78229296875000E+0003  -2.78224755859375E+0003  -2.78220141601563E+0003  -2.78215454101563E+0003  -2.78210644531250E+0003  -2.78205761718750E+0003  -2.78200732421875E+0003  -2.78195605468750E+0003  -2.78190332031250E+0003  -2.78184960937500E+0003  -2.78179492187500E+0003  -2.78173925781250E+0003  -2.78168286132813E+0003  -2.78162548828125E+0003  -2.78156738281250E+0003  -2.78150878906250E+0003  -2.78144921875000E+0003  -2.78138940429688E+0003  -2.78132910156250E+0003  -2.78126831054688E+0003  -2.78120727539063E+0003  -2.78114575195313E+0003  -2.78108422851563E+0003  -2.78102319335938E+0003  -2.78096337890625E+0003  -2.78090502929688E+0003  -2.78084887695313E+0003  -2.78079589843750E+0003  -2.78074658203125E+0003  -2.78070141601563E+0003  -2.78066113281250E+0003  -2.78062622070313E+0003  -2.78059765625000E+0003  -2.78057592773438E+0003  -2.78056152343750E+0003  -2.78055517578125E+0003  -2.78055761718750E+0003  -2.78056933593750E+0003  -2.78059082031250E+0003  -2.78062133789063E+0003  -2.78066088867188E+0003  -2.78070874023438E+0003  -2.78076464843750E+0003  -2.78082836914063E+0003  -2.78089916992188E+0003  -2.78097680664063E+0003  -2.78106103515625E+0003  -2.78115112304688E+0003  -2.78124682617188E+0003  -2.78134765625000E+0003  -2.78145336914063E+0003  -2.78156347656250E+0003  -2.78167749023438E+0003  -2.78179516601563E+0003  -2.78191601562500E+0003  -2.78203979492188E+0003  -2.78216650390625E+0003  -2.78229541015625E+0003  -2.78242675781250E+0003  -2.78256005859375E+0003  -2.78269506835938E+0003  -2.78283154296875E+0003  -2.78296899414063E+0003  -2.78310766601563E+0003  -2.78324682617188E+0003  -2.78338647460938E+0003  -2.78352612304688E+0003  -2.78366577148438E+0003  -2.78380517578125E+0003
  -2.78619848632813E+0003  -2.78596923828125E+0003  -2.78574536132813E+0003  -2.78552758789063E+0003  -2.78531591796875E+0003  -2.78511083984375E+0003  -2.78491259765625E+0003  -2.78472167968750E+0003  -2.78453833007813E+0003  -2.78436279296875E+0003  -2.78419555664063E+0003  -2.78403686523438E+0003  -2.78388745117188E+0003  -2.78374731445313E+0003  -2.78361669921875E+0003  -2.78349633789063E+0003  -2.78338671875000E+0003  -2.78328784179688E+0003  -2.78320068359375E+0003  -2.78312548828125E+0003  -2.78306274414063E+0003  -2.78301269531250E+0003  -2.78297631835938E+0003  -2.78295434570313E+0003  -2.78294824218750E+0003  -2.78295971679688E+0003  -2.78299047851563E+0003  -2.78304223632813E+0003  -2.78311694335938E+0003  -2.78321606445313E+0003  -2.78334106445313E+0003  -2.78349096679688E+0003  -2.78366113281250E+0003  -2.78384692382813E+0003  -2.78404394531250E+0003  -2.78424707031250E+0003  -2.78445190429688E+0003  -2.78465380859375E+0003  -2.78484790039063E+0003  -2.78503051757813E+0003  -2.78519726562500E+0003  -2.78534497070313E+0003  -2.78546972656250E+0003  -2.78556738281250E+0003  -2.78563476562500E+0003  -2.78566772460938E+0003  -2.78566333007813E+0003  -2.78562377929688E+0003  -2.78555346679688E+0003  -2.78545654296875E+0003  -2.78533764648438E+0003  -2.78520117187500E+0003  -2.78505175781250E+0003  -2.78489355468750E+0003  -2.78473071289063E+0003  -2.78456689453125E+0003  -2.78440576171875E+0003  -2.78425000000000E+0003  -2.78410302734375E+0003  -2.78396850585938E+0003  -2.78384960937500E+0003  -2.78374951171875E+0003  -2.78367041015625E+0003  -2.78361083984375E+0003  -2.78356982421875E+0003  -2.78354516601563E+0003  -2.78353540039063E+0003  -2.78353881835938E+0003  -2.78355419921875E+0003  -2.78357958984375E+0003  -2.78361328125000E+0003  -2.78365405273438E+0003  -2.78369995117188E+0003  -2.78374951171875E+0003  -2.78380102539063E+0003  -2.78385302734375E+0003  -2.78390380859375E+0003  -2.78395166015625E+0003  -2.78399633789063E+0003  -2.78403735351563E+0003  -2.78407495117188E+0003  -2.78410937500000E+0003  -2.78414038085938E+0003  -2.78416821289063E+0003  -2.78419311523438E+0003  -2.78421484375000E+0003  -2.78423364257813E+0003  -2.78424951171875E+0003  -2.78426269531250E+0003  -2.78427294921875E+0003  -2.78428076171875E+0003  -2.78428588867188E+0003  -2.78428857421875E+0003  -2.78428881835938E+0003  -2.78428686523438E+0003  -2.78428320312500E+0003  -2.78427832031250E+0003  -2.78427270507813E+0003  -2.78426635742188E+0003  -2.78426000976563E+0003  -2.78425366210938E+0003  -2.78424829101563E+0003  -2.78424389648438E+0003  -2.78424096679688E+0003  -2.78423974609375E+0003  -2.78424072265625E+0003  -2.78424462890625E+0003  -2.78425122070313E+0003  -2.78426147460938E+0003  -2.78427514648438E+0003  -2.78429174804688E+0003  -2.78431054687500E+0003  -2.78433081054688E+0003  -2.78435205078125E+0003  -2.78437353515625E+0003  -2.78439428710938E+0003  -2.78441381835938E+0003  -2.78443164062500E+0003  -2.78444677734375E+0003  -2.78445849609375E+0003  -2.78446630859375E+0003  -2.78446972656250E+0003  -2.78446752929688E+0003  -2.78445947265625E+0003  -2.78444458007813E+0003  -2.78442309570313E+0003  -2.78439550781250E+0003  -2.78436206054688E+0003  -2.78432348632813E+0003  -2.78428027343750E+0003  -2.78423291015625E+0003  -2.78418212890625E+0003  -2.78412817382813E+0003  -2.78407177734375E+0003  -2.78401318359375E+0003  -2.78395312500000E+0003  -2.78389233398438E+0003  -2.78383081054688E+0003  -2.78376953125000E+0003  -2.78370874023438E+0003  -2.78364916992188E+0003  -2.78359057617188E+0003  -2.78353320312500E+0003  -2.78347680664063E+0003  -2.78342163085938E+0003  -2.78336718750000E+0003  -2.78331396484375E+0003  -2.78326147460938E+0003  -2.78320996093750E+0003  -2.78315917968750E+0003  -2.78310913085938E+0003  -2.78306005859375E+0003  -2.78301147460938E+0003  -2.78296386718750E+0003  -2.78291650390625E+0003  -2.78287011718750E+0003  -2.78282397460938E+0003  -2.78277856445313E+0003  -2.78273315429688E+0003  -2.78268823242188E+0003  -2.78264331054688E+0003  -2.78259838867188E+0003  -2.78255346679688E+0003  -2.78250805664063E+0003  -2.78246264648438E+0003  -2.78241650390625E+0003  -2.78237011718750E+0003  -2.78232275390625E+0003  -2.78227490234375E+0003  -2.78222607421875E+0003  -2.78217626953125E+0003  -2.78212548828125E+0003  -2.78207348632813E+0003  -2.78202050781250E+0003  -2.78196655273438E+0003  -2.78191186523438E+0003  -2.78185644531250E+0003  -2.78180029296875E+0003  -2.78174340820313E+0003  -2.78168627929688E+0003  -2.78162841796875E+0003  -2.78157055664063E+0003  -2.78151220703125E+0003  -2.78145361328125E+0003  -2.78139501953125E+0003  -2.78133642578125E+0003  -2.78127783203125E+0003  -2.78121948242188E+0003  -2.78116186523438E+0003  -2.78110546875000E+0003  -2.78105102539063E+0003  -2.78099902343750E+0003  -2.78094995117188E+0003  -2.78090429687500E+0003  -2.78086303710938E+0003  -2.78082641601563E+0003  -2.78079516601563E+0003  -2.78077001953125E+0003  -2.78075122070313E+0003  -2.78073950195313E+0003  -2.78073535156250E+0003  -2.78073950195313E+0003  -2.78075244140625E+0003  -2.78077441406250E+0003  -2.78080517578125E+0003  -2.78084423828125E+0003  -2.78089111328125E+0003  -2.78094580078125E+0003  -2.78100781250000E+0003  -2.78107641601563E+0003  -2.78115161132813E+0003  -2.78123291015625E+0003  -2.78131982421875E+0003  -2.78141210937500E+0003  -2.78150952148438E+0003  -2.78161132812500E+0003  -2.78171752929688E+0003  -2.78182739257813E+0003  -2.78194091796875E+0003  -2.78205737304688E+0003  -2.78217700195313E+0003  -2.78229907226563E+0003  -2.78242382812500E+0003  -2.78255053710938E+0003  -2.78267944335938E+0003  -2.78280981445313E+0003  -2.78294165039063E+0003  -2.78307470703125E+0003  -2.78320874023438E+0003  -2.78334350585938E+0003  -2.78347851562500E+0003  -2.78361401367188E+0003  -2.78374926757813E+0003  -2.78388427734375E+0003
  -2.78612426757813E+0003  -2.78589868164063E+0003  -2.78567871093750E+0003  -2.78546435546875E+0003  -2.78525585937500E+0003  -2.78505371093750E+0003  -2.78485839843750E+0003  -2.78467016601563E+0003  -2.78448925781250E+0003  -2.78431591796875E+0003  -2.78415087890625E+0003  -2.78399414062500E+0003  -2.78384619140625E+0003  -2.78370751953125E+0003  -2.78357836914063E+0003  -2.78345898437500E+0003  -2.78335009765625E+0003  -2.78325219726563E+0003  -2.78316552734375E+0003  -2.78309106445313E+0003  -2.78302880859375E+0003  -2.78297949218750E+0003  -2.78294384765625E+0003  -2.78292211914063E+0003  -2.78291601562500E+0003  -2.78292651367188E+0003  -2.78295507812500E+0003  -2.78300317382813E+0003  -2.78307153320313E+0003  -2.78316186523438E+0003  -2.78327514648438E+0003  -2.78341040039063E+0003  -2.78356372070313E+0003  -2.78373095703125E+0003  -2.78390820312500E+0003  -2.78409155273438E+0003  -2.78427685546875E+0003  -2.78445996093750E+0003  -2.78463720703125E+0003  -2.78480468750000E+0003  -2.78495898437500E+0003  -2.78509667968750E+0003  -2.78521435546875E+0003  -2.78530859375000E+0003  -2.78537597656250E+0003  -2.78541308593750E+0003  -2.78541699218750E+0003  -2.78538940429688E+0003  -2.78533422851563E+0003  -2.78525512695313E+0003  -2.78515625000000E+0003  -2.78504125976563E+0003  -2.78491381835938E+0003  -2.78477758789063E+0003  -2.78463671875000E+0003  -2.78449438476563E+0003  -2.78435327148438E+0003  -2.78421679687500E+0003  -2.78408813476563E+0003  -2.78397021484375E+0003  -2.78386621093750E+0003  -2.78377929687500E+0003  -2.78371118164063E+0003  -2.78366113281250E+0003  -2.78362744140625E+0003  -2.78360888671875E+0003  -2.78360400390625E+0003  -2.78361083984375E+0003  -2.78362841796875E+0003  -2.78365527343750E+0003  -2.78368945312500E+0003  -2.78372998046875E+0003  -2.78377514648438E+0003  -2.78382373046875E+0003  -2.78387402343750E+0003  -2.78392456054688E+0003  -2.78397412109375E+0003  -2.78402099609375E+0003  -2.78406469726563E+0003  -2.78410498046875E+0003  -2.78414208984375E+0003  -2.78417626953125E+0003  -2.78420727539063E+0003  -2.78423535156250E+0003  -2.78426049804688E+0003  -2.78428271484375E+0003  -2.78430200195313E+0003  -2.78431884765625E+0003  -2.78433276367188E+0003  -2.78434423828125E+0003  -2.78435302734375E+0003  -2.78435937500000E+0003  -2.78436328125000E+0003  -2.78436499023438E+0003  -2.78436450195313E+0003  -2.78436230468750E+0003  -2.78435888671875E+0003  -2.78435449218750E+0003  -2.78434936523438E+0003  -2.78434399414063E+0003  -2.78433862304688E+0003  -2.78433398437500E+0003  -2.78432983398438E+0003  -2.78432714843750E+0003  -2.78432592773438E+0003  -2.78432641601563E+0003  -2.78432934570313E+0003  -2.78433471679688E+0003  -2.78434301757813E+0003  -2.78435449218750E+0003  -2.78436865234375E+0003  -2.78438452148438E+0003  -2.78440161132813E+0003  -2.78441967773438E+0003  -2.78443750000000E+0003  -2.78445507812500E+0003  -2.78447167968750E+0003  -2.78448632812500E+0003  -2.78449877929688E+0003  -2.78450830078125E+0003  -2.78451416015625E+0003  -2.78451611328125E+0003  -2.78451318359375E+0003  -2.78450488281250E+0003  -2.78449072265625E+0003  -2.78447070312500E+0003  -2.78444506835938E+0003  -2.78441455078125E+0003  -2.78437939453125E+0003  -2.78433984375000E+0003  -2.78429687500000E+0003  -2.78425024414063E+0003  -2.78420117187500E+0003  -2.78414941406250E+0003  -2.78409594726563E+0003  -2.78404101562500E+0003  -2.78398510742188E+0003  -2.78392846679688E+0003  -2.78387158203125E+0003  -2.78381518554688E+0003  -2.78375952148438E+0003  -2.78370458984375E+0003  -2.78365039062500E+0003  -2.78359716796875E+0003  -2.78354443359375E+0003  -2.78349243164063E+0003  -2.78344091796875E+0003  -2.78339013671875E+0003  -2.78334008789063E+0003  -2.78329052734375E+0003  -2.78324145507813E+0003  -2.78319311523438E+0003  -2.78314526367188E+0003  -2.78309765625000E+0003  -2.78305053710938E+0003  -2.78300390625000E+0003  -2.78295776367188E+0003  -2.78291186523438E+0003  -2.78286621093750E+0003  -2.78282055664063E+0003  -2.78277490234375E+0003  -2.78272924804688E+0003  -2.78268334960938E+0003  -2.78263720703125E+0003  -2.78259082031250E+0003  -2.78254394531250E+0003  -2.78249658203125E+0003  -2.78244873046875E+0003  -2.78240014648438E+0003  -2.78235058593750E+0003  -2.78230029296875E+0003  -2.78224877929688E+0003  -2.78219653320313E+0003  -2.78214355468750E+0003  -2.78208959960938E+0003  -2.78203515625000E+0003  -2.78197998046875E+0003  -2.78192431640625E+0003  -2.78186816406250E+0003  -2.78181176757813E+0003  -2.78175537109375E+0003  -2.78169873046875E+0003  -2.78164184570313E+0003  -2.78158520507813E+0003  -2.78152880859375E+0003  -2.78147265625000E+0003  -2.78141674804688E+0003  -2.78136132812500E+0003  -2.78130688476563E+0003  -2.78125366210938E+0003  -2.78120263671875E+0003  -2.78115429687500E+0003  -2.78110888671875E+0003  -2.78106689453125E+0003  -2.78102905273438E+0003  -2.78099584960938E+0003  -2.78096801757813E+0003  -2.78094555664063E+0003  -2.78092944335938E+0003  -2.78091992187500E+0003  -2.78091772460938E+0003  -2.78092333984375E+0003  -2.78093725585938E+0003  -2.78095971679688E+0003  -2.78099047851563E+0003  -2.78102905273438E+0003  -2.78107495117188E+0003  -2.78112817382813E+0003  -2.78118823242188E+0003  -2.78125488281250E+0003  -2.78132739257813E+0003  -2.78140600585938E+0003  -2.78148974609375E+0003  -2.78157885742188E+0003  -2.78167260742188E+0003  -2.78177075195313E+0003  -2.78187304687500E+0003  -2.78197875976563E+0003  -2.78208813476563E+0003  -2.78220043945313E+0003  -2.78231567382813E+0003  -2.78243359375000E+0003  -2.78255371093750E+0003  -2.78267602539063E+0003  -2.78280029296875E+0003  -2.78292626953125E+0003  -2.78305346679688E+0003  -2.78318212890625E+0003  -2.78331176757813E+0003  -2.78344189453125E+0003  -2.78357275390625E+0003  -2.78370361328125E+0003  -2.78383471679688E+0003  -2.78396557617188E+0003
  -2.78605859375000E+0003  -2.78583691406250E+0003  -2.78562060546875E+0003  -2.78540966796875E+0003  -2.78520434570313E+0003  -2.78500537109375E+0003  -2.78481274414063E+0003  -2.78462695312500E+0003  -2.78444848632813E+0003  -2.78427758789063E+0003  -2.78411450195313E+0003  -2.78395971679688E+0003  -2.78381372070313E+0003  -2.78367675781250E+0003  -2.78354882812500E+0003  -2.78343090820313E+0003  -2.78332324218750E+0003  -2.78322631835938E+0003  -2.78314062500000E+0003  -2.78306665039063E+0003  -2.78300512695313E+0003  -2.78295629882813E+0003  -2.78292065429688E+0003  -2.78289892578125E+0003  -2.78289208984375E+0003  -2.78290087890625E+0003  -2.78292675781250E+0003  -2.78297021484375E+0003  -2.78303222656250E+0003  -2.78311376953125E+0003  -2.78321606445313E+0003  -2.78333764648438E+0003  -2.78347509765625E+0003  -2.78362548828125E+0003  -2.78378491210938E+0003  -2.78394995117188E+0003  -2.78411718750000E+0003  -2.78428320312500E+0003  -2.78444482421875E+0003  -2.78459814453125E+0003  -2.78474072265625E+0003  -2.78486889648438E+0003  -2.78497998046875E+0003  -2.78507031250000E+0003  -2.78513745117188E+0003  -2.78517773437500E+0003  -2.78518872070313E+0003  -2.78517187500000E+0003  -2.78513061523438E+0003  -2.78506811523438E+0003  -2.78498754882813E+0003  -2.78489233398438E+0003  -2.78478564453125E+0003  -2.78467089843750E+0003  -2.78455126953125E+0003  -2.78442944335938E+0003  -2.78430859375000E+0003  -2.78419140625000E+0003  -2.78408081054688E+0003  -2.78397973632813E+0003  -2.78389111328125E+0003  -2.78381762695313E+0003  -2.78376098632813E+0003  -2.78372070312500E+0003  -2.78369506835938E+0003  -2.78368286132813E+0003  -2.78368286132813E+0003  -2.78369360351563E+0003  -2.78371362304688E+0003  -2.78374194335938E+0003  -2.78377709960938E+0003  -2.78381762695313E+0003  -2.78386254882813E+0003  -2.78390991210938E+0003  -2.78395898437500E+0003  -2.78400830078125E+0003  -2.78405639648438E+0003  -2.78410205078125E+0003  -2.78414477539063E+0003  -2.78418432617188E+0003  -2.78422094726563E+0003  -2.78425463867188E+0003  -2.78428540039063E+0003  -2.78431323242188E+0003  -2.78433837890625E+0003  -2.78436083984375E+0003  -2.78438061523438E+0003  -2.78439770507813E+0003  -2.78441235351563E+0003  -2.78442431640625E+0003  -2.78443408203125E+0003  -2.78444140625000E+0003  -2.78444628906250E+0003  -2.78444897460938E+0003  -2.78444946289063E+0003  -2.78444848632813E+0003  -2.78444628906250E+0003  -2.78444287109375E+0003  -2.78443872070313E+0003  -2.78443432617188E+0003  -2.78442968750000E+0003  -2.78442553710938E+0003  -2.78442187500000E+0003  -2.78441918945313E+0003  -2.78441772460938E+0003  -2.78441772460938E+0003  -2.78441967773438E+0003  -2.78442382812500E+0003  -2.78443066406250E+0003  -2.78443994140625E+0003  -2.78445141601563E+0003  -2.78446459960938E+0003  -2.78447900390625E+0003  -2.78449389648438E+0003  -2.78450878906250E+0003  -2.78452319335938E+0003  -2.78453662109375E+0003  -2.78454858398438E+0003  -2.78455834960938E+0003  -2.78456567382813E+0003  -2.78456982421875E+0003  -2.78457031250000E+0003  -2.78456665039063E+0003  -2.78455810546875E+0003  -2.78454443359375E+0003  -2.78452563476563E+0003  -2.78450195312500E+0003  -2.78447363281250E+0003  -2.78444140625000E+0003  -2.78440527343750E+0003  -2.78436596679688E+0003  -2.78432348632813E+0003  -2.78427856445313E+0003  -2.78423120117188E+0003  -2.78418212890625E+0003  -2.78413159179688E+0003  -2.78408007812500E+0003  -2.78402783203125E+0003  -2.78397534179688E+0003  -2.78392285156250E+0003  -2.78387084960938E+0003  -2.78381909179688E+0003  -2.78376806640625E+0003  -2.78371728515625E+0003  -2.78366699218750E+0003  -2.78361718750000E+0003  -2.78356787109375E+0003  -2.78351879882813E+0003  -2.78347021484375E+0003  -2.78342187500000E+0003  -2.78337377929688E+0003  -2.78332617187500E+0003  -2.78327905273438E+0003  -2.78323193359375E+0003  -2.78318530273438E+0003  -2.78313867187500E+0003  -2.78309252929688E+0003  -2.78304638671875E+0003  -2.78300048828125E+0003  -2.78295434570313E+0003  -2.78290844726563E+0003  -2.78286230468750E+0003  -2.78281591796875E+0003  -2.78276928710938E+0003  -2.78272216796875E+0003  -2.78267480468750E+0003  -2.78262670898438E+0003  -2.78257836914063E+0003  -2.78252929687500E+0003  -2.78247924804688E+0003  -2.78242871093750E+0003  -2.78237719726563E+0003  -2.78232470703125E+0003  -2.78227172851563E+0003  -2.78221801757813E+0003  -2.78216381835938E+0003  -2.78210913085938E+0003  -2.78205395507813E+0003  -2.78199877929688E+0003  -2.78194335937500E+0003  -2.78188793945313E+0003  -2.78183276367188E+0003  -2.78177758789063E+0003  -2.78172290039063E+0003  -2.78166845703125E+0003  -2.78161450195313E+0003  -2.78156103515625E+0003  -2.78150830078125E+0003  -2.78145678710938E+0003  -2.78140698242188E+0003  -2.78135937500000E+0003  -2.78131420898438E+0003  -2.78127197265625E+0003  -2.78123339843750E+0003  -2.78119873046875E+0003  -2.78116870117188E+0003  -2.78114355468750E+0003  -2.78112377929688E+0003  -2.78111010742188E+0003  -2.78110278320313E+0003  -2.78110229492188E+0003  -2.78110913085938E+0003  -2.78112377929688E+0003  -2.78114648437500E+0003  -2.78117675781250E+0003  -2.78121459960938E+0003  -2.78125952148438E+0003  -2.78131127929688E+0003  -2.78136962890625E+0003  -2.78143383789063E+0003  -2.78150390625000E+0003  -2.78157958984375E+0003  -2.78166040039063E+0003  -2.78174609375000E+0003  -2.78183642578125E+0003  -2.78193090820313E+0003  -2.78202905273438E+0003  -2.78213110351563E+0003  -2.78223632812500E+0003  -2.78234448242188E+0003  -2.78245532226563E+0003  -2.78256884765625E+0003  -2.78268481445313E+0003  -2.78280273437500E+0003  -2.78292260742188E+0003  -2.78304394531250E+0003  -2.78316699218750E+0003  -2.78329101562500E+0003  -2.78341625976563E+0003  -2.78354199218750E+0003  -2.78366845703125E+0003  -2.78379516601563E+0003  -2.78392211914063E+0003  -2.78404882812500E+0003
  -2.78600170898438E+0003  -2.78578393554688E+0003  -2.78557128906250E+0003  -2.78536376953125E+0003  -2.78516162109375E+0003  -2.78496557617188E+0003  -2.78477587890625E+0003  -2.78459277343750E+0003  -2.78441674804688E+0003  -2.78424804687500E+0003  -2.78408715820313E+0003  -2.78393457031250E+0003  -2.78379028320313E+0003  -2.78365502929688E+0003  -2.78352905273438E+0003  -2.78341284179688E+0003  -2.78330639648438E+0003  -2.78321069335938E+0003  -2.78312622070313E+0003  -2.78305297851563E+0003  -2.78299194335938E+0003  -2.78294335937500E+0003  -2.78290771484375E+0003  -2.78288525390625E+0003  -2.78287719726563E+0003  -2.78288403320313E+0003  -2.78290649414063E+0003  -2.78294506835938E+0003  -2.78300048828125E+0003  -2.78307373046875E+0003  -2.78316528320313E+0003  -2.78327416992188E+0003  -2.78339721679688E+0003  -2.78353198242188E+0003  -2.78367504882813E+0003  -2.78382348632813E+0003  -2.78397460937500E+0003  -2.78412500000000E+0003  -2.78427197265625E+0003  -2.78441235351563E+0003  -2.78454370117188E+0003  -2.78466308593750E+0003  -2.78476733398438E+0003  -2.78485424804688E+0003  -2.78492041015625E+0003  -2.78496337890625E+0003  -2.78498071289063E+0003  -2.78497363281250E+0003  -2.78494482421875E+0003  -2.78489721679688E+0003  -2.78483349609375E+0003  -2.78475683593750E+0003  -2.78466967773438E+0003  -2.78457495117188E+0003  -2.78447534179688E+0003  -2.78437377929688E+0003  -2.78427246093750E+0003  -2.78417431640625E+0003  -2.78408178710938E+0003  -2.78399755859375E+0003  -2.78392407226563E+0003  -2.78386401367188E+0003  -2.78381909179688E+0003  -2.78378857421875E+0003  -2.78377099609375E+0003  -2.78376538085938E+0003  -2.78377050781250E+0003  -2.78378515625000E+0003  -2.78380810546875E+0003  -2.78383837890625E+0003  -2.78387426757813E+0003  -2.78391503906250E+0003  -2.78395947265625E+0003  -2.78400634765625E+0003  -2.78405419921875E+0003  -2.78410229492188E+0003  -2.78414892578125E+0003  -2.78419335937500E+0003  -2.78423510742188E+0003  -2.78427368164063E+0003  -2.78430932617188E+0003  -2.78434252929688E+0003  -2.78437280273438E+0003  -2.78440039062500E+0003  -2.78442529296875E+0003  -2.78444775390625E+0003  -2.78446752929688E+0003  -2.78448486328125E+0003  -2.78449975585938E+0003  -2.78451220703125E+0003  -2.78452246093750E+0003  -2.78453027343750E+0003  -2.78453588867188E+0003  -2.78453930664063E+0003  -2.78454077148438E+0003  -2.78454077148438E+0003  -2.78453930664063E+0003  -2.78453686523438E+0003  -2.78453344726563E+0003  -2.78452978515625E+0003  -2.78452587890625E+0003  -2.78452197265625E+0003  -2.78451855468750E+0003  -2.78451586914063E+0003  -2.78451416015625E+0003  -2.78451367187500E+0003  -2.78451489257813E+0003  -2.78451782226563E+0003  -2.78452294921875E+0003  -2.78453027343750E+0003  -2.78453955078125E+0003  -2.78455029296875E+0003  -2.78456176757813E+0003  -2.78457373046875E+0003  -2.78458593750000E+0003  -2.78459741210938E+0003  -2.78460815429688E+0003  -2.78461743164063E+0003  -2.78462475585938E+0003  -2.78462988281250E+0003  -2.78463232421875E+0003  -2.78463134765625E+0003  -2.78462695312500E+0003  -2.78461840820313E+0003  -2.78460498046875E+0003  -2.78458715820313E+0003  -2.78456494140625E+0003  -2.78453881835938E+0003  -2.78450903320313E+0003  -2.78447583007813E+0003  -2.78443969726563E+0003  -2.78440087890625E+0003  -2.78435961914063E+0003  -2.78431640625000E+0003  -2.78427124023438E+0003  -2.78422485351563E+0003  -2.78417724609375E+0003  -2.78412890625000E+0003  -2.78408007812500E+0003  -2.78403125000000E+0003  -2.78398242187500E+0003  -2.78393408203125E+0003  -2.78388574218750E+0003  -2.78383764648438E+0003  -2.78378955078125E+0003  -2.78374194335938E+0003  -2.78369433593750E+0003  -2.78364697265625E+0003  -2.78359985351563E+0003  -2.78355273437500E+0003  -2.78350585937500E+0003  -2.78345922851563E+0003  -2.78341259765625E+0003  -2.78336621093750E+0003  -2.78331982421875E+0003  -2.78327368164063E+0003  -2.78322753906250E+0003  -2.78318164062500E+0003  -2.78313549804688E+0003  -2.78308935546875E+0003  -2.78304321289063E+0003  -2.78299682617188E+0003  -2.78294995117188E+0003  -2.78290307617188E+0003  -2.78285571289063E+0003  -2.78280786132813E+0003  -2.78275976562500E+0003  -2.78271093750000E+0003  -2.78266162109375E+0003  -2.78261157226563E+0003  -2.78256079101563E+0003  -2.78250927734375E+0003  -2.78245703125000E+0003  -2.78240405273438E+0003  -2.78235083007813E+0003  -2.78229687500000E+0003  -2.78224291992188E+0003  -2.78218872070313E+0003  -2.78213427734375E+0003  -2.78208007812500E+0003  -2.78202587890625E+0003  -2.78197192382813E+0003  -2.78191845703125E+0003  -2.78186547851563E+0003  -2.78181298828125E+0003  -2.78176123046875E+0003  -2.78171020507813E+0003  -2.78166015625000E+0003  -2.78161132812500E+0003  -2.78156445312500E+0003  -2.78151977539063E+0003  -2.78147753906250E+0003  -2.78143847656250E+0003  -2.78140283203125E+0003  -2.78137133789063E+0003  -2.78134399414063E+0003  -2.78132128906250E+0003  -2.78130395507813E+0003  -2.78129223632813E+0003  -2.78128686523438E+0003  -2.78128759765625E+0003  -2.78129541015625E+0003  -2.78131079101563E+0003  -2.78133349609375E+0003  -2.78136352539063E+0003  -2.78140063476563E+0003  -2.78144433593750E+0003  -2.78149462890625E+0003  -2.78155078125000E+0003  -2.78161303710938E+0003  -2.78168066406250E+0003  -2.78175341796875E+0003  -2.78183129882813E+0003  -2.78191357421875E+0003  -2.78200048828125E+0003  -2.78209130859375E+0003  -2.78218579101563E+0003  -2.78228369140625E+0003  -2.78238500976563E+0003  -2.78248901367188E+0003  -2.78259570312500E+0003  -2.78270507812500E+0003  -2.78281665039063E+0003  -2.78293017578125E+0003  -2.78304565429688E+0003  -2.78316284179688E+0003  -2.78328125000000E+0003  -2.78340112304688E+0003  -2.78352197265625E+0003  -2.78364355468750E+0003  -2.78376562500000E+0003  -2.78388818359375E+0003  -2.78401098632813E+0003  -2.78413354492188E+0003
  -2.78595361328125E+0003  -2.78573999023438E+0003  -2.78553076171875E+0003  -2.78532666015625E+0003  -2.78512792968750E+0003  -2.78493481445313E+0003  -2.78474804687500E+0003  -2.78456762695313E+0003  -2.78439428710938E+0003  -2.78422802734375E+0003  -2.78406933593750E+0003  -2.78391894531250E+0003  -2.78377685546875E+0003  -2.78364355468750E+0003  -2.78351928710938E+0003  -2.78340478515625E+0003  -2.78330029296875E+0003  -2.78320605468750E+0003  -2.78312255859375E+0003  -2.78305053710938E+0003  -2.78298999023438E+0003  -2.78294140625000E+0003  -2.78290551757813E+0003  -2.78288232421875E+0003  -2.78287280273438E+0003  -2.78287695312500E+0003  -2.78289575195313E+0003  -2.78292944335938E+0003  -2.78297851562500E+0003  -2.78304345703125E+0003  -2.78312500000000E+0003  -2.78322216796875E+0003  -2.78333203125000E+0003  -2.78345263671875E+0003  -2.78358081054688E+0003  -2.78371435546875E+0003  -2.78385034179688E+0003  -2.78398657226563E+0003  -2.78412011718750E+0003  -2.78424877929688E+0003  -2.78436962890625E+0003  -2.78448046875000E+0003  -2.78457861328125E+0003  -2.78466137695313E+0003  -2.78472680664063E+0003  -2.78477172851563E+0003  -2.78479443359375E+0003  -2.78479589843750E+0003  -2.78477832031250E+0003  -2.78474438476563E+0003  -2.78469628906250E+0003  -2.78463647460938E+0003  -2.78456738281250E+0003  -2.78449145507813E+0003  -2.78441113281250E+0003  -2.78432861328125E+0003  -2.78424633789063E+0003  -2.78416650390625E+0003  -2.78409155273438E+0003  -2.78402368164063E+0003  -2.78396508789063E+0003  -2.78391845703125E+0003  -2.78388500976563E+0003  -2.78386401367188E+0003  -2.78385473632813E+0003  -2.78385571289063E+0003  -2.78386596679688E+0003  -2.78388452148438E+0003  -2.78391040039063E+0003  -2.78394238281250E+0003  -2.78397924804688E+0003  -2.78402050781250E+0003  -2.78406469726563E+0003  -2.78411059570313E+0003  -2.78415747070313E+0003  -2.78420434570313E+0003  -2.78424975585938E+0003  -2.78429296875000E+0003  -2.78433325195313E+0003  -2.78437109375000E+0003  -2.78440600585938E+0003  -2.78443823242188E+0003  -2.78446777343750E+0003  -2.78449487304688E+0003  -2.78451953125000E+0003  -2.78454150390625E+0003  -2.78456127929688E+0003  -2.78457861328125E+0003  -2.78459350585938E+0003  -2.78460620117188E+0003  -2.78461669921875E+0003  -2.78462475585938E+0003  -2.78463110351563E+0003  -2.78463500976563E+0003  -2.78463720703125E+0003  -2.78463769531250E+0003  -2.78463696289063E+0003  -2.78463525390625E+0003  -2.78463256835938E+0003  -2.78462939453125E+0003  -2.78462597656250E+0003  -2.78462231445313E+0003  -2.78461914062500E+0003  -2.78461645507813E+0003  -2.78461450195313E+0003  -2.78461352539063E+0003  -2.78461376953125E+0003  -2.78461572265625E+0003  -2.78461938476563E+0003  -2.78462500000000E+0003  -2.78463208007813E+0003  -2.78464038085938E+0003  -2.78464941406250E+0003  -2.78465869140625E+0003  -2.78466821289063E+0003  -2.78467700195313E+0003  -2.78468505859375E+0003  -2.78469189453125E+0003  -2.78469702148438E+0003  -2.78470019531250E+0003  -2.78470092773438E+0003  -2.78469897460938E+0003  -2.78469360351563E+0003  -2.78468457031250E+0003  -2.78467163085938E+0003  -2.78465454101563E+0003  -2.78463378906250E+0003  -2.78460937500000E+0003  -2.78458178710938E+0003  -2.78455126953125E+0003  -2.78451782226563E+0003  -2.78448217773438E+0003  -2.78444433593750E+0003  -2.78440429687500E+0003  -2.78436303710938E+0003  -2.78432006835938E+0003  -2.78427612304688E+0003  -2.78423144531250E+0003  -2.78418603515625E+0003  -2.78414038085938E+0003  -2.78409472656250E+0003  -2.78404882812500E+0003  -2.78400317382813E+0003  -2.78395751953125E+0003  -2.78391162109375E+0003  -2.78386596679688E+0003  -2.78382031250000E+0003  -2.78377441406250E+0003  -2.78372875976563E+0003  -2.78368310546875E+0003  -2.78363720703125E+0003  -2.78359155273438E+0003  -2.78354589843750E+0003  -2.78350000000000E+0003  -2.78345434570313E+0003  -2.78340844726563E+0003  -2.78336279296875E+0003  -2.78331689453125E+0003  -2.78327099609375E+0003  -2.78322509765625E+0003  -2.78317871093750E+0003  -2.78313232421875E+0003  -2.78308544921875E+0003  -2.78303833007813E+0003  -2.78299096679688E+0003  -2.78294311523438E+0003  -2.78289477539063E+0003  -2.78284570312500E+0003  -2.78279638671875E+0003  -2.78274633789063E+0003  -2.78269580078125E+0003  -2.78264453125000E+0003  -2.78259252929688E+0003  -2.78254003906250E+0003  -2.78248706054688E+0003  -2.78243383789063E+0003  -2.78238061523438E+0003  -2.78232714843750E+0003  -2.78227392578125E+0003  -2.78222070312500E+0003  -2.78216772460938E+0003  -2.78211523437500E+0003  -2.78206323242188E+0003  -2.78201196289063E+0003  -2.78196142578125E+0003  -2.78191162109375E+0003  -2.78186303710938E+0003  -2.78181542968750E+0003  -2.78176928710938E+0003  -2.78172509765625E+0003  -2.78168310546875E+0003  -2.78164379882813E+0003  -2.78160742187500E+0003  -2.78157470703125E+0003  -2.78154565429688E+0003  -2.78152075195313E+0003  -2.78150048828125E+0003  -2.78148535156250E+0003  -2.78147558593750E+0003  -2.78147143554688E+0003  -2.78147363281250E+0003  -2.78148217773438E+0003  -2.78149780273438E+0003  -2.78152050781250E+0003  -2.78155004882813E+0003  -2.78158642578125E+0003  -2.78162890625000E+0003  -2.78167749023438E+0003  -2.78173168945313E+0003  -2.78179174804688E+0003  -2.78185668945313E+0003  -2.78192675781250E+0003  -2.78200170898438E+0003  -2.78208081054688E+0003  -2.78216406250000E+0003  -2.78225146484375E+0003  -2.78234204101563E+0003  -2.78243627929688E+0003  -2.78253344726563E+0003  -2.78263354492188E+0003  -2.78273632812500E+0003  -2.78284130859375E+0003  -2.78294873046875E+0003  -2.78305810546875E+0003  -2.78316943359375E+0003  -2.78328222656250E+0003  -2.78339648437500E+0003  -2.78351196289063E+0003  -2.78362841796875E+0003  -2.78374584960938E+0003  -2.78386376953125E+0003  -2.78398217773438E+0003  -2.78410083007813E+0003  -2.78421948242188E+0003
  -2.78591430664063E+0003  -2.78570458984375E+0003  -2.78549926757813E+0003  -2.78529882812500E+0003  -2.78510327148438E+0003  -2.78491357421875E+0003  -2.78472973632813E+0003  -2.78455200195313E+0003  -2.78438134765625E+0003  -2.78421777343750E+0003  -2.78406152343750E+0003  -2.78391333007813E+0003  -2.78377343750000E+0003  -2.78364233398438E+0003  -2.78352026367188E+0003  -2.78340771484375E+0003  -2.78330493164063E+0003  -2.78321264648438E+0003  -2.78313061523438E+0003  -2.78305957031250E+0003  -2.78299975585938E+0003  -2.78295141601563E+0003  -2.78291503906250E+0003  -2.78289086914063E+0003  -2.78287939453125E+0003  -2.78288110351563E+0003  -2.78289599609375E+0003  -2.78292480468750E+0003  -2.78296752929688E+0003  -2.78302490234375E+0003  -2.78309716796875E+0003  -2.78318334960938E+0003  -2.78328125000000E+0003  -2.78338891601563E+0003  -2.78350366210938E+0003  -2.78362353515625E+0003  -2.78374633789063E+0003  -2.78386962890625E+0003  -2.78399096679688E+0003  -2.78410839843750E+0003  -2.78421972656250E+0003  -2.78432250976563E+0003  -2.78441455078125E+0003  -2.78449389648438E+0003  -2.78455786132813E+0003  -2.78460449218750E+0003  -2.78463183593750E+0003  -2.78464086914063E+0003  -2.78463330078125E+0003  -2.78461157226563E+0003  -2.78457763671875E+0003  -2.78453344726563E+0003  -2.78448095703125E+0003  -2.78442260742188E+0003  -2.78436010742188E+0003  -2.78429565429688E+0003  -2.78423120117188E+0003  -2.78416870117188E+0003  -2.78411035156250E+0003  -2.78405834960938E+0003  -2.78401416015625E+0003  -2.78398046875000E+0003  -2.78395800781250E+0003  -2.78394653320313E+0003  -2.78394482421875E+0003  -2.78395214843750E+0003  -2.78396752929688E+0003  -2.78398999023438E+0003  -2.78401855468750E+0003  -2.78405249023438E+0003  -2.78409057617188E+0003  -2.78413183593750E+0003  -2.78417578125000E+0003  -2.78422119140625E+0003  -2.78426708984375E+0003  -2.78431250000000E+0003  -2.78435668945313E+0003  -2.78439868164063E+0003  -2.78443798828125E+0003  -2.78447460937500E+0003  -2.78450854492188E+0003  -2.78454003906250E+0003  -2.78456884765625E+0003  -2.78459545898438E+0003  -2.78461938476563E+0003  -2.78464111328125E+0003  -2.78466040039063E+0003  -2.78467749023438E+0003  -2.78469238281250E+0003  -2.78470507812500E+0003  -2.78471557617188E+0003  -2.78472387695313E+0003  -2.78473046875000E+0003  -2.78473486328125E+0003  -2.78473754882813E+0003  -2.78473852539063E+0003  -2.78473828125000E+0003  -2.78473706054688E+0003  -2.78473486328125E+0003  -2.78473217773438E+0003  -2.78472924804688E+0003  -2.78472583007813E+0003  -2.78472265625000E+0003  -2.78471997070313E+0003  -2.78471752929688E+0003  -2.78471606445313E+0003  -2.78471582031250E+0003  -2.78471655273438E+0003  -2.78471899414063E+0003  -2.78472290039063E+0003  -2.78472802734375E+0003  -2.78473413085938E+0003  -2.78474072265625E+0003  -2.78474780273438E+0003  -2.78475463867188E+0003  -2.78476123046875E+0003  -2.78476684570313E+0003  -2.78477148437500E+0003  -2.78477441406250E+0003  -2.78477587890625E+0003  -2.78477490234375E+0003  -2.78477148437500E+0003  -2.78476538085938E+0003  -2.78475610351563E+0003  -2.78474316406250E+0003  -2.78472680664063E+0003  -2.78470727539063E+0003  -2.78468432617188E+0003  -2.78465869140625E+0003  -2.78463037109375E+0003  -2.78459960937500E+0003  -2.78456665039063E+0003  -2.78453173828125E+0003  -2.78449487304688E+0003  -2.78445678710938E+0003  -2.78441699218750E+0003  -2.78437622070313E+0003  -2.78433471679688E+0003  -2.78429248046875E+0003  -2.78424975585938E+0003  -2.78420678710938E+0003  -2.78416357421875E+0003  -2.78412036132813E+0003  -2.78407690429688E+0003  -2.78403320312500E+0003  -2.78398925781250E+0003  -2.78394531250000E+0003  -2.78390112304688E+0003  -2.78385668945313E+0003  -2.78381225585938E+0003  -2.78376782226563E+0003  -2.78372290039063E+0003  -2.78367822265625E+0003  -2.78363330078125E+0003  -2.78358813476563E+0003  -2.78354296875000E+0003  -2.78349755859375E+0003  -2.78345214843750E+0003  -2.78340649414063E+0003  -2.78336059570313E+0003  -2.78331445312500E+0003  -2.78326806640625E+0003  -2.78322143554688E+0003  -2.78317456054688E+0003  -2.78312695312500E+0003  -2.78307934570313E+0003  -2.78303100585938E+0003  -2.78298217773438E+0003  -2.78293286132813E+0003  -2.78288330078125E+0003  -2.78283276367188E+0003  -2.78278173828125E+0003  -2.78273022460938E+0003  -2.78267846679688E+0003  -2.78262622070313E+0003  -2.78257373046875E+0003  -2.78252124023438E+0003  -2.78246875000000E+0003  -2.78241650390625E+0003  -2.78236450195313E+0003  -2.78231274414063E+0003  -2.78226171875000E+0003  -2.78221142578125E+0003  -2.78216186523438E+0003  -2.78211303710938E+0003  -2.78206542968750E+0003  -2.78201879882813E+0003  -2.78197338867188E+0003  -2.78192968750000E+0003  -2.78188818359375E+0003  -2.78184863281250E+0003  -2.78181201171875E+0003  -2.78177807617188E+0003  -2.78174780273438E+0003  -2.78172119140625E+0003  -2.78169848632813E+0003  -2.78168041992188E+0003  -2.78166699218750E+0003  -2.78165893554688E+0003  -2.78165600585938E+0003  -2.78165917968750E+0003  -2.78166845703125E+0003  -2.78168432617188E+0003  -2.78170703125000E+0003  -2.78173583984375E+0003  -2.78177124023438E+0003  -2.78181250000000E+0003  -2.78185937500000E+0003  -2.78191186523438E+0003  -2.78196948242188E+0003  -2.78203198242188E+0003  -2.78209936523438E+0003  -2.78217114257813E+0003  -2.78224707031250E+0003  -2.78232714843750E+0003  -2.78241088867188E+0003  -2.78249804687500E+0003  -2.78258837890625E+0003  -2.78268164062500E+0003  -2.78277783203125E+0003  -2.78287646484375E+0003  -2.78297753906250E+0003  -2.78308081054688E+0003  -2.78318603515625E+0003  -2.78329321289063E+0003  -2.78340185546875E+0003  -2.78351196289063E+0003  -2.78362329101563E+0003  -2.78373559570313E+0003  -2.78384887695313E+0003  -2.78396264648438E+0003  -2.78407714843750E+0003  -2.78419165039063E+0003  -2.78430639648438E+0003
  -2.78588354492188E+0003  -2.78567822265625E+0003  -2.78547680664063E+0003  -2.78528002929688E+0003  -2.78508813476563E+0003  -2.78490161132813E+0003  -2.78472094726563E+0003  -2.78454638671875E+0003  -2.78437841796875E+0003  -2.78421752929688E+0003  -2.78406420898438E+0003  -2.78391845703125E+0003  -2.78378100585938E+0003  -2.78365209960938E+0003  -2.78353247070313E+0003  -2.78342211914063E+0003  -2.78332153320313E+0003  -2.78323095703125E+0003  -2.78315039062500E+0003  -2.78308056640625E+0003  -2.78302148437500E+0003  -2.78297363281250E+0003  -2.78293676757813E+0003  -2.78291162109375E+0003  -2.78289843750000E+0003  -2.78289746093750E+0003  -2.78290869140625E+0003  -2.78293261718750E+0003  -2.78296972656250E+0003  -2.78301977539063E+0003  -2.78308349609375E+0003  -2.78315966796875E+0003  -2.78324682617188E+0003  -2.78334277343750E+0003  -2.78344555664063E+0003  -2.78355322265625E+0003  -2.78366381835938E+0003  -2.78377539062500E+0003  -2.78388574218750E+0003  -2.78399316406250E+0003  -2.78409545898438E+0003  -2.78419091796875E+0003  -2.78427734375000E+0003  -2.78435302734375E+0003  -2.78441552734375E+0003  -2.78446337890625E+0003  -2.78449487304688E+0003  -2.78451025390625E+0003  -2.78451171875000E+0003  -2.78450097656250E+0003  -2.78447973632813E+0003  -2.78444946289063E+0003  -2.78441235351563E+0003  -2.78436987304688E+0003  -2.78432373046875E+0003  -2.78427587890625E+0003  -2.78422802734375E+0003  -2.78418188476563E+0003  -2.78413940429688E+0003  -2.78410180664063E+0003  -2.78407128906250E+0003  -2.78404956054688E+0003  -2.78403759765625E+0003  -2.78403491210938E+0003  -2.78404052734375E+0003  -2.78405395507813E+0003  -2.78407397460938E+0003  -2.78410009765625E+0003  -2.78413134765625E+0003  -2.78416674804688E+0003  -2.78420581054688E+0003  -2.78424780273438E+0003  -2.78429125976563E+0003  -2.78433593750000E+0003  -2.78438085937500E+0003  -2.78442529296875E+0003  -2.78446826171875E+0003  -2.78450878906250E+0003  -2.78454687500000E+0003  -2.78458251953125E+0003  -2.78461547851563E+0003  -2.78464599609375E+0003  -2.78467407226563E+0003  -2.78469995117188E+0003  -2.78472338867188E+0003  -2.78474438476563E+0003  -2.78476342773438E+0003  -2.78478027343750E+0003  -2.78479467773438E+0003  -2.78480737304688E+0003  -2.78481787109375E+0003  -2.78482641601563E+0003  -2.78483276367188E+0003  -2.78483764648438E+0003  -2.78484057617188E+0003  -2.78484204101563E+0003  -2.78484228515625E+0003  -2.78484130859375E+0003  -2.78483959960938E+0003  -2.78483740234375E+0003  -2.78483447265625E+0003  -2.78483129882813E+0003  -2.78482836914063E+0003  -2.78482543945313E+0003  -2.78482275390625E+0003  -2.78482080078125E+0003  -2.78481958007813E+0003  -2.78481958007813E+0003  -2.78482055664063E+0003  -2.78482299804688E+0003  -2.78482641601563E+0003  -2.78483056640625E+0003  -2.78483520507813E+0003  -2.78483984375000E+0003  -2.78484448242188E+0003  -2.78484887695313E+0003  -2.78485229492188E+0003  -2.78485473632813E+0003  -2.78485595703125E+0003  -2.78485546875000E+0003  -2.78485327148438E+0003  -2.78484887695313E+0003  -2.78484179687500E+0003  -2.78483227539063E+0003  -2.78481933593750E+0003  -2.78480371093750E+0003  -2.78478491210938E+0003  -2.78476342773438E+0003  -2.78473950195313E+0003  -2.78471313476563E+0003  -2.78468457031250E+0003  -2.78465405273438E+0003  -2.78462158203125E+0003  -2.78458764648438E+0003  -2.78455200195313E+0003  -2.78451538085938E+0003  -2.78447753906250E+0003  -2.78443872070313E+0003  -2.78439916992188E+0003  -2.78435913085938E+0003  -2.78431884765625E+0003  -2.78427807617188E+0003  -2.78423681640625E+0003  -2.78419531250000E+0003  -2.78415356445313E+0003  -2.78411157226563E+0003  -2.78406909179688E+0003  -2.78402661132813E+0003  -2.78398364257813E+0003  -2.78394042968750E+0003  -2.78389697265625E+0003  -2.78385327148438E+0003  -2.78380932617188E+0003  -2.78376513671875E+0003  -2.78372094726563E+0003  -2.78367626953125E+0003  -2.78363159179688E+0003  -2.78358642578125E+0003  -2.78354125976563E+0003  -2.78349584960938E+0003  -2.78344995117188E+0003  -2.78340380859375E+0003  -2.78335742187500E+0003  -2.78331079101563E+0003  -2.78326342773438E+0003  -2.78321582031250E+0003  -2.78316796875000E+0003  -2.78311938476563E+0003  -2.78307055664063E+0003  -2.78302124023438E+0003  -2.78297119140625E+0003  -2.78292065429688E+0003  -2.78286987304688E+0003  -2.78281860351563E+0003  -2.78276708984375E+0003  -2.78271533203125E+0003  -2.78266381835938E+0003  -2.78261230468750E+0003  -2.78256103515625E+0003  -2.78251025390625E+0003  -2.78246020507813E+0003  -2.78241040039063E+0003  -2.78236157226563E+0003  -2.78231372070313E+0003  -2.78226684570313E+0003  -2.78222094726563E+0003  -2.78217651367188E+0003  -2.78213330078125E+0003  -2.78209179687500E+0003  -2.78205249023438E+0003  -2.78201538085938E+0003  -2.78198095703125E+0003  -2.78194970703125E+0003  -2.78192138671875E+0003  -2.78189697265625E+0003  -2.78187646484375E+0003  -2.78186010742188E+0003  -2.78184838867188E+0003  -2.78184155273438E+0003  -2.78184008789063E+0003  -2.78184399414063E+0003  -2.78185375976563E+0003  -2.78186962890625E+0003  -2.78189184570313E+0003  -2.78192016601563E+0003  -2.78195458984375E+0003  -2.78199438476563E+0003  -2.78203979492188E+0003  -2.78209008789063E+0003  -2.78214550781250E+0003  -2.78220581054688E+0003  -2.78227026367188E+0003  -2.78233911132813E+0003  -2.78241210937500E+0003  -2.78248876953125E+0003  -2.78256909179688E+0003  -2.78265283203125E+0003  -2.78273950195313E+0003  -2.78282910156250E+0003  -2.78292138671875E+0003  -2.78301611328125E+0003  -2.78311328125000E+0003  -2.78321240234375E+0003  -2.78331372070313E+0003  -2.78341674804688E+0003  -2.78352124023438E+0003  -2.78362719726563E+0003  -2.78373461914063E+0003  -2.78384277343750E+0003  -2.78395190429688E+0003  -2.78406176757813E+0003  -2.78417236328125E+0003  -2.78428295898438E+0003  -2.78439404296875E+0003
  -2.78586181640625E+0003  -2.78566064453125E+0003  -2.78546337890625E+0003  -2.78527050781250E+0003  -2.78508251953125E+0003  -2.78489965820313E+0003  -2.78472216796875E+0003  -2.78455102539063E+0003  -2.78438623046875E+0003  -2.78422827148438E+0003  -2.78407763671875E+0003  -2.78393457031250E+0003  -2.78379980468750E+0003  -2.78367358398438E+0003  -2.78355639648438E+0003  -2.78344848632813E+0003  -2.78335009765625E+0003  -2.78326147460938E+0003  -2.78318286132813E+0003  -2.78311425781250E+0003  -2.78305615234375E+0003  -2.78300854492188E+0003  -2.78297167968750E+0003  -2.78294555664063E+0003  -2.78293066406250E+0003  -2.78292724609375E+0003  -2.78293530273438E+0003  -2.78295483398438E+0003  -2.78298632812500E+0003  -2.78303002929688E+0003  -2.78308593750000E+0003  -2.78315332031250E+0003  -2.78323071289063E+0003  -2.78331616210938E+0003  -2.78340820312500E+0003  -2.78350488281250E+0003  -2.78360449218750E+0003  -2.78370532226563E+0003  -2.78380566406250E+0003  -2.78390380859375E+0003  -2.78399804687500E+0003  -2.78408666992188E+0003  -2.78416796875000E+0003  -2.78424023437500E+0003  -2.78430151367188E+0003  -2.78435009765625E+0003  -2.78438500976563E+0003  -2.78440625000000E+0003  -2.78441552734375E+0003  -2.78441455078125E+0003  -2.78440429687500E+0003  -2.78438671875000E+0003  -2.78436303710938E+0003  -2.78433496093750E+0003  -2.78430395507813E+0003  -2.78427124023438E+0003  -2.78423852539063E+0003  -2.78420703125000E+0003  -2.78417871093750E+0003  -2.78415454101563E+0003  -2.78413647460938E+0003  -2.78412548828125E+0003  -2.78412304687500E+0003  -2.78412841796875E+0003  -2.78414086914063E+0003  -2.78415942382813E+0003  -2.78418383789063E+0003  -2.78421337890625E+0003  -2.78424682617188E+0003  -2.78428393554688E+0003  -2.78432397460938E+0003  -2.78436572265625E+0003  -2.78440917968750E+0003  -2.78445312500000E+0003  -2.78449707031250E+0003  -2.78454028320313E+0003  -2.78458203125000E+0003  -2.78462133789063E+0003  -2.78465844726563E+0003  -2.78469287109375E+0003  -2.78472485351563E+0003  -2.78475463867188E+0003  -2.78478198242188E+0003  -2.78480688476563E+0003  -2.78482958984375E+0003  -2.78485034179688E+0003  -2.78486865234375E+0003  -2.78488500976563E+0003  -2.78489941406250E+0003  -2.78491162109375E+0003  -2.78492211914063E+0003  -2.78493041992188E+0003  -2.78493725585938E+0003  -2.78494189453125E+0003  -2.78494531250000E+0003  -2.78494702148438E+0003  -2.78494750976563E+0003  -2.78494702148438E+0003  -2.78494555664063E+0003  -2.78494360351563E+0003  -2.78494091796875E+0003  -2.78493798828125E+0003  -2.78493481445313E+0003  -2.78493188476563E+0003  -2.78492895507813E+0003  -2.78492651367188E+0003  -2.78492480468750E+0003  -2.78492382812500E+0003  -2.78492358398438E+0003  -2.78492456054688E+0003  -2.78492651367188E+0003  -2.78492895507813E+0003  -2.78493164062500E+0003  -2.78493432617188E+0003  -2.78493701171875E+0003  -2.78493920898438E+0003  -2.78494067382813E+0003  -2.78494140625000E+0003  -2.78494067382813E+0003  -2.78493872070313E+0003  -2.78493530273438E+0003  -2.78492968750000E+0003  -2.78492211914063E+0003  -2.78491186523438E+0003  -2.78489916992188E+0003  -2.78488378906250E+0003  -2.78486596679688E+0003  -2.78484570312500E+0003  -2.78482324218750E+0003  -2.78479858398438E+0003  -2.78477197265625E+0003  -2.78474340820313E+0003  -2.78471337890625E+0003  -2.78468188476563E+0003  -2.78464892578125E+0003  -2.78461474609375E+0003  -2.78457934570313E+0003  -2.78454321289063E+0003  -2.78450610351563E+0003  -2.78446850585938E+0003  -2.78443041992188E+0003  -2.78439160156250E+0003  -2.78435253906250E+0003  -2.78431298828125E+0003  -2.78427294921875E+0003  -2.78423266601563E+0003  -2.78419165039063E+0003  -2.78415063476563E+0003  -2.78410888671875E+0003  -2.78406689453125E+0003  -2.78402465820313E+0003  -2.78398193359375E+0003  -2.78393896484375E+0003  -2.78389575195313E+0003  -2.78385205078125E+0003  -2.78380834960938E+0003  -2.78376416015625E+0003  -2.78371972656250E+0003  -2.78367504882813E+0003  -2.78362988281250E+0003  -2.78358471679688E+0003  -2.78353881835938E+0003  -2.78349291992188E+0003  -2.78344653320313E+0003  -2.78339965820313E+0003  -2.78335253906250E+0003  -2.78330493164063E+0003  -2.78325683593750E+0003  -2.78320825195313E+0003  -2.78315942382813E+0003  -2.78311010742188E+0003  -2.78306030273438E+0003  -2.78301000976563E+0003  -2.78295947265625E+0003  -2.78290869140625E+0003  -2.78285815429688E+0003  -2.78280737304688E+0003  -2.78275708007813E+0003  -2.78270703125000E+0003  -2.78265747070313E+0003  -2.78260864257813E+0003  -2.78256054687500E+0003  -2.78251318359375E+0003  -2.78246679687500E+0003  -2.78242163085938E+0003  -2.78237768554688E+0003  -2.78233496093750E+0003  -2.78229394531250E+0003  -2.78225463867188E+0003  -2.78221752929688E+0003  -2.78218261718750E+0003  -2.78215039062500E+0003  -2.78212109375000E+0003  -2.78209497070313E+0003  -2.78207226562500E+0003  -2.78205371093750E+0003  -2.78203906250000E+0003  -2.78202856445313E+0003  -2.78202294921875E+0003  -2.78202246093750E+0003  -2.78202685546875E+0003  -2.78203710937500E+0003  -2.78205297851563E+0003  -2.78207495117188E+0003  -2.78210253906250E+0003  -2.78213574218750E+0003  -2.78217431640625E+0003  -2.78221801757813E+0003  -2.78226635742188E+0003  -2.78231958007813E+0003  -2.78237744140625E+0003  -2.78243945312500E+0003  -2.78250537109375E+0003  -2.78257543945313E+0003  -2.78264892578125E+0003  -2.78272583007813E+0003  -2.78280590820313E+0003  -2.78288916015625E+0003  -2.78297509765625E+0003  -2.78306372070313E+0003  -2.78315478515625E+0003  -2.78324804687500E+0003  -2.78334326171875E+0003  -2.78344067382813E+0003  -2.78353955078125E+0003  -2.78364013671875E+0003  -2.78374218750000E+0003  -2.78384545898438E+0003  -2.78394995117188E+0003  -2.78405517578125E+0003  -2.78416113281250E+0003  -2.78426757812500E+0003  -2.78437451171875E+0003  -2.78448168945313E+0003
